P3
400 225
255
230 202 196
231 202 196
231 202 196
231 202 197
231 202 197
231 202 197
231 202 197
231 202 197
232 202 197
231 202 197
232 202 197
231 202 197
231 202 197
231 202 197
231 202 197
231 202 197
232 202 197
232 202 197
232 202 198
232 202 198
232 202 198
232 202 198
232 202 198
232 202 198
232 202 198
232 202 198
232 202 198
232 202 198
231 202 197
231 202 197
231 202 197
231 201 197
231 201 197
231 201 197
231 201 197
231 201 197
231 202 197
231 202 197
232 202 198
232 202 198
232 202 198
232 203 198
232 202 198
232 202 198
232 203 198
232 203 198
232 203 198
232 202 198
232 203 198
232 202 198
231 202 198
231 202 198
231 202 197
230 201 197
230 201 196
230 201 196
230 200 196
230 200 196
229 200 196
229 200 195
229 200 195
229 200 195
229 200 195
229 200 194
229 200 194
229 200 194
229 200 194
229 200 194
229 200 193
229 200 194
229 200 193
229 200 193
229 200 193
229 200 193
229 200 193
229 200 193
229 200 193
229 200 194
229 199 194
229 199 194
229 199 194
229 199 194
229 199 194
229 199 194
230 199 194
229 199 194
229 199 194
230 199 195
230 199 195
230 199 195
230 199 195
230 199 195
231 199 195
231 199 194
231 199 194
231 200 193
231 200 193
231 200 192
231 201 192
231 201 192
231 201 192
231 201 192
230 201 192
231 201 192
230 201 192
230 201 191
231 201 191
231 201 191
231 201 191
230 201 191
230 201 190
230 201 190
230 201 190
230 201 190
230 201 190
230 201 189
230 201 189
231 201 190
231 201 190
231 201 190
231 201 191
232 201 191
232 201 191
232 201 192
233 201 192
233 201 193
233 201 193
234 201 193
234 201 194
234 201 194
235 201 194
235 201 194
235 201 194
235 201 194
235 201 194
235 202 194
235 202 193
235 203 192
235 203 191
235 204 190
234 204 189
234 204 189
234 204 189
235 204 189
235 204 190
235 204 190
235 204 190
235 204 191
235 204 192
235 204 192
235 204 192
235 204 193
235 204 193
235 204 193
234 203 193
235 204 193
234 203 193
234 203 193
234 203 193
234 203 193
234 203 193
234 203 193
234 203 193
234 203 193
234 203 193
234 203 193
234 203 193
234 202 193
233 202 193
233 202 192
233 202 192
233 202 192
233 202 191
233 202 191
233 202 191
233 202 191
233 202 191
233 202 191
233 202 192
233 201 192
232 201 193
232 201 193
232 201 194
232 201 195
232 201 195
232 201 195
232 201 194
232 201 194
232 201 194
232 201 194
232 201 194
232 201 194
232 201 194
232 201 194
231 201 194
231 201 194
232 200 194
232 200 195
232 200 195
231 201 195
231 201 195
231 201 194
231 201 194
231 201 194
231 201 194
231 201 194
231 201 193
231 201 193
231 202 193
231 202 193
231 202 193
231 202 193
231 202 194
231 202 194
231 202 194
231 202 194
231 202 194
231 202 194
231 202 194
231 202 194
231 202 194
231 202 194
231 202 194
231 202 194
231 202 193
231 202 193
231 202 193
231 202 194
231 202 194
231 202 194
231 202 194
231 202 194
231 202 194
231 202 194
231 202 194
231 202 194
231 202 194
231 202 195
231 202 195
231 202 195
231 202 195
232 202 195
232 202 195
232 202 195
232 202 195
232 202 195
232 202 195
232 202 195
232 203 195
231 203 194
231 203 194
231 203 194
231 203 194
231 203 193
231 203 193
231 203 192
231 203 192
231 203 192
231 203 192
231 204 191
231 204 191
231 204 191
232 204 191
232 204 192
232 204 194
232 203 195
232 203 196
232 203 197
233 203 197
233 203 197
233 203 197
233 203 197
233 203 196
233 203 196
233 203 196
233 203 196
233 204 197
233 204 197
233 204 197
233 204 197
233 204 197
233 204 197
233 204 197
233 204 197
233 204 197
233 204 197
233 204 197
233 204 197
233 204 197
233 204 197
233 204 197
233 204 197
233 204 197
233 204 197
233 204 198
233 204 198
233 204 198
233 204 198
233 204 198
233 204 199
233 204 199
233 204 199
233 204 199
233 204 199
233 204 199
233 204 199
233 204 199
233 204 198
233 204 197
233 204 197
233 204 195
233 204 195
233 204 195
233 204 195
233 204 195
233 204 195
233 204 195
233 204 195
233 204 195
233 204 195
233 204 195
233 204 195
233 204 196
233 204 196
233 204 196
233 204 196
233 204 196
233 204 196
233 204 196
233 204 196
233 204 196
233 203 196
233 203 196
233 204 196
233 204 196
233 204 196
233 204 196
233 204 195
233 204 195
233 204 195
233 204 195
233 204 195
233 204 195
233 204 195
233 204 195
233 204 195
233 204 195
233 204 195
233 204 195
233 204 195
233 204 195
234 204 195
234 204 196
234 204 196
234 204 196
234 204 196
235 204 196
235 204 196
235 204 196
235 204 196
235 204 196
235 204 196
235 204 196
235 204 196
235 204 196
235 204 196
235 204 196
235 204 196
235 204 196
235 204 196
235 205 196
235 205 196
235 205 196
235 205 196
235 205 196
235 205 196
235 205 196
235 205 196
235 205 196
235 205 196
235 205 197
235 205 197
235 205 197
235 205 198
235 205 197
235 205 197
235 205 198
235 204 198
235 204 198
235 204 198
235 204 199
235 204 199
235 204 199
235 204 199
235 204 199
235 204 199
235 204 199
235 204 199
235 204 198
235 205 198
230 202 197
230 202 197
231 202 197
231 202 197
231 202 197
231 202 197
232 202 197
232 202 197
232 202 197
232 202 197
232 202 197
232 202 197
232 202 197
232 202 197
231 202 197
231 202 197
231 202 197
231 202 197
231 202 197
231 202 197
231 202 197
232 202 198
232 202 198
232 202 198
232 202 198
232 202 198
232 202 197
231 202 197
231 202 197
231 201 197
231 201 197
231 201 197
231 201 197
231 201 197
231 201 197
231 201 197
231 201 197
231 201 197
231 202 198
232 202 198
232 202 198
232 202 198
232 202 198
232 202 198
232 202 198
232 202 198
232 202 198
232 202 198
232 202 198
232 202 198
231 202 198
231 202 197
230 201 197
230 201 196
230 201 196
229 200 196
229 200 196
229 200 196
229 200 196
229 200 195
229 200 195
229 200 195
229 200 194
229 200 194
229 200 194
229 200 193
229 200 193
229 200 193
229 200 193
229 200 193
229 200 193
229 200 193
229 200 193
229 200 193
229 200 193
229 200 193
229 200 193
229 199 193
229 199 193
229 199 194
229 199 194
229 199 194
229 199 194
229 199 194
230 199 194
230 199 194
230 199 194
230 199 194
230 199 195
230 199 194
230 199 195
230 199 195
230 199 194
231 199 194
231 199 194
231 200 193
231 200 193
231 200 192
231 201 192
231 201 192
231 201 192
231 201 192
231 201 192
231 201 192
231 201 192
231 201 192
231 201 191
231 201 191
231 201 191
231 201 190
231 201 190
231 201 190
231 201 190
231 201 189
230 201 189
231 201 189
231 201 189
231 201 190
231 201 190
232 202 190
232 202 190
232 202 191
232 202 191
233 202 192
233 202 192
233 202 192
234 202 193
234 202 193
234 201 193
235 201 194
235 201 194
235 201 194
235 201 194
235 201 194
235 201 194
235 201 194
235 202 193
234 202 192
234 203 190
234 203 190
234 204 190
234 204 189
234 204 189
234 204 190
234 204 190
235 204 190
235 204 191
235 204 192
235 204 192
235 204 193
235 204 193
234 204 193
234 204 193
234 204 193
234 203 193
234 203 193
234 203 193
234 203 193
234 203 193
234 203 193
233 203 193
233 202 193
233 202 193
233 202 193
233 202 193
233 202 193
233 202 193
233 202 193
233 202 193
233 202 192
233 202 192
233 202 192
233 202 192
233 202 192
233 202 192
233 202 192
232 202 191
232 202 192
232 201 192
232 201 192
232 201 193
232 201 194
232 201 194
232 201 194
232 201 194
231 201 194
231 201 194
231 201 194
231 201 194
231 201 194
231 201 194
231 201 194
231 201 194
231 201 194
231 201 194
231 201 194
231 200 194
231 200 195
231 200 195
231 200 195
231 200 195
231 201 194
231 201 194
231 201 194
231 201 194
231 201 194
231 201 194
231 201 193
231 201 194
231 202 193
231 202 193
231 202 194
231 202 194
231 202 194
231 202 194
231 202 194
231 202 194
231 202 194
231 202 194
231 202 194
231 202 194
231 202 194
231 202 194
231 202 193
231 202 193
232 202 193
232 202 193
232 202 194
232 202 194
232 202 194
232 202 194
232 202 194
232 202 194
232 202 194
232 202 194
232 202 194
232 202 194
232 202 194
232 202 194
232 202 194
232 202 195
232 202 195
232 202 195
232 202 195
232 202 195
232 202 195
232 202 195
232 202 195
232 202 195
232 203 194
232 203 194
232 203 194
232 203 194
231 203 193
231 203 193
231 203 192
231 203 192
231 203 192
231 203 191
231 203 191
231 204 191
232 204 191
232 204 191
232 204 192
232 204 193
232 203 195
232 203 196
232 203 197
232 203 197
233 203 197
233 203 197
233 203 197
233 203 196
233 203 196
233 203 196
233 203 196
233 204 196
233 204 197
233 204 197
233 204 197
233 204 196
233 204 196
233 204 196
233 204 196
233 204 196
233 204 196
233 204 196
233 204 196
233 204 196
233 204 196
233 204 196
233 204 197
233 204 197
233 204 197
233 204 197
233 204 198
233 204 197
233 204 198
233 204 198
233 204 198
233 204 198
233 204 199
233 204 199
233 204 199
233 204 199
233 204 199
233 204 198
233 204 198
233 204 197
233 204 196
233 204 195
233 204 195
233 204 195
233 204 195
233 204 195
233 204 195
233 204 195
233 204 195
233 204 195
233 204 195
233 204 195
233 204 195
233 204 195
233 204 196
233 204 196
233 204 196
233 204 196
233 204 196
233 204 196
233 204 196
233 204 196
233 204 196
233 204 196
233 204 196
233 204 196
233 204 196
233 204 195
233 204 195
233 204 195
233 204 195
233 204 195
233 204 195
233 204 195
233 204 195
233 204 195
233 204 195
233 204 195
233 204 195
233 204 195
233 204 195
233 204 195
234 204 195
234 204 196
234 204 196
234 204 196
234 204 196
235 204 196
235 204 196
235 204 196
235 204 196
235 204 196
235 204 196
235 204 196
235 204 196
235 204 196
235 204 196
235 204 196
235 204 196
235 205 196
235 205 196
235 205 196
235 205 196
235 205 196
235 205 196
235 205 196
235 205 196
235 205 196
235 205 196
235 205 196
235 205 196
235 205 196
235 205 197
235 205 197
235 205 197
235 205 197
235 205 197
235 205 197
235 205 197
235 205 198
235 204 198
235 204 198
235 204 198
235 204 199
235 204 199
235 204 199
235 204 199
235 204 199
235 204 198
235 204 198
235 204 198
230 202 197
230 202 196
231 202 197
231 202 197
231 202 197
232 202 197
232 202 198
232 202 198
232 202 198
232 202 197
232 202 197
232 202 197
232 202 197
232 202 197
232 202 197
231 202 197
231 202 197
231 202 197
231 202 197
231 202 197
231 202 197
231 202 197
232 202 197
232 202 197
232 202 197
231 202 197
231 202 197
231 202 197
231 202 197
231 201 197
231 201 197
231 201 196
231 201 196
230 201 196
230 201 196
231 201 197
231 201 197
231 201 197
231 201 197
231 201 197
231 201 198
232 202 198
232 202 198
232 202 198
232 202 198
232 202 198
232 202 198
232 202 198
232 202 198
231 202 198
231 201 197
231 201 197
230 201 197
230 200 196
229 200 196
229 200 196
229 200 195
229 200 195
229 200 195
229 200 195
229 200 195
229 200 195
229 200 194
229 200 194
229 200 194
229 200 193
229 200 193
228 200 193
229 200 193
228 200 193
229 200 193
229 200 193
229 200 192
229 199 192
229 200 193
229 199 193
229 199 193
229 199 193
229 199 193
229 199 193
229 199 193
229 199 193
229 199 194
230 199 194
230 199 194
230 199 194
230 199 194
230 199 194
230 199 194
230 199 194
230 199 194
230 199 194
230 199 194
231 199 194
231 199 193
231 200 193
231 200 193
231 201 192
231 201 192
232 201 192
232 201 192
231 201 192
231 201 192
231 202 192
231 201 192
231 202 191
231 202 191
231 202 191
231 202 191
231 202 190
231 202 190
231 202 189
231 202 189
231 202 189
231 202 189
231 202 189
231 202 189
232 202 189
232 202 189
232 202 190
232 202 190
233 202 191
233 202 191
233 202 191
233 202 192
234 202 192
234 202 192
234 202 192
234 202 192
234 201 193
235 201 193
235 201 193
235 201 193
234 201 193
234 201 194
234 201 193
234 202 192
234 202 192
234 203 191
234 203 190
234 203 190
234 204 190
234 204 190
234 204 190
234 204 191
234 204 191
234 204 192
234 204 192
234 204 193
234 204 193
234 204 193
234 203 193
234 203 193
234 203 193
234 203 193
234 203 193
234 203 194
234 203 193
233 202 193
233 202 193
233 202 193
233 202 193
233 202 193
233 202 193
233 202 193
233 202 193
233 202 193
233 202 193
232 202 192
232 201 192
232 202 192
232 202 192
232 202 192
232 202 192
232 202 192
232 202 192
232 202 192
232 202 192
232 202 192
231 201 193
231 201 193
231 201 194
231 201 194
231 201 194
231 201 194
231 201 194
231 201 194
231 201 194
231 201 194
231 201 194
231 201 194
231 201 194
231 201 194
231 201 194
231 200 194
231 200 194
231 200 194
231 200 195
231 200 195
231 200 195
231 200 195
231 200 194
231 201 194
231 201 194
231 201 194
231 201 194
231 201 194
231 201 194
231 201 194
231 202 193
231 202 193
231 202 194
231 202 194
231 202 194
231 202 194
231 202 194
231 202 194
231 202 194
231 202 194
231 202 194
231 202 194
231 202 193
231 202 193
232 202 193
232 202 193
232 202 193
232 202 193
232 202 193
232 202 193
232 202 193
232 202 194
232 202 194
232 202 194
232 202 194
232 202 194
232 202 194
232 202 194
232 202 194
232 202 194
232 202 194
232 202 194
232 202 195
232 202 195
232 202 195
232 202 195
232 202 195
232 202 195
232 202 195
232 202 195
232 203 194
232 203 194
232 203 194
232 203 194
232 203 193
231 203 193
231 203 192
231 203 192
231 203 192
231 203 191
232 203 191
232 203 191
232 204 191
232 204 191
232 204 192
232 204 193
232 204 194
232 203 196
232 203 196
232 203 197
232 203 197
233 203 197
232 203 197
233 203 196
233 203 196
233 203 196
233 203 196
233 203 196
233 204 196
233 204 196
233 204 196
233 204 196
233 204 196
233 204 196
233 204 196
233 204 196
233 204 196
233 204 196
233 204 196
233 204 196
233 204 196
233 204 196
233 204 196
233 204 196
233 204 196
233 204 196
233 204 197
233 204 197
233 204 197
233 204 197
233 204 198
233 204 198
233 204 198
233 204 198
233 204 198
233 204 198
233 204 198
233 204 198
233 204 197
233 204 197
233 204 196
233 204 195
233 204 195
233 204 195
233 204 195
233 204 195
233 204 195
233 204 195
233 204 195
233 204 195
233 204 195
233 204 195
233 204 195
233 204 195
233 204 195
233 204 195
233 204 196
233 204 196
233 204 196
233 204 196
233 204 196
233 204 196
233 204 196
233 204 196
233 204 196
234 204 195
233 204 196
233 204 195
233 204 195
234 204 195
234 204 195
234 204 195
234 204 195
233 204 195
234 204 195
233 204 195
233 204 195
234 204 195
233 204 195
234 204 195
234 204 195
234 204 195
234 204 195
234 204 196
234 204 196
234 204 196
234 204 196
234 204 196
235 204 196
235 204 196
235 204 196
235 204 196
235 204 196
235 204 196
235 204 196
235 204 196
235 204 196
235 205 196
235 205 196
235 205 196
235 205 196
235 205 195
235 205 195
235 205 195
235 205 195
235 205 195
235 205 195
235 205 195
235 205 195
235 205 195
235 205 196
235 205 196
235 205 196
235 205 196
235 205 197
235 205 197
235 205 197
235 205 197
235 205 197
235 205 197
235 205 198
235 204 198
235 204 198
235 204 198
235 204 199
235 204 199
235 204 199
235 204 199
235 204 198
235 204 198
235 204 198
230 202 196
231 202 197
231 202 196
231 202 197
232 202 197
232 202 197
232 202 197
232 202 198
232 202 198
232 202 198
232 202 197
232 202 198
232 202 198
232 202 198
232 202 197
231 202 197
231 202 197
231 202 197
231 202 197
231 202 197
231 202 197
231 202 197
231 202 197
231 202 197
231 202 197
231 202 197
231 202 197
231 202 197
231 201 197
231 201 197
231 201 196
231 201 196
230 201 196
230 200 196
230 200 196
230 200 197
231 201 197
231 200 197
231 201 197
231 201 197
231 201 197
231 201 198
231 201 198
231 201 198
231 201 198
231 201 198
232 202 198
232 202 198
231 201 198
231 201 198
231 201 197
230 201 197
230 200 196
229 200 196
229 200 196
229 200 196
229 200 195
229 199 195
229 200 195
229 200 195
229 200 195
229 200 194
229 200 194
229 200 194
229 200 193
229 200 193
228 200 193
228 200 193
228 200 192
228 200 192
228 200 192
228 199 192
229 199 192
229 199 192
229 199 192
229 199 192
229 199 192
229 199 192
229 199 193
229 199 192
229 199 193
229 199 193
229 199 193
230 199 193
230 199 194
230 199 194
230 199 194
230 199 194
230 199 194
230 199 194
230 199 194
230 199 194
231 199 194
231 199 193
231 200 193
231 200 193
231 200 192
231 201 192
232 201 192
231 201 192
232 201 192
232 201 192
232 201 192
232 202 192
232 202 192
232 202 191
232 202 191
232 202 191
232 202 190
232 202 190
232 202 190
232 202 189
232 202 189
232 202 189
232 202 189
232 202 189
232 202 189
232 202 189
232 202 189
233 202 190
233 202 190
233 202 190
233 202 190
233 202 191
233 202 191
234 202 191
234 202 191
234 202 192
234 201 192
234 201 192
235 201 193
234 201 193
235 201 193
235 201 193
235 201 194
234 201 193
234 202 193
234 202 192
234 203 191
234 203 191
234 203 190
234 203 190
234 204 191
234 204 191
234 204 191
234 204 192
234 204 192
234 204 192
234 204 193
234 204 193
234 203 193
234 203 193
234 203 193
234 203 193
233 203 193
234 203 193
233 202 193
233 203 193
233 202 193
233 202 193
233 202 193
232 201 193
232 201 193
232 201 193
232 202 193
232 201 193
232 201 193
232 201 193
232 201 192
232 201 192
232 201 192
232 202 192
232 202 192
232 202 192
232 202 192
232 202 192
232 202 192
232 202 192
231 202 193
231 201 193
231 201 193
231 201 194
231 201 194
231 201 194
231 201 194
231 201 194
231 201 194
231 201 194
231 201 194
231 201 194
231 201 194
231 201 194
231 201 194
231 200 194
231 200 194
230 200 194
230 200 194
231 200 194
231 200 194
231 200 194
230 200 194
230 200 194
230 201 195
231 201 194
231 201 194
231 201 194
231 201 194
231 201 194
231 201 194
231 201 194
231 201 194
231 202 194
231 202 194
231 202 194
231 202 194
231 202 194
231 202 194
231 202 194
231 202 194
231 202 194
231 202 193
231 202 193
232 202 193
232 202 193
232 202 193
232 202 193
232 202 193
232 202 193
232 202 193
232 202 193
232 202 193
232 202 194
232 202 194
232 202 194
232 202 194
232 202 194
232 202 194
232 202 194
232 202 194
232 202 194
232 202 194
232 202 194
232 202 195
232 202 195
232 202 195
232 202 195
232 202 195
232 202 194
232 202 194
232 203 194
232 203 194
232 203 194
232 203 194
232 203 193
232 203 193
232 203 192
232 203 192
232 203 192
232 203 191
232 203 191
232 203 191
232 204 191
232 204 191
232 204 192
232 204 194
232 203 194
232 203 196
232 203 197
232 203 197
232 203 197
232 203 197
233 203 196
233 203 196
233 203 196
233 203 196
233 203 196
233 203 196
233 204 196
233 204 196
233 204 196
233 204 196
233 204 196
233 204 196
233 204 196
233 204 196
233 204 196
233 204 196
233 204 196
233 204 196
233 204 196
233 204 196
233 204 196
233 204 196
233 204 196
233 204 196
233 204 196
233 204 196
233 204 196
233 204 197
233 204 197
233 204 197
233 204 198
233 204 198
233 204 198
233 204 198
233 204 198
233 204 198
233 204 197
233 204 196
233 204 196
233 204 195
233 204 195
233 204 195
233 204 195
233 204 195
233 204 195
233 204 195
233 204 195
233 204 195
233 204 195
233 204 195
233 204 195
233 204 195
233 204 195
233 204 195
233 204 196
233 204 196
233 204 195
233 204 195
233 204 195
233 204 195
233 204 196
234 204 196
234 204 195
234 204 195
234 204 195
234 204 195
234 204 195
234 204 195
234 204 195
234 204 195
234 204 195
234 204 195
234 204 195
234 204 195
234 204 195
234 204 195
234 204 195
234 204 195
234 204 195
234 204 195
234 204 195
234 204 196
234 204 196
234 204 196
234 204 197
235 204 196
235 204 196
235 204 196
235 204 196
235 204 196
235 204 195
235 204 195
235 204 196
235 204 196
235 205 196
235 205 196
235 205 196
235 205 196
235 205 195
235 205 195
235 205 195
235 205 195
235 205 195
235 205 195
235 205 195
235 205 195
235 205 195
235 205 195
235 205 195
235 205 196
235 205 196
235 205 196
235 205 196
235 205 196
235 205 197
235 205 197
235 205 197
235 205 197
235 205 197
235 205 198
235 204 198
235 204 198
235 204 198
235 204 199
235 204 199
235 204 199
235 204 198
235 204 198
235 204 198
231 202 196
231 202 196
231 202 196
231 202 196
232 202 197
232 202 197
232 202 197
233 202 198
233 202 197
233 202 197
232 202 197
232 202 197
232 202 197
232 202 197
232 202 197
232 202 197
231 202 197
231 202 197
231 202 197
231 202 197
231 202 197
231 202 197
231 202 197
231 202 197
231 202 197
231 202 197
231 201 197
231 201 197
231 201 197
231 201 196
231 201 196
231 201 196
230 200 196
230 200 196
230 200 196
230 200 196
230 200 197
231 200 197
231 200 197
231 201 197
231 201 197
231 201 197
231 201 198
231 201 198
231 201 197
231 201 198
231 201 198
231 201 198
231 201 198
231 201 197
230 201 197
230 200 196
229 200 196
229 200 196
229 200 195
229 199 195
229 199 195
229 199 195
229 199 195
229 199 195
229 200 194
229 200 194
229 200 194
229 200 194
229 200 193
229 200 193
228 200 193
228 200 192
228 200 192
228 199 192
228 200 192
228 199 192
229 199 192
229 199 192
229 199 191
229 199 192
229 199 192
229 199 192
229 199 192
229 199 192
229 199 192
229 199 193
229 199 193
230 199 193
230 199 193
230 199 193
230 199 193
230 199 193
230 199 193
230 199 193
230 199 193
230 199 193
231 199 193
231 200 193
231 200 193
231 200 193
232 201 193
232 201 193
232 201 193
232 201 193
232 201 193
232 202 193
232 202 192
232 202 192
232 202 192
232 202 191
232 202 191
232 202 191
232 202 190
232 202 190
232 202 190
232 202 189
232 202 189
232 202 189
232 202 189
232 202 189
233 202 189
232 202 189
233 202 189
233 202 189
233 202 190
233 202 190
233 202 190
233 202 190
233 202 191
234 202 191
234 202 191
234 202 191
234 202 192
234 202 192
234 202 192
234 202 192
235 202 193
235 202 193
235 202 194
234 202 193
234 202 193
234 202 193
234 203 192
234 203 191
234 203 190
234 203 191
234 203 191
234 203 192
234 203 192
234 204 192
234 204 193
234 203 193
234 203 193
233 203 193
233 203 193
233 202 193
233 202 193
233 202 193
233 202 193
233 202 193
233 202 193
233 202 193
233 202 193
232 202 193
232 201 193
232 201 193
232 201 193
232 201 193
232 201 193
232 201 193
232 201 193
232 201 193
232 201 193
232 201 192
232 201 192
232 202 192
231 202 192
232 202 193
232 202 193
232 202 193
232 202 193
231 202 193
231 202 193
231 201 193
231 201 193
231 201 193
231 201 194
231 201 194
231 201 194
231 201 194
231 201 194
231 201 193
231 201 194
231 201 194
231 201 194
230 201 194
230 200 194
230 200 194
230 200 194
230 200 194
230 200 194
230 200 194
230 200 195
230 200 195
230 200 195
230 200 195
230 201 195
230 201 195
231 201 195
231 201 194
231 201 194
231 201 194
231 201 194
231 201 194
231 201 194
231 202 193
231 202 193
231 202 193
231 202 193
231 202 193
231 202 193
231 202 193
231 202 193
231 202 193
231 202 193
232 202 193
232 202 193
232 202 193
232 202 193
232 202 193
232 202 193
232 202 193
232 202 193
232 202 193
232 202 193
232 202 194
232 202 193
232 202 194
232 202 194
232 202 194
232 202 194
232 202 194
232 202 194
232 202 194
232 202 194
232 202 195
232 202 195
232 202 195
232 202 195
232 202 195
232 202 195
232 202 195
232 202 194
232 202 194
232 203 194
232 203 194
232 203 194
232 203 193
232 203 193
232 203 192
232 203 192
232 203 192
232 203 191
232 203 191
232 203 191
232 204 191
232 204 191
232 204 192
232 204 193
232 203 195
232 203 196
232 203 197
232 203 197
232 203 197
233 203 197
233 203 196
233 203 196
233 203 196
233 203 196
233 203 196
233 204 196
233 204 196
233 204 196
233 204 196
233 204 196
233 204 196
233 204 196
233 204 195
233 204 195
233 204 195
233 204 195
233 204 195
233 204 195
233 204 195
233 204 195
233 204 195
233 204 195
233 204 195
233 204 196
233 204 196
233 204 196
233 204 196
233 204 196
233 204 197
233 204 197
233 203 197
233 204 197
233 204 197
233 204 198
233 204 198
233 204 197
233 204 197
233 204 196
233 204 196
233 204 196
233 204 195
233 204 195
233 204 195
233 204 195
233 204 195
233 204 195
233 204 195
233 204 195
233 204 195
233 204 195
233 204 195
233 204 195
233 204 195
233 204 195
233 204 195
233 204 195
233 204 195
233 204 195
233 204 195
233 204 195
234 204 195
234 204 195
234 204 195
234 204 195
234 204 195
234 204 195
234 204 195
234 204 195
234 204 195
234 204 195
234 204 195
234 204 195
234 204 195
234 204 195
234 204 195
234 204 195
234 204 195
234 204 195
234 204 195
234 204 195
234 204 195
234 204 196
234 204 196
234 204 197
234 204 197
234 204 196
235 204 196
235 204 196
235 204 196
235 204 195
235 204 195
235 204 195
235 204 196
235 205 196
235 205 196
235 205 196
235 205 196
235 205 195
235 205 195
235 205 195
235 205 195
235 205 195
235 205 195
235 205 194
235 205 195
235 205 195
235 205 194
235 205 195
235 205 195
235 205 195
235 205 195
235 205 195
235 205 196
235 205 196
235 205 196
235 205 196
235 205 197
235 205 196
235 205 197
235 205 197
235 204 198
235 204 198
235 204 198
235 204 199
235 204 198
235 204 199
235 204 198
235 204 198
235 204 198
231 202 196
231 202 196
231 202 196
232 202 196
232 202 197
232 202 197
232 202 197
233 202 197
233 202 197
233 202 197
232 202 197
232 202 197
232 202 197
232 202 197
232 202 197
232 202 197
231 201 197
231 201 197
231 201 197
231 201 197
231 201 197
231 201 197
231 201 197
231 201 197
231 201 197
231 201 197
231 201 197
231 201 197
231 201 196
231 201 196
231 201 196
231 200 196
230 200 196
230 200 196
230 200 196
230 200 196
230 200 196
230 200 197
231 200 197
231 200 197
231 201 197
231 201 197
231 201 197
231 201 197
231 201 197
231 201 197
231 201 197
231 201 197
231 201 197
231 201 197
230 200 197
230 200 196
229 200 196
229 199 195
229 199 195
229 199 195
229 199 195
229 199 194
229 199 195
229 199 194
229 200 194
229 200 194
229 200 194
229 200 194
229 200 193
229 200 193
228 200 193
228 199 192
228 199 192
228 199 192
228 199 192
229 199 191
229 199 191
229 199 191
229 199 191
229 199 191
229 199 191
229 199 191
229 199 191
229 199 191
229 199 192
229 199 192
230 199 192
230 199 192
230 199 192
230 199 193
231 199 193
231 199 193
231 199 193
231 199 193
231 199 193
231 199 193
231 200 193
231 200 193
231 200 193
231 200 193
232 201 193
232 201 193
232 201 193
232 201 193
232 202 193
232 202 193
232 202 192
232 202 192
232 202 192
232 202 191
232 202 191
233 202 190
233 202 190
233 202 190
233 202 190
233 202 189
233 202 189
233 202 189
233 202 189
233 202 189
233 202 188
233 202 189
233 202 189
233 202 189
233 202 189
233 202 189
233 202 190
233 202 190
233 202 190
233 202 190
234 202 190
234 202 191
234 202 191
234 202 192
234 202 192
234 202 192
234 202 193
234 202 193
235 202 194
234 202 193
234 203 193
234 203 193
234 203 192
234 203 192
234 203 191
234 203 192
234 203 192
234 203 192
233 203 192
233 203 193
233 203 193
233 203 193
233 203 193
233 202 193
233 202 193
233 202 193
233 202 193
232 202 193
232 202 193
233 202 193
232 202 193
232 202 193
232 201 193
232 201 193
232 201 193
232 201 193
232 201 193
232 201 193
232 201 193
232 201 193
232 201 193
231 201 193
231 201 193
231 201 193
231 201 193
231 201 193
231 202 193
231 202 193
231 202 193
231 202 193
231 202 193
231 202 193
231 201 193
231 201 193
231 201 193
231 201 193
230 201 193
231 201 193
230 201 193
230 201 193
230 201 193
230 201 193
230 201 193
230 201 194
230 201 194
230 201 194
230 200 194
230 200 194
230 200 194
230 200 194
230 200 195
230 200 195
230 200 195
230 200 195
230 200 195
230 201 195
230 201 195
230 201 195
231 201 195
231 201 194
231 201 194
231 201 194
231 201 194
231 201 194
231 201 194
231 201 193
231 202 193
231 202 193
231 202 193
231 202 193
231 202 193
231 202 193
231 202 193
231 202 193
231 202 193
232 202 193
232 202 193
232 202 193
232 202 193
232 202 193
232 202 193
232 202 193
232 202 193
232 202 193
232 202 193
232 202 193
232 202 193
232 202 194
232 202 194
232 202 194
232 202 194
232 202 194
232 202 194
232 202 194
232 202 195
232 202 195
232 202 195
232 202 195
232 202 195
232 202 195
232 202 195
232 202 195
232 202 195
232 202 195
232 202 195
232 203 194
232 203 194
232 203 194
232 203 193
232 203 193
232 203 192
232 203 192
232 203 192
232 203 192
232 203 192
232 204 192
232 204 192
232 204 192
232 204 194
232 203 195
232 203 196
232 203 197
232 203 197
232 203 197
233 203 197
233 203 197
233 203 197
233 203 196
233 203 196
233 203 196
233 203 196
233 204 196
233 204 196
233 204 196
233 204 196
233 204 195
233 204 195
233 204 195
233 204 195
233 204 195
233 204 195
233 204 195
233 204 195
233 204 195
233 204 195
233 204 195
233 204 195
233 204 195
233 204 195
233 204 195
233 204 195
233 204 196
233 204 196
233 203 196
233 203 196
233 203 196
233 203 197
233 204 197
233 204 197
233 204 197
233 204 197
233 204 197
233 204 196
233 204 196
233 204 196
233 204 195
233 204 195
233 204 195
233 204 195
233 204 195
233 204 195
233 204 195
233 204 195
233 204 195
233 204 195
233 204 195
233 204 195
233 204 195
233 204 195
233 204 195
233 204 195
233 204 195
233 204 195
233 204 195
234 204 195
234 204 195
234 204 195
234 204 195
234 204 195
234 204 195
234 204 195
234 204 195
234 203 195
234 203 195
234 204 195
234 203 195
234 204 195
234 204 195
234 204 195
234 204 195
234 204 195
234 204 195
234 204 195
234 204 195
234 204 195
234 204 195
234 204 196
234 204 196
234 204 196
234 204 197
235 204 197
235 204 196
235 204 196
235 204 196
235 204 195
235 204 195
235 204 195
235 205 195
235 205 195
235 205 196
235 205 195
235 205 195
235 205 195
235 205 195
235 205 194
235 205 194
235 205 194
235 205 194
235 205 194
235 205 194
235 205 194
235 205 194
235 205 194
235 205 194
235 205 194
235 205 195
235 205 195
235 205 195
235 205 196
235 205 196
235 205 196
235 205 196
235 205 196
235 205 197
235 205 197
235 205 197
235 204 197
235 204 198
235 204 198
235 204 198
235 204 198
235 204 198
235 204 197
235 204 197
231 202 196
231 202 195
231 202 196
232 202 196
232 202 196
232 202 197
232 202 196
233 202 197
233 202 196
233 202 196
232 202 196
232 202 197
232 202 197
232 202 197
232 201 197
232 201 196
232 201 196
232 201 196
232 201 196
232 201 196
231 201 196
231 201 197
232 201 196
231 201 197
232 201 196
232 201 196
231 201 196
231 201 196
231 201 196
231 201 196
231 201 196
231 200 196
231 200 196
231 200 196
230 200 196
230 200 196
230 200 196
230 200 197
231 200 197
231 201 197
231 201 197
231 201 197
231 201 197
231 201 197
231 201 197
231 201 197
231 201 197
231 201 197
231 201 197
230 200 197
230 200 196
230 200 196
229 200 195
229 199 195
229 199 195
229 199 195
229 199 194
229 199 194
229 199 194
229 199 194
229 200 194
229 200 194
229 200 194
229 200 194
229 200 193
229 200 193
229 200 192
229 199 192
229 200 192
229 200 191
229 200 191
229 199 191
229 199 191
229 199 191
229 199 191
229 199 191
229 199 191
230 199 191
230 199 191
230 199 191
229 199 191
230 199 191
230 199 192
230 199 192
230 199 192
231 199 192
231 200 192
231 199 193
231 200 193
231 200 193
231 200 193
232 200 193
231 200 193
232 200 193
232 201 193
232 201 193
232 201 193
232 201 193
232 201 193
232 201 193
232 201 193
232 202 192
233 202 192
233 202 192
233 202 192
233 202 191
233 202 190
233 202 190
233 202 190
233 202 190
233 202 189
233 202 189
233 202 189
233 202 188
233 202 188
233 202 188
233 202 188
233 202 188
233 202 188
233 202 189
233 202 189
233 202 189
233 202 189
233 202 189
233 202 190
234 202 190
234 202 190
234 202 190
234 202 191
234 202 191
234 202 192
234 202 192
234 202 193
235 202 193
235 202 193
235 203 194
235 203 194
234 203 193
234 203 193
234 203 192
234 203 192
234 203 192
233 203 193
233 203 193
233 203 193
233 203 193
233 202 193
233 202 193
233 202 193
232 202 193
232 202 193
232 202 193
232 201 193
232 201 193
232 201 193
232 201 193
232 201 193
232 201 193
232 201 193
232 201 193
232 201 193
231 201 193
231 201 193
231 201 193
231 201 193
231 201 193
231 201 193
231 201 193
231 201 193
231 201 193
231 201 193
231 201 193
231 201 193
231 202 193
231 202 193
231 202 194
231 202 193
231 201 194
231 201 194
231 201 193
231 201 193
231 201 193
231 201 193
230 201 193
230 201 193
230 201 193
230 201 193
230 201 193
230 201 193
230 201 193
230 201 194
230 201 194
230 201 194
230 201 194
230 201 194
230 201 194
230 201 195
230 201 195
230 201 195
230 201 195
230 201 195
230 201 195
230 201 195
230 201 194
231 201 194
231 201 194
231 201 194
231 201 194
231 201 194
231 201 194
231 201 194
231 201 193
231 202 193
231 202 193
231 202 193
231 202 193
231 202 193
231 202 193
231 202 193
231 202 193
231 202 193
232 202 193
232 202 193
232 202 193
232 202 193
232 202 193
232 202 193
232 202 193
232 202 193
232 202 193
232 202 193
232 202 193
232 202 193
232 202 194
232 202 194
232 202 194
232 202 194
232 202 194
232 202 194
232 202 195
232 202 195
232 202 195
232 202 195
232 202 195
232 202 195
232 202 195
232 202 196
232 202 195
232 202 195
232 202 195
232 202 195
232 203 195
232 203 194
232 203 194
232 203 194
232 203 193
232 203 193
232 203 192
232 203 192
232 203 192
232 203 192
232 204 192
232 204 192
232 204 193
232 204 194
232 203 195
232 203 196
232 203 197
232 203 197
232 203 197
233 203 197
233 203 197
233 203 197
233 203 197
233 203 196
233 203 196
233 203 196
233 204 196
233 204 196
233 204 196
233 204 195
233 204 195
233 204 195
233 204 194
233 204 194
233 204 194
233 204 194
233 204 194
233 204 194
233 204 194
233 204 194
233 204 194
233 204 194
233 204 195
233 204 195
233 204 195
233 204 195
233 204 195
233 204 195
233 203 196
233 203 196
233 203 196
233 203 197
233 203 197
233 204 197
233 204 197
233 204 197
233 204 197
233 204 196
233 204 196
233 204 196
233 204 196
233 204 195
233 204 195
233 204 195
233 204 195
233 204 195
233 204 195
233 204 195
233 204 195
233 204 195
233 204 195
233 204 195
233 204 195
233 204 195
233 204 195
233 204 195
233 204 195
233 204 195
234 204 195
234 204 195
234 204 195
234 204 195
234 204 195
234 204 195
234 204 195
234 204 195
234 203 195
234 203 195
234 203 195
234 203 195
234 203 195
234 203 195
234 204 195
234 204 195
234 204 195
234 204 195
234 204 195
234 204 195
234 204 195
234 204 195
234 204 195
234 204 196
234 204 196
234 204 196
234 204 196
235 204 196
235 204 196
235 204 196
235 204 196
235 204 195
235 204 195
235 204 195
235 205 195
235 205 195
235 205 195
235 205 195
235 205 195
235 205 195
235 205 194
235 205 194
235 205 194
235 205 194
235 205 194
235 205 193
235 205 194
235 205 193
235 205 193
235 205 194
235 205 194
235 205 194
235 205 195
235 205 195
235 205 195
235 205 196
235 205 196
235 205 196
235 205 196
235 205 196
235 205 196
235 205 196
235 204 197
235 204 197
235 204 197
235 204 198
235 204 198
235 204 198
235 204 197
235 204 197
235 204 197
232 202 195
232 202 195
232 202 195
232 202 195
232 202 196
233 202 196
233 202 196
233 202 196
233 202 196
233 202 196
233 202 196
232 202 196
232 202 196
232 202 196
232 201 196
232 201 196
232 201 196
232 201 196
232 201 196
232 201 196
232 201 196
232 201 196
232 201 196
232 201 196
232 201 196
232 201 196
232 201 196
231 201 196
231 201 196
231 201 196
231 200 195
231 200 195
231 200 195
231 200 196
231 200 196
230 200 196
230 200 196
230 200 196
231 201 197
231 201 197
231 201 197
231 201 197
231 201 197
231 201 197
231 201 197
231 201 197
231 201 197
231 201 197
230 201 197
230 200 196
230 200 196
230 200 196
229 199 195
229 199 195
229 199 195
229 199 194
229 199 194
229 199 194
229 199 194
229 199 194
229 199 194
229 200 194
229 200 194
229 200 194
229 200 193
229 199 192
229 199 192
229 199 192
229 199 191
229 199 191
229 199 191
229 199 191
229 199 191
229 199 191
229 199 191
230 199 191
230 199 191
230 199 191
230 199 191
230 199 191
230 199 191
230 199 191
230 199 191
231 200 192
231 199 192
231 200 192
231 200 192
231 200 193
232 200 193
232 200 193
232 200 193
232 201 193
232 200 193
232 201 193
232 201 193
233 201 194
232 201 193
232 201 193
233 201 193
233 201 193
233 201 193
233 201 192
233 202 192
233 202 192
233 202 191
233 202 191
233 202 190
233 202 190
233 202 190
233 202 189
233 202 189
233 202 189
234 202 189
234 202 188
234 202 188
234 202 188
234 202 188
234 202 188
234 202 188
234 202 188
234 202 189
234 202 189
234 202 189
234 202 189
234 202 189
234 202 190
234 202 190
234 202 190
234 202 191
234 202 191
234 202 192
234 202 192
234 203 193
234 203 193
235 203 194
235 203 194
235 203 194
234 203 194
234 203 193
234 203 193
234 203 193
234 203 193
233 202 193
233 202 193
233 202 193
233 202 193
232 202 193
232 202 193
232 202 193
232 201 193
232 201 193
232 201 193
232 201 193
232 201 193
232 201 193
232 201 193
232 201 193
232 201 193
231 201 194
231 201 194
231 201 194
231 201 193
231 201 194
231 201 194
231 201 194
231 201 193
231 201 194
231 201 194
231 201 193
231 201 193
231 201 193
231 201 193
231 201 193
231 201 193
231 202 194
231 201 194
231 201 194
231 201 194
231 201 194
231 201 193
231 201 193
230 201 193
231 201 193
230 201 193
230 201 193
230 201 193
230 201 193
230 201 193
230 201 193
230 201 193
230 201 193
230 201 194
230 201 194
230 201 194
230 201 194
231 201 194
230 201 195
230 201 195
230 201 195
230 201 195
230 201 195
230 201 195
231 201 195
231 201 194
231 201 194
231 201 194
231 201 194
231 201 194
231 201 194
231 201 194
231 201 194
231 201 193
231 202 193
231 202 193
231 202 193
231 202 193
231 202 193
231 202 193
231 202 193
231 202 193
231 202 193
232 202 193
232 202 193
232 202 193
232 202 193
232 202 193
232 202 193
232 202 193
232 202 193
232 202 193
232 202 193
232 202 193
232 202 194
232 202 194
232 202 194
232 202 194
232 202 194
232 202 194
232 202 194
232 202 195
232 202 195
232 202 195
232 202 195
232 202 196
232 202 196
232 202 196
232 202 196
232 202 196
232 202 196
232 202 196
232 202 195
232 202 196
232 203 195
232 203 194
232 203 194
232 203 194
232 203 193
232 203 193
232 203 193
232 203 193
232 203 193
232 203 193
232 204 193
232 204 194
232 204 194
232 203 196
232 203 197
232 203 198
232 203 198
232 203 198
232 203 197
233 203 197
233 203 197
233 203 197
233 203 197
233 203 196
233 203 196
233 203 196
233 204 196
233 204 195
233 204 195
233 204 194
233 204 194
233 204 194
233 204 194
233 204 194
233 204 194
233 204 193
233 204 194
233 204 194
233 204 194
233 204 194
233 204 194
233 204 194
233 204 194
233 204 195
233 204 195
233 204 195
233 203 195
233 203 195
233 203 196
233 203 196
233 203 196
233 203 197
233 203 197
234 204 197
233 204 197
233 204 197
233 204 196
233 204 196
233 204 196
233 204 196
233 204 196
233 204 196
233 204 196
233 203 196
233 203 196
233 204 195
233 204 195
233 204 195
233 204 195
234 204 195
234 204 195
234 204 195
234 204 195
234 204 195
234 204 195
234 204 195
234 204 195
234 204 195
234 204 195
234 204 195
234 204 195
234 203 195
234 203 195
234 203 195
234 203 195
234 203 195
234 203 195
234 203 195
234 203 195
234 203 195
234 203 195
234 203 195
234 204 195
234 204 195
234 204 195
234 204 195
234 204 195
234 204 195
234 204 195
234 204 195
234 204 195
234 204 196
234 204 196
235 204 196
235 204 196
235 204 196
235 204 196
235 204 196
235 204 196
235 204 196
235 204 195
235 205 195
235 205 195
235 205 195
235 205 195
235 205 195
235 205 194
235 205 194
235 205 194
235 205 194
235 205 193
235 205 193
235 205 193
235 205 193
235 205 193
235 205 193
235 205 193
235 205 193
235 205 194
235 205 194
235 205 195
235 205 195
235 205 195
235 205 195
235 205 196
235 205 196
235 205 196
235 205 196
235 205 196
235 205 197
235 204 197
235 204 197
235 204 197
235 204 197
235 204 197
235 204 197
235 204 197
235 204 197
233 202 195
233 202 195
233 202 195
233 202 195
233 202 196
233 202 196
233 202 195
233 202 196
233 202 196
233 202 196
233 202 196
233 202 196
232 202 196
232 202 196
232 201 196
232 201 196
232 201 195
232 201 195
232 201 195
232 201 196
232 201 196
232 201 196
232 201 196
232 201 196
232 201 196
232 201 196
232 201 196
232 201 196
232 201 196
232 200 195
231 200 195
231 200 195
231 200 195
231 200 195
231 200 196
230 200 196
230 200 196
230 200 196
231 201 196
231 201 197
231 201 197
231 201 197
231 201 197
231 201 197
231 201 196
231 201 197
231 201 197
231 201 196
230 201 196
230 200 196
230 200 196
230 200 195
229 199 195
229 199 195
229 199 194
229 199 194
229 199 194
229 199 194
229 199 194
229 199 193
229 199 194
229 199 194
229 199 194
229 199 193
229 199 193
229 199 193
229 199 192
229 199 192
229 199 191
229 199 191
229 199 191
229 199 191
229 199 190
229 199 190
230 199 190
230 199 191
230 199 191
230 199 191
230 200 191
230 200 191
230 200 191
230 200 191
231 200 191
231 200 191
231 200 192
232 200 192
232 200 192
232 200 192
232 201 193
232 201 193
232 201 193
232 201 193
233 201 194
233 201 193
233 201 193
233 201 193
233 201 193
233 201 193
233 201 193
233 201 193
233 201 193
233 202 192
233 202 192
233 202 191
233 202 191
233 202 191
233 202 190
233 202 190
233 201 190
233 201 189
234 201 189
234 201 189
234 201 188
234 202 188
234 202 188
234 202 188
234 202 188
234 202 188
234 202 188
234 202 188
234 202 188
234 202 189
234 202 189
234 202 189
234 202 189
234 202 190
234 202 190
234 202 190
234 202 191
234 202 191
234 203 192
234 203 192
234 203 192
234 203 193
234 203 193
235 203 194
234 203 194
234 203 194
234 203 194
234 203 194
234 203 193
233 202 193
233 202 193
233 202 193
232 202 194
232 202 194
232 202 194
232 202 193
232 201 193
232 201 193
232 201 193
232 201 193
232 201 193
232 201 193
232 201 193
232 201 193
232 201 194
232 201 194
231 201 194
231 201 194
231 201 194
231 201 194
231 201 194
231 201 194
231 201 194
231 201 194
231 201 194
231 201 194
231 201 194
231 201 194
231 201 193
231 201 193
231 201 193
231 201 194
231 201 194
231 201 194
231 201 195
231 201 194
231 201 194
231 201 194
231 201 193
231 201 193
231 201 192
231 201 192
231 201 192
231 201 193
231 201 193
231 201 193
231 201 193
231 201 193
231 201 193
231 201 194
231 201 194
231 201 194
231 201 194
231 201 194
231 201 195
231 201 195
231 201 195
231 201 195
231 201 195
231 201 195
231 201 194
231 201 194
231 201 194
231 201 194
231 201 194
231 201 194
231 201 194
231 201 194
231 201 194
231 201 193
231 201 193
231 202 193
231 202 193
231 202 193
231 202 193
231 202 193
231 202 193
231 202 193
231 202 193
231 202 193
232 202 193
232 202 193
232 202 193
232 202 193
232 202 193
232 202 193
232 202 193
232 202 193
232 202 193
232 202 193
232 202 194
232 202 194
232 202 194
232 202 194
232 202 194
232 202 195
232 202 195
232 202 195
232 202 195
232 202 196
232 202 196
232 202 196
232 202 196
232 202 196
232 202 197
232 202 197
232 202 196
232 202 196
232 202 196
232 202 196
232 203 195
232 203 195
232 203 194
232 203 194
232 203 193
232 203 194
232 203 193
232 203 193
232 203 193
232 203 193
232 204 193
232 204 194
232 203 195
232 203 196
232 203 197
232 203 198
232 203 198
232 203 198
232 203 198
232 203 197
233 203 197
233 203 197
233 203 196
233 203 196
233 203 196
233 203 196
233 204 195
233 204 195
233 204 194
232 204 194
233 204 194
233 204 194
233 204 193
232 204 193
232 204 193
233 204 193
233 204 193
233 204 193
233 204 193
233 204 194
233 204 194
233 204 194
233 204 194
233 204 194
233 204 194
233 203 194
233 203 195
233 203 195
233 203 195
233 203 196
234 203 196
234 203 196
234 203 197
234 204 197
234 204 197
233 204 197
233 204 196
233 204 196
233 204 196
233 204 196
233 203 196
233 203 196
233 203 196
232 203 196
233 203 196
233 203 196
233 203 195
233 204 195
233 204 195
234 204 195
234 204 195
234 204 195
234 204 195
234 204 195
234 204 195
234 204 195
234 204 195
234 204 195
234 204 195
234 204 195
234 203 195
234 203 195
234 203 195
234 203 194
234 203 194
234 203 194
234 203 194
234 203 194
234 203 194
234 203 194
234 203 195
234 203 195
234 203 195
234 203 195
234 204 195
234 204 195
234 204 195
234 204 195
234 204 195
234 204 195
234 204 195
234 204 196
234 204 196
234 204 196
235 204 196
235 204 196
235 204 196
235 204 196
235 204 196
235 204 195
235 204 195
235 205 195
235 205 195
235 205 195
235 205 195
235 205 194
235 205 194
235 205 194
235 205 193
235 205 193
235 205 193
235 205 193
235 205 192
235 205 192
235 205 192
235 205 192
235 205 192
235 205 193
235 205 193
235 205 194
235 205 194
235 205 195
235 205 195
235 205 195
235 205 195
235 205 195
235 205 196
235 205 196
235 204 196
235 204 196
235 204 196
235 204 197
235 204 196
235 204 197
235 204 197
235 204 197
235 204 197
235 204 197
234 202 195
234 202 195
234 202 195
234 202 195
234 202 195
233 202 196
233 202 196
233 202 196
233 202 195
233 202 195
233 202 195
233 202 196
233 202 195
232 202 196
232 201 195
232 201 195
232 201 195
232 201 195
232 201 195
232 201 195
232 201 195
232 201 195
232 201 196
232 201 196
232 201 196
232 201 196
232 201 196
232 201 196
232 201 195
232 200 195
232 200 195
231 200 195
231 200 195
231 200 195
231 200 195
231 200 196
231 200 196
231 201 196
231 201 196
231 201 196
231 201 196
231 201 196
231 201 196
231 201 196
231 201 196
231 201 196
231 201 196
231 201 196
231 201 196
230 200 196
230 200 196
230 200 195
229 199 195
229 199 194
229 199 194
229 199 194
229 199 194
229 199 193
229 199 193
229 199 193
229 199 193
229 199 193
229 199 193
229 199 193
229 199 193
229 199 192
229 199 192
229 199 191
229 199 191
229 199 190
229 199 190
229 199 190
229 199 190
230 199 190
230 199 190
230 199 190
230 200 190
230 200 190
231 200 191
231 200 191
231 200 191
232 200 191
232 200 191
232 200 192
232 201 192
232 201 192
232 201 192
232 201 192
232 201 193
233 201 193
233 201 193
233 201 193
233 201 193
233 201 193
233 201 193
233 201 193
233 201 193
233 201 193
233 201 193
233 201 193
233 201 192
233 201 192
233 202 192
233 202 191
233 202 191
233 201 191
233 201 190
234 201 190
234 201 190
234 201 189
234 201 189
234 201 189
234 201 188
234 201 188
234 201 188
234 201 188
234 201 188
234 202 188
234 202 188
234 202 188
234 202 188
234 202 188
234 202 189
234 202 189
234 202 189
234 202 190
234 202 190
234 202 190
234 203 191
234 203 191
234 203 191
234 203 192
234 203 192
234 203 193
234 203 193
234 203 194
234 203 194
234 203 194
234 203 194
234 203 194
233 202 194
233 202 194
233 202 194
232 202 194
232 202 194
232 201 194
232 201 194
232 201 194
232 201 194
232 201 194
232 201 193
232 201 193
232 201 193
232 201 193
232 201 194
232 201 194
232 201 194
231 201 194
231 201 194
231 201 194
231 201 194
231 201 195
231 201 195
231 201 195
230 201 195
230 201 194
230 201 194
230 201 194
230 200 194
230 201 194
230 201 194
230 201 194
231 201 194
231 201 194
231 201 194
231 201 194
231 201 195
231 201 195
231 201 194
231 201 194
231 201 193
231 201 193
231 201 192
231 201 192
231 202 192
231 201 192
231 201 192
231 202 192
231 201 193
231 201 193
231 201 193
231 201 193
231 201 194
231 201 194
231 201 194
231 201 194
231 201 195
231 201 195
231 201 195
231 201 195
231 201 195
231 201 194
231 201 194
231 201 194
231 201 194
231 201 194
231 201 194
231 201 194
231 201 194
231 201 194
231 201 194
231 201 193
231 201 193
231 201 193
231 202 193
231 202 193
231 202 193
231 202 193
231 202 193
231 202 193
231 202 193
232 202 193
232 202 193
232 202 193
232 202 193
232 202 193
232 202 193
232 202 193
232 202 193
232 202 193
232 202 193
232 202 193
232 202 194
232 202 194
232 202 194
232 202 194
232 202 195
232 202 195
232 202 195
232 202 196
232 202 196
232 202 196
232 202 196
232 202 196
231 202 197
231 202 197
232 202 197
232 202 197
232 202 197
232 202 197
232 202 196
232 202 196
232 202 196
232 202 196
232 203 195
232 203 194
232 203 194
232 203 194
232 203 194
232 203 194
232 203 194
232 203 194
232 203 194
232 203 194
232 203 195
232 203 196
232 203 197
232 203 198
232 203 198
232 203 198
233 203 198
233 203 197
233 203 197
232 203 197
233 203 196
233 203 196
233 203 196
233 203 195
232 204 195
233 204 194
233 204 194
233 204 194
233 204 193
233 204 193
233 204 193
233 204 193
233 204 193
232 204 193
233 204 193
232 204 193
232 204 193
232 204 193
232 204 194
233 204 194
233 204 194
233 204 194
233 203 194
233 203 194
233 203 195
233 203 195
234 203 195
234 203 195
234 203 196
234 203 196
234 204 196
234 204 196
234 204 197
234 204 197
233 204 197
233 204 197
233 203 196
233 203 196
233 203 196
233 203 196
233 203 196
232 203 196
233 203 196
233 203 196
233 203 196
233 203 196
234 203 195
234 204 195
234 204 195
234 204 195
234 204 195
234 204 195
234 204 195
234 204 195
234 204 195
234 204 195
234 204 195
234 203 195
234 203 195
234 203 194
234 203 194
234 203 194
234 203 194
234 203 194
234 203 194
234 203 194
234 203 194
234 203 194
234 203 194
234 203 194
234 203 194
234 203 194
235 204 194
235 204 194
235 204 194
235 204 194
234 204 195
234 204 195
234 204 195
234 204 196
234 204 196
234 204 196
234 204 196
235 204 196
235 204 196
235 204 196
235 204 196
235 204 196
235 205 195
235 205 195
235 205 195
235 205 194
235 205 194
235 205 194
235 205 194
235 205 193
235 205 193
235 205 193
235 205 192
235 205 192
235 205 192
235 205 192
235 205 192
235 205 192
235 205 192
235 205 192
235 205 193
235 205 193
235 205 194
235 205 194
235 205 194
235 205 195
235 205 195
235 205 195
235 205 195
235 205 195
235 204 195
235 204 196
235 204 196
235 204 196
235 204 196
235 204 196
235 204 196
235 204 197
235 204 197
235 204 197
235 202 195
235 202 195
235 202 195
235 202 195
234 202 196
234 202 195
234 202 195
233 202 195
233 202 195
233 202 195
233 202 195
233 202 195
233 202 195
233 202 195
233 202 195
233 202 195
233 202 195
233 202 195
233 202 195
233 202 195
233 201 195
233 202 195
232 201 196
232 201 196
232 201 196
232 201 195
232 201 195
232 201 195
232 201 195
232 201 195
232 201 195
232 200 195
231 200 195
231 200 195
231 200 195
231 200 195
231 200 196
231 201 196
231 201 196
231 201 196
231 201 196
231 201 196
231 201 196
231 201 196
231 201 196
231 201 196
231 201 196
231 201 196
231 201 196
230 200 196
230 200 196
230 200 195
229 199 195
229 199 194
229 199 194
229 199 194
229 199 193
229 199 193
229 199 193
229 199 193
229 199 193
229 199 193
229 199 193
229 199 192
229 199 192
229 199 192
229 199 191
229 199 191
229 199 191
229 199 190
229 199 190
230 199 190
230 199 190
230 200 190
230 200 190
231 200 190
231 200 190
231 200 190
231 200 191
232 200 191
232 200 191
232 201 191
232 201 191
233 201 191
233 201 192
233 201 191
233 201 191
233 201 192
233 201 192
233 201 192
233 201 193
233 201 193
233 201 193
233 201 193
233 201 193
233 201 193
233 201 193
233 201 193
233 201 193
233 201 193
233 201 192
233 201 192
233 201 192
233 201 191
233 201 191
233 201 191
234 201 190
234 201 190
234 201 190
234 201 189
234 201 189
234 201 188
234 201 188
234 201 188
235 201 188
234 201 188
234 201 188
234 201 188
235 202 188
234 202 188
234 202 188
234 202 189
234 202 189
234 202 189
235 202 189
235 202 189
234 203 190
234 203 190
234 203 191
234 203 191
234 203 191
234 203 192
234 203 192
234 203 192
234 203 193
234 203 193
234 203 193
234 203 194
234 203 194
234 203 194
233 202 194
233 202 194
233 202 194
232 201 194
232 201 194
232 201 194
232 201 194
232 201 194
232 201 194
232 201 194
231 200 194
231 200 194
231 200 194
231 200 194
232 201 194
232 201 194
232 201 194
231 201 194
231 201 194
231 201 195
231 201 195
231 201 195
230 201 195
230 201 195
230 201 195
230 201 195
230 201 195
230 200 194
230 200 194
230 200 194
230 200 194
230 201 194
230 201 194
231 201 194
231 201 194
231 201 195
231 201 195
231 201 195
231 201 194
231 201 194
231 201 193
231 201 192
231 202 192
231 202 192
231 202 192
231 202 192
231 202 192
231 202 192
231 202 193
231 202 193
231 202 193
231 201 193
231 201 193
231 201 193
231 201 194
231 201 194
231 201 194
231 201 195
231 201 195
231 201 195
231 201 195
231 201 195
231 201 194
231 201 194
231 201 194
231 201 194
231 201 194
231 201 194
231 201 194
231 201 194
231 201 194
231 201 193
231 201 193
231 201 193
231 201 193
231 202 193
231 201 192
231 202 193
231 202 193
231 202 193
231 202 193
231 202 193
232 202 193
232 202 193
232 202 193
232 202 193
232 202 193
232 202 193
232 202 193
232 202 193
232 202 193
232 202 194
232 202 194
232 202 194
232 202 195
232 202 195
232 202 195
232 202 196
232 202 196
232 202 196
232 202 196
232 202 196
232 202 197
232 202 197
232 202 197
232 202 197
232 202 198
232 202 197
232 202 197
232 202 197
232 202 197
232 202 197
232 202 196
232 202 196
232 202 196
232 203 195
232 203 195
232 203 195
232 203 194
232 203 194
232 203 194
232 203 194
232 203 195
232 203 195
232 203 196
232 203 196
233 203 198
233 203 198
233 203 198
233 203 198
233 203 198
233 203 197
233 203 197
233 203 197
233 203 196
233 203 196
233 203 196
233 203 195
233 204 195
233 204 194
233 204 194
233 204 193
233 204 193
233 204 193
233 204 193
233 204 193
233 204 193
233 204 193
233 204 193
233 204 193
233 204 193
233 204 193
233 204 193
233 204 193
233 203 194
233 203 194
233 203 194
233 203 194
233 203 194
234 203 195
234 203 195
234 203 195
234 203 195
234 204 196
234 204 196
234 204 196
234 204 196
234 204 197
234 204 197
233 204 197
233 204 197
233 203 197
233 203 197
233 203 196
233 203 196
233 203 196
233 203 196
233 203 196
233 203 196
233 203 196
234 203 196
234 203 195
234 204 195
234 204 195
234 204 195
234 204 195
234 204 195
234 204 195
234 204 195
234 203 195
234 203 195
234 203 195
234 203 194
234 203 194
234 203 194
234 203 194
234 203 194
234 203 194
234 203 194
234 203 194
234 203 194
234 203 194
234 203 194
234 203 194
234 203 194
234 203 194
234 203 194
235 203 194
235 204 194
235 204 194
234 204 194
234 204 195
234 204 195
234 204 196
234 204 196
234 204 196
234 204 196
234 204 196
234 204 196
234 204 196
234 204 196
235 204 195
235 204 195
235 205 195
235 205 195
235 205 194
235 205 193
235 205 193
235 205 193
235 205 193
235 205 193
235 205 192
235 205 192
235 205 192
235 205 192
235 205 192
235 205 191
235 205 191
235 205 192
235 205 192
235 205 192
235 205 193
235 205 193
235 205 194
235 205 194
235 205 194
235 205 194
235 205 195
235 205 195
235 204 195
235 204 195
235 204 195
235 204 195
235 204 196
235 204 196
235 204 196
235 204 196
235 204 196
235 204 197
235 204 197
236 202 195
235 202 195
235 203 195
235 202 195
235 202 195
235 202 195
235 203 196
234 202 195
234 202 195
234 202 195
234 203 195
233 203 195
233 203 195
233 203 195
233 202 195
233 203 195
233 202 195
233 202 195
233 202 195
233 202 195
233 202 195
233 202 195
233 202 196
233 202 196
233 202 196
233 201 196
233 201 195
232 201 195
232 201 195
232 201 195
232 201 195
232 201 195
232 200 195
231 200 195
231 200 195
231 200 195
231 200 195
231 200 196
231 201 196
231 201 196
231 201 196
231 201 196
231 201 196
231 201 196
231 201 196
231 201 196
231 201 196
231 201 196
231 201 196
231 200 196
230 200 196
230 199 195
230 199 195
229 199 194
229 199 194
229 199 194
229 199 193
229 199 193
229 199 193
229 199 193
230 199 193
229 199 193
229 199 192
229 199 192
229 199 192
229 199 191
229 199 191
229 199 191
229 199 190
229 199 190
230 200 190
230 200 190
230 200 190
231 200 190
231 200 190
231 200 190
232 200 190
232 201 190
232 201 191
232 201 190
232 201 191
233 201 191
233 201 191
233 201 191
233 201 191
233 201 191
233 201 191
233 201 191
233 201 191
233 201 192
233 201 192
233 201 192
233 201 192
233 201 192
233 201 192
233 201 192
233 201 193
233 201 193
233 201 193
233 201 193
233 201 192
233 201 192
233 201 192
233 201 191
233 201 191
234 201 191
234 201 191
234 201 190
234 201 190
234 201 190
234 201 189
235 201 189
235 201 188
235 201 188
235 201 188
235 201 188
235 201 188
235 201 188
235 202 188
235 202 188
235 202 189
235 202 189
235 202 189
235 202 189
235 203 189
235 203 190
234 203 190
234 203 190
234 203 191
234 203 191
234 203 191
234 203 192
234 203 192
234 203 192
234 203 192
233 203 193
233 203 193
233 203 193
233 202 194
233 202 194
233 202 194
233 201 194
232 201 194
232 201 194
232 201 194
232 201 194
232 201 194
232 201 194
232 201 194
232 200 194
232 200 194
231 200 194
231 200 194
231 200 194
231 200 194
232 200 194
232 201 195
231 201 195
231 201 195
231 201 195
231 201 196
231 201 195
231 201 195
231 201 195
231 201 195
230 201 195
230 201 195
230 200 195
230 200 194
230 200 194
230 200 194
230 201 194
230 201 194
231 201 194
231 201 195
231 201 195
231 201 195
231 201 195
231 201 194
231 201 194
231 201 193
230 201 192
230 202 192
231 202 192
230 202 192
230 202 192
231 202 192
231 202 192
230 202 192
230 202 193
231 202 193
230 202 193
231 201 193
230 201 193
231 201 194
231 201 194
231 201 194
231 201 194
231 201 195
231 201 194
231 201 195
231 201 194
231 201 194
231 201 194
231 201 194
231 201 194
231 201 194
231 201 194
231 201 194
231 201 194
231 201 194
231 201 193
231 201 193
231 201 193
231 201 193
231 201 193
231 201 192
231 201 192
231 201 192
231 201 192
231 202 193
231 202 193
232 202 193
232 202 193
232 202 193
232 202 193
232 202 193
232 202 193
232 202 193
232 202 194
232 202 194
232 202 194
232 202 194
232 202 194
232 202 195
232 202 195
232 202 196
232 202 196
232 202 196
232 202 196
232 202 197
232 202 197
232 202 197
232 202 197
232 202 197
232 202 198
232 202 198
232 202 198
232 202 197
232 202 197
232 202 197
232 202 197
232 202 197
232 202 196
232 202 196
232 203 196
232 203 195
232 203 195
232 203 195
232 203 195
232 203 195
232 203 195
232 203 195
232 203 195
233 203 196
233 203 197
233 203 198
233 203 198
233 203 198
233 203 198
233 203 198
233 203 198
233 203 197
233 203 197
233 203 196
233 203 196
233 203 195
233 203 195
233 203 195
233 204 194
233 204 194
233 204 194
233 204 193
233 204 193
233 204 193
233 204 193
233 204 193
233 204 193
233 204 193
233 204 193
233 204 193
233 204 193
233 204 193
233 204 193
233 203 193
233 203 194
233 203 194
233 203 194
233 203 194
234 203 194
234 203 195
234 203 195
234 203 195
234 204 196
234 204 196
234 204 196
234 204 196
234 204 197
234 204 197
233 204 197
233 204 197
233 204 197
233 203 197
233 203 197
233 203 197
233 203 196
233 203 196
233 203 196
233 203 196
233 203 196
234 203 196
234 203 196
234 204 196
234 204 196
234 204 195
234 204 195
234 204 195
234 204 195
234 203 195
234 203 195
234 203 195
234 203 194
234 203 194
234 203 194
234 203 194
234 203 194
234 203 194
234 203 194
234 203 194
234 203 194
234 203 194
234 203 194
234 203 194
234 203 194
234 203 194
234 203 194
234 203 194
235 203 194
235 204 194
235 204 194
234 204 194
234 204 195
234 204 195
234 204 195
234 204 196
234 204 196
234 204 196
234 204 196
234 204 196
234 204 196
234 204 196
234 204 195
235 204 195
235 205 195
235 205 194
235 205 194
235 205 193
235 205 193
235 205 193
235 205 193
235 205 192
235 205 192
235 205 192
235 205 192
235 205 192
235 205 191
235 205 191
235 205 191
235 205 191
235 205 192
235 205 192
235 205 193
235 205 193
235 205 193
235 205 193
235 205 193
235 205 194
235 205 194
235 205 194
235 205 195
235 205 195
235 204 195
235 204 195
235 204 195
235 204 196
235 204 196
235 204 196
235 204 196
235 204 197
235 204 197
236 202 195
236 203 195
236 203 195
236 203 195
236 203 196
235 203 196
235 203 196
235 203 195
234 203 195
234 203 195
234 203 195
234 203 195
234 203 195
234 203 195
234 203 195
234 203 195
233 203 195
233 203 195
233 203 195
233 203 195
233 202 195
233 202 195
233 202 196
233 202 195
233 202 195
233 202 195
233 202 195
233 202 195
232 202 195
232 201 195
232 201 195
232 201 195
232 201 194
231 200 194
231 200 195
231 200 195
231 200 195
231 200 195
231 200 195
231 201 195
231 201 196
231 201 195
231 201 195
231 201 196
231 201 196
231 201 196
231 201 196
231 201 196
231 201 196
231 200 196
231 200 196
230 199 195
230 199 195
230 198 194
229 198 194
229 198 194
229 198 193
229 198 193
230 199 193
230 199 193
230 199 193
230 199 192
230 199 192
230 199 191
230 199 191
229 199 191
230 199 191
230 199 190
230 199 190
230 200 190
230 200 190
231 200 190
231 200 190
231 200 190
232 201 190
231 200 190
232 201 190
232 201 190
232 201 191
232 201 190
233 201 191
233 201 191
233 201 191
233 201 190
233 201 191
233 201 190
233 201 191
233 201 191
233 201 191
233 201 191
233 201 191
233 201 191
233 201 191
233 201 191
233 201 192
233 201 192
233 201 193
233 201 193
233 201 193
233 201 193
233 201 192
233 201 192
234 201 192
234 201 192
234 201 192
234 201 191
234 201 191
234 201 191
235 201 191
235 201 190
235 201 190
235 201 189
235 201 189
235 201 188
235 201 188
235 202 188
235 202 189
235 202 188
235 202 189
235 202 189
235 202 189
235 202 189
235 202 189
235 202 189
235 203 189
234 203 189
234 203 190
234 203 190
234 203 191
234 203 191
233 202 191
233 202 191
233 202 191
233 202 192
233 202 192
233 202 192
233 202 193
233 202 193
233 202 194
233 202 194
233 201 194
232 201 194
232 201 195
232 201 194
232 201 195
232 201 194
232 201 195
232 201 194
232 200 194
232 200 194
232 200 194
231 200 194
231 200 194
231 200 195
231 200 195
231 200 195
231 200 195
231 201 195
231 201 195
231 201 195
231 201 196
231 201 196
231 201 196
231 201 195
231 201 195
230 201 195
230 201 195
230 200 195
230 200 194
230 200 194
230 200 194
230 201 194
230 201 194
230 201 194
231 201 195
231 201 195
231 201 195
231 201 195
231 201 194
231 201 194
230 201 193
230 202 192
230 202 191
230 202 191
230 202 191
230 202 192
230 202 192
230 202 192
230 202 192
230 202 192
230 202 192
230 202 193
230 202 193
231 201 193
231 201 193
231 201 194
231 201 194
231 201 194
231 201 194
231 201 194
231 201 194
231 201 194
231 201 194
231 201 194
231 201 194
231 201 194
231 201 194
231 201 194
231 201 194
231 201 194
231 201 194
231 201 193
231 201 193
231 201 193
231 201 193
231 201 192
231 201 192
231 201 192
231 201 192
231 201 192
231 201 192
232 202 193
232 202 193
232 202 193
232 202 193
232 202 193
232 202 193
232 202 193
232 202 193
232 202 194
232 202 194
232 202 194
232 202 194
232 202 195
232 202 195
232 202 195
232 202 196
232 202 196
232 202 196
232 202 197
232 202 197
232 202 197
232 202 197
232 202 197
232 202 198
232 202 198
232 202 198
232 202 198
232 202 198
232 202 198
232 202 197
232 202 197
232 202 197
232 202 197
232 202 196
232 202 196
232 203 196
232 203 195
232 203 195
232 203 195
232 203 195
232 203 195
232 203 195
232 203 196
233 203 196
233 203 197
233 203 198
233 203 198
233 203 198
233 203 198
233 203 198
233 203 198
233 203 197
233 203 197
233 203 196
233 203 196
233 203 195
233 203 195
233 203 194
233 204 194
233 204 194
233 204 193
233 204 193
233 204 193
233 204 193
233 204 193
233 204 193
233 204 193
233 203 193
233 203 192
233 203 193
233 203 193
233 203 193
233 203 193
233 203 193
233 203 193
233 203 193
233 203 194
233 203 194
234 203 194
234 203 195
234 203 195
234 204 195
234 204 196
234 204 196
234 204 196
234 204 196
234 204 197
234 204 197
233 204 197
233 204 197
233 204 197
233 203 197
233 203 197
233 203 197
233 203 197
233 203 197
233 203 197
233 203 196
233 203 197
234 203 196
234 203 196
234 204 196
234 204 196
234 204 196
234 204 195
234 204 195
234 203 195
234 203 195
234 203 195
234 203 194
234 203 194
234 203 194
234 203 194
234 203 194
234 203 194
234 203 194
234 203 194
234 203 194
234 203 194
234 203 194
234 203 194
234 203 194
234 203 194
234 203 194
234 203 194
234 203 194
234 203 194
234 203 194
235 204 194
234 204 194
234 204 194
234 204 195
234 204 195
234 204 196
234 204 196
234 204 196
234 204 196
234 204 196
234 204 196
234 204 196
234 204 195
234 204 195
235 204 194
235 205 194
235 205 193
235 205 193
235 205 193
235 205 193
235 205 192
235 205 192
235 205 192
235 205 192
235 205 192
235 205 191
235 205 191
235 205 191
235 205 191
235 205 191
235 205 191
235 205 192
235 205 192
235 205 192
235 205 192
235 205 193
235 205 193
235 205 194
235 205 194
235 205 194
235 205 194
235 205 195
235 204 195
235 204 195
235 204 195
235 204 195
235 204 196
235 204 196
235 204 196
235 204 197
235 204 197
236 203 195
236 203 195
236 203 195
236 203 195
236 203 196
236 203 196
236 203 196
235 203 195
235 203 195
235 203 195
235 204 195
234 203 195
234 204 195
234 204 195
234 204 195
234 203 195
234 204 195
234 203 195
234 203 195
234 203 195
234 203 195
234 203 195
233 203 195
233 202 195
233 202 195
233 202 195
233 202 195
233 202 195
233 202 195
233 202 194
232 201 194
232 201 194
232 201 194
232 201 194
231 200 194
231 200 194
231 200 195
231 200 195
231 200 195
231 200 195
231 200 195
231 200 195
231 201 195
231 200 195
231 201 195
232 201 195
232 201 196
232 201 196
232 200 196
231 200 196
231 200 195
231 199 195
230 199 194
230 198 194
230 198 193
230 198 193
230 198 193
230 198 193
230 198 193
230 199 193
230 199 192
230 199 192
230 199 192
230 199 191
230 199 191
230 199 191
230 199 191
230 199 191
230 200 190
230 200 190
231 200 190
231 200 190
231 201 190
232 201 190
232 201 190
232 201 190
232 201 190
232 201 190
232 201 190
233 201 190
233 201 190
233 201 190
233 201 190
233 201 190
233 201 190
233 201 190
233 201 190
233 201 190
233 201 190
233 201 190
233 201 191
233 201 191
233 201 191
233 201 191
233 201 192
233 201 192
233 201 193
233 201 193
233 201 193
233 201 193
234 201 193
234 201 193
234 201 193
234 201 192
234 202 192
234 201 192
235 202 192
235 202 192
235 202 191
235 202 191
235 201 190
235 202 190
235 202 190
236 202 189
236 202 189
235 202 189
236 202 189
236 202 189
235 202 189
235 202 189
235 202 189
235 202 189
235 202 189
235 202 189
234 202 189
234 202 189
234 202 190
234 202 190
234 202 190
233 202 191
233 202 191
233 202 191
233 202 191
233 202 191
233 202 192
233 202 192
233 202 193
233 202 193
233 201 194
232 201 194
232 201 194
232 201 195
232 201 195
232 200 195
232 200 195
232 200 195
232 200 195
232 200 195
232 200 195
232 200 195
232 200 195
232 200 195
231 200 195
231 200 195
231 200 195
231 200 195
231 200 196
231 200 196
231 200 196
231 201 196
231 201 196
231 201 196
231 201 196
231 201 196
231 201 195
231 201 195
230 201 195
230 201 195
230 200 194
230 200 194
230 200 194
230 201 194
230 201 194
230 201 194
231 201 195
231 201 195
231 201 195
231 201 195
231 201 194
230 201 193
230 201 193
230 202 192
230 202 191
230 202 191
230 202 191
230 202 191
230 202 191
230 202 192
230 202 192
230 202 192
230 202 192
230 202 192
230 202 193
230 201 193
231 201 193
231 201 193
231 201 193
231 201 194
231 201 194
231 201 194
231 201 194
231 201 194
231 201 194
231 201 194
231 201 194
231 201 194
231 201 194
231 201 194
231 201 194
231 201 194
231 201 193
231 201 193
231 201 193
231 201 193
232 201 193
231 201 192
232 201 192
232 201 192
231 201 192
232 201 192
232 201 192
232 201 192
232 202 193
232 202 193
232 202 193
232 202 193
232 202 193
232 202 194
232 202 194
232 202 194
232 202 194
232 202 195
232 202 195
232 202 195
232 202 195
232 202 196
232 202 196
232 202 196
232 202 197
232 202 197
232 202 197
232 202 197
232 202 198
232 202 198
232 202 198
232 202 198
232 202 198
232 202 198
232 202 198
232 202 198
232 202 198
232 202 198
232 202 197
232 202 197
232 202 197
232 202 196
232 202 196
232 202 196
232 203 195
232 203 195
232 203 195
232 203 195
232 203 195
232 203 196
233 203 197
233 203 197
233 203 198
233 202 198
233 202 198
233 202 198
233 202 198
233 202 197
233 203 197
233 203 197
233 203 196
233 203 196
233 203 195
233 203 195
233 203 194
233 203 194
233 204 194
233 204 193
233 204 193
233 204 193
233 204 193
233 204 193
233 203 193
233 203 192
233 203 192
233 203 192
233 203 192
233 203 192
233 203 193
233 203 193
233 203 193
233 203 193
233 203 193
233 203 193
233 203 194
234 203 194
234 203 194
234 203 195
234 204 195
234 204 195
234 204 195
234 204 196
234 204 196
234 204 196
234 204 197
234 204 197
233 204 197
233 204 198
233 204 198
233 203 197
233 203 197
233 203 197
233 203 197
233 203 197
233 203 197
233 203 197
234 203 196
234 203 196
234 203 196
234 204 196
234 204 196
234 204 196
234 203 195
234 203 195
234 203 195
234 203 195
234 203 194
234 203 194
234 203 194
234 203 194
234 203 194
234 203 194
234 203 194
234 203 194
234 203 194
234 203 194
234 203 194
234 203 194
234 203 194
234 203 194
234 203 194
234 203 194
234 203 194
234 203 194
234 203 194
235 204 194
234 204 194
234 203 195
234 203 195
234 203 195
234 203 196
234 203 196
234 204 196
234 204 196
234 204 196
234 204 196
234 204 195
234 204 195
234 204 195
234 204 194
235 205 194
235 205 193
235 205 193
235 205 193
235 205 192
235 205 192
235 205 192
235 205 192
235 205 191
235 205 191
235 205 191
235 205 191
235 205 191
235 205 191
235 205 191
235 205 191
235 205 192
235 205 192
235 205 192
235 205 192
235 205 192
235 205 193
235 205 193
235 205 194
235 205 194
235 205 194
235 205 194
235 204 195
235 204 195
235 204 195
235 204 195
235 204 196
235 204 196
235 204 196
235 204 197
235 204 197
236 203 194
237 203 194
237 203 195
236 203 195
236 203 195
236 203 195
236 204 195
235 204 195
235 204 195
235 204 195
235 204 195
235 204 196
235 204 196
235 204 196
234 204 196
234 204 196
234 204 195
234 204 195
234 204 195
234 204 195
234 203 195
234 203 195
234 203 195
233 203 195
233 203 195
233 202 195
233 202 195
233 202 194
233 202 194
233 202 194
233 202 194
233 202 194
232 201 194
232 201 194
232 201 194
232 201 194
232 201 194
232 200 194
231 200 194
232 200 194
231 200 194
232 200 194
232 200 194
232 200 195
232 200 195
232 200 195
232 200 195
232 200 195
232 200 195
231 200 195
231 200 195
231 199 194
230 199 194
230 198 194
230 198 193
230 198 193
230 198 193
230 199 193
230 199 193
230 199 192
230 199 192
230 199 192
230 199 191
230 199 191
230 200 190
230 200 190
230 200 190
231 200 190
231 200 190
231 200 190
232 201 190
232 201 190
232 201 190
232 201 190
232 201 190
232 201 189
232 201 189
233 201 189
233 201 189
233 201 189
233 201 190
233 201 189
233 201 190
233 201 190
233 201 190
233 201 190
233 201 190
233 201 190
233 201 190
234 201 190
234 201 190
234 201 190
234 201 191
233 201 191
233 201 192
233 201 192
233 201 193
233 201 193
233 201 193
233 201 193
234 202 193
234 202 193
234 202 193
234 202 193
235 202 193
235 202 192
235 202 193
235 202 192
235 202 192
235 202 191
236 202 191
236 202 191
235 202 191
235 202 191
235 202 190
236 202 190
235 202 190
235 202 190
236 202 190
235 202 190
235 202 190
235 202 190
235 202 190
234 202 189
234 202 189
234 202 189
233 202 190
233 202 190
233 202 190
233 202 190
233 201 191
233 202 191
232 202 191
232 202 191
232 202 191
232 201 192
233 202 193
232 201 193
232 201 193
232 201 194
232 201 194
232 201 195
232 200 195
232 200 195
232 200 195
232 200 194
232 200 195
232 200 195
232 200 195
232 200 194
232 200 194
232 200 194
232 200 195
232 200 195
231 200 195
231 200 195
231 200 195
231 200 195
231 200 196
231 201 196
231 201 195
231 201 195
231 201 196
231 201 195
231 201 195
231 201 195
231 201 195
230 201 195
230 201 194
230 200 194
230 200 194
230 200 194
230 201 194
231 201 194
231 201 195
231 201 195
231 201 195
231 201 195
231 201 194
231 201 193
230 201 193
230 202 191
230 202 191
230 202 191
230 202 191
230 202 191
230 202 191
230 202 192
230 202 192
230 202 192
230 202 192
230 202 192
230 202 193
231 201 193
231 201 193
231 201 193
231 201 193
231 201 194
231 201 194
231 201 194
231 201 194
231 201 194
231 201 194
231 201 194
231 201 194
231 201 194
231 201 194
231 201 194
231 201 194
231 201 194
231 201 193
231 201 193
232 201 193
232 201 193
232 201 193
232 201 192
232 201 192
232 201 192
232 201 192
232 201 192
232 201 192
232 201 192
232 201 192
232 202 193
232 202 193
232 202 193
232 202 193
232 202 194
232 202 194
232 202 194
232 202 194
232 202 194
232 202 194
232 202 195
232 202 195
232 202 196
232 202 196
232 202 196
232 202 197
232 202 197
232 202 197
232 202 197
232 202 198
232 202 197
232 202 198
232 202 198
232 202 198
232 202 197
232 202 198
232 202 197
232 202 197
232 202 197
232 202 197
232 202 197
232 202 197
232 202 196
232 202 196
232 202 196
232 202 196
232 202 196
232 203 196
232 203 196
232 203 196
233 203 196
233 203 197
233 203 197
233 202 197
233 202 198
233 202 198
233 202 198
233 202 197
233 202 197
233 202 197
233 203 196
233 203 196
233 203 196
234 203 195
234 203 195
234 203 194
234 203 194
234 203 194
234 204 193
234 204 193
234 204 193
234 204 193
234 204 193
234 203 193
234 203 192
233 203 192
233 203 192
233 203 192
233 203 192
233 203 192
233 203 192
233 203 192
233 203 192
233 203 193
233 203 193
233 203 193
233 203 193
234 203 194
234 203 195
234 204 195
234 204 195
234 204 195
234 204 195
234 204 196
234 204 196
234 204 197
234 204 197
234 203 197
233 203 197
233 203 197
233 203 197
233 203 197
233 203 197
233 203 197
233 203 197
233 203 197
234 203 196
234 203 196
234 203 196
234 203 196
234 203 196
234 203 195
234 203 195
234 203 195
234 203 195
234 203 195
234 203 194
234 203 194
234 203 194
234 203 194
234 203 194
234 203 194
234 203 194
234 203 194
234 203 194
234 203 194
234 203 194
234 203 194
234 203 194
234 203 194
234 203 194
234 203 194
234 203 194
234 203 194
234 203 194
234 203 194
234 203 194
234 203 194
234 203 194
234 203 195
234 203 195
234 203 196
234 203 196
234 203 196
234 203 195
234 204 195
234 204 195
234 204 195
234 204 194
234 204 194
235 204 194
235 205 193
235 205 193
235 205 192
235 205 192
235 205 192
235 205 192
235 205 191
235 205 191
235 205 191
235 205 191
235 205 191
235 205 191
235 205 191
235 205 191
235 205 191
235 205 191
235 205 191
235 205 191
235 205 191
235 205 192
235 205 192
235 205 192
235 205 193
235 205 193
235 205 194
235 205 194
235 205 194
235 204 195
235 204 195
235 204 195
235 204 195
235 204 196
235 204 196
235 204 196
235 204 197
235 204 197
237 203 194
237 203 194
237 203 194
237 203 195
236 203 195
236 204 195
236 204 195
236 204 195
236 204 195
235 204 195
235 204 195
235 204 195
235 204 195
235 204 195
235 204 196
235 204 195
235 204 195
235 204 195
235 204 195
234 204 195
234 204 195
234 203 195
234 203 195
234 203 195
233 203 195
233 203 194
233 202 194
233 202 194
233 202 194
233 202 194
233 202 194
233 202 194
233 202 194
232 201 194
232 201 194
232 201 194
232 201 194
232 201 194
232 201 194
232 200 194
232 200 194
232 200 194
232 200 194
232 200 194
232 200 194
232 200 194
232 200 194
232 200 195
232 200 195
232 200 195
231 199 194
231 199 193
231 199 194
230 198 193
230 198 193
230 198 193
230 198 192
230 199 192
230 199 192
231 199 192
231 199 192
231 200 191
231 200 191
231 200 190
231 200 190
231 200 190
231 200 190
231 200 190
232 201 190
232 201 189
232 201 190
233 201 189
232 201 190
233 201 189
233 201 189
233 201 189
233 201 188
233 201 189
233 201 189
233 201 189
233 201 189
233 201 189
233 201 189
233 201 189
234 201 190
234 201 190
233 201 190
233 201 190
234 201 190
234 201 190
234 201 191
234 201 191
234 201 191
234 201 191
233 201 192
233 201 191
233 201 193
233 202 193
234 202 193
234 202 193
234 202 193
234 202 193
234 202 193
235 202 193
235 202 193
235 202 193
235 202 193
235 202 193
235 202 192
235 202 193
235 202 192
235 202 192
235 202 192
235 202 192
235 202 191
235 202 191
235 202 191
235 202 191
235 202 191
235 202 191
235 202 191
234 202 191
234 202 190
234 202 190
234 202 190
234 202 190
233 201 190
233 201 190
232 201 190
232 201 190
232 201 191
232 201 191
232 201 191
232 201 191
232 201 191
232 201 191
232 201 192
232 201 193
232 201 193
232 201 193
232 200 194
232 200 194
231 200 194
231 200 194
231 200 194
231 200 194
231 200 194
231 201 194
231 201 194
232 201 194
232 201 194
232 201 194
232 201 194
232 200 194
232 200 195
232 200 194
232 201 194
231 200 195
231 201 195
231 201 195
231 201 195
231 201 195
231 201 195
231 201 195
231 201 195
231 201 194
230 200 193
230 200 193
231 201 194
231 200 194
231 200 193
231 200 194
231 200 194
231 201 194
231 201 194
231 201 195
231 201 195
231 201 195
231 201 194
231 201 193
231 201 193
231 201 192
230 202 191
230 202 191
230 202 191
230 202 191
230 202 192
230 202 192
230 202 192
230 202 192
230 202 192
230 202 193
231 201 193
231 201 193
231 201 193
231 201 193
231 201 194
231 201 194
231 201 194
231 201 194
231 201 194
231 201 194
231 201 194
231 201 194
231 201 194
231 201 194
231 201 194
231 201 194
231 201 194
231 201 193
232 201 193
232 201 193
232 201 193
232 201 193
232 201 192
232 201 192
232 201 192
232 201 192
232 201 192
232 201 192
232 201 192
232 201 192
232 201 192
232 202 193
232 202 193
232 202 193
232 202 193
232 202 193
232 202 194
232 202 194
232 202 194
232 202 194
232 202 194
232 202 194
232 202 195
232 202 195
232 202 195
232 202 195
233 202 195
232 202 196
232 202 196
232 202 196
233 202 196
233 202 196
232 202 196
232 202 196
232 202 197
232 202 196
232 202 197
232 202 197
232 202 196
232 202 196
232 202 196
232 202 196
232 202 196
232 202 196
232 202 196
232 202 196
232 202 196
232 202 196
232 202 196
232 202 195
232 202 196
232 202 196
233 202 196
233 202 197
233 202 196
233 202 197
233 202 197
233 202 197
233 202 196
233 202 196
233 202 196
233 203 196
233 203 196
234 203 195
234 203 195
234 203 195
234 203 194
234 203 194
234 203 194
234 203 193
234 203 193
234 204 193
234 203 193
234 203 193
234 203 193
234 203 192
233 203 192
233 203 192
233 203 192
233 203 192
233 203 192
233 203 192
233 203 192
233 203 192
233 203 192
233 203 193
233 203 193
233 203 193
234 203 193
234 203 193
234 203 194
234 204 194
234 204 194
234 204 195
234 204 195
234 204 195
234 204 196
234 204 196
234 203 196
233 203 197
233 203 197
233 203 197
233 203 197
233 203 196
233 203 197
233 203 197
234 203 196
234 203 196
234 203 196
234 203 196
234 203 196
234 203 195
234 203 195
234 203 195
234 203 195
234 203 195
234 203 194
234 203 194
234 203 194
234 203 194
234 203 194
234 203 194
234 203 194
234 203 194
234 203 194
234 203 194
234 203 194
234 203 194
234 203 194
234 203 194
234 203 194
234 203 194
234 203 194
234 203 194
234 203 194
234 203 194
235 203 194
234 203 194
234 203 194
234 203 194
234 203 194
234 203 195
234 203 195
234 203 195
234 203 195
234 203 195
234 203 195
234 204 195
234 204 194
234 204 194
235 204 194
235 204 193
235 205 193
235 205 193
235 205 192
235 205 192
235 205 192
235 205 191
235 205 191
235 205 191
235 205 191
235 205 191
235 205 191
235 205 191
235 205 191
235 205 191
235 205 191
235 205 191
235 205 191
235 205 191
235 205 191
235 205 192
235 205 192
235 204 193
235 204 193
235 204 194
235 205 194
235 204 194
235 205 194
235 204 195
235 204 195
235 204 195
235 204 195
235 204 196
235 204 196
235 204 196
235 204 196
235 204 196
237 204 194
237 204 194
237 204 194
237 204 194
236 204 194
236 204 195
236 204 195
236 204 195
235 204 195
236 204 195
235 204 195
235 204 195
235 204 195
235 204 195
235 204 195
235 204 195
235 204 195
235 204 195
235 204 195
235 204 195
234 204 195
234 204 195
234 203 195
234 203 195
234 203 194
234 203 194
233 203 194
233 203 194
233 202 194
233 202 194
233 202 194
233 202 194
233 202 194
233 202 194
232 201 194
232 201 193
232 201 194
232 201 194
232 201 193
232 201 194
232 201 193
232 201 193
232 201 193
232 200 193
232 200 193
232 200 194
232 200 194
232 200 194
232 200 194
232 200 194
231 199 193
231 199 192
231 199 193
230 198 192
230 198 192
230 198 192
230 199 192
230 199 192
231 199 192
231 199 192
231 200 191
231 200 191
231 200 190
231 200 190
231 200 190
231 201 189
232 201 189
232 201 189
232 201 189
232 201 189
233 201 189
233 202 189
233 202 188
233 202 189
233 202 189
233 202 188
233 201 188
233 201 188
233 201 188
233 201 189
233 201 189
233 201 189
234 201 189
233 201 189
233 201 189
233 201 190
233 201 190
233 201 190
234 201 190
234 201 191
234 201 191
234 201 191
234 202 192
234 201 191
234 202 192
234 202 192
233 202 192
233 202 192
234 202 193
234 202 193
234 202 193
234 202 193
234 202 193
235 202 194
235 202 194
235 202 194
235 202 194
235 202 194
235 202 193
235 202 194
234 202 194
235 202 193
235 202 193
235 202 193
235 202 193
235 202 192
234 201 193
234 201 193
234 201 192
234 201 192
234 201 192
234 201 191
234 201 191
233 201 191
233 201 190
233 201 191
232 201 190
232 201 190
232 201 190
232 201 190
232 201 191
232 201 191
232 201 191
232 201 191
232 201 191
232 201 191
232 201 191
232 201 192
232 201 193
231 201 193
231 200 194
231 200 194
231 200 194
231 200 194
231 200 193
231 201 193
231 201 193
231 201 193
232 201 193
232 201 193
232 201 193
232 201 193
232 201 193
232 201 194
232 200 194
232 201 193
232 201 193
232 201 194
232 201 193
231 201 194
231 201 193
231 201 194
231 201 194
231 201 194
231 201 194
218 187 179
217 186 178
224 194 186
231 200 193
231 200 193
231 200 193
231 200 193
231 200 193
231 201 194
231 201 194
231 201 195
231 201 195
231 201 195
231 201 194
231 201 194
231 201 193
231 201 192
231 201 192
231 201 191
231 201 192
231 201 192
230 201 192
231 201 192
231 201 192
231 201 193
231 201 193
231 201 193
231 201 193
228 199 193
230 200 193
228 199 193
222 194 189
220 193 188
221 194 189
222 194 189
222 194 188
224 196 189
219 193 187
219 192 186
225 196 190
228 199 192
229 199 192
231 200 193
232 201 194
231 201 193
232 201 193
232 201 193
232 201 193
232 201 192
232 201 192
232 201 192
232 201 192
232 201 191
232 201 191
232 201 191
232 201 191
232 201 192
232 201 192
232 201 192
232 202 193
232 202 193
232 202 193
232 202 193
232 202 193
232 202 194
232 202 193
232 202 194
233 202 194
232 202 194
232 202 194
233 202 193
233 202 194
233 202 194
233 202 194
233 202 194
233 202 194
233 202 194
233 202 195
233 202 195
233 202 195
233 202 195
233 202 195
233 202 195
232 202 195
232 202 196
232 203 195
232 203 195
232 203 195
232 202 195
232 202 195
232 202 195
232 202 195
232 202 195
232 202 195
232 202 195
232 202 195
229 199 193
232 202 195
233 202 196
233 202 196
233 202 196
233 202 196
233 202 196
233 202 196
233 202 196
233 202 196
233 202 196
233 203 196
233 203 195
233 203 195
234 203 195
234 203 194
234 203 194
234 203 194
234 203 194
234 203 194
234 203 194
234 203 193
234 203 193
234 203 193
234 203 193
234 203 193
234 203 192
234 203 192
234 202 192
233 203 192
233 203 192
233 203 192
233 203 192
233 203 192
233 203 192
233 203 192
233 203 192
233 203 192
233 203 192
233 203 193
234 203 193
234 203 193
234 203 193
234 204 193
234 204 194
234 204 194
234 203 194
234 203 195
234 203 196
234 203 196
233 203 196
233 203 196
233 203 196
233 203 196
234 203 196
234 203 196
234 203 195
234 203 196
234 203 196
234 203 195
234 203 196
234 203 195
234 203 195
234 203 195
234 203 195
234 203 195
234 203 195
234 203 195
234 203 194
234 203 194
234 203 194
234 203 194
234 203 194
234 203 194
234 203 194
234 203 194
234 203 194
234 203 194
234 203 194
234 203 194
234 203 194
234 203 194
234 203 194
234 203 194
234 203 194
234 203 194
234 203 194
234 203 194
234 203 194
234 203 194
234 203 194
234 203 194
234 203 195
234 203 195
234 203 195
234 203 194
234 203 194
234 203 194
234 204 194
234 204 194
235 204 193
235 204 193
235 204 193
235 205 192
235 205 192
235 205 192
235 205 192
235 205 191
235 205 191
235 205 191
235 205 191
235 205 191
235 205 191
235 205 191
235 205 191
235 205 191
235 204 191
235 205 191
235 204 191
235 204 191
235 204 191
235 204 191
235 204 192
235 204 192
235 204 193
235 204 193
235 204 194
235 204 194
235 204 195
235 204 195
235 204 195
235 204 195
235 204 195
235 204 196
235 204 196
235 204 196
235 204 196
235 204 196
235 204 196
237 204 193
237 204 194
237 204 194
237 204 194
236 204 194
236 204 194
236 204 194
236 204 195
235 204 194
235 204 195
235 204 195
235 205 195
235 205 195
235 205 195
235 204 195
235 204 195
235 204 195
235 204 195
235 204 195
235 204 195
235 204 195
234 204 195
234 203 194
234 203 194
234 203 194
234 203 194
234 203 194
234 203 194
234 203 194
234 203 194
234 203 194
233 203 193
233 202 193
233 202 193
233 202 193
233 202 194
233 201 193
232 201 193
232 201 193
233 201 193
232 201 193
232 201 193
232 201 193
232 201 193
232 201 193
232 201 193
232 200 193
232 200 193
232 200 193
232 200 193
231 200 193
231 200 192
231 199 192
231 199 192
231 199 192
231 199 191
231 199 192
231 199 192
231 200 191
231 200 191
231 200 191
231 200 190
232 201 190
231 200 190
232 201 189
232 201 189
232 201 188
232 202 188
232 202 188
233 202 188
233 202 188
233 202 188
233 202 188
233 202 188
233 202 188
233 202 188
234 202 188
233 202 188
234 201 188
234 201 188
234 201 188
234 201 189
233 201 189
233 201 189
233 201 190
233 201 190
233 201 191
233 201 191
233 201 191
233 201 191
233 202 191
233 201 191
234 201 191
233 202 192
233 202 192
233 202 192
233 202 192
233 202 192
233 202 192
234 202 192
234 202 192
234 202 193
234 202 193
234 202 193
234 202 194
234 202 194
234 202 194
234 202 194
234 202 194
234 201 194
234 201 194
234 201 194
234 201 194
234 201 194
234 201 194
233 201 194
233 201 194
233 201 194
233 201 194
233 201 193
233 201 192
233 201 192
233 201 192
232 200 192
232 200 191
232 200 191
231 200 191
231 200 191
231 200 191
231 200 190
231 200 190
231 200 191
231 201 191
231 201 191
231 201 191
232 201 191
231 201 191
231 201 192
231 201 192
231 201 192
231 200 193
231 200 193
231 200 193
231 201 193
231 201 193
231 201 193
231 201 193
231 201 193
231 201 193
231 201 192
232 201 193
232 201 192
232 201 193
232 201 192
232 201 193
232 201 193
232 201 193
232 201 193
231 201 193
232 201 193
231 201 193
231 201 193
231 201 193
231 201 192
220 189 180
206 174 164
191 158 148
209 177 168
225 194 186
230 200 192
231 200 193
231 200 193
231 200 193
231 200 194
231 200 194
231 201 195
231 201 195
231 201 195
231 201 194
231 201 194
231 201 193
231 201 192
231 201 192
231 201 192
231 201 192
231 201 192
231 201 193
230 200 192
229 200 193
228 200 194
227 199 194
221 195 195
220 195 197
209 187 194
203 181 191
199 179 194
194 175 182
189 173 182
185 170 170
173 159 159
181 166 168
178 163 164
185 168 166
185 169 166
185 169 169
194 176 176
201 181 178
212 188 183
220 194 189
221 193 186
230 199 192
231 200 192
231 200 192
232 201 192
233 201 192
232 201 192
233 201 191
233 201 191
232 201 191
233 201 191
232 201 191
233 201 191
232 201 192
232 201 192
232 201 193
232 201 193
232 202 193
232 202 193
232 202 193
232 202 193
233 202 193
233 202 193
233 202 193
233 202 193
233 202 194
233 202 194
233 202 193
233 202 193
233 202 194
233 202 193
233 202 193
233 202 193
233 202 194
233 202 193
233 202 194
233 202 193
233 202 193
233 202 193
233 202 194
233 202 194
232 203 194
232 203 194
232 203 194
233 203 194
232 202 195
233 202 195
233 202 195
233 202 195
232 202 195
232 202 195
220 190 186
186 159 160
227 197 189
233 202 195
233 202 195
233 202 195
233 202 195
233 202 195
233 202 196
233 202 195
233 202 195
233 202 196
233 203 195
233 203 195
233 203 195
234 203 195
234 203 194
234 203 194
234 203 194
234 203 194
234 203 194
234 203 194
234 203 193
234 203 193
234 203 193
234 203 193
234 203 193
234 202 192
234 202 192
234 202 192
234 202 192
233 202 192
233 203 192
233 203 192
233 203 192
233 203 192
233 203 192
233 203 192
233 203 192
233 203 192
233 203 192
233 203 192
234 203 192
234 203 193
234 204 192
234 204 193
234 203 194
234 203 193
234 203 194
234 203 194
234 203 195
234 203 195
234 203 195
234 203 195
234 203 195
234 203 195
234 203 195
234 203 195
234 203 195
234 203 195
234 203 195
234 203 195
234 203 195
234 203 195
234 203 195
234 203 195
234 203 195
234 203 194
234 203 194
234 203 194
234 203 194
234 203 194
234 203 194
234 203 194
234 203 194
234 203 194
234 203 194
234 203 194
234 203 194
234 203 194
234 203 194
234 203 194
234 203 194
234 203 194
234 203 194
234 203 194
234 203 194
234 203 194
234 203 194
234 203 194
234 203 194
234 203 194
234 203 194
234 203 194
234 203 194
234 203 194
234 203 194
234 203 194
234 204 194
234 204 194
235 204 193
235 204 193
235 204 193
235 204 193
235 205 192
235 205 192
235 205 192
235 205 191
235 205 191
235 205 191
235 205 191
235 205 191
235 205 191
235 205 191
235 205 191
235 205 191
235 205 191
235 204 191
235 205 191
235 204 191
235 204 191
235 204 191
235 204 192
235 204 192
235 204 192
235 204 193
235 204 193
235 204 194
235 204 194
235 204 195
235 204 195
235 204 195
235 204 195
235 204 196
235 204 196
235 204 196
235 204 195
235 204 196
235 204 195
235 204 196
237 204 194
237 204 193
237 204 194
236 204 194
236 204 194
236 204 194
236 204 194
236 204 194
236 204 194
235 204 195
236 205 195
235 205 195
235 205 195
235 205 195
235 205 195
235 204 195
235 204 195
235 204 195
235 204 195
235 204 195
235 204 194
235 204 194
234 204 194
234 203 194
234 203 194
234 203 194
234 203 194
234 203 193
234 203 194
234 203 193
234 203 193
234 203 193
234 203 193
234 203 193
233 202 194
233 202 194
233 202 194
233 202 194
233 202 193
233 201 193
233 201 193
233 201 193
233 201 193
232 201 193
232 201 193
232 201 193
232 201 193
232 201 193
232 201 193
232 200 192
232 200 192
232 200 192
232 200 192
231 199 191
231 200 192
231 200 192
231 200 191
232 200 191
231 200 191
232 200 191
232 200 190
232 201 190
232 201 190
232 201 189
232 201 189
232 201 188
232 202 188
233 202 188
233 202 188
233 202 187
233 202 187
233 202 187
233 202 187
234 202 187
234 202 187
234 202 187
234 202 187
234 202 188
234 202 188
234 201 188
234 201 188
234 201 188
234 201 189
234 201 189
234 202 190
233 202 190
233 202 191
233 202 191
233 202 191
233 202 192
233 201 192
233 201 192
233 202 192
233 202 192
233 202 192
233 202 191
233 202 191
233 202 191
233 202 191
233 202 192
233 202 192
233 202 192
233 202 193
233 202 193
233 202 193
234 202 194
233 201 194
234 201 194
233 201 195
233 200 195
233 201 195
233 200 195
233 200 195
233 200 195
232 200 195
233 200 195
232 200 195
233 200 194
232 200 194
232 200 194
232 200 194
232 200 193
232 200 193
232 200 192
232 200 192
231 200 191
231 200 191
231 200 191
231 200 191
231 200 191
231 200 190
231 200 190
231 200 190
231 201 190
231 201 190
231 201 190
231 201 191
231 201 191
231 201 191
231 201 192
231 201 192
230 201 192
231 201 192
230 201 192
230 201 192
231 201 192
231 201 192
231 201 192
231 201 192
232 201 192
232 201 192
232 201 192
232 201 191
232 201 191
232 201 191
232 201 192
232 202 191
232 201 192
232 201 192
232 201 192
231 201 192
231 201 191
231 201 191
223 193 184
195 162 151
163 126 112
153 111 95
167 132 120
202 169 160
227 196 188
231 200 193
231 200 193
231 200 193
231 200 194
231 200 194
231 200 194
232 200 195
232 201 195
232 201 195
232 201 194
232 201 193
231 201 193
231 201 192
231 201 192
228 199 190
226 197 190
223 196 193
216 191 192
213 189 195
200 179 191
193 175 195
189 173 189
184 168 183
167 155 170
172 160 174
165 154 167
151 142 152
148 141 151
137 133 134
148 140 148
172 160 177
183 169 185
186 171 189
172 159 178
186 171 188
185 170 181
176 163 176
189 174 184
180 165 173
180 165 169
189 170 173
201 180 177
218 192 188
221 194 188
232 201 193
232 201 192
233 202 191
233 202 191
233 202 191
233 202 191
233 201 191
233 201 191
233 201 192
233 201 192
233 201 193
233 201 193
233 201 193
233 202 193
233 202 193
233 202 193
233 202 193
233 202 193
233 202 193
233 202 193
233 202 192
233 202 192
233 202 192
233 202 192
233 202 192
233 202 192
233 202 192
233 202 192
233 202 192
233 202 192
233 202 192
233 202 192
233 202 193
233 202 192
233 202 193
233 203 193
233 203 193
233 203 193
233 203 193
233 203 194
233 203 194
233 202 194
233 202 194
233 202 195
233 202 195
226 196 190
175 149 156
168 143 151
199 169 159
230 200 193
233 202 195
233 202 195
233 202 195
233 202 195
233 202 195
233 202 195
233 202 194
233 202 195
233 203 195
233 203 195
234 203 195
234 203 194
234 203 194
234 203 194
234 203 194
234 203 194
234 203 194
234 203 194
234 203 194
234 203 194
234 203 193
234 202 193
234 202 193
234 202 192
234 202 192
234 202 192
234 202 192
234 202 192
233 202 192
233 202 192
233 202 192
233 203 192
233 203 192
233 203 191
233 203 192
233 203 192
233 203 192
233 203 192
233 203 192
234 204 192
234 204 192
234 203 192
234 203 193
234 203 193
234 203 193
234 203 194
234 203 194
234 203 194
234 203 194
234 203 195
234 203 195
234 203 194
234 203 194
234 203 194
234 203 194
234 203 195
234 203 195
234 203 195
234 203 195
234 203 195
234 203 195
234 203 194
234 203 194
234 203 194
234 203 194
234 203 194
234 203 194
234 203 194
234 203 194
234 203 194
234 203 194
234 203 194
234 203 194
234 203 194
234 203 194
234 203 194
234 203 194
234 203 194
234 203 194
234 203 194
234 203 194
234 203 194
234 203 194
234 203 195
234 203 195
234 203 194
234 203 194
234 203 194
234 203 194
234 203 194
234 203 194
234 203 194
234 203 193
234 203 193
234 204 193
235 204 193
235 204 193
235 204 192
235 204 192
235 204 192
235 204 192
235 205 191
235 205 191
235 205 191
235 205 191
235 205 191
235 205 191
235 205 190
235 205 190
235 205 191
235 205 191
235 205 191
235 205 191
235 204 191
235 204 191
235 204 191
235 204 191
235 204 192
235 204 192
235 204 192
235 204 192
235 204 193
235 204 193
235 204 194
235 204 194
235 204 195
235 204 195
235 204 195
235 204 196
235 204 196
235 204 196
235 204 195
235 204 195
235 204 195
235 204 195
235 204 195
236 204 193
236 204 193
236 205 193
236 204 193
236 204 194
236 204 193
236 204 194
236 204 194
236 205 194
235 204 194
236 205 195
235 205 194
235 205 195
235 205 195
235 205 195
235 204 194
235 204 194
235 204 194
235 204 194
235 204 194
235 204 194
235 204 194
235 204 194
235 204 194
234 203 194
234 203 194
234 203 193
234 203 193
234 203 193
234 203 193
234 203 193
234 203 193
234 203 194
234 203 194
234 203 194
234 203 194
234 202 194
234 202 194
233 202 193
233 202 193
233 202 193
233 202 193
233 202 193
233 201 193
233 201 193
233 201 193
233 201 193
232 201 193
232 201 192
232 200 192
232 200 192
232 200 192
232 200 192
232 200 192
232 200 192
232 200 192
232 200 192
232 200 191
232 201 191
232 201 191
232 201 190
232 201 190
232 201 189
232 201 189
232 201 188
233 202 188
233 202 188
233 202 187
233 202 187
233 202 186
233 202 186
233 202 186
234 202 186
234 202 187
234 202 187
234 202 187
234 202 187
234 202 187
234 202 188
234 202 188
234 202 188
234 202 188
234 202 189
234 202 190
234 202 190
234 202 191
233 202 191
233 202 191
233 202 192
233 202 192
233 201 192
233 201 192
233 201 192
233 201 192
233 201 191
233 201 191
233 201 191
233 201 190
233 201 190
233 201 191
233 201 191
233 201 192
233 201 192
233 201 192
233 201 193
233 201 194
233 201 194
232 200 194
232 200 194
232 200 195
232 200 195
232 200 195
232 200 195
232 200 195
232 200 196
232 199 195
232 200 195
232 200 195
231 199 195
231 199 195
231 199 194
231 199 194
231 199 193
231 199 193
231 199 193
231 199 192
231 199 192
230 199 192
231 199 191
231 200 191
231 200 191
231 200 190
231 200 190
231 200 190
231 200 190
231 201 190
231 201 190
231 201 191
231 201 191
231 201 192
231 201 192
230 201 192
230 201 192
230 201 192
230 201 192
230 201 192
231 201 192
231 201 192
231 201 191
231 201 191
232 201 191
232 201 191
232 202 191
232 201 191
232 202 191
232 202 191
232 202 191
232 202 191
232 202 191
232 201 191
231 201 191
231 201 190
219 188 178
198 165 154
171 134 120
139 97 80
132 85 62
138 94 75
180 144 133
202 168 159
227 196 188
231 200 193
231 200 193
231 200 194
231 200 194
232 200 194
232 200 195
232 201 195
232 201 195
232 201 194
232 201 194
232 201 193
228 199 191
220 193 190
208 184 189
196 175 190
192 174 192
174 161 176
168 154 169
140 133 143
153 145 153
144 138 145
128 126 128
122 122 116
129 126 130
111 114 105
111 114 107
117 117 118
111 114 107
115 116 108
131 128 135
164 154 170
187 172 194
179 165 190
188 173 196
181 166 186
179 164 190
188 173 196
188 173 195
182 167 189
178 164 185
178 164 175
187 172 184
197 179 186
211 190 195
221 195 194
226 198 192
231 201 191
233 202 190
233 202 190
233 202 190
233 201 191
233 201 192
233 201 192
233 201 193
233 201 193
233 201 193
233 201 193
233 202 193
233 202 193
233 202 193
233 202 192
233 202 192
233 202 192
233 202 192
233 202 192
233 202 191
233 202 191
233 202 191
233 202 191
233 202 191
233 202 191
233 202 191
233 202 191
233 202 191
233 202 191
233 202 191
233 202 191
233 203 192
233 203 192
233 203 192
233 203 192
233 203 193
233 203 193
233 203 193
233 202 194
233 202 194
233 202 194
225 195 189
174 148 155
166 141 150
166 141 150
188 159 151
202 172 162
230 199 191
233 202 194
233 202 194
233 202 194
233 202 194
233 202 194
233 202 194
233 202 194
233 203 194
233 203 194
233 203 194
234 203 194
234 203 194
234 203 194
234 203 194
234 203 194
234 203 194
234 203 194
234 203 194
235 203 194
235 202 193
235 202 193
234 202 193
234 202 193
234 202 192
234 202 192
234 202 192
234 202 192
234 202 192
234 202 192
233 202 192
233 202 192
233 203 192
233 203 192
233 203 191
233 203 191
233 203 191
233 203 191
233 203 191
233 204 191
234 204 192
234 203 192
234 203 192
234 203 192
234 203 193
234 203 193
234 203 193
234 203 194
234 203 194
234 203 194
234 203 194
234 203 194
234 203 194
234 203 194
234 203 194
234 203 194
234 203 194
234 203 194
234 203 194
234 203 194
234 203 194
234 203 194
234 203 194
234 203 194
234 203 194
234 203 194
234 203 194
234 203 194
234 203 194
234 203 194
234 203 194
234 203 194
234 203 194
234 203 194
234 203 194
234 203 194
234 203 194
234 203 194
234 203 194
234 202 194
234 202 194
234 203 195
234 203 194
234 203 195
234 203 195
234 203 195
234 203 194
234 203 194
234 203 194
234 203 194
234 203 194
234 203 193
234 203 193
235 204 193
235 204 193
235 204 192
235 204 192
235 204 192
235 204 192
235 204 192
235 204 192
235 204 191
235 204 191
235 204 191
235 204 191
235 205 191
235 205 191
235 205 190
235 205 190
235 205 191
235 205 191
235 205 191
235 204 191
235 205 191
235 204 191
235 204 191
235 204 191
235 204 192
235 204 192
235 204 192
235 204 193
235 204 193
235 204 194
235 204 194
235 204 195
235 204 195
235 204 195
235 204 195
235 204 196
235 204 196
235 204 196
235 204 196
235 204 195
235 204 195
235 204 195
235 204 194
236 204 193
236 204 193
236 204 193
235 204 193
235 204 193
235 204 193
235 204 194
235 204 194
235 204 194
235 204 194
235 204 194
235 205 194
235 205 195
235 204 194
235 204 194
235 204 194
235 204 194
235 204 194
235 204 194
235 204 194
235 204 194
235 204 194
235 204 194
235 204 194
234 203 193
234 203 193
234 203 193
234 203 193
234 203 193
234 203 193
235 203 193
234 203 194
234 203 194
235 203 194
234 203 194
234 203 194
234 203 194
234 203 194
234 203 194
234 202 193
234 202 193
233 202 193
233 202 193
233 202 193
233 202 193
233 202 193
233 201 193
233 201 193
233 201 192
233 201 192
232 201 192
232 201 192
232 201 192
232 200 192
232 200 192
232 201 192
232 200 192
232 201 191
232 201 191
232 201 191
232 201 190
232 201 190
232 201 189
232 201 189
233 201 188
233 201 188
233 201 187
233 201 187
233 201 187
233 201 186
233 202 186
233 201 186
234 202 186
234 202 186
234 202 187
234 202 187
234 202 187
234 202 187
234 202 188
234 202 188
234 202 188
234 202 189
234 202 189
234 202 189
234 202 190
234 202 191
233 202 192
233 202 192
233 201 192
233 201 192
233 201 192
232 201 192
232 201 192
232 201 191
232 201 191
232 201 191
232 201 190
232 201 190
232 201 189
232 201 190
232 201 190
232 201 191
232 201 191
232 201 192
232 201 193
232 200 193
232 200 193
232 200 194
232 200 194
232 199 194
231 199 194
231 199 195
231 199 195
231 199 195
231 199 196
231 199 195
231 199 195
231 199 195
231 199 195
231 199 195
231 199 195
231 199 194
231 199 194
231 199 194
230 199 193
230 199 193
230 199 192
230 199 192
230 199 192
230 199 191
231 200 191
231 200 191
231 200 190
231 200 190
231 200 190
231 201 190
231 201 190
231 201 191
231 201 191
231 201 192
231 201 192
231 201 192
230 201 192
231 201 192
231 201 192
231 201 192
231 201 192
231 201 192
231 201 191
231 201 191
232 201 191
232 201 191
232 201 191
232 202 191
232 202 191
232 202 191
232 202 191
232 202 191
232 202 191
232 201 191
232 201 190
223 192 181
192 160 149
167 129 114
134 91 73
132 85 63
129 82 61
124 81 60
143 101 83
173 137 126
195 164 155
227 196 189
231 200 193
231 200 194
231 200 194
232 200 194
232 201 195
232 201 195
232 201 194
231 200 193
227 197 191
203 180 182
199 178 187
193 175 193
177 162 180
165 151 170
148 140 148
127 123 128
115 116 116
118 118 121
105 109 103
110 113 109
108 111 104
121 119 123
119 120 122
143 137 150
132 129 140
146 139 153
155 146 163
152 144 167
146 137 160
158 148 168
173 160 181
146 139 148
143 136 147
151 143 154
154 146 156
159 150 163
162 151 167
175 163 180
178 164 184
189 173 191
187 172 193
192 175 193
191 175 192
183 169 178
186 169 172
200 179 179
221 195 192
230 200 191
233 202 191
233 201 191
233 201 192
233 201 192
233 201 193
233 201 193
233 201 193
233 201 193
233 201 193
233 201 193
233 202 193
233 202 192
233 202 192
233 202 192
233 202 191
233 202 191
233 202 191
233 202 191
233 202 191
233 202 191
233 202 191
233 202 191
233 202 191
233 202 191
233 202 191
233 202 191
233 202 191
233 202 191
233 203 191
233 203 192
233 203 192
233 203 192
233 203 192
233 203 192
233 203 193
233 202 193
233 202 194
223 193 187
178 152 158
167 142 151
166 142 150
166 141 150
177 150 150
193 162 151
204 173 163
231 200 192
233 202 194
233 202 194
233 202 194
233 202 194
233 202 194
233 202 194
233 202 194
233 203 194
233 203 194
234 203 194
234 203 194
234 203 194
234 203 194
234 203 194
234 203 194
234 202 194
234 202 194
235 202 194
235 202 194
235 202 193
235 202 193
235 202 193
235 202 192
234 202 192
234 202 192
234 202 192
234 202 192
234 202 192
233 202 192
233 202 192
233 202 192
233 203 191
233 203 192
233 203 191
233 203 191
233 203 191
233 204 192
233 204 192
233 204 192
234 203 192
234 203 192
234 203 192
234 203 192
234 203 193
234 203 193
234 203 193
234 203 193
234 203 193
234 203 193
234 203 193
234 203 194
234 203 194
234 203 194
234 203 194
234 203 194
234 203 194
234 203 194
234 203 194
234 203 194
234 203 194
234 203 194
234 203 194
234 203 194
234 203 194
234 203 194
234 203 194
234 203 193
234 203 194
234 203 193
234 203 194
234 203 194
234 203 193
234 203 194
234 203 194
234 203 194
234 203 194
234 203 194
234 202 194
234 203 194
234 203 194
234 203 195
234 203 195
234 203 194
234 203 194
234 203 194
234 203 194
234 203 194
234 203 194
234 203 194
234 203 193
234 203 193
235 204 193
235 204 193
235 204 193
235 204 192
235 204 192
235 204 192
235 204 192
235 204 192
235 204 191
235 204 191
235 204 191
235 204 191
235 204 191
235 205 191
235 205 191
235 205 191
235 205 191
235 205 191
235 205 191
235 205 191
235 205 191
235 204 191
235 204 192
235 204 192
235 204 192
235 204 192
235 204 192
235 204 193
235 204 193
235 204 194
235 204 195
235 204 195
235 204 195
235 204 195
235 204 195
235 204 196
235 204 196
235 204 196
235 204 195
235 204 195
235 204 194
235 204 194
235 204 194
235 204 193
235 204 193
235 204 193
235 204 193
235 204 193
235 204 193
235 204 193
235 204 193
235 204 194
235 204 194
235 204 194
235 205 194
235 204 194
235 204 194
235 204 194
235 204 194
235 204 194
235 204 194
235 204 194
235 204 194
235 204 194
235 204 193
235 204 193
235 204 193
235 204 193
235 204 193
235 203 193
235 203 193
235 204 193
235 204 193
235 204 193
235 204 194
235 204 194
235 204 194
235 204 194
235 204 194
234 203 194
234 203 194
234 203 194
234 203 194
234 203 194
234 203 194
234 202 194
234 202 194
234 202 193
233 202 193
233 202 193
233 202 193
233 202 193
233 201 193
233 201 193
233 201 193
232 201 193
232 201 193
232 201 193
232 201 192
232 201 192
232 201 192
232 201 192
232 201 191
232 201 191
232 201 190
232 201 189
233 201 189
233 201 188
233 201 188
233 201 187
233 201 187
233 201 187
233 201 186
233 201 186
233 201 186
234 202 186
234 202 187
234 202 187
234 202 187
234 202 187
234 202 188
234 202 188
234 202 188
234 202 188
234 202 188
234 202 189
234 202 189
234 202 190
234 201 191
233 201 192
233 201 192
233 201 192
233 201 192
232 201 192
232 201 192
232 200 192
232 201 191
232 201 191
232 200 190
232 201 189
232 201 189
232 200 189
232 200 189
232 200 190
232 200 191
232 200 191
232 200 192
232 200 192
232 200 193
232 200 193
232 199 193
232 199 193
231 199 194
231 199 194
231 199 194
231 199 195
231 199 195
231 199 195
231 199 195
231 199 195
231 199 195
230 199 195
231 199 195
230 199 194
231 199 194
230 199 194
230 199 194
230 199 193
230 199 193
230 199 192
230 199 192
230 199 192
230 199 191
231 200 191
231 200 191
231 200 190
231 200 190
231 200 190
231 200 190
231 201 190
231 201 190
231 201 191
231 201 192
231 201 193
231 201 192
231 201 192
231 201 192
231 201 192
231 201 192
231 201 192
231 201 192
231 201 192
232 201 191
232 201 191
232 201 191
232 201 191
232 201 191
232 202 191
232 202 191
232 202 191
232 202 191
232 201 191
232 201 191
221 191 180
202 170 159
166 131 117
128 85 65
132 85 63
130 84 63
129 83 62
122 78 60
127 82 62
142 100 84
180 145 134
209 177 169
225 194 187
231 200 194
232 201 194
232 201 194
232 201 194
231 200 194
225 196 192
204 182 183
188 168 171
166 153 161
168 155 169
167 153 176
158 147 165
134 130 132
118 117 125
105 108 111
116 117 117
126 124 132
139 134 146
139 132 149
155 146 168
164 152 181
164 151 178
176 163 189
176 162 189
184 169 194
180 166 194
183 169 197
175 161 189
179 164 185
178 164 188
159 148 166
119 119 115
103 107 100
116 117 113
107 112 102
110 113 102
117 119 107
133 130 131
135 131 133
141 136 140
160 151 163
177 165 183
169 158 173
168 158 164
142 138 131
180 166 168
194 176 174
216 191 190
228 198 188
233 202 192
233 201 192
233 201 193
233 201 194
233 201 194
233 201 193
233 201 193
233 201 193
233 202 193
233 202 193
233 202 192
233 202 192
233 202 192
233 202 191
233 202 191
233 202 191
233 202 191
233 202 191
233 202 191
233 202 191
233 202 191
233 202 191
233 202 191
233 202 191
233 202 191
233 202 191
233 202 192
233 203 192
233 203 192
233 203 192
233 203 192
233 203 193
233 202 193
233 202 193
228 198 190
181 155 160
167 143 151
167 142 151
166 142 150
166 142 150
172 146 150
192 162 151
193 162 152
207 176 167
231 200 192
233 202 194
233 202 194
233 202 194
233 202 194
233 202 194
233 202 194
233 202 194
233 203 194
233 203 194
234 203 194
234 203 194
234 203 194
234 203 194
234 202 194
234 202 194
235 202 194
235 202 194
235 202 194
235 202 193
235 202 193
235 202 193
235 202 193
234 202 193
234 202 192
234 202 192
234 202 192
234 202 193
233 202 192
233 202 192
233 203 192
233 203 192
233 203 191
233 203 192
233 203 192
233 203 192
233 204 192
233 204 192
233 204 192
234 203 192
234 203 192
234 203 192
234 203 192
234 203 193
234 203 193
234 203 193
234 203 193
234 203 193
234 203 193
234 203 193
234 203 193
234 203 193
234 203 194
234 203 194
234 203 194
234 203 194
234 203 194
234 203 194
234 203 194
234 203 194
234 203 194
234 203 194
234 203 194
234 203 194
234 203 193
234 203 193
234 203 193
234 203 193
234 203 193
234 203 193
234 203 193
234 203 193
234 203 193
234 203 194
234 203 194
234 203 194
234 203 194
234 203 194
234 203 194
234 203 194
234 203 194
234 203 194
234 203 194
234 203 194
234 203 194
234 203 194
234 203 194
234 203 194
234 203 194
235 204 193
235 204 193
235 204 193
235 204 193
235 204 193
235 204 193
235 204 192
235 204 192
235 204 192
235 204 192
235 204 192
235 204 191
235 204 191
235 204 191
235 204 191
235 204 191
235 205 191
235 205 191
235 205 191
235 205 191
235 205 191
235 205 191
235 205 191
235 205 191
235 204 192
235 204 192
235 204 192
235 204 192
235 204 193
235 204 193
235 204 193
235 204 194
235 204 195
235 204 195
235 204 195
235 204 195
235 204 195
235 204 196
235 204 196
235 204 196
235 204 195
235 204 195
235 204 194
235 204 194
235 204 193
234 203 192
234 203 192
234 203 193
235 203 193
235 204 193
235 203 193
235 203 193
235 204 193
235 204 194
235 204 194
235 204 194
235 204 194
235 204 194
235 204 194
235 204 194
235 204 194
235 204 194
235 204 193
235 204 193
234 203 193
234 203 193
235 204 193
235 204 193
235 204 193
235 204 193
235 204 193
235 204 193
235 204 193
235 204 193
235 204 193
235 204 193
235 204 193
235 204 194
235 204 194
235 204 194
235 204 194
235 204 194
235 204 194
235 204 194
234 203 194
234 203 194
234 203 194
234 203 194
234 203 194
234 203 194
234 203 193
233 202 193
233 202 193
233 202 193
233 202 193
233 202 193
233 201 193
233 201 193
232 201 193
232 201 193
232 201 193
232 201 192
232 201 192
232 201 192
232 201 191
232 201 191
232 201 190
232 201 190
233 201 189
233 201 188
233 201 188
233 201 187
233 201 187
233 201 187
233 201 187
233 201 186
233 201 186
234 201 186
234 201 186
234 202 187
234 201 187
234 202 187
234 202 187
234 201 187
234 201 188
234 201 188
234 201 188
234 201 189
234 201 189
234 201 190
234 201 191
233 201 191
233 201 192
233 201 192
233 200 192
232 200 192
232 200 192
232 200 192
232 200 191
232 200 191
232 200 190
232 200 189
232 200 189
232 200 189
232 200 189
232 200 190
232 200 190
232 200 191
232 200 191
232 200 192
232 200 192
232 200 192
231 199 193
231 199 193
231 199 193
231 199 193
231 199 194
230 199 194
230 199 195
230 199 195
230 199 195
230 199 195
230 199 195
230 199 195
230 199 195
230 199 194
230 199 194
230 199 194
230 199 194
230 199 193
230 199 193
230 199 193
230 199 192
231 199 192
231 200 191
231 200 191
231 200 191
231 200 190
231 200 190
231 200 190
231 200 190
231 201 190
231 201 191
231 201 191
231 201 192
231 201 193
231 201 193
231 201 192
231 201 192
231 201 192
231 201 192
231 201 192
231 201 192
232 201 192
232 201 192
232 201 191
232 201 191
232 201 191
232 201 191
232 201 191
232 201 191
232 202 191
232 201 191
232 201 191
224 193 182
199 168 157
163 128 116
140 97 79
129 84 63
129 83 64
125 81 60
131 85 64
132 85 64
127 82 61
136 88 67
151 110 94
173 139 127
205 173 164
229 198 191
232 201 194
231 201 194
226 197 193
210 185 182
179 162 164
153 143 149
158 147 155
173 159 180
175 160 183
175 160 190
167 154 181
166 154 175
135 130 143
126 124 128
152 143 164
169 156 180
178 164 187
175 162 186
178 164 192
185 169 191
179 163 190
177 163 192
180 165 190
175 161 189
175 160 183
181 167 188
182 167 190
177 162 188
179 165 188
184 168 193
170 159 175
117 117 116
99 105 96
101 107 93
104 109 97
104 109 93
110 112 98
102 108 92
101 105 92
107 112 96
124 121 117
155 147 154
140 135 136
134 131 129
151 144 146
144 139 132
163 153 151
191 173 174
219 193 191
228 198 192
230 199 191
233 201 194
233 201 194
233 201 194
233 201 193
233 201 193
233 201 193
233 202 193
233 202 193
233 202 192
233 202 192
233 202 192
233 202 191
233 202 191
233 202 191
233 202 191
233 202 191
233 202 191
233 202 191
233 202 191
233 202 191
233 202 191
233 202 191
233 202 192
233 202 192
233 202 192
233 202 192
233 202 192
233 202 192
233 202 193
233 202 193
228 198 190
179 154 159
167 143 151
167 143 151
167 143 151
166 142 150
166 142 150
167 142 150
188 158 151
193 162 151
193 162 152
206 176 166
232 202 193
233 202 193
233 202 193
233 202 193
233 202 194
233 202 194
233 202 194
233 202 193
233 202 193
233 202 193
234 202 193
234 202 193
234 202 193
234 202 193
234 202 194
235 202 194
235 202 194
235 202 194
235 202 193
235 202 193
235 202 193
235 202 193
234 202 193
234 202 193
234 202 193
234 202 193
234 202 193
233 202 193
233 202 192
233 202 192
233 203 192
233 203 192
233 203 192
233 203 192
233 203 192
233 204 192
233 204 192
233 204 192
234 203 192
234 203 192
234 203 192
234 203 192
234 203 192
234 203 193
234 203 193
234 203 193
234 203 193
234 203 193
234 203 193
234 203 193
234 203 193
234 203 194
234 203 194
234 203 194
234 203 194
234 203 194
234 203 194
234 203 194
234 203 194
234 203 194
234 203 194
234 203 194
234 203 193
234 203 193
234 203 193
234 203 193
234 203 193
234 203 193
234 203 193
234 203 193
234 203 193
234 203 193
234 203 193
234 203 193
234 203 194
234 203 194
234 203 194
234 203 194
234 203 194
234 203 194
234 203 194
234 203 194
234 203 194
234 203 194
234 203 194
234 203 194
234 203 194
235 204 194
235 204 194
235 204 194
235 204 193
235 204 193
235 204 193
235 204 193
235 204 193
235 204 193
235 204 192
235 204 192
235 204 192
235 204 192
235 204 191
235 204 191
235 204 191
235 204 191
235 205 191
235 205 191
235 205 191
235 205 191
235 205 191
235 205 191
235 205 191
235 205 191
235 204 192
235 204 192
235 204 192
235 204 192
235 204 193
235 204 193
235 204 194
235 204 194
235 204 194
235 204 195
235 204 195
235 204 195
235 204 196
235 204 196
235 204 196
235 204 196
235 204 195
235 204 195
235 204 194
235 204 194
235 204 193
234 202 192
234 203 192
234 203 192
234 203 192
234 203 192
234 203 193
234 203 193
234 203 193
235 203 193
235 204 193
235 204 193
235 204 193
235 204 193
235 204 193
235 204 193
235 204 193
234 203 193
234 203 193
234 203 193
234 203 193
234 203 193
234 203 193
235 203 193
235 203 193
235 204 193
235 204 193
235 204 193
235 204 193
235 204 193
235 204 194
235 204 194
235 204 194
235 204 194
235 204 194
235 204 194
235 204 194
235 204 194
235 204 194
235 204 194
235 204 194
235 203 194
234 203 194
234 203 194
234 203 194
234 203 194
234 203 194
234 203 193
234 202 193
233 202 193
233 202 193
233 201 193
233 201 193
233 201 193
232 201 193
232 200 193
232 200 193
232 200 192
232 200 192
232 201 192
232 201 192
232 201 191
233 200 190
233 201 190
233 200 189
233 200 189
233 201 188
233 200 188
233 201 188
233 201 187
233 201 187
233 201 187
234 201 187
233 201 187
233 201 187
234 201 187
234 201 187
233 201 187
234 201 187
234 201 188
234 201 188
233 201 188
234 201 188
234 201 189
234 201 190
233 201 190
233 201 191
233 201 191
233 200 192
233 200 192
233 200 192
232 200 192
232 200 192
232 200 192
232 200 191
232 200 190
232 200 190
232 200 189
232 200 189
232 200 189
231 200 189
231 200 189
231 200 190
232 200 190
232 200 191
232 200 192
232 200 192
232 200 192
231 199 192
231 199 192
231 199 193
231 199 193
230 199 194
230 199 194
230 199 194
230 199 195
230 199 195
230 199 195
230 199 195
230 199 195
230 199 195
230 199 194
230 199 194
230 199 194
230 199 194
230 199 193
230 199 193
230 199 193
231 199 192
231 200 192
231 200 192
231 200 191
231 200 191
231 200 190
231 200 190
231 200 190
231 201 190
231 201 190
231 201 191
231 201 191
231 201 192
231 201 193
231 201 193
231 201 193
231 201 193
231 201 192
231 201 192
231 201 192
232 201 192
232 201 192
232 201 192
232 201 192
232 201 191
232 201 191
232 201 191
232 201 191
232 201 191
232 201 191
232 201 190
226 195 184
200 168 157
164 125 110
132 89 70
129 83 62
132 85 64
132 86 64
125 81 62
131 85 63
131 84 64
128 83 62
129 83 62
132 86 65
148 106 90
176 141 130
204 171 163
225 195 188
206 181 178
188 169 170
153 143 147
145 133 148
173 160 177
177 163 190
168 153 181
165 151 183
163 152 172
147 140 150
115 117 118
109 111 111
100 106 98
130 127 130
161 150 169
178 164 191
177 163 189
176 162 188
172 159 188
165 152 172
156 147 166
165 155 173
141 135 145
136 131 138
141 137 149
139 134 139
138 132 138
139 133 141
128 126 132
138 132 139
119 119 117
133 130 130
139 135 137
138 134 137
130 128 127
116 117 105
99 104 91
100 106 89
109 112 99
112 115 107
116 118 111
116 118 106
118 117 112
164 153 165
157 149 158
148 142 143
145 139 135
177 163 165
195 176 175
222 194 189
230 199 193
233 201 194
233 201 194
233 201 194
233 201 194
233 201 193
233 202 193
233 202 193
233 202 192
233 202 192
233 202 192
233 202 192
233 202 191
233 202 191
233 202 191
233 202 191
233 202 191
233 202 191
233 202 191
233 202 191
233 202 191
233 202 191
233 202 192
233 202 192
233 202 192
233 202 192
233 202 192
233 202 192
233 202 193
227 197 189
180 154 159
168 144 151
168 144 151
167 143 151
167 143 151
167 143 150
167 142 150
167 142 150
181 153 150
193 162 151
193 162 152
194 163 153
210 180 171
233 202 193
233 202 193
233 202 193
233 202 193
233 202 193
233 202 193
233 202 193
233 202 193
233 202 193
233 202 193
234 202 193
234 202 193
234 202 193
234 202 193
235 202 193
235 202 193
235 202 193
235 202 193
235 202 193
235 202 193
235 202 193
234 202 193
234 202 193
234 202 193
234 202 193
234 202 193
234 202 193
233 202 193
233 202 192
233 203 192
233 203 192
233 203 192
233 203 192
233 203 192
233 203 192
233 204 192
233 204 192
234 203 192
234 203 192
234 203 193
234 203 192
234 203 193
234 203 193
234 203 193
234 203 193
234 203 193
234 203 193
234 203 193
234 203 193
234 203 193
234 203 193
234 203 193
234 203 194
234 203 194
234 203 194
234 203 194
234 203 194
234 203 194
234 203 194
234 203 194
234 203 193
234 203 193
234 203 193
234 203 193
234 203 193
234 203 193
234 203 193
234 203 193
234 203 193
234 203 193
234 203 193
234 203 193
234 203 193
234 203 193
234 203 194
234 203 194
234 203 194
234 203 194
234 203 194
234 203 194
234 203 194
234 203 194
234 203 194
234 203 194
234 203 194
234 203 194
235 204 194
235 204 194
235 204 194
235 204 194
235 204 194
235 204 194
235 204 193
235 204 193
235 204 193
235 204 193
235 204 192
235 204 192
235 204 192
235 204 192
235 204 192
235 204 192
235 205 191
235 205 191
235 205 191
235 205 191
235 205 191
235 205 191
235 205 191
235 205 191
235 205 192
235 204 192
235 204 192
235 204 192
235 204 192
235 204 193
235 204 193
235 204 194
235 204 194
235 204 195
235 204 195
235 204 195
235 204 195
235 204 196
235 204 196
235 204 196
235 204 196
235 204 195
235 204 195
235 204 194
235 204 194
235 204 193
233 202 192
233 202 192
233 202 192
233 202 192
234 202 192
234 203 192
234 203 192
234 203 193
234 203 193
235 203 193
235 203 193
235 204 193
235 203 193
235 203 193
235 203 193
235 203 193
234 203 193
234 203 193
234 203 193
234 203 193
234 203 193
234 203 193
234 203 193
235 203 193
235 204 193
235 204 193
235 204 193
235 204 193
235 204 193
235 204 193
235 204 193
235 204 194
235 204 194
235 204 194
235 204 194
235 204 194
235 204 194
235 204 194
235 204 194
235 204 194
235 204 194
235 203 194
235 203 194
234 203 194
234 203 194
234 203 194
234 203 194
234 202 193
234 202 193
233 202 193
233 202 193
233 201 193
233 201 193
232 200 193
232 200 193
232 200 193
232 200 193
232 200 192
232 200 192
232 200 192
232 200 191
232 200 191
233 200 190
233 200 190
233 200 189
233 200 188
233 200 188
233 201 188
233 200 188
233 201 187
233 201 187
233 201 187
233 201 187
233 201 187
233 201 187
233 201 187
233 201 187
233 201 187
233 200 187
233 201 188
233 201 188
233 201 188
233 201 189
233 200 190
233 200 190
233 200 191
233 200 191
233 200 192
233 200 191
233 200 192
232 200 192
232 200 192
232 200 191
232 200 191
232 200 190
232 200 190
231 200 189
231 200 188
231 200 188
231 200 189
231 200 189
231 200 190
231 200 190
231 200 191
231 200 191
231 200 192
231 200 192
231 199 192
231 199 192
231 199 193
231 199 193
230 199 193
230 198 194
230 198 194
230 198 194
230 198 194
230 198 194
230 198 194
230 198 194
230 198 194
230 198 194
230 199 194
230 199 194
230 199 193
230 199 193
231 199 193
231 199 193
231 199 192
231 200 192
231 200 192
231 200 191
231 200 191
231 200 191
231 200 190
231 201 190
231 201 190
231 201 191
231 201 191
231 201 192
231 201 193
231 201 193
231 201 193
231 201 193
231 201 193
232 201 193
232 201 193
232 201 192
232 201 192
232 201 192
232 201 192
232 201 192
231 201 191
231 201 191
231 201 191
231 201 191
231 201 191
231 201 190
226 195 185
204 171 160
176 138 124
148 104 85
129 83 62
133 86 63
130 84 62
128 83 61
130 84 62
132 85 64
126 82 62
134 86 65
133 85 63
130 84 64
134 87 66
151 113 102
175 144 137
194 171 174
166 152 158
167 155 171
160 147 164
170 155 179
178 164 192
161 148 174
153 144 157
130 126 135
109 111 107
101 106 101
98 105 99
95 102 98
96 103 98
97 105 93
112 113 112
159 148 166
142 136 150
120 120 123
118 117 118
106 109 103
101 107 91
89 98 78
95 103 86
91 100 84
90 99 83
89 99 83
92 101 76
88 98 76
89 97 76
97 103 88
94 101 84
121 120 117
173 159 180
175 161 185
176 162 183
161 150 170
160 149 163
141 135 148
141 136 140
115 117 111
111 114 101
110 114 103
105 110 93
145 141 143
173 161 181
179 165 185
158 149 156
156 148 151
146 140 134
166 154 148
198 177 171
224 195 187
232 201 194
233 201 194
233 201 194
233 201 194
233 202 193
233 202 193
233 202 193
233 202 192
233 202 192
233 202 192
233 202 192
233 202 191
233 202 191
233 202 191
233 202 191
233 202 191
233 202 191
233 202 192
233 202 192
233 202 192
233 202 192
233 202 192
233 202 192
233 202 192
233 202 192
233 202 192
230 200 191
180 154 159
167 143 151
167 144 151
168 144 151
168 144 151
168 144 151
168 143 151
167 143 151
167 142 150
173 147 150
193 162 151
193 162 152
193 162 152
193 162 153
215 184 175
233 202 193
233 202 193
233 202 193
233 202 193
233 202 193
233 202 193
233 202 193
233 202 193
234 202 193
234 202 193
234 202 193
234 202 193
234 202 193
234 202 193
235 202 193
235 202 193
235 202 193
235 202 193
235 202 193
235 202 193
234 202 193
234 202 193
234 202 193
234 202 193
234 202 193
234 202 193
233 202 193
233 202 192
233 203 192
233 203 192
233 203 192
233 203 192
233 203 193
234 203 193
234 203 193
234 203 193
234 203 193
234 203 193
234 203 193
234 203 193
234 203 193
234 203 193
234 203 193
234 203 193
234 203 193
234 203 193
234 203 193
234 203 193
234 203 193
234 203 193
234 203 193
234 203 193
234 203 193
234 203 194
234 203 194
234 203 194
234 203 194
234 203 194
234 203 194
234 203 193
234 203 193
234 203 193
234 203 193
234 203 193
234 203 193
234 203 193
234 203 193
234 203 193
234 203 193
234 203 193
234 203 193
234 203 193
234 203 193
234 203 193
234 203 193
234 203 193
234 203 193
234 203 194
234 203 193
234 203 193
234 203 194
234 203 194
234 203 194
235 203 194
235 203 194
235 204 195
235 204 194
235 204 194
235 204 194
235 204 194
235 204 194
235 204 193
235 204 193
235 204 193
235 204 193
235 204 193
235 204 193
235 204 192
235 204 192
235 204 192
235 204 192
235 204 191
235 205 191
235 205 191
235 205 191
235 205 191
235 205 191
235 205 191
235 205 191
235 204 192
235 204 192
235 204 192
235 204 192
235 204 193
235 204 193
235 204 193
235 204 194
235 204 194
235 204 195
235 204 195
235 204 195
235 204 195
235 204 195
235 204 195
235 204 196
235 204 195
235 204 195
235 204 195
235 204 194
235 204 193
235 204 193
233 202 192
233 202 192
233 202 192
233 202 192
233 202 192
234 202 192
234 203 192
234 203 192
234 203 193
234 203 193
234 203 193
235 203 193
235 203 193
235 203 193
235 203 193
235 203 193
234 203 193
234 203 193
234 203 193
234 203 193
234 203 193
235 203 193
235 203 193
235 203 193
235 203 193
235 204 193
235 204 194
235 204 194
235 204 193
235 204 194
235 204 193
235 204 194
235 204 193
235 204 193
235 204 194
235 204 194
235 204 194
235 204 194
235 204 194
235 204 194
235 203 194
235 203 194
235 203 194
235 203 194
235 203 194
235 203 194
234 203 194
234 203 194
234 202 194
234 202 193
233 201 193
233 201 193
233 201 193
232 200 193
232 200 193
232 200 193
232 200 192
232 200 192
232 200 192
232 200 192
233 200 191
233 200 191
233 200 190
233 200 190
233 200 189
233 200 189
233 200 189
233 200 188
233 200 188
233 200 188
233 200 188
233 201 187
233 200 187
233 200 187
233 200 187
233 200 187
233 200 187
233 200 187
233 200 187
233 200 187
233 200 188
233 200 188
233 200 189
233 200 189
233 200 190
233 200 190
233 200 191
233 200 191
233 200 191
232 200 191
232 200 192
232 200 192
232 200 191
232 200 191
232 200 191
232 200 190
231 200 189
231 200 189
231 200 188
231 200 188
231 200 189
231 200 189
231 200 190
231 200 190
231 200 191
231 200 191
231 200 191
231 199 192
231 199 192
231 199 192
230 199 192
230 199 193
230 199 193
230 198 194
230 198 194
230 198 194
230 198 194
230 198 194
230 198 194
230 198 194
230 199 194
230 199 193
230 199 193
230 199 193
230 199 193
231 199 193
231 199 192
231 200 192
231 200 192
231 200 192
231 200 191
231 200 191
231 200 191
231 200 191
231 201 190
231 201 191
231 201 191
231 201 192
231 201 192
231 200 193
231 200 193
231 200 194
231 200 194
231 201 193
232 201 193
232 201 193
231 201 193
232 201 192
232 201 192
231 201 192
231 201 192
231 201 192
231 201 191
231 201 191
231 201 191
231 201 191
228 197 187
202 170 159
172 139 126
135 91 73
124 80 61
131 85 63
131 85 63
131 85 63
131 85 63
135 87 64
131 84 64
129 84 61
132 85 63
133 85 63
128 83 62
134 92 76
164 138 139
157 139 141
149 138 145
155 142 161
167 153 175
169 152 184
173 159 184
155 146 159
121 119 128
102 107 99
103 108 104
95 103 79
99 107 94
103 107 99
118 118 116
133 130 136
151 143 159
167 156 179
169 155 179
159 149 170
105 108 108
87 95 81
88 97 83
85 94 71
89 97 84
93 103 84
91 100 81
93 102 91
89 98 75
91 100 83
93 101 90
87 94 76
91 100 80
88 98 65
97 104 87
127 123 127
177 162 185
177 163 184
177 163 184
169 156 184
181 166 188
181 166 190
179 165 184
168 157 174
150 142 154
136 132 140
139 135 138
177 165 180
185 169 191
179 165 190
172 160 177
169 158 169
143 137 137
168 157 155
187 169 164
217 190 185
230 199 192
233 202 194
233 202 194
233 202 193
233 202 193
233 202 193
233 202 193
233 202 192
233 202 192
233 202 192
233 202 192
233 202 191
233 202 191
233 202 191
233 202 191
233 202 191
233 202 192
233 202 192
233 202 192
233 202 192
233 202 192
233 202 192
233 202 192
233 202 192
226 196 188
184 158 162
167 142 150
167 143 151
167 143 151
168 144 151
168 144 151
168 144 151
168 144 151
168 143 151
168 143 151
168 143 150
191 160 151
193 162 152
193 163 153
193 162 153
193 162 153
215 185 176
233 202 193
233 202 193
233 202 193
233 202 193
233 202 193
233 202 193
233 202 193
234 202 193
234 202 193
234 202 193
234 202 193
234 202 193
234 202 193
235 202 193
235 202 193
235 202 193
235 202 193
235 202 193
235 202 193
235 202 193
234 202 193
234 202 193
234 202 193
234 202 193
234 202 193
234 202 193
233 202 193
233 202 193
233 203 193
233 203 192
233 203 193
233 203 193
234 203 193
234 203 193
234 203 193
234 203 193
234 203 193
234 203 193
234 203 193
234 203 193
234 203 193
234 203 193
234 203 193
234 203 193
234 203 193
234 203 193
234 203 193
234 203 193
234 203 193
234 203 193
234 203 193
234 203 193
234 203 193
234 203 193
234 203 193
234 203 193
234 203 193
234 203 193
234 203 193
234 203 193
234 203 193
234 203 193
234 203 193
234 203 193
234 203 193
234 203 193
234 203 193
234 203 193
234 203 193
234 203 193
234 203 193
234 203 192
234 203 193
234 203 193
234 203 193
234 203 193
234 203 193
234 203 193
234 203 193
234 203 193
234 203 193
234 203 194
235 203 194
235 203 194
235 203 194
235 204 195
235 204 194
235 204 194
235 204 194
235 204 194
235 204 194
235 204 193
235 204 193
235 204 193
235 204 193
235 204 193
235 204 193
235 204 192
235 204 192
235 204 192
235 204 192
235 204 191
235 204 191
235 204 191
235 204 191
235 204 191
235 204 191
235 204 192
235 204 192
235 204 192
235 204 193
235 204 193
235 204 193
235 204 193
235 204 194
235 204 194
235 204 194
235 204 195
235 204 195
235 204 195
235 204 195
235 204 195
235 204 195
235 204 195
235 204 195
235 204 194
235 204 194
235 204 194
235 204 193
235 204 193
233 202 192
233 202 193
233 202 193
233 202 193
233 202 192
234 202 192
234 202 192
234 202 192
234 202 192
234 202 192
235 203 193
235 203 193
235 203 193
235 203 193
235 203 193
235 203 193
235 203 193
235 203 193
235 203 193
235 203 193
235 203 192
235 203 193
235 203 193
235 203 193
235 203 193
235 203 193
235 204 194
235 203 193
235 203 193
235 203 193
235 203 193
235 203 193
235 203 193
235 203 193
235 204 193
235 204 194
235 203 193
235 203 193
235 203 193
235 203 193
235 203 194
235 203 194
235 203 194
235 203 194
235 203 194
235 203 194
235 203 194
235 202 194
234 202 194
234 202 194
234 201 193
233 201 193
233 200 193
233 200 193
232 199 193
232 199 193
232 199 193
232 200 192
232 200 192
232 200 192
232 200 191
233 200 191
233 200 191
233 200 190
233 200 190
233 200 189
233 200 189
233 200 188
233 200 188
233 200 188
233 200 188
233 200 187
233 200 188
233 200 187
233 200 187
233 200 187
233 200 187
233 200 187
233 200 188
232 199 188
233 200 188
233 200 188
232 199 189
233 200 189
233 200 189
233 200 190
233 200 191
233 200 191
233 200 191
232 200 191
232 200 192
232 200 192
232 200 192
232 200 191
232 200 190
231 200 189
231 200 189
231 200 188
231 200 188
231 200 189
231 200 189
231 200 189
231 200 190
231 200 190
231 200 191
231 200 191
231 200 191
231 199 192
231 199 192
231 199 192
230 199 192
230 199 192
230 199 193
230 198 193
230 198 194
230 198 194
230 198 194
230 198 194
230 198 194
230 198 194
230 199 194
230 199 193
230 199 193
230 199 192
230 199 192
231 199 192
231 200 192
231 200 192
231 200 191
231 200 191
231 200 191
231 200 191
231 200 191
231 200 191
231 200 191
231 201 191
231 200 191
231 201 192
231 201 192
231 200 193
231 200 194
231 200 194
231 200 194
231 200 194
231 201 193
231 201 193
231 201 193
231 201 193
231 201 192
231 201 192
231 200 192
231 200 192
231 201 191
231 201 191
231 201 191
223 191 181
199 166 155
177 142 128
140 94 73
128 84 64
126 81 61
130 84 63
131 85 63
132 85 64
127 82 62
122 79 59
129 83 62
131 84 63
130 84 63
134 88 68
140 98 82
161 136 146
153 136 152
158 144 164
164 150 169
169 155 180
173 158 182
157 148 168
120 119 116
109 110 104
107 111 102
92 99 84
100 106 96
108 112 104
128 125 136
155 145 161
173 159 183
170 156 186
179 165 192
171 158 187
177 162 190
172 157 184
173 159 184
140 134 153
92 99 87
95 102 86
95 100 88
98 105 91
104 108 94
105 109 101
117 117 114
104 106 97
104 108 100
116 117 112
123 121 124
112 115 106
114 114 116
107 109 101
157 146 164
174 160 182
174 161 185
174 159 180
177 162 186
176 162 185
178 163 189
180 164 188
180 166 187
180 166 189
174 162 181
180 166 185
155 147 158
169 157 177
185 170 192
183 168 193
177 163 179
161 152 160
161 152 150
186 169 176
213 187 188
229 199 193
232 201 193
233 202 193
233 202 193
233 202 193
233 202 193
233 202 193
233 202 192
233 202 192
233 202 192
233 202 191
233 202 191
233 202 191
233 202 191
233 202 192
233 202 192
233 202 192
233 202 192
233 202 192
233 202 192
233 202 192
233 202 192
232 201 191
182 156 160
166 141 150
166 142 150
167 143 151
167 143 151
168 144 151
168 144 151
169 145 152
169 144 151
168 144 151
168 144 151
168 143 150
185 156 151
194 163 153
193 163 153
193 162 152
193 162 153
192 162 153
219 188 179
233 202 193
233 202 193
233 202 193
233 202 193
234 202 193
234 202 193
234 202 193
234 202 193
234 202 193
234 202 193
234 202 193
234 202 193
235 202 193
235 202 193
235 202 193
235 202 193
235 202 193
235 202 193
235 202 193
234 202 192
234 202 193
234 202 193
234 202 193
234 202 193
234 202 192
234 202 192
233 202 193
233 202 193
233 203 193
234 203 193
234 203 193
234 203 193
234 203 193
234 203 193
234 203 193
234 203 193
234 203 193
234 203 193
234 203 193
234 203 193
234 203 193
234 203 193
234 203 193
234 203 193
234 203 193
234 203 192
234 203 193
234 203 193
234 203 193
234 203 193
234 203 193
234 203 193
234 203 193
234 203 193
234 203 193
234 203 193
234 203 193
234 203 193
234 203 193
234 203 193
234 203 193
234 203 193
234 203 193
234 203 193
234 203 193
234 203 193
234 203 193
234 203 192
234 203 192
234 203 192
234 203 192
234 203 192
234 203 192
234 203 192
234 203 192
234 203 192
234 203 192
234 203 192
234 203 192
234 203 192
235 203 193
235 203 194
235 203 194
235 203 195
235 203 195
235 203 194
235 204 194
235 204 194
235 203 194
235 204 193
235 204 193
235 204 193
235 204 193
235 204 193
235 204 193
235 204 193
235 204 192
235 204 192
235 204 192
235 204 192
235 204 192
235 204 191
235 204 191
235 204 192
235 204 192
235 204 192
235 204 192
236 204 192
236 204 192
236 204 193
236 204 193
236 204 193
236 204 193
236 204 194
236 204 194
236 204 194
236 204 194
236 204 195
236 204 195
236 204 195
236 204 195
236 204 195
236 204 195
236 204 195
235 204 194
235 204 194
235 204 193
235 204 193
235 204 192
233 201 193
233 201 193
233 201 193
233 202 193
233 202 192
233 202 192
234 202 192
234 202 192
234 202 192
234 202 192
235 202 192
235 202 193
235 203 193
235 203 193
235 203 193
235 203 193
235 203 193
235 202 193
235 202 193
235 202 192
235 203 193
235 203 193
235 203 193
235 203 193
235 203 193
235 203 193
235 203 193
235 203 193
235 203 193
235 203 193
235 203 193
235 203 193
235 203 193
235 203 193
235 203 193
235 203 193
235 203 193
235 203 193
235 203 193
235 203 193
235 203 193
235 203 193
235 203 194
235 203 193
235 203 193
235 203 193
235 203 194
235 202 194
235 202 194
234 202 193
234 201 193
233 200 193
233 200 193
233 200 193
232 199 193
232 199 193
232 199 192
232 199 192
232 199 192
232 199 192
232 199 191
233 199 191
233 199 190
233 199 190
233 199 190
233 199 189
233 199 189
232 199 188
233 200 188
233 200 188
233 200 188
233 200 187
233 200 187
232 199 187
233 200 187
233 200 187
232 199 187
232 199 188
232 199 188
232 199 188
232 199 188
232 199 188
232 199 189
232 199 189
232 199 189
232 199 190
232 199 190
232 199 191
232 199 191
232 199 191
232 199 191
232 200 192
232 200 192
232 200 191
232 200 190
231 200 190
231 200 189
231 200 188
231 200 188
231 200 188
231 200 189
231 200 189
231 200 190
231 200 190
231 200 190
231 200 191
231 200 191
231 200 191
231 199 191
230 199 192
230 199 192
230 199 192
230 199 193
230 199 193
230 198 194
230 198 194
230 198 194
230 198 194
230 198 194
230 198 193
230 198 193
230 199 193
230 199 193
230 199 192
230 199 192
231 199 192
231 200 192
231 200 191
231 200 191
231 200 191
231 200 191
231 200 191
231 200 191
231 200 191
231 200 191
231 200 191
231 200 192
231 200 192
231 200 193
231 200 193
231 200 194
231 200 194
231 200 194
231 200 194
231 200 193
231 201 193
231 201 193
231 200 193
231 200 192
231 200 192
231 200 192
231 200 192
231 200 192
231 200 191
222 190 181
201 168 157
174 137 122
135 93 74
125 81 62
128 83 61
131 84 63
128 83 62
128 82 62
124 81 60
123 80 60
131 85 62
130 84 63
125 81 59
132 89 72
146 114 114
164 137 156
154 135 155
132 121 133
142 132 144
167 153 176
160 150 173
142 135 145
110 112 102
102 107 90
101 107 94
97 102 87
119 118 124
149 140 160
166 155 178
183 168 194
176 163 192
189 173 196
178 163 188
175 160 187
177 162 190
171 158 185
168 157 179
164 153 176
148 141 158
113 115 113
130 126 136
158 148 167
155 144 162
171 158 181
171 158 184
160 147 171
173 159 178
169 156 177
166 151 174
167 153 178
168 156 176
175 161 180
162 150 171
163 153 172
136 131 136
133 129 132
142 135 144
164 152 168
161 149 168
174 161 180
183 169 190
184 168 191
185 170 194
187 172 192
171 159 178
120 120 118
129 128 126
152 143 147
172 162 175
182 168 190
177 163 188
179 166 182
177 163 177
200 182 192
202 181 186
224 195 189
233 202 194
233 202 193
233 202 193
233 202 193
233 202 193
233 202 192
233 202 192
233 202 192
233 202 192
233 202 191
233 202 191
233 202 191
233 202 192
233 202 192
233 202 192
233 202 192
233 202 192
233 202 192
233 202 192
231 200 191
189 163 164
165 141 149
165 141 150
166 142 150
166 142 151
167 143 151
168 144 151
168 144 152
169 145 152
169 145 152
169 144 151
168 144 151
168 143 150
178 150 151
194 163 153
194 163 153
193 163 153
192 162 152
192 161 152
191 161 152
221 190 181
233 202 193
233 202 193
234 202 193
234 202 193
234 202 193
234 202 193
234 202 193
234 202 193
234 202 193
234 202 193
235 202 193
235 202 193
235 202 193
235 202 193
235 202 193
235 202 193
235 202 193
235 202 192
234 202 192
234 202 192
234 202 192
234 202 192
234 202 192
234 202 192
234 202 193
234 202 193
234 202 193
233 202 193
234 203 193
234 203 193
234 203 193
234 203 193
234 203 193
234 203 193
234 203 193
234 203 193
234 203 193
234 203 193
234 203 193
234 203 193
234 203 193
234 203 193
234 203 192
234 203 192
234 203 192
234 203 192
234 203 192
234 203 192
234 203 193
234 203 192
234 202 192
234 203 193
234 203 193
234 203 193
234 203 193
234 203 193
234 203 193
234 203 193
234 203 193
234 203 193
234 203 193
234 203 193
234 203 193
234 203 193
234 203 193
234 203 193
234 203 192
234 203 192
234 203 192
234 203 192
234 203 191
234 203 191
234 203 191
234 203 191
234 203 191
234 203 191
234 203 191
234 203 192
234 203 192
235 203 193
235 203 193
235 203 194
235 203 194
235 203 194
235 203 194
235 203 194
235 203 194
235 203 194
235 203 193
235 203 193
235 203 193
235 203 193
235 203 193
235 203 193
235 203 193
235 203 192
235 203 192
235 204 192
235 204 192
235 203 192
235 204 192
235 204 192
235 204 192
236 204 192
236 204 192
236 204 192
236 204 192
236 204 193
236 204 193
236 204 193
236 204 193
236 204 193
236 204 194
236 204 194
236 204 194
236 204 194
236 204 194
236 204 194
236 204 194
236 204 195
236 204 194
236 204 195
236 204 194
236 204 194
235 204 193
235 204 193
235 204 192
235 205 192
233 201 192
233 201 193
233 201 193
233 201 193
233 201 192
233 202 192
234 202 192
234 202 192
234 202 192
235 202 192
235 202 192
235 202 193
235 202 193
235 202 193
235 203 193
235 203 193
235 203 193
235 202 193
235 202 192
235 202 192
235 202 192
235 202 193
235 202 193
235 203 193
235 203 193
235 203 193
235 203 193
235 203 193
235 203 193
235 202 193
235 202 192
235 202 192
235 202 192
235 203 193
235 202 193
235 203 193
235 203 193
235 203 193
235 203 193
235 202 193
235 203 193
235 202 193
235 203 193
235 203 193
235 202 193
235 202 193
235 202 193
235 202 193
235 202 193
234 202 193
234 201 193
233 200 193
233 199 193
233 199 193
232 199 193
232 199 192
232 199 192
232 199 192
232 199 192
232 199 191
232 199 191
232 199 191
232 199 190
233 199 190
232 199 189
232 199 189
232 199 189
232 199 188
232 199 188
232 199 188
232 199 187
232 199 187
232 199 187
232 199 188
232 199 188
232 199 188
232 199 188
232 199 188
232 199 188
232 199 188
232 199 188
232 199 188
232 199 189
232 199 189
232 199 189
232 199 190
232 199 190
232 199 191
232 199 191
232 199 191
232 199 191
232 199 191
232 200 192
232 200 191
231 200 191
231 200 190
231 200 189
231 200 188
231 200 188
231 200 188
231 200 189
231 200 189
231 200 189
231 200 190
231 200 190
231 200 190
231 200 190
231 200 191
230 199 191
230 199 191
230 199 192
230 199 192
230 199 192
230 199 193
230 198 193
230 198 193
230 198 193
230 198 193
230 198 193
230 198 193
230 198 193
230 199 192
230 199 192
230 199 192
231 199 192
231 199 191
231 200 191
231 200 191
231 200 191
231 200 191
231 200 191
231 200 191
231 200 191
231 200 191
231 200 191
231 200 191
231 200 192
231 200 192
231 200 193
231 200 193
231 200 194
231 200 194
231 200 194
231 200 194
231 200 194
231 200 193
231 200 193
231 200 193
231 200 193
231 200 192
231 200 192
231 200 192
231 200 192
222 191 182
211 178 167
171 134 121
140 97 78
133 86 64
129 83 62
130 85 63
126 81 60
128 83 62
132 84 63
129 83 63
128 82 61
130 83 62
129 83 63
134 89 71
157 123 128
161 134 154
156 133 163
147 131 154
124 121 122
123 122 118
142 135 146
180 166 189
151 142 150
128 127 126
116 117 114
124 122 129
156 146 163
180 166 188
183 166 192
177 162 189
179 164 189
180 166 194
170 157 185
171 158 178
153 143 170
150 141 153
131 125 135
119 118 118
98 104 91
91 99 83
93 98 89
123 122 125
162 149 179
166 153 181
172 157 179
174 160 187
174 159 184
169 155 180
173 160 185
168 155 184
174 160 183
172 158 182
171 157 181
173 157 182
173 159 185
150 142 156
94 101 83
100 105 94
98 104 85
112 112 106
120 119 117
137 132 134
156 147 155
177 163 174
177 163 182
173 159 182
145 138 146
97 104 82
106 110 90
133 129 126
148 141 151
169 157 172
183 168 188
182 167 186
181 167 179
176 162 169
200 179 184
223 195 190
231 200 192
233 202 193
233 202 193
233 202 193
233 202 193
233 202 192
233 202 192
233 202 192
233 202 192
233 202 191
233 202 191
233 202 192
233 202 192
233 202 192
234 202 192
234 202 192
233 202 192
232 201 192
190 164 166
164 140 149
164 140 149
165 141 150
165 141 150
166 142 151
167 143 151
168 144 152
169 144 152
169 145 152
169 145 152
169 144 151
169 144 151
168 143 150
169 144 150
193 162 152
193 163 153
193 162 153
192 161 152
192 161 152
191 160 151
192 162 153
221 190 181
234 202 193
234 202 193
234 202 193
234 202 193
234 202 193
234 202 193
234 202 193
234 202 193
235 202 193
235 202 193
235 202 193
235 202 193
235 202 193
235 202 192
235 202 192
235 202 192
235 202 192
235 202 192
234 202 192
234 202 192
234 202 192
234 202 192
234 202 192
234 202 193
234 202 193
234 202 193
234 202 193
234 202 193
234 203 193
234 203 193
234 203 193
234 203 193
234 203 193
234 203 193
234 203 193
234 203 193
234 203 193
234 203 192
234 203 193
234 203 192
234 203 192
234 203 192
234 203 192
234 203 192
234 203 192
234 203 192
234 202 192
234 202 192
234 202 192
234 202 192
234 202 192
234 203 192
234 203 192
234 203 193
234 203 193
234 203 193
234 203 193
234 203 193
234 203 193
234 203 193
234 203 193
234 203 192
234 203 193
234 203 192
234 203 192
234 203 192
234 203 192
234 203 191
234 203 191
234 203 191
234 203 191
234 203 190
234 203 190
234 203 191
234 203 191
234 203 191
234 203 191
234 203 192
235 203 192
235 203 193
235 203 194
235 203 194
235 203 194
236 203 194
236 203 194
236 203 194
236 203 193
236 203 193
236 203 193
236 203 193
236 203 193
236 203 193
236 203 193
236 203 193
236 203 193
236 203 192
236 203 192
236 203 192
236 203 192
236 203 192
236 203 192
236 203 192
236 203 192
236 203 192
236 203 192
236 204 192
236 203 193
236 204 193
236 204 193
236 204 193
236 204 194
236 204 194
236 204 194
236 204 194
236 204 194
236 204 194
236 204 194
236 204 194
236 204 194
236 204 194
236 204 194
236 204 194
236 204 194
236 204 193
235 204 192
235 204 192
235 205 192
233 201 193
233 201 193
233 201 193
233 201 193
233 201 193
233 201 192
233 201 192
234 201 192
234 201 192
235 202 192
235 202 192
235 202 192
235 202 192
235 202 193
235 202 193
235 202 193
235 202 193
235 202 192
235 202 192
235 202 192
235 202 192
235 202 192
235 202 192
235 202 192
235 202 193
235 202 192
235 202 192
235 202 192
235 202 192
235 202 192
235 202 192
235 202 192
235 202 192
235 202 192
235 202 192
235 202 192
235 202 192
235 202 192
235 202 192
235 202 192
235 202 192
235 202 192
235 202 192
235 202 192
235 202 193
235 202 193
235 202 193
235 202 193
235 202 193
234 201 193
234 201 193
233 200 193
233 199 193
233 199 193
232 198 192
232 198 192
232 198 192
232 198 192
232 199 192
232 198 191
232 199 191
232 199 191
232 199 190
232 199 190
232 199 190
232 199 189
232 199 189
232 199 189
232 199 188
232 199 188
232 199 188
232 199 188
232 199 188
232 199 188
232 199 188
232 199 188
232 199 188
232 199 188
232 199 188
232 199 188
232 199 188
232 199 189
232 199 189
232 199 189
232 199 189
232 199 190
232 199 190
232 199 190
232 199 191
232 199 191
232 199 191
232 199 191
232 200 191
231 200 191
231 200 190
231 200 189
231 200 189
231 200 188
231 200 188
231 200 188
231 200 188
231 200 189
231 200 189
231 200 189
231 200 190
231 200 190
231 200 190
231 200 191
230 199 191
230 199 191
230 199 191
230 199 192
230 199 192
230 199 192
230 199 193
230 199 193
230 198 193
230 199 193
230 199 193
230 199 193
230 199 192
230 199 192
230 199 192
230 199 191
230 199 191
231 200 191
231 200 191
231 200 191
231 200 191
231 200 191
231 200 191
231 200 191
231 200 191
231 200 191
231 200 191
231 200 191
231 200 191
231 200 192
231 200 193
231 199 193
231 199 194
231 199 194
231 200 194
231 200 194
231 200 194
231 200 194
231 200 193
231 200 193
231 200 193
231 200 193
231 200 192
231 200 192
226 195 186
202 170 161
169 134 122
143 104 89
131 84 64
128 83 62
129 84 61
131 84 63
130 83 61
126 81 60
129 84 62
124 80 60
129 83 62
129 83 62
127 82 65
154 121 128
166 138 166
151 123 165
120 108 124
128 123 124
148 141 144
166 154 171
178 164 189
175 161 187
179 165 189
162 151 168
116 116 113
151 142 159
168 155 178
181 166 191
181 165 190
174 159 187
169 155 178
164 153 172
138 131 145
116 117 114
99 105 100
96 104 93
86 96 74
88 98 75
85 93 79
86 96 84
88 97 76
85 94 74
126 122 129
170 156 184
181 165 185
177 163 187
166 151 172
171 156 175
177 162 186
177 162 186
172 157 181
176 161 184
172 158 180
173 157 182
175 159 184
170 156 180
120 117 114
96 103 87
94 99 77
95 102 86
98 104 78
99 104 88
105 109 92
105 110 89
126 125 122
151 143 152
144 137 142
107 110 93
109 112 95
94 103 73
102 108 86
127 126 122
151 143 153
173 160 176
164 154 164
146 140 143
175 162 169
199 180 185
225 197 192
230 200 191
233 202 193
233 202 193
233 202 193
233 202 192
233 202 192
233 202 192
233 202 192
233 202 192
233 202 192
234 202 192
234 202 192
234 202 192
234 202 192
234 202 192
232 201 191
188 163 165
162 139 149
163 140 149
163 140 149
164 140 150
165 141 150
165 141 151
167 142 151
167 143 152
168 144 152
168 144 152
169 144 152
169 144 151
168 144 151
167 143 150
167 143 150
189 159 152
193 163 153
193 162 153
192 161 152
191 161 152
191 160 151
191 160 151
194 163 154
221 190 181
234 202 193
234 202 193
234 202 193
234 202 193
234 202 193
234 202 193
235 202 193
235 202 193
235 202 193
235 202 193
235 202 193
235 202 193
235 202 192
235 202 192
235 202 192
235 202 192
235 202 192
235 202 192
234 202 192
234 202 192
234 202 192
234 202 193
234 202 193
234 202 193
234 202 193
234 202 193
234 202 193
234 202 193
234 202 193
234 202 193
234 203 194
234 203 193
234 203 193
234 203 193
234 203 193
234 203 192
234 203 192
234 203 192
234 203 192
234 203 192
234 203 192
234 203 192
234 203 192
234 203 192
234 202 192
234 202 192
234 202 192
234 202 192
234 202 192
234 202 192
234 202 192
234 203 192
234 203 192
234 203 192
234 203 193
234 203 193
234 203 193
234 203 193
234 203 193
234 203 192
234 203 192
234 203 192
234 203 192
234 203 192
234 203 192
234 203 191
234 203 191
234 203 190
234 203 190
234 203 190
234 204 190
234 204 190
234 204 190
234 204 190
234 203 190
234 203 191
234 203 191
235 203 192
235 203 193
235 203 194
236 203 194
236 203 194
236 203 194
236 203 194
236 203 194
236 203 194
236 203 193
236 203 193
236 203 193
236 203 193
236 203 193
236 203 193
236 203 193
236 203 193
236 203 193
236 203 192
236 203 192
236 203 192
236 203 192
236 203 192
236 203 192
236 203 192
236 203 192
236 203 192
236 203 192
236 203 193
236 203 193
236 203 193
236 203 193
236 203 193
236 203 193
236 203 194
236 204 194
236 204 194
236 204 194
236 204 194
236 204 194
236 204 194
236 204 194
236 204 194
236 204 194
236 204 194
236 204 193
236 204 192
235 205 192
235 205 191
232 200 193
232 201 193
233 201 193
233 201 192
233 201 192
233 201 192
233 201 192
234 201 192
234 201 192
234 201 192
235 202 192
235 202 192
235 202 192
235 202 192
235 202 192
235 202 192
235 202 192
235 202 192
235 202 192
235 202 192
235 202 192
235 202 192
235 202 192
235 202 192
235 202 192
235 202 192
235 202 192
235 202 192
234 201 192
234 201 192
234 201 192
234 201 192
234 201 192
234 201 192
234 202 192
234 202 192
234 202 192
235 202 192
235 202 192
235 202 192
234 202 192
234 201 192
235 202 192
234 202 192
234 201 192
234 201 192
234 201 192
234 201 192
234 201 192
234 201 192
234 200 192
233 200 192
233 199 192
233 199 193
232 198 192
232 198 192
232 198 192
232 198 192
232 198 191
232 198 191
232 198 191
232 199 191
232 199 190
232 199 190
232 199 190
232 199 190
232 199 189
232 199 189
232 199 188
232 199 188
232 199 188
232 199 188
232 199 188
232 199 188
232 199 188
232 199 188
232 199 188
232 199 188
232 199 188
232 199 188
232 199 189
232 199 189
232 199 189
232 199 189
232 199 189
232 199 190
232 199 190
232 199 191
232 199 191
232 199 191
232 199 191
232 200 192
232 200 191
231 200 191
231 200 190
231 200 190
231 200 189
231 200 188
231 200 188
231 200 188
231 200 189
231 200 189
231 200 189
231 200 189
231 200 189
231 200 190
231 200 190
231 200 190
230 199 191
230 199 191
230 199 191
230 199 191
230 199 192
230 199 192
230 199 192
230 199 192
230 199 192
230 199 192
230 199 192
230 199 192
230 199 192
230 199 192
230 199 192
230 199 191
230 199 191
231 200 191
231 200 191
231 200 191
231 200 191
231 200 191
231 200 191
231 200 191
231 200 191
231 200 190
231 200 190
231 200 191
231 200 191
231 200 192
231 200 192
231 200 193
231 199 194
231 199 194
231 199 194
231 200 194
231 200 194
231 200 194
231 200 194
231 200 193
231 200 193
231 200 193
231 200 193
228 196 188
203 168 157
178 143 132
143 101 85
126 81 62
130 84 63
125 80 61
130 83 62
127 83 62
124 81 60
129 83 62
129 83 62
128 84 62
131 84 62
132 89 71
154 123 122
165 132 172
154 128 164
130 113 140
118 117 113
148 139 147
173 160 177
177 162 186
174 160 188
170 157 178
151 144 155
115 115 109
103 108 99
99 104 88
114 116 118
161 149 163
166 153 172
145 140 152
117 118 115
97 101 89
93 101 83
82 93 74
88 96 77
87 95 77
89 97 80
85 95 73
84 92 74
86 94 79
92 98 83
90 96 83
98 100 96
143 135 147
159 148 163
156 145 158
147 138 152
143 133 146
139 131 144
144 137 146
144 135 147
141 132 145
146 139 146
159 147 162
156 145 163
171 158 178
141 134 141
99 103 89
91 96 85
97 102 87
95 102 80
97 102 85
93 97 80
102 107 91
102 107 91
91 100 74
110 112 105
137 132 133
137 132 131
124 124 113
100 106 83
97 103 81
102 107 91
130 128 127
143 137 139
129 126 115
134 131 124
167 156 159
198 178 180
213 187 182
233 202 193
233 202 193
233 202 192
233 202 192
233 202 192
233 202 192
234 201 191
234 202 191
234 202 192
234 202 192
234 202 192
234 202 192
234 202 192
233 201 191
200 173 171
161 139 149
162 139 149
162 139 149
163 140 149
164 140 150
165 141 150
165 141 151
166 142 152
167 142 152
168 143 152
168 144 152
168 144 152
168 143 152
168 143 151
167 143 150
167 142 149
179 151 151
193 162 153
193 162 152
192 161 152
191 161 151
191 160 151
191 160 151
191 160 151
196 165 155
227 195 186
234 202 193
234 202 193
234 202 193
235 202 193
235 202 193
235 202 193
235 202 193
235 202 193
235 202 193
235 202 193
235 202 192
235 202 192
235 202 192
235 202 192
235 202 192
235 202 192
235 202 192
235 202 192
235 202 192
234 202 192
234 202 193
234 202 193
234 202 193
234 202 193
234 202 193
234 202 193
234 202 193
234 202 193
234 202 193
234 203 193
234 203 193
234 203 193
234 203 193
234 203 193
234 203 192
234 203 192
234 203 192
234 203 192
234 203 192
234 203 192
234 203 192
234 203 192
234 202 192
234 202 192
233 202 192
233 202 192
233 202 192
233 202 192
233 202 192
234 202 192
234 203 192
234 203 192
234 203 192
234 203 192
234 203 192
234 203 193
234 203 193
234 203 192
234 203 192
234 203 192
234 203 192
234 203 192
234 203 192
234 203 191
234 203 191
234 203 191
234 203 191
234 203 190
234 204 190
234 204 190
234 204 190
234 204 190
234 204 190
234 204 190
234 203 190
234 203 191
235 203 192
235 203 193
235 203 194
236 203 194
236 203 194
236 203 194
236 203 194
236 203 194
236 203 194
236 203 194
236 203 193
236 203 194
236 203 193
236 203 193
236 203 193
236 203 193
236 203 193
236 203 192
236 203 192
236 203 192
236 203 192
236 203 192
236 203 192
236 203 192
236 203 192
236 203 192
236 203 192
236 203 192
236 203 193
236 203 193
236 203 193
236 203 193
236 203 193
236 203 193
236 203 193
236 203 193
236 203 193
236 204 193
236 204 194
236 204 194
236 204 194
236 204 194
236 204 194
236 204 194
236 204 193
236 204 193
236 204 192
236 204 192
235 205 191
232 200 193
232 201 193
232 201 193
233 201 192
233 201 192
233 201 192
233 201 192
234 201 192
234 201 192
234 201 192
235 202 192
235 202 192
235 202 192
235 202 192
235 202 192
235 202 192
235 202 192
235 202 192
235 202 192
235 202 192
234 202 192
235 202 192
234 202 192
234 201 192
234 201 192
234 202 192
234 201 191
234 201 191
234 201 191
234 201 191
234 201 191
234 201 191
234 201 191
234 201 191
234 201 191
234 201 191
234 201 191
234 201 191
234 201 191
234 201 191
234 201 191
234 201 191
234 201 191
234 201 191
234 201 191
234 201 192
234 201 192
234 201 192
234 201 192
234 201 192
234 200 192
233 200 192
233 199 192
233 199 192
232 198 192
232 198 192
232 198 192
232 198 191
232 198 191
232 198 191
232 198 191
232 198 191
232 199 191
232 199 190
232 199 190
232 199 190
232 199 189
232 199 189
232 199 189
232 199 189
232 199 188
232 199 188
232 199 188
232 199 189
232 199 188
232 199 189
232 199 189
232 199 189
232 199 189
232 199 189
232 199 189
232 199 189
232 199 189
232 199 189
232 199 190
232 199 190
232 199 190
232 199 191
232 199 191
232 199 191
232 200 191
232 199 191
232 199 191
231 200 191
231 200 190
231 200 190
231 200 189
231 200 188
231 200 188
231 200 188
231 200 188
231 200 189
231 200 189
231 200 189
231 200 189
231 200 190
231 200 190
230 200 190
230 199 190
230 199 190
230 199 191
230 199 191
230 199 191
230 199 191
230 199 192
230 199 192
230 199 192
230 199 192
230 199 192
230 199 192
230 199 192
230 199 192
231 199 192
231 199 191
231 200 191
231 200 191
231 200 191
231 200 191
231 200 191
231 200 191
231 200 191
231 200 191
231 200 190
231 200 190
231 200 190
231 200 190
231 200 191
231 200 192
231 200 193
231 200 193
231 199 194
231 199 194
231 199 194
231 200 194
231 200 194
231 200 194
231 200 194
231 200 194
231 200 193
231 200 193
229 198 190
208 175 166
178 143 132
154 115 101
125 81 62
130 84 62
129 83 61
130 84 62
126 82 61
125 81 60
126 82 60
129 84 62
127 82 62
128 83 63
142 98 82
144 108 111
164 135 166
149 118 162
141 124 148
112 109 116
155 145 157
178 165 184
182 167 192
173 159 184
153 143 162
114 115 112
91 99 75
98 105 85
91 100 75
97 102 90
122 120 118
153 143 160
153 143 161
114 115 109
90 98 79
87 97 78
82 92 71
81 89 67
87 97 81
92 99 88
85 91 86
120 120 117
121 117 125
136 129 141
129 121 132
146 136 156
164 150 167
167 152 173
141 132 145
92 97 75
98 101 91
79 85 67
87 93 74
90 96 79
81 88 61
86 94 74
85 92 70
90 95 82
92 98 80
102 104 98
100 102 94
128 123 128
154 142 160
141 134 143
131 127 127
108 110 97
100 105 87
97 103 81
95 100 83
92 101 75
95 102 79
133 130 129
185 171 193
159 147 160
139 134 139
118 119 109
98 106 83
97 104 83
115 115 105
133 130 127
135 132 129
120 120 106
168 156 155
191 173 174
214 188 181
225 195 187
233 202 192
233 202 192
233 202 192
234 202 192
234 201 191
234 201 191
234 202 192
234 202 192
234 202 192
234 202 192
234 202 192
196 170 169
161 139 149
161 139 149
161 139 149
162 139 149
163 139 150
163 139 150
164 140 151
165 141 151
166 141 151
167 142 152
167 142 152
168 143 152
167 143 152
167 143 152
167 143 151
167 143 150
166 142 150
172 146 150
193 162 152
192 162 152
192 161 152
191 160 151
191 160 150
191 160 150
191 160 150
191 161 150
200 169 158
225 193 183
234 202 192
235 202 192
235 202 193
235 202 193
235 202 192
235 202 193
235 202 192
235 202 192
235 202 192
234 202 192
235 202 192
235 202 192
235 202 192
235 202 192
235 202 192
235 202 192
235 202 192
235 202 193
234 202 193
234 202 193
234 202 193
234 202 193
234 202 193
234 202 193
234 202 194
234 202 193
234 202 193
234 202 193
234 202 193
234 202 193
234 203 193
234 203 193
234 203 192
234 203 192
234 203 192
234 203 192
234 203 192
234 203 192
234 203 192
234 203 192
234 203 192
234 202 192
233 202 192
233 202 192
233 202 192
233 202 192
233 202 192
233 202 192
234 202 192
234 202 192
234 203 192
234 203 192
234 203 192
234 203 192
234 203 193
234 203 192
234 203 192
234 203 192
234 203 192
234 203 192
234 203 191
234 203 191
234 203 191
234 203 191
234 203 190
234 203 190
234 203 190
234 204 190
234 204 190
234 204 190
234 204 190
234 204 190
234 204 190
234 203 191
234 203 191
235 203 192
235 203 193
235 203 194
236 203 195
236 203 195
236 203 194
236 203 194
236 203 194
236 203 194
236 203 194
236 203 194
236 203 194
236 203 193
236 203 193
236 203 193
236 203 193
236 203 193
236 203 192
236 203 192
236 203 192
236 203 192
236 203 192
236 203 192
236 203 192
236 203 192
236 203 192
236 203 192
236 203 192
236 203 192
236 203 193
236 203 193
236 203 193
236 203 193
236 203 193
236 203 193
236 203 193
236 203 193
236 203 193
236 204 193
236 204 193
236 204 194
236 204 194
236 204 194
236 204 194
236 204 193
236 204 193
236 204 192
236 205 192
236 204 191
233 201 193
232 201 193
233 201 193
233 201 193
233 201 192
233 201 192
233 201 192
234 201 192
234 201 192
234 201 192
235 202 192
235 202 192
235 202 192
235 202 192
235 202 192
235 202 192
235 202 192
235 202 192
234 202 192
234 202 192
234 201 192
234 201 192
234 201 192
234 201 192
234 201 192
234 201 191
234 201 191
234 201 191
234 201 191
234 201 191
234 201 191
234 201 191
234 201 191
234 201 191
234 201 191
234 201 191
234 201 191
234 201 191
234 201 191
234 201 191
234 201 191
234 201 191
234 201 191
234 201 191
234 201 191
234 201 191
234 201 191
234 200 191
234 200 191
233 200 191
233 200 191
233 199 192
233 199 192
233 199 192
232 198 192
232 198 192
232 198 192
232 198 192
232 198 191
232 198 191
232 198 191
232 198 191
232 199 191
232 199 190
232 199 190
232 199 190
232 199 190
232 199 189
232 199 189
232 199 189
232 199 189
232 199 188
232 199 189
232 199 189
232 199 189
232 199 189
232 199 189
232 199 189
232 199 189
232 199 189
232 199 189
232 199 189
232 199 189
232 199 190
232 199 190
232 199 190
233 199 191
233 200 191
233 199 191
232 200 191
232 200 191
232 200 192
232 200 191
232 200 191
231 200 190
231 200 190
231 200 189
231 200 188
231 200 188
231 200 188
231 200 188
231 200 188
231 200 189
231 200 189
231 200 189
231 200 189
230 200 190
230 200 190
230 199 190
230 199 190
230 199 190
230 199 190
230 199 191
230 199 191
230 199 191
230 199 191
230 199 191
230 199 192
230 199 192
230 199 192
231 199 192
231 199 192
231 200 191
231 199 191
231 200 191
231 200 191
231 200 191
231 200 191
231 200 191
231 200 191
231 200 190
231 200 190
231 200 190
231 200 190
231 200 190
231 201 190
231 200 191
231 200 191
231 200 192
231 200 193
231 199 194
231 199 194
231 199 194
231 200 194
231 200 194
231 200 194
231 200 194
231 200 194
231 200 194
228 197 190
206 172 163
183 148 137
144 103 86
133 87 68
132 85 63
127 82 62
130 83 62
128 83 61
126 82 61
130 84 63
130 84 63
126 81 60
132 85 65
134 91 75
158 123 131
163 128 170
158 125 173
131 110 144
123 116 122
162 152 169
185 170 191
186 171 192
169 156 176
137 132 139
100 107 92
98 104 94
99 105 85
98 104 86
124 122 125
145 138 148
176 162 181
173 158 182
174 160 187
160 149 176
138 132 143
95 100 87
88 94 78
113 113 108
123 120 131
149 140 157
158 146 167
156 142 161
161 148 174
161 146 171
162 148 174
166 151 177
162 146 173
163 148 172
160 143 163
113 109 112
89 94 78
82 89 71
82 87 69
86 89 78
92 96 81
81 87 68
87 92 75
83 89 69
83 88 67
84 91 69
87 92 76
117 114 115
166 151 173
174 159 179
175 159 178
164 151 167
163 151 163
148 141 149
134 129 132
120 120 116
103 105 93
119 118 115
178 163 183
173 159 182
177 163 186
172 160 177
145 138 148
130 127 125
115 116 102
150 144 145
169 157 172
143 137 137
136 133 121
156 147 140
187 169 162
219 192 183
233 202 193
233 202 192
233 202 192
234 202 192
234 201 191
234 201 192
234 201 192
234 202 192
234 202 192
233 201 191
196 169 169
161 139 150
161 139 149
161 139 149
161 139 149
162 139 149
162 139 150
163 139 150
164 140 151
165 141 151
166 141 152
166 141 152
167 142 153
167 142 153
167 142 152
167 142 152
167 142 151
166 142 150
166 142 150
167 143 149
190 160 152
192 161 152
191 161 151
191 160 151
191 160 150
191 160 150
191 161 150
192 161 150
192 162 150
198 168 156
231 198 188
235 202 192
235 202 192
235 202 192
235 202 192
235 202 192
235 202 192
234 202 192
234 202 192
234 202 192
234 202 192
235 202 192
235 202 192
235 202 192
235 202 192
235 202 192
235 202 193
235 202 193
235 202 193
234 202 193
234 201 193
234 201 193
234 201 194
234 201 194
234 202 194
234 202 194
234 202 193
234 202 193
234 202 193
234 202 193
234 203 193
234 203 192
234 203 192
234 203 192
234 203 191
234 203 192
234 203 191
234 203 192
234 203 191
234 203 191
234 202 191
234 202 191
233 202 191
233 202 191
233 202 192
233 202 192
233 202 192
233 202 192
233 202 192
234 202 192
234 203 192
234 203 192
234 203 192
234 203 192
234 203 192
234 203 192
234 203 192
234 203 192
234 203 191
234 203 191
234 203 191
234 203 190
234 203 191
234 203 190
234 203 190
234 203 190
234 203 190
234 204 190
234 204 190
234 204 190
234 204 190
234 204 190
234 203 190
234 203 190
235 203 192
235 203 192
235 203 193
235 202 194
236 202 195
235 202 195
236 202 195
236 203 194
236 203 194
236 203 194
236 203 194
236 203 194
236 203 194
236 203 193
236 203 193
236 203 193
236 203 193
236 203 193
236 203 192
236 203 192
236 203 192
236 203 192
236 203 192
236 203 192
236 203 192
236 203 192
236 203 192
236 203 192
236 203 192
236 203 192
236 203 192
236 203 192
236 203 192
236 203 192
236 203 193
236 203 193
236 203 193
236 203 193
236 203 193
236 203 193
236 204 193
236 204 194
236 204 194
237 204 194
236 204 194
236 204 193
236 204 192
236 204 193
236 204 191
236 204 191
233 201 193
233 201 193
233 201 193
233 201 193
233 201 193
233 201 192
233 201 193
234 201 192
234 201 192
234 202 192
234 201 192
235 202 192
235 202 192
235 202 192
235 202 192
235 202 192
235 202 192
235 202 192
234 201 192
234 201 192
234 201 192
234 201 192
234 201 192
234 201 192
234 201 192
234 201 191
234 201 191
234 201 191
234 201 191
234 201 191
234 201 191
234 201 191
234 201 191
234 201 191
234 201 191
234 201 191
234 200 191
234 201 191
234 201 191
234 201 191
234 201 191
233 200 191
233 200 191
233 200 191
233 200 190
234 200 191
233 200 191
234 200 191
233 200 191
233 200 191
233 200 191
233 199 191
233 199 192
232 199 192
232 198 192
232 198 192
232 198 192
232 198 191
232 198 191
232 198 191
232 198 191
232 198 191
232 199 191
232 199 191
232 199 190
232 199 190
232 199 190
232 199 190
232 199 189
232 199 189
232 199 189
232 199 189
232 199 189
232 199 189
232 199 189
232 199 189
232 199 189
232 199 189
232 199 189
232 199 189
232 199 189
232 199 189
233 199 190
233 199 190
233 199 190
233 199 190
233 200 191
233 200 191
233 200 191
232 200 191
232 200 191
232 200 192
232 200 191
231 200 191
231 200 190
231 200 190
231 200 189
231 200 188
231 200 188
231 200 188
230 200 188
230 200 188
230 200 189
230 200 189
230 200 189
230 200 190
230 200 190
230 199 190
230 199 190
230 199 190
230 199 190
230 199 190
230 199 190
230 199 191
230 199 191
230 199 191
230 199 191
231 199 191
231 199 191
231 200 191
231 200 191
231 200 191
231 200 191
231 200 191
231 200 191
231 200 191
231 200 191
231 200 191
231 200 191
231 200 191
231 200 190
231 200 190
231 200 190
231 200 190
231 201 190
231 201 190
231 200 191
231 200 192
231 200 192
231 200 193
231 200 194
231 199 194
231 199 194
231 200 194
231 200 194
231 200 194
231 200 194
231 200 194
229 198 191
209 177 170
173 137 126
149 109 94
130 86 66
127 82 63
129 84 63
129 82 62
134 86 63
132 85 63
128 83 61
132 86 64
128 83 62
127 82 62
133 88 67
150 115 115
167 138 171
150 111 172
147 122 161
125 119 123
160 149 167
186 171 194
181 166 188
164 152 168
118 118 115
99 104 92
102 107 96
100 107 88
134 132 133
158 148 162
178 165 187
176 160 185
177 162 189
180 165 189
163 150 181
171 157 183
163 151 169
115 114 109
127 121 133
150 138 161
148 132 162
156 140 169
158 143 171
161 146 171
160 142 166
160 143 169
152 136 159
152 135 157
160 143 159
147 128 147
155 137 158
134 119 135
107 99 102
73 77 61
80 83 69
80 84 72
86 90 74
82 87 67
83 88 67
85 92 67
77 83 62
87 94 73
85 91 73
94 97 85
151 139 153
175 161 183
172 157 181
176 159 176
168 153 177
178 162 183
171 157 180
167 154 175
164 152 166
137 129 134
165 153 171
176 163 182
177 162 182
177 162 181
172 158 177
166 155 172
142 135 138
147 140 142
173 160 177
178 165 179
156 147 154
140 135 131
160 149 140
176 160 153
218 190 181
234 202 193
234 202 192
234 202 192
234 201 192
234 201 192
234 201 192
234 201 192
233 201 191
204 176 174
163 141 151
160 139 149
160 138 150
161 139 150
161 138 150
162 138 150
162 139 150
163 139 150
164 140 151
165 140 151
166 141 152
166 141 152
166 141 153
167 142 153
167 142 152
167 142 152
166 142 151
166 142 151
166 142 150
166 142 149
180 152 151
192 161 151
191 161 151
191 160 150
191 160 150
191 161 150
192 161 150
192 161 150
193 162 150
193 163 150
201 170 157
232 199 189
235 202 192
235 202 192
235 202 192
234 202 192
234 202 192
234 201 192
234 201 192
234 201 192
234 202 192
234 201 192
234 202 192
235 202 192
235 202 192
235 202 192
235 202 193
235 202 193
235 202 193
235 201 193
235 201 193
234 201 194
234 201 194
234 201 194
234 201 194
234 202 194
234 202 193
234 202 193
234 202 193
234 202 193
234 202 193
234 202 192
234 203 192
234 203 191
234 203 191
234 203 191
234 203 191
234 203 191
234 203 191
234 203 191
234 202 191
233 202 191
233 202 191
233 202 191
233 202 191
233 202 192
233 202 192
233 202 192
234 202 192
234 202 192
234 203 192
234 203 192
234 203 192
234 203 192
234 203 192
234 203 192
234 203 192
234 203 192
234 203 192
234 203 191
234 203 190
234 203 190
234 203 190
234 203 190
234 203 190
234 203 190
234 203 190
234 203 190
234 203 190
234 204 189
234 204 189
234 204 189
234 203 189
234 203 190
235 203 191
235 203 192
235 203 193
235 202 194
235 202 195
236 202 195
236 202 194
235 202 194
236 203 194
236 203 194
236 203 194
236 203 194
236 203 194
236 203 194
236 203 193
236 203 193
236 203 193
235 203 192
235 203 192
235 203 192
235 203 192
236 203 192
236 203 192
236 203 192
236 203 192
236 203 192
236 203 192
236 203 192
236 203 192
236 203 192
236 203 192
236 203 192
236 203 192
236 203 192
236 203 192
236 203 192
236 203 192
236 203 192
236 203 192
236 203 193
236 203 193
236 204 193
236 204 194
236 204 194
236 204 194
236 204 193
236 204 192
236 204 192
236 204 191
236 205 191
233 201 194
233 201 194
233 201 193
233 201 193
233 201 193
233 201 193
234 201 193
234 201 193
234 201 193
234 202 192
235 202 192
235 202 192
235 202 192
235 202 192
235 202 192
235 202 192
235 202 192
235 202 192
235 202 192
235 202 192
235 202 192
234 202 192
235 202 192
235 202 192
235 202 192
234 202 192
234 201 192
234 201 192
234 201 191
234 201 191
234 201 191
234 201 191
234 201 191
234 201 191
234 201 191
234 201 191
234 201 191
234 201 191
234 201 191
233 200 191
233 200 190
233 200 190
233 200 190
233 200 190
233 200 190
233 200 190
233 200 190
233 200 190
233 200 190
233 200 190
233 199 191
233 199 191
233 199 191
233 199 192
232 199 192
232 199 192
232 198 191
232 198 192
232 198 191
232 198 191
232 198 190
232 198 191
232 198 190
232 198 190
232 199 190
232 199 190
232 199 190
232 199 190
232 199 190
232 199 189
233 199 189
233 199 189
233 200 189
233 199 189
233 199 189
233 199 189
233 199 189
233 199 189
233 199 189
233 199 189
233 199 189
233 199 190
233 199 190
233 200 190
233 200 190
233 200 190
233 200 191
233 200 191
233 200 191
232 200 191
232 200 191
232 199 191
232 199 191
231 199 191
231 200 190
231 200 190
231 200 189
231 200 188
231 200 188
231 200 188
230 200 188
230 200 188
230 200 189
230 200 189
230 200 189
230 200 189
230 200 189
230 199 190
230 199 190
230 199 190
230 199 190
230 199 190
230 199 190
230 199 190
230 199 190
230 199 191
230 199 191
231 199 191
231 200 191
231 200 191
231 200 191
231 200 191
231 200 191
231 200 191
231 200 191
231 200 191
231 200 191
231 200 191
231 200 191
231 200 191
231 200 190
231 200 190
231 200 190
231 200 190
231 201 190
231 201 190
231 201 191
231 200 192
231 200 192
231 200 193
231 200 194
231 200 194
231 200 194
231 200 194
231 200 194
231 200 194
231 200 194
230 198 192
209 177 169
189 154 145
158 118 104
135 88 67
132 85 63
129 83 63
127 83 61
127 82 61
126 82 61
129 82 63
129 83 63
126 82 62
127 81 61
136 91 71
153 116 116
168 132 164
161 126 178
164 135 180
163 146 172
130 127 128
110 112 105
141 135 143
156 147 160
112 114 104
100 107 83
104 109 95
124 123 123
145 135 148
176 163 182
176 161 183
188 171 194
174 159 184
172 157 182
159 146 172
147 137 151
118 116 122
93 95 93
82 87 75
96 96 106
134 122 141
156 143 167
152 135 160
153 136 167
142 125 154
138 122 144
151 136 157
137 123 138
137 123 138
119 105 120
129 115 126
106 94 102
94 83 89
85 74 81
96 91 88
102 89 91
116 104 108
127 115 119
131 118 121
129 116 121
116 109 108
113 106 107
132 123 126
111 108 103
88 88 74
140 132 139
167 152 171
176 162 182
177 160 181
158 143 162
182 166 185
168 153 175
165 150 171
179 165 184
175 161 181
137 131 135
124 121 122
153 142 154
167 154 176
172 158 177
182 168 187
178 164 184
160 150 163
171 159 172
181 167 185
183 169 188
168 156 168
149 142 137
177 163 158
202 179 174
223 193 184
234 202 192
234 202 192
234 202 192
234 201 192
234 201 192
234 201 192
205 176 174
161 140 150
160 139 150
160 139 150
161 138 150
161 138 150
161 138 150
162 139 150
163 139 150
163 139 151
164 140 151
165 140 152
165 141 152
166 141 153
166 141 153
166 141 153
166 141 153
166 141 152
166 141 152
166 142 151
166 142 150
166 142 150
176 150 151
191 161 151
191 161 151
191 160 150
191 161 150
191 161 150
192 161 150
193 162 150
193 163 150
194 163 150
194 164 150
205 174 161
232 199 188
234 201 191
234 201 191
234 201 191
234 201 191
234 201 191
234 201 191
234 201 191
234 201 191
234 201 191
234 201 192
234 201 192
234 202 192
235 202 192
235 202 192
235 202 193
235 202 193
235 202 193
235 201 193
235 201 193
235 201 194
234 201 194
234 201 194
234 202 194
234 202 194
234 202 193
234 202 193
234 202 193
234 202 193
234 202 192
234 202 192
234 202 191
234 202 191
234 203 191
234 203 191
234 203 191
234 202 191
234 202 191
234 202 191
234 202 191
234 202 191
234 202 191
233 202 191
234 202 191
234 202 191
234 202 191
234 202 192
234 202 192
234 202 192
234 202 192
234 202 192
234 203 192
234 202 192
234 202 192
234 202 192
233 202 190
233 202 190
234 203 190
234 203 190
234 203 190
234 203 189
234 203 189
234 203 189
234 203 189
234 203 189
234 203 189
234 203 189
234 203 189
234 203 189
234 204 189
234 203 189
234 203 190
235 203 191
235 203 192
235 202 193
235 202 194
235 202 194
236 202 194
236 202 194
236 202 194
236 202 194
236 203 194
236 203 194
236 203 194
236 203 194
236 203 194
236 203 193
236 203 193
236 203 193
236 203 192
235 203 192
236 203 192
235 203 192
235 203 192
236 203 192
236 203 192
236 203 192
236 203 192
236 203 192
236 203 192
236 203 192
236 203 192
236 203 192
236 203 192
236 203 192
236 203 192
236 203 192
236 203 192
236 203 192
236 203 192
236 203 192
236 203 193
236 203 193
236 203 193
236 204 193
236 204 194
236 204 193
236 204 193
237 204 192
236 204 192
236 205 191
236 205 191
233 201 193
233 201 193
233 201 193
233 201 193
233 201 193
234 201 193
234 201 193
234 201 193
234 202 193
234 202 192
235 202 192
235 202 192
235 202 192
235 202 192
235 202 192
235 202 192
235 202 192
235 202 192
235 202 192
235 202 192
235 202 192
235 202 192
235 202 192
235 202 192
235 202 192
235 202 192
235 202 192
235 202 192
235 202 192
234 201 192
234 201 191
234 201 191
234 201 191
234 201 191
234 201 191
234 201 191
234 201 191
234 201 191
234 201 191
234 201 191
234 200 191
233 200 190
233 200 190
233 200 190
233 200 190
233 200 190
233 200 190
233 200 190
233 200 190
233 199 190
233 199 191
233 199 191
233 199 191
233 199 192
233 199 192
232 199 192
232 198 191
232 198 191
232 198 191
232 198 190
232 198 190
232 198 190
232 198 190
232 198 190
232 198 189
232 199 190
232 199 189
232 199 189
233 199 189
233 199 189
233 200 189
233 200 189
233 200 189
233 200 190
233 200 190
233 199 190
233 199 190
233 199 189
233 199 190
233 199 189
233 199 190
233 199 190
233 200 190
233 199 190
233 200 190
233 200 190
233 200 190
233 200 191
232 199 190
232 200 191
232 199 191
232 199 191
231 199 191
231 199 190
231 200 190
231 200 190
231 200 189
231 200 189
231 200 188
230 200 188
230 200 188
230 200 188
230 200 189
230 200 189
230 200 189
230 200 189
230 200 189
230 199 190
230 199 190
230 199 190
230 199 190
230 199 190
230 199 190
230 199 190
230 199 190
230 199 191
231 199 191
231 199 191
231 200 191
231 200 191
231 200 191
231 200 191
231 200 191
231 200 191
231 200 191
231 200 191
231 200 191
231 200 191
231 200 191
231 200 191
231 200 190
231 200 190
231 200 190
231 200 190
231 200 190
231 201 190
231 200 191
231 200 192
231 200 192
231 200 193
231 200 193
231 200 194
231 200 194
231 200 194
231 200 193
231 200 193
224 192 185
217 184 177
169 134 123
149 109 94
126 82 63
126 81 62
132 85 63
127 81 60
127 82 64
127 82 61
125 81 61
125 80 61
133 86 64
125 81 59
129 82 61
146 109 106
171 138 170
157 121 177
156 123 178
178 162 180
143 137 137
96 102 85
122 121 117
158 149 163
181 167 191
170 156 174
144 137 146
123 122 121
159 149 166
181 166 188
175 161 188
177 162 189
170 156 181
162 148 169
134 127 137
98 100 96
88 91 80
82 86 78
81 85 74
87 89 77
88 88 81
88 88 85
103 96 109
130 118 136
116 105 121
122 112 126
104 97 102
84 82 90
82 81 70
89 83 78
87 80 81
85 76 73
91 72 84
84 70 74
84 65 75
95 72 86
128 110 124
129 110 119
133 117 130
135 119 132
148 131 143
146 129 142
152 134 148
156 139 157
162 145 164
153 136 151
154 140 156
133 127 128
107 106 98
131 125 132
148 138 146
150 136 153
158 145 159
164 149 167
171 156 176
170 155 177
127 123 123
89 96 72
104 108 93
119 118 113
130 124 128
167 155 168
180 165 183
155 145 157
127 124 120
148 141 142
171 160 172
174 160 174
175 162 171
178 164 172
188 172 177
210 186 180
226 195 186
234 202 192
234 202 192
234 202 192
234 202 192
205 176 174
164 141 151
161 139 150
161 139 150
161 139 150
161 138 150
161 138 150
161 138 150
162 139 150
163 139 151
163 139 151
164 140 151
165 140 152
166 141 153
166 141 153
166 141 153
166 141 153
166 141 153
166 141 152
165 141 152
165 141 152
165 142 151
165 142 150
168 144 150
189 159 151
191 161 151
191 161 150
191 161 150
192 161 150
192 162 150
193 162 150
194 163 150
194 164 150
195 165 150
196 165 151
203 173 159
233 200 190
234 201 191
234 201 191
234 201 191
234 201 191
234 201 191
234 201 191
234 201 191
234 201 191
234 201 191
234 201 191
234 201 191
234 202 192
234 202 192
235 202 192
235 202 193
235 202 193
235 201 193
235 201 193
235 201 193
235 201 194
234 201 194
234 202 193
234 202 194
234 202 194
234 202 193
234 202 193
234 202 192
234 202 192
234 202 192
234 202 191
234 202 191
234 202 191
234 202 191
234 202 191
234 202 191
234 202 191
234 202 191
234 202 191
234 202 191
234 202 191
234 202 191
234 202 191
234 202 191
234 202 191
234 202 191
234 202 191
234 202 192
234 202 192
234 202 192
234 202 192
234 202 192
234 202 191
230 199 188
210 184 172
218 190 179
233 202 190
234 203 190
234 203 189
234 203 189
234 203 189
234 203 189
234 203 189
234 203 189
234 203 189
234 203 189
234 203 189
234 203 189
234 204 189
235 203 189
235 203 190
235 203 191
235 203 192
235 203 192
235 202 194
236 202 194
236 202 194
236 202 194
236 202 194
236 202 194
236 203 194
236 203 194
236 203 194
236 203 194
236 203 193
236 203 193
236 203 193
236 203 193
236 203 193
236 203 192
236 203 192
236 203 192
236 203 192
236 203 192
236 203 192
236 203 192
236 203 192
236 203 192
236 203 192
236 203 192
236 203 192
236 203 192
236 203 192
236 203 192
236 203 192
236 203 192
236 203 192
236 203 192
236 203 192
236 203 192
236 203 192
236 203 193
236 203 193
236 204 193
236 204 194
237 204 193
236 204 193
236 204 192
236 204 192
236 205 191
237 205 191
233 200 193
233 201 193
233 201 193
233 201 193
234 201 193
234 201 193
234 201 193
234 201 193
234 202 193
234 202 193
235 202 192
235 202 192
235 202 192
235 202 192
235 202 192
235 202 192
235 202 192
235 202 192
235 202 193
235 202 193
235 202 193
235 203 193
235 203 193
235 203 193
235 202 193
235 202 193
235 202 193
235 202 192
235 202 192
235 202 192
235 202 192
234 202 192
235 202 192
234 202 192
234 201 191
234 201 191
234 201 191
234 201 191
234 201 191
234 201 191
234 201 191
234 200 191
233 200 190
233 200 190
233 200 190
233 200 190
233 200 190
233 200 190
233 199 190
233 199 190
233 199 190
233 199 191
233 199 191
233 199 191
232 199 191
232 199 191
232 199 191
232 198 191
232 198 190
232 198 190
232 198 190
232 198 190
232 198 189
232 198 189
232 198 189
232 199 189
232 199 189
232 199 189
233 199 189
233 199 189
233 200 189
233 200 189
233 200 189
233 200 189
233 200 190
233 200 190
233 200 190
233 199 189
233 199 190
233 199 189
233 199 189
233 199 190
233 199 190
233 199 190
233 199 190
233 199 190
233 199 190
233 199 190
232 199 190
232 199 190
232 199 190
232 199 191
231 199 190
231 199 190
231 200 190
231 200 189
231 200 189
231 200 189
231 200 189
230 200 189
230 200 188
230 200 188
230 200 189
230 200 189
230 200 189
230 200 189
230 199 189
230 199 189
230 199 190
230 199 190
230 199 190
230 199 190
230 199 190
230 199 190
230 199 190
231 199 191
231 199 191
231 199 191
231 199 191
231 200 191
231 200 191
231 200 191
231 200 191
231 200 191
231 200 191
231 200 191
231 200 191
231 200 190
231 200 190
231 200 191
231 200 191
231 200 191
231 200 190
231 200 191
231 200 190
231 200 191
231 200 191
231 200 192
232 200 192
232 200 193
232 200 193
232 200 194
232 200 194
232 200 193
232 200 193
230 199 192
210 178 170
188 155 147
152 113 99
123 80 60
134 86 64
127 82 62
130 84 62
131 84 64
127 83 61
131 85 63
129 83 63
134 86 63
127 82 62
127 82 63
137 99 89
151 114 139
165 125 174
163 133 180
161 144 167
149 142 143
102 107 89
120 120 115
152 145 161
175 161 186
186 170 193
169 157 177
146 139 148
112 114 99
130 126 127
172 159 184
174 158 184
154 143 161
121 115 125
103 104 100
81 85 74
73 77 64
68 70 65
65 67 63
62 66 52
76 74 73
85 78 75
100 90 104
96 87 106
125 111 129
79 79 78
72 74 59
76 76 74
80 81 79
78 77 72
81 68 73
91 72 85
102 73 89
100 74 95
109 78 96
112 81 100
93 67 84
107 78 96
108 84 102
115 93 106
133 114 129
149 129 143
140 124 138
149 133 149
143 128 144
151 135 151
155 138 155
164 148 166
138 128 133
83 88 67
81 89 63
86 92 71
101 103 90
106 108 100
114 111 111
150 139 148
159 148 164
142 133 141
99 103 89
100 106 85
95 103 75
101 106 86
118 117 108
146 138 146
162 152 165
101 104 89
112 115 92
138 133 135
159 149 158
180 166 180
166 155 163
174 161 165
192 174 179
203 178 171
231 199 189
234 202 192
235 202 192
211 182 178
161 139 149
161 139 150
161 139 150
161 139 150
161 139 150
161 138 150
161 138 150
162 139 151
162 139 151
163 139 151
164 140 151
164 140 152
165 140 152
165 141 152
165 141 153
166 140 153
165 140 153
165 140 153
165 140 153
165 141 152
165 141 151
165 142 151
165 142 151
166 142 150
184 156 151
191 161 151
191 161 150
192 161 150
192 162 150
193 162 150
193 163 150
194 164 150
195 165 150
195 165 150
196 166 151
196 166 151
210 179 166
234 201 190
234 201 191
234 201 191
234 201 191
234 201 191
234 201 191
234 201 191
234 201 191
234 201 191
234 201 191
234 201 191
234 201 192
234 202 192
235 202 192
235 202 193
235 202 193
235 202 193
235 201 193
235 201 193
235 201 193
234 201 193
234 201 194
234 201 194
234 201 194
234 202 194
234 202 193
234 202 193
234 202 192
234 202 192
234 202 191
234 202 191
234 202 191
234 202 191
234 202 191
234 202 191
234 202 191
234 202 191
234 202 191
234 202 191
234 202 191
234 202 191
234 202 191
234 202 191
234 202 191
234 202 191
234 202 191
234 202 191
234 202 191
234 202 191
234 202 191
234 202 191
234 202 191
212 185 175
155 144 136
163 149 140
209 184 173
234 202 190
234 203 189
234 203 189
234 203 189
234 203 189
234 203 188
234 203 188
234 203 188
234 203 188
234 203 188
235 203 188
234 203 188
235 203 189
235 203 190
235 203 191
235 203 191
235 202 192
236 202 193
236 202 194
236 202 194
236 202 194
236 202 194
236 202 194
236 202 194
236 203 194
236 203 194
236 203 193
236 203 193
236 202 193
236 203 193
236 202 193
236 202 192
236 203 192
236 203 192
236 203 192
236 203 192
236 203 192
236 203 192
236 203 192
236 203 192
236 203 192
236 203 192
236 203 192
236 203 192
236 203 192
236 203 192
236 203 192
236 203 192
236 203 192
236 203 191
236 203 191
236 203 191
236 203 192
236 203 192
236 203 192
236 203 193
236 203 193
237 204 193
236 204 193
237 204 192
236 204 192
236 204 191
237 205 191
237 205 190
233 200 193
233 200 193
234 201 193
234 201 193
234 201 193
234 201 193
234 201 193
234 201 193
234 201 193
234 201 192
234 202 192
235 202 192
235 202 192
235 202 192
235 202 192
235 202 192
235 202 193
235 202 193
235 203 193
235 203 193
235 203 193
235 203 193
235 203 193
236 203 193
235 203 193
235 203 193
235 203 193
235 203 193
235 202 193
235 202 193
235 202 192
235 202 192
235 202 192
235 202 192
235 202 192
234 201 192
234 201 192
234 201 192
234 201 191
234 201 191
234 201 191
234 201 191
234 201 191
234 200 191
234 200 191
234 200 191
233 200 190
233 200 190
233 199 190
233 199 190
233 199 190
233 199 191
233 199 191
233 199 191
232 199 191
232 199 191
232 199 191
232 199 191
232 198 190
232 198 190
232 198 190
232 198 190
232 198 189
232 198 189
232 199 189
232 199 189
232 199 189
232 199 189
233 199 189
233 200 189
233 200 189
233 200 189
233 200 189
233 200 190
233 200 190
233 200 190
233 199 190
233 199 190
233 199 190
233 199 189
232 199 189
233 199 189
232 199 189
232 199 189
232 199 189
232 199 190
232 199 189
232 199 189
232 199 190
232 199 190
231 199 190
231 199 190
231 199 190
231 199 190
231 200 190
231 200 190
231 200 189
231 200 189
231 200 189
231 200 189
230 200 189
230 200 189
230 200 189
230 200 189
230 200 189
230 199 189
230 199 189
230 199 190
230 199 190
230 199 190
230 199 190
230 199 190
231 199 190
230 199 190
231 199 190
231 199 190
231 199 191
231 199 190
231 199 190
231 199 190
231 199 190
231 199 190
231 200 190
231 199 190
231 200 190
231 199 190
231 199 190
231 200 190
231 200 190
231 200 190
231 200 191
231 200 191
231 200 191
231 200 191
231 200 191
231 200 191
232 200 191
232 200 192
232 200 192
232 200 193
232 200 193
232 200 193
232 200 193
232 200 193
227 195 188
216 184 176
176 140 128
151 113 99
137 91 70
131 84 61
131 84 62
128 83 61
126 82 62
131 84 62
129 84 65
126 82 61
131 84 63
125 81 61
128 83 62
135 87 65
153 117 121
167 134 175
164 133 182
151 129 166
140 133 136
106 111 89
119 118 114
158 148 162
180 165 191
177 161 185
166 155 172
118 118 113
110 115 96
103 108 91
98 103 86
121 119 112
155 144 155
119 116 119
84 89 77
80 84 72
81 81 73
81 74 88
81 71 98
84 70 100
95 75 108
88 73 102
121 106 132
133 119 147
132 116 140
137 122 145
122 110 133
88 88 88
67 69 58
92 80 85
92 71 80
92 68 84
103 72 92
117 83 105
107 73 95
105 74 92
103 70 89
105 71 91
108 77 97
109 73 94
107 77 97
107 79 97
128 106 123
125 108 123
154 140 159
145 131 142
148 133 147
157 143 160
148 133 150
149 136 152
95 96 83
76 83 57
86 90 73
91 96 78
81 87 63
89 94 73
92 98 81
104 105 92
123 120 121
126 120 121
121 120 113
97 102 85
94 100 76
96 102 78
105 110 88
111 112 100
129 126 122
103 106 87
94 100 75
115 117 100
150 142 146
147 141 136
153 145 139
180 166 171
190 171 173
213 185 177
233 201 191
213 183 179
163 140 150
161 139 149
161 139 149
161 139 150
161 139 150
161 139 150
162 139 150
162 139 150
162 139 151
163 139 151
163 139 151
164 140 151
165 140 152
165 140 152
165 140 152
165 140 152
165 140 152
165 140 152
165 140 152
165 140 152
165 141 152
165 141 152
165 142 151
165 142 152
165 142 151
177 150 151
191 161 151
192 161 151
192 162 150
193 162 150
193 163 150
194 163 150
194 164 150
195 165 151
196 166 151
196 166 151
196 166 151
196 166 151
210 179 166
234 201 190
234 201 190
234 201 190
234 201 190
234 201 190
234 201 190
234 201 190
234 201 190
234 201 191
234 201 191
234 201 191
234 202 192
235 202 192
235 202 192
235 202 192
235 202 193
235 202 193
235 202 193
235 201 193
234 201 193
235 201 194
234 201 194
234 201 194
234 201 194
234 201 194
234 202 193
234 202 192
234 202 192
234 202 191
234 202 191
234 202 191
234 202 191
234 202 191
234 202 191
234 202 191
234 202 191
234 202 191
234 202 191
234 202 191
234 202 191
234 202 191
234 202 191
234 202 191
234 202 191
234 202 191
234 202 191
234 202 191
234 202 191
234 202 191
233 201 190
211 186 181
169 157 161
141 134 145
162 150 164
177 159 153
226 196 184
234 202 189
234 203 189
234 203 189
234 203 188
234 203 188
234 203 188
234 203 188
234 203 188
235 203 188
235 203 188
235 203 188
235 203 188
235 203 190
235 203 190
235 203 192
236 202 192
236 202 193
236 202 193
236 202 194
236 202 193
236 202 193
236 202 194
236 202 193
236 202 193
236 202 193
236 202 193
236 202 193
236 202 193
236 202 193
236 202 193
236 202 192
236 203 192
236 203 192
236 203 192
236 203 192
236 203 192
236 203 192
236 203 192
236 203 192
236 203 192
236 203 192
236 203 192
236 203 192
236 203 192
236 203 192
236 203 192
236 203 192
236 203 192
236 203 192
236 203 191
236 203 191
236 203 191
236 203 192
236 203 192
236 203 192
237 203 193
237 204 193
237 204 192
236 204 192
237 204 191
237 204 191
236 205 190
236 205 190
233 200 193
234 200 193
234 200 193
234 200 193
234 201 193
234 201 193
234 201 193
234 201 193
234 201 192
234 201 192
234 201 192
235 202 192
235 202 192
235 202 192
235 202 192
235 202 192
235 202 193
235 202 193
235 203 193
235 203 193
235 203 193
235 203 193
235 203 193
235 203 193
235 203 193
236 203 193
236 203 193
235 203 193
235 203 193
236 203 193
235 203 193
236 203 193
235 202 193
235 202 193
235 202 192
235 202 192
235 202 192
235 202 192
234 201 192
234 201 192
234 201 191
234 201 191
234 201 191
234 201 191
234 201 191
234 200 191
234 200 191
234 200 190
234 199 190
233 199 190
233 199 190
233 199 190
233 199 191
233 199 191
233 199 191
232 199 191
232 199 191
232 199 191
232 199 190
232 199 190
232 199 190
232 199 190
232 199 190
232 199 190
232 199 189
232 199 189
232 199 189
233 199 189
233 200 189
233 200 189
233 200 189
233 200 189
233 200 189
233 200 189
233 200 189
233 200 190
233 200 190
233 199 189
232 199 189
232 199 189
232 199 189
232 199 189
232 199 189
232 199 189
232 199 189
232 199 189
232 199 189
232 199 189
232 199 189
231 199 189
231 199 189
231 199 189
231 199 190
231 199 190
231 199 190
231 200 189
231 200 189
231 200 189
231 200 189
231 200 189
230 200 189
230 200 189
230 200 189
230 200 189
230 200 189
230 199 189
230 199 189
231 199 189
231 199 190
231 199 190
231 199 190
231 199 190
231 199 190
231 199 190
231 199 190
231 199 190
231 199 190
231 199 190
231 199 190
231 199 190
231 199 190
231 199 190
231 199 190
231 199 190
231 199 190
231 200 190
231 199 190
231 200 190
231 200 190
231 200 190
231 200 191
231 200 191
231 200 191
231 200 191
232 200 191
232 200 191
232 200 191
232 200 191
232 200 192
232 200 193
232 200 193
232 200 193
232 200 193
231 199 192
218 185 177
178 141 130
149 112 99
135 89 69
134 86 64
121 79 59
131 85 63
128 83 63
128 83 62
132 85 64
128 82 62
127 82 61
128 82 61
127 82 62
126 82 61
143 104 97
180 149 168
159 123 179
155 131 171
155 142 159
113 113 105
111 113 103
171 159 178
184 169 192
177 162 183
138 133 145
110 112 103
88 97 68
103 108 91
112 112 108
133 128 135
169 155 177
160 142 172
153 135 163
117 107 123
81 73 86
93 72 110
105 82 129
98 72 128
109 82 134
102 77 123
109 78 134
92 74 122
143 127 156
158 145 169
138 125 145
136 124 145
135 125 146
93 82 84
108 83 97
110 80 99
104 73 92
108 79 97
116 80 101
115 81 104
110 76 100
108 77 98
115 79 99
112 75 95
108 76 97
111 74 95
108 77 95
105 75 92
107 88 97
90 84 76
94 93 85
103 104 96
102 101 96
119 112 108
105 103 99
106 104 97
115 109 103
98 97 86
90 91 74
90 94 72
92 97 76
87 91 70
89 95 72
109 108 101
165 151 166
163 148 161
143 133 139
115 115 107
98 103 78
91 97 73
108 111 97
169 157 173
139 133 135
130 126 122
112 113 98
109 110 94
133 129 116
138 134 120
122 120 103
189 172 174
188 166 160
202 175 169
165 141 151
162 139 149
161 139 149
161 139 149
161 139 150
161 139 150
162 139 150
162 139 150
162 139 151
163 139 151
164 140 151
164 140 151
165 140 152
165 140 152
165 140 152
166 140 152
165 140 152
165 140 152
165 140 152
165 140 152
165 140 152
164 140 152
164 141 152
165 141 152
165 142 152
166 142 151
169 145 151
190 160 151
192 162 151
192 162 151
193 162 151
193 163 150
194 164 150
195 165 151
195 165 151
196 166 151
196 166 151
196 166 151
196 166 151
196 165 152
220 188 176
233 200 189
234 201 190
234 201 190
234 201 190
234 201 190
234 201 190
234 201 190
234 201 190
234 201 190
234 201 191
234 201 191
235 202 191
235 202 192
235 202 192
235 202 192
235 202 192
235 202 193
235 202 193
235 201 193
235 201 193
235 201 193
235 201 193
235 201 194
235 201 193
235 201 193
235 202 192
235 202 192
234 202 190
235 202 190
235 202 190
235 202 190
235 202 190
235 202 190
234 202 191
234 202 190
234 202 190
234 202 191
235 202 191
234 202 191
234 202 191
234 202 191
234 202 191
234 202 191
234 202 191
234 202 191
235 202 191
235 202 191
233 201 190
213 188 179
177 163 163
154 146 156
165 153 174
172 158 180
168 155 162
199 177 175
227 197 186
232 201 187
234 203 188
234 203 188
234 203 188
234 203 188
235 203 187
235 203 188
235 203 188
235 203 188
235 203 188
235 203 188
235 203 189
235 203 190
235 203 190
236 202 191
236 202 192
236 202 193
236 202 193
236 202 193
236 202 193
236 202 193
236 202 193
236 202 193
236 202 193
236 202 193
236 202 193
236 202 193
236 202 193
236 202 193
236 203 192
236 203 192
236 203 192
236 203 192
236 203 192
236 203 192
236 203 192
236 203 192
236 203 192
236 203 192
236 203 192
236 203 192
236 203 192
236 203 192
236 203 192
236 203 192
236 203 191
236 203 191
236 203 191
236 203 191
236 203 191
236 203 191
236 203 192
236 203 192
236 203 192
237 203 192
237 204 193
237 204 192
237 204 192
236 204 191
236 204 191
236 205 190
236 205 190
234 200 193
234 200 193
234 200 193
234 200 192
234 200 192
234 201 192
234 201 192
234 201 192
234 201 192
234 201 192
234 201 192
234 201 192
234 202 192
234 202 192
235 202 192
235 202 192
235 202 193
235 202 193
235 202 193
235 202 193
235 203 193
235 203 193
235 202 193
235 202 193
235 203 193
235 203 193
236 203 193
236 203 193
236 203 193
236 203 193
236 203 193
236 203 193
236 203 193
235 202 193
235 202 193
235 202 193
235 202 192
235 202 192
235 202 192
235 202 192
235 202 192
235 201 192
234 201 192
234 201 191
234 201 191
234 200 191
234 200 191
234 200 191
234 200 190
234 199 190
234 200 190
233 199 190
233 199 190
233 199 191
233 199 191
233 199 191
233 199 191
233 199 190
233 199 190
233 199 190
232 199 190
233 199 190
232 199 190
233 199 190
233 199 190
233 199 189
233 200 189
233 200 189
233 200 189
233 200 189
233 200 189
233 200 189
233 200 189
233 200 189
233 200 189
233 199 189
232 199 189
232 199 189
232 199 189
232 199 189
232 199 189
232 199 189
232 199 189
232 199 189
232 199 189
232 199 189
231 199 189
232 199 189
231 199 189
231 199 189
231 199 189
231 199 189
231 199 190
231 199 189
231 200 189
231 200 189
231 200 189
231 200 189
231 200 189
231 200 189
231 200 189
231 200 189
230 200 189
230 200 189
230 199 189
230 199 189
231 199 189
231 199 190
231 199 190
231 199 190
231 199 190
231 199 190
231 199 190
231 199 190
231 199 190
231 199 190
231 199 190
231 199 190
231 199 190
231 199 190
231 199 190
231 199 190
231 199 190
231 200 190
231 199 190
231 200 190
231 200 190
231 200 190
231 200 190
231 200 190
231 200 191
231 200 191
231 200 191
231 200 191
232 200 191
232 200 191
232 200 191
232 200 191
232 200 192
232 200 192
232 200 193
232 200 193
230 198 191
215 183 174
188 153 143
150 110 95
130 85 66
129 83 62
134 86 63
136 87 63
131 84 61
131 84 63
129 84 62
129 83 62
129 84 62
129 82 63
125 80 61
131 84 62
135 93 80
166 135 149
166 129 180
142 119 153
161 147 164
170 156 175
160 151 158
150 143 146
164 153 170
173 159 180
140 136 141
105 109 95
96 103 83
91 99 72
125 122 126
167 154 177
173 157 181
171 155 186
164 148 176
135 118 151
124 103 146
106 79 128
118 92 139
115 84 140
107 77 135
111 82 135
108 78 133
106 78 131
100 68 123
124 110 143
129 122 139
120 115 125
97 94 96
95 90 88
114 89 106
111 78 102
115 76 102
120 83 107
120 86 112
121 84 109
123 86 111
124 86 110
128 87 113
112 75 98
121 84 104
113 77 99
119 85 105
114 79 100
112 75 96
112 78 99
103 86 93
90 94 77
86 90 71
94 97 81
82 84 67
84 87 67
125 119 121
172 155 168
152 136 149
158 143 152
134 123 126
130 121 123
113 111 100
96 99 83
103 104 93
165 150 164
177 161 180
176 158 171
182 165 181
163 151 165
140 133 131
116 114 108
160 148 163
177 161 178
171 158 172
128 123 131
99 103 82
144 138 139
163 152 155
129 127 113
138 132 118
165 150 145
168 145 153
162 139 149
162 139 149
162 139 149
162 139 149
162 139 150
162 139 150
162 139 150
163 139 150
163 139 151
164 140 151
164 140 151
165 140 151
165 140 152
165 141 152
166 141 152
166 140 152
165 140 151
165 140 151
164 140 151
164 140 151
164 140 151
164 140 151
164 141 151
164 141 151
165 142 152
166 143 152
166 143 151
186 158 151
192 162 151
193 162 151
193 163 151
194 163 151
194 164 150
196 165 151
196 166 151
196 166 151
196 166 151
196 166 152
196 166 152
196 165 152
196 165 152
218 186 174
233 200 189
234 201 189
234 201 189
234 201 189
234 201 189
234 201 189
234 201 190
234 201 190
234 201 190
234 201 190
235 201 191
235 201 191
235 201 191
235 201 192
235 201 192
235 201 192
235 201 192
235 201 192
235 201 193
235 201 193
235 201 193
235 201 193
235 201 193
235 201 192
235 202 192
235 202 191
235 202 191
235 202 190
235 202 190
235 202 190
235 202 190
235 202 190
235 202 190
235 202 190
235 202 190
235 202 190
235 202 190
235 202 191
235 202 191
235 202 191
235 202 191
235 202 191
235 202 191
235 202 191
235 202 191
233 201 190
223 194 183
139 137 126
114 116 106
132 128 129
158 149 163
161 151 168
164 152 165
171 160 167
207 183 179
231 200 188
235 202 188
235 203 188
235 203 188
235 203 188
235 203 188
235 203 187
235 203 188
235 203 187
235 203 188
235 203 188
235 203 189
235 203 189
235 203 190
236 202 191
236 202 192
236 202 192
236 202 193
236 202 193
236 202 193
236 202 193
236 202 193
236 202 193
236 202 193
236 202 193
236 202 193
236 202 192
236 202 192
236 202 192
236 202 192
236 203 192
236 203 192
236 203 192
236 203 191
236 203 192
236 203 192
236 203 192
236 203 192
236 203 192
236 203 192
236 203 192
236 203 192
236 203 192
236 203 192
236 203 192
236 203 191
236 203 191
236 203 191
236 203 191
236 203 191
236 203 191
236 203 191
236 203 191
236 203 192
237 203 192
237 204 192
237 204 192
236 204 191
236 204 191
236 204 190
236 205 190
236 205 190
234 200 192
234 200 192
234 200 192
234 200 192
234 200 192
234 200 192
234 201 192
234 201 192
234 201 192
234 201 192
234 201 192
234 201 192
234 201 192
234 201 192
234 202 192
235 202 192
235 202 192
235 202 192
235 202 192
235 202 192
235 202 192
235 202 192
235 202 192
235 202 192
235 202 193
235 202 193
235 202 193
235 202 193
235 203 193
235 203 193
236 203 193
236 203 193
236 203 193
236 202 193
236 202 193
235 202 193
235 202 193
235 202 193
235 202 193
235 202 192
235 202 192
235 202 192
235 202 192
235 201 192
235 201 192
235 201 191
235 201 191
234 200 191
234 200 191
234 200 191
234 200 190
233 200 190
233 200 190
233 200 190
233 200 190
233 200 191
233 200 191
233 199 191
233 200 191
233 200 191
233 200 191
233 200 190
233 200 190
233 200 190
233 200 189
233 200 189
233 200 189
233 200 189
233 200 189
233 200 189
233 200 189
233 199 189
233 199 189
232 199 189
232 199 189
232 199 189
232 199 189
232 199 189
232 198 188
232 199 189
232 198 188
232 198 188
231 198 188
232 198 188
231 198 188
231 198 188
231 199 188
231 199 188
231 199 189
231 199 189
231 199 189
231 199 189
231 199 189
231 199 189
231 199 189
231 200 189
231 200 189
231 200 189
231 200 189
231 200 189
231 200 189
231 200 189
230 200 189
230 199 189
230 199 189
231 199 189
231 199 189
231 199 189
231 199 190
231 199 190
231 199 190
231 199 190
231 199 190
231 199 190
231 199 190
231 199 190
231 199 190
231 199 190
231 199 190
231 199 190
231 199 190
231 200 190
231 199 190
231 199 190
231 199 190
231 200 190
231 200 190
231 200 190
231 200 190
231 200 190
231 200 191
231 200 191
231 200 191
231 200 191
232 200 191
232 200 191
232 200 191
232 200 192
232 200 192
232 200 192
232 200 192
231 199 192
221 189 181
179 145 135
151 111 96
127 84 63
132 85 63
127 82 62
131 85 63
129 83 62
128 83 63
125 80 61
124 80 60
128 83 62
130 84 62
128 83 63
130 84 63
130 83 63
156 118 110
158 131 155
160 131 171
138 123 142
170 155 172
173 158 177
135 132 128
105 109 90
122 121 117
160 151 165
145 139 145
112 114 104
111 113 105
151 142 155
171 157 181
165 152 178
175 158 185
167 151 182
154 138 165
109 87 137
117 86 142
113 82 142
112 82 138
120 86 149
112 81 139
120 87 147
119 88 144
108 77 130
92 67 112
82 76 85
83 89 74
76 83 64
74 81 65
98 83 89
112 78 104
117 80 108
128 91 117
118 81 105
120 81 105
130 95 121
128 95 121
132 97 124
128 93 117
125 89 112
122 82 105
122 83 107
122 84 109
127 88 113
120 83 104
118 88 109
109 88 99
97 97 87
88 88 76
83 86 70
86 90 70
87 92 71
103 99 94
155 138 152
161 142 157
156 140 159
163 143 154
168 151 163
165 148 163
146 130 138
144 131 137
134 124 130
165 151 163
161 146 159
171 156 171
171 156 170
164 150 162
161 147 152
147 138 143
160 147 161
176 162 180
170 155 169
154 145 155
157 146 152
160 148 161
156 147 155
143 133 124
164 141 150
164 140 150
163 139 149
162 139 149
162 139 149
162 139 149
162 139 150
163 139 150
163 139 150
163 140 150
164 140 151
164 140 151
165 140 151
166 141 151
166 141 152
166 141 152
166 141 152
166 141 151
165 140 151
165 140 151
165 140 151
164 140 150
164 140 151
164 140 151
164 141 151
164 141 151
165 142 152
165 142 152
166 143 152
180 153 152
192 162 151
193 163 151
194 163 151
194 164 151
195 164 151
196 165 151
196 166 151
196 166 151
196 166 152
196 166 152
196 166 152
196 165 152
195 165 152
195 165 152
219 187 175
234 201 189
234 201 189
234 201 189
234 201 189
234 201 189
234 201 189
234 201 190
234 201 190
235 201 190
235 201 190
235 201 190
235 201 191
235 201 191
235 201 191
235 201 191
235 201 192
235 201 192
235 201 192
235 201 192
235 201 193
235 201 193
235 201 193
235 201 192
235 202 191
235 202 190
235 202 191
235 202 190
235 202 190
235 202 190
235 202 190
235 202 190
235 202 190
235 202 190
235 202 190
235 202 190
235 202 190
235 202 190
235 202 191
235 202 191
235 202 191
235 202 191
235 202 191
235 202 191
235 202 191
210 186 174
151 147 133
104 113 86
101 105 86
118 117 106
119 118 116
119 118 114
148 140 146
168 157 165
173 160 166
194 175 168
228 197 185
235 203 188
235 203 188
235 203 188
235 203 188
235 203 188
235 203 188
235 203 187
235 203 187
235 203 188
235 203 188
235 203 190
235 203 190
236 202 191
236 202 192
236 202 192
236 202 192
236 202 192
236 202 192
236 202 192
236 202 193
236 202 192
236 202 192
236 202 192
236 202 192
236 202 192
236 202 192
236 202 192
236 202 191
236 202 191
236 203 191
236 203 191
236 203 191
236 203 191
236 203 191
236 203 191
236 203 191
236 203 191
236 203 191
236 203 191
236 203 191
236 203 191
236 203 191
236 203 191
236 203 191
236 203 191
236 203 191
236 203 191
236 203 191
236 203 191
236 203 191
236 203 191
236 203 192
237 203 192
237 203 192
237 204 192
237 204 191
236 204 191
236 204 190
236 204 190
236 204 190
233 200 192
233 200 192
234 200 192
234 200 192
233 200 192
234 200 192
234 200 192
234 201 192
234 201 192
234 201 192
234 201 192
234 201 192
234 201 192
234 201 192
234 201 192
234 201 192
234 201 192
234 201 192
234 202 192
235 202 192
235 202 192
235 202 192
235 202 192
235 202 192
235 202 192
235 202 192
235 202 192
235 202 192
235 202 193
235 202 193
236 202 193
236 202 193
236 202 193
236 202 193
236 202 193
236 202 193
236 202 193
236 202 193
236 202 193
236 202 193
236 202 193
236 202 193
235 202 192
235 202 192
235 202 192
235 201 192
235 201 192
235 201 191
235 200 191
234 200 191
234 200 191
234 200 191
234 200 191
233 200 191
233 200 191
233 200 191
233 200 191
233 200 191
233 200 191
233 200 191
233 200 191
233 200 191
233 200 190
233 200 190
233 200 190
233 200 189
233 200 189
233 199 189
233 199 189
232 199 189
232 199 189
232 199 189
232 199 189
232 199 188
232 199 188
232 198 188
232 198 188
232 198 188
232 198 188
231 198 188
231 198 188
231 198 188
231 198 188
231 198 188
231 198 188
231 198 188
231 199 188
231 199 188
231 199 188
231 199 189
231 199 189
231 199 189
231 199 189
231 199 189
231 200 189
231 200 189
231 200 189
231 200 189
231 200 189
231 200 189
231 200 189
231 200 189
231 199 189
231 199 189
231 199 189
231 199 189
231 199 189
231 199 190
231 199 190
231 199 190
231 199 190
231 199 190
231 199 190
231 199 190
231 199 190
231 199 190
231 199 190
231 199 190
231 199 190
231 199 190
231 200 190
231 199 190
231 200 190
231 199 190
231 200 190
231 199 190
231 200 190
231 200 190
231 200 190
231 200 190
231 200 191
231 200 191
231 200 191
231 200 191
231 200 191
232 200 191
232 200 191
232 200 192
232 200 192
232 200 192
231 199 191
217 185 176
179 146 136
154 112 96
128 84 64
129 83 63
131 84 62
132 85 64
132 85 64
134 86 65
126 81 60
130 84 62
129 83 63
126 81 61
130 84 62
131 85 62
125 81 61
129 90 75
169 139 154
162 135 163
142 129 142
162 149 164
176 162 180
133 130 130
112 114 99
128 127 119
162 152 164
180 164 189
181 168 192
144 137 144
128 125 129
160 148 167
173 160 183
174 160 185
144 135 146
122 116 125
105 85 122
108 77 134
126 94 155
119 85 145
125 93 152
120 87 152
121 84 150
109 76 137
110 80 136
102 71 126
82 58 98
93 86 96
73 80 59
89 93 82
84 89 75
103 80 93
120 82 111
120 79 106
118 76 102
125 86 112
128 87 112
127 90 115
125 85 109
122 81 107
120 80 106
125 84 106
125 90 114
125 85 112
126 90 112
126 88 113
126 88 112
123 84 106
115 82 103
146 129 137
134 121 132
139 129 140
139 126 134
125 117 121
124 117 118
146 134 145
148 134 144
155 139 153
156 137 147
158 141 154
166 150 161
170 152 166
153 137 146
110 107 97
100 102 91
117 112 107
142 133 135
169 154 167
170 156 168
153 142 150
92 97 71
117 116 107
145 138 139
178 164 182
171 159 173
134 129 128
139 130 130
162 148 155
163 141 147
164 140 150
164 140 150
163 139 149
163 139 149
163 139 149
163 139 150
163 139 150
163 140 150
164 140 150
164 140 150
164 140 151
165 140 151
166 141 151
166 141 151
166 141 151
167 141 152
167 142 152
166 141 151
166 141 151
165 140 150
164 140 150
164 140 150
164 140 150
164 140 150
164 140 150
164 141 151
165 142 151
166 143 152
166 143 152
172 147 152
193 163 151
194 163 151
194 164 151
195 164 151
196 165 151
196 166 151
197 166 152
197 166 152
197 166 152
196 166 152
196 166 152
196 165 152
195 164 152
195 164 152
196 165 153
222 189 178
234 201 189
234 201 189
234 201 189
235 201 189
235 201 189
235 201 189
235 201 189
235 201 190
235 201 190
235 201 190
235 201 190
235 201 190
235 201 191
235 201 191
235 201 191
235 201 191
235 201 192
235 201 192
235 201 192
235 201 193
235 201 192
235 201 192
235 202 190
235 202 190
235 202 190
235 202 189
235 202 189
235 202 190
235 202 190
235 202 190
235 202 190
235 202 190
235 202 190
235 202 190
235 202 190
235 202 190
235 202 191
235 202 191
235 202 191
235 202 191
235 202 191
235 202 191
216 190 178
162 157 145
98 108 90
100 105 85
111 113 92
97 105 86
88 95 77
112 115 97
119 121 111
163 154 156
176 163 170
168 158 158
190 174 160
230 199 185
235 203 188
235 203 188
235 203 188
235 203 188
235 203 188
235 203 187
235 203 187
235 203 188
235 203 188
235 203 189
235 203 190
236 202 191
236 202 192
236 202 192
236 202 192
236 202 192
236 202 192
236 202 192
236 202 192
236 202 192
236 202 192
236 202 192
236 202 192
236 202 192
236 202 191
236 202 191
236 202 191
236 202 191
236 203 191
236 203 191
236 203 191
236 203 191
236 203 191
236 203 191
236 203 191
236 203 191
236 203 191
236 203 191
236 203 191
236 203 191
236 203 191
236 203 191
236 203 191
236 203 191
236 203 191
236 203 191
236 203 191
236 203 191
236 203 191
236 203 191
236 203 191
237 203 192
237 203 192
237 204 192
236 204 191
236 204 191
236 204 190
236 204 190
236 204 190
233 200 192
233 200 192
233 200 192
233 200 192
233 200 192
233 200 192
234 200 192
234 200 192
233 200 192
234 200 192
234 201 192
234 201 192
234 201 192
234 201 191
234 201 191
234 201 191
234 201 191
234 201 191
234 201 192
234 201 191
234 201 191
234 201 191
234 201 192
234 201 192
234 201 192
235 202 192
235 202 192
235 202 192
235 202 192
235 202 192
235 202 192
235 202 193
236 202 193
236 202 193
236 202 193
236 202 193
236 202 193
236 202 193
236 202 193
236 202 193
236 202 193
236 202 193
236 202 193
236 202 193
235 202 192
235 201 192
235 201 192
235 201 192
235 201 192
235 201 192
234 200 191
234 201 191
234 200 191
234 200 191
234 200 191
233 200 191
234 200 191
233 200 191
234 201 191
234 201 191
234 201 191
233 200 191
233 200 190
233 200 190
233 200 190
233 199 189
233 199 189
232 199 189
232 199 189
232 199 189
232 199 188
232 199 188
232 199 188
232 198 188
232 198 188
232 198 188
232 198 188
231 198 188
231 198 188
231 198 188
231 198 188
231 198 188
231 198 188
231 198 188
231 198 188
231 198 188
231 198 188
231 199 188
231 199 188
231 199 188
231 199 189
231 199 189
231 199 189
231 199 189
231 200 189
231 200 189
231 200 189
231 200 189
231 200 189
231 200 189
231 199 189
231 199 189
231 199 189
231 199 189
231 199 189
231 199 189
231 199 189
231 199 190
231 199 190
231 199 190
231 199 190
231 199 190
231 199 190
231 199 190
231 199 190
231 199 190
231 199 190
231 199 190
231 199 190
231 199 190
231 200 190
231 200 190
231 200 190
231 200 190
231 200 190
231 200 190
231 200 190
231 200 190
231 200 190
231 200 190
231 200 191
231 200 191
231 200 191
232 200 191
232 200 191
232 200 191
232 200 191
232 200 191
232 200 192
229 197 189
215 183 175
190 156 146
149 110 95
131 85 65
134 86 63
124 80 61
128 83 62
124 80 60
124 81 62
125 81 61
123 80 59
130 84 63
130 84 62
127 81 60
126 81 61
128 83 63
127 84 63
154 123 119
164 137 160
156 137 156
144 137 143
164 152 172
140 135 143
104 108 92
129 126 121
162 152 169
183 169 191
186 171 192
149 142 153
114 116 105
99 106 88
98 104 88
124 120 127
151 142 153
98 103 91
100 93 106
127 98 153
125 92 152
123 89 151
125 89 157
123 89 152
123 85 156
124 92 152
113 81 146
121 86 149
102 72 128
106 85 133
96 94 95
118 113 119
119 113 118
136 128 138
114 84 112
126 88 111
119 84 106
127 88 115
134 92 119
129 91 116
125 86 111
131 91 119
131 88 115
132 96 122
121 83 110
126 87 113
130 88 115
131 93 118
119 81 107
125 88 112
123 84 108
113 78 101
131 112 127
159 141 155
141 124 137
153 137 152
156 138 149
161 145 162
121 114 113
91 92 74
104 102 91
105 98 87
122 115 110
140 127 131
154 138 145
146 130 139
117 115 104
90 95 73
84 88 58
90 94 66
116 111 102
119 114 108
144 135 132
105 108 83
93 98 67
100 102 81
130 124 123
148 142 148
110 109 99
125 119 107
165 142 150
166 141 150
165 141 150
165 140 150
164 140 149
163 140 150
163 139 149
163 140 150
163 140 150
164 140 150
164 140 150
164 140 151
165 140 151
165 141 151
166 141 151
166 141 151
167 142 151
167 142 151
167 142 151
167 142 151
166 141 150
165 140 150
165 140 149
164 140 149
164 140 149
164 140 150
164 140 150
164 141 151
165 142 151
166 142 152
166 142 151
166 143 152
189 160 152
194 163 151
195 164 151
196 165 151
196 165 151
197 166 151
197 166 152
197 166 152
197 166 152
197 166 152
196 166 153
196 165 152
195 165 152
195 164 152
194 163 152
197 165 154
223 190 178
234 201 188
235 201 188
235 201 188
235 201 188
235 201 188
235 201 189
235 201 189
235 201 189
235 201 189
235 201 189
235 201 190
235 201 190
235 201 190
235 201 191
235 201 191
235 201 191
235 201 191
235 201 192
235 201 192
235 201 191
235 201 191
235 202 190
235 202 190
235 202 189
235 202 189
235 202 189
235 202 189
235 202 189
235 202 189
235 202 189
235 202 190
235 202 190
235 202 190
235 202 190
235 202 190
235 202 191
235 202 191
235 202 191
235 202 191
233 201 191
211 189 178
153 151 135
99 114 95
103 109 87
95 104 78
93 101 81
93 100 78
100 106 83
91 100 78
93 104 82
126 128 121
166 153 158
168 157 162
162 155 150
196 176 161
228 198 184
235 202 188
235 202 188
235 203 188
235 203 188
235 203 188
235 203 187
235 203 188
235 203 189
235 203 189
235 203 190
235 202 190
236 202 191
236 202 191
236 202 192
236 202 192
236 202 192
236 202 192
236 202 192
236 202 191
236 202 191
236 202 191
236 202 191
236 202 191
236 202 191
236 202 191
236 202 191
236 202 191
236 202 191
236 203 191
236 203 190
236 203 191
236 203 191
236 203 191
236 203 191
236 203 191
236 203 191
236 203 191
236 203 191
236 203 191
236 203 191
236 203 191
236 203 191
236 203 191
236 203 191
236 203 191
236 203 191
236 203 191
236 203 191
236 203 191
236 203 191
236 203 191
236 203 191
236 203 191
236 203 191
236 204 191
236 204 190
236 204 190
236 204 190
233 200 192
233 200 192
233 200 192
234 200 192
233 200 192
233 200 192
233 200 192
233 200 192
233 200 192
233 200 192
234 200 192
234 200 192
234 201 191
234 201 191
234 201 191
234 201 191
234 201 191
234 201 191
234 201 191
234 201 191
234 201 191
234 201 191
234 201 191
234 201 191
234 201 191
234 201 192
234 201 192
235 201 192
235 201 192
235 201 192
235 202 192
235 201 192
235 202 192
235 202 192
236 202 193
236 202 193
236 202 193
236 202 192
236 202 193
236 202 193
236 202 193
236 202 193
236 202 193
236 202 193
236 202 193
236 202 192
235 201 192
235 201 192
235 201 192
235 201 192
235 201 191
234 201 191
234 201 191
234 201 191
234 200 191
234 201 191
234 201 191
234 201 191
234 201 191
234 201 191
234 201 191
233 200 190
233 200 190
233 200 190
233 199 189
232 199 189
232 199 189
232 198 188
232 198 188
232 198 188
232 198 188
232 198 188
232 198 188
232 198 188
231 198 188
231 198 188
231 198 188
231 198 188
231 198 188
231 198 188
231 198 188
231 198 188
231 198 188
231 198 188
231 198 188
230 198 188
230 198 188
230 198 188
230 199 188
231 199 188
231 199 189
231 199 189
231 199 189
231 199 189
231 199 189
231 199 189
231 199 189
231 200 189
231 200 189
231 199 189
231 199 189
231 199 189
231 199 189
231 199 189
231 199 189
231 199 189
231 199 189
231 199 190
231 199 190
231 199 190
231 199 190
231 199 190
231 199 190
231 199 190
231 199 190
231 199 190
231 199 190
231 199 190
231 199 190
231 199 190
231 200 190
231 199 190
231 200 190
231 200 190
231 199 190
231 200 190
231 199 190
231 200 190
231 200 190
231 200 190
231 200 190
231 200 190
231 200 191
232 200 191
232 200 191
232 200 191
232 200 191
232 200 191
228 196 187
224 191 183
196 163 153
156 117 103
136 91 72
129 84 63
131 85 63
134 86 63
133 85 63
125 81 62
129 83 62
125 81 60
126 81 60
132 85 63
119 78 59
130 84 62
128 83 62
127 82 61
140 99 83
167 140 143
166 144 162
154 142 158
121 119 111
152 144 155
159 148 160
136 131 135
150 142 152
175 161 185
170 159 177
140 135 141
97 103 82
95 102 80
105 108 97
137 131 137
157 144 165
178 163 186
157 144 166
120 93 144
126 91 153
129 92 159
120 87 150
130 95 158
122 87 154
125 89 158
120 87 156
113 78 139
112 81 138
101 72 121
105 90 124
143 134 150
158 145 168
152 138 164
137 125 148
118 89 114
122 83 110
126 85 113
132 91 118
129 89 114
126 86 112
128 89 116
128 90 118
124 88 110
130 89 116
124 84 112
128 89 112
131 92 114
130 93 118
129 88 116
125 86 111
122 92 111
126 96 117
133 113 128
149 132 143
150 135 150
138 122 133
146 129 142
148 132 141
131 119 121
81 86 56
83 86 64
89 91 72
82 85 61
87 89 70
96 97 81
106 104 93
131 122 121
113 106 98
85 88 66
95 95 76
87 93 65
98 101 74
130 123 119
144 132 133
130 124 124
107 109 93
99 103 79
121 118 110
122 117 116
160 138 145
166 142 151
166 141 150
165 141 150
164 140 150
164 140 150
164 140 150
164 140 150
164 140 150
164 140 150
164 140 150
165 140 151
165 141 151
165 141 151
166 141 151
166 142 151
167 142 151
168 142 151
168 143 151
168 142 151
167 142 151
167 142 150
166 141 149
165 140 149
164 140 149
164 140 149
163 140 149
164 140 150
164 141 150
165 142 151
166 142 151
166 142 151
166 142 151
183 156 151
194 164 151
195 164 151
197 165 151
197 165 151
197 166 152
197 166 152
197 166 152
197 166 152
197 166 153
196 166 153
196 165 152
195 164 152
195 164 152
195 164 152
194 163 152
196 164 154
227 194 181
235 201 188
235 201 188
235 201 188
235 201 188
235 201 188
235 201 189
235 201 189
235 201 189
235 201 189
235 201 189
235 201 189
235 201 190
235 201 190
235 201 190
235 201 190
235 201 191
235 201 191
235 201 191
235 201 191
235 201 190
235 202 190
235 202 189
235 202 189
235 202 189
235 202 189
235 202 189
235 202 189
235 202 189
235 202 189
235 202 189
235 202 190
235 202 190
235 202 190
235 202 190
235 202 191
235 202 191
235 202 191
235 202 191
214 188 178
161 156 144
103 117 100
104 109 92
90 99 72
100 106 85
85 94 71
89 101 72
95 103 80
91 103 84
95 106 84
105 111 101
147 140 143
152 144 152
135 140 128
141 146 126
193 176 160
232 201 187
235 202 188
235 203 188
235 203 188
235 203 188
235 203 188
235 203 188
235 203 188
235 203 189
235 203 190
236 202 190
236 202 191
236 202 191
236 202 191
236 202 191
236 202 191
236 202 191
236 202 191
236 202 191
236 202 191
236 202 191
236 202 190
236 202 190
236 202 190
236 202 190
236 202 190
236 202 190
236 202 190
236 202 190
236 202 190
236 203 190
236 203 190
236 203 191
236 203 191
236 203 191
236 203 191
236 203 191
236 203 191
236 203 191
236 203 191
236 203 191
236 203 191
236 203 191
236 203 191
236 203 191
236 203 191
236 203 190
236 203 191
236 203 191
236 203 191
236 203 191
236 203 191
236 203 191
236 203 191
236 203 190
236 203 190
236 203 190
236 203 190
233 200 191
234 200 191
234 200 191
234 200 192
233 200 192
233 200 192
233 200 192
233 200 192
233 200 192
233 200 192
233 200 192
234 200 191
234 200 192
234 201 191
234 201 191
234 201 191
234 201 191
234 201 191
234 201 191
234 201 191
234 201 191
234 201 191
234 201 191
234 201 191
234 201 191
234 201 191
234 201 191
234 201 191
235 201 192
234 201 191
235 201 192
235 201 192
235 201 192
235 201 192
235 201 192
235 201 192
235 201 192
235 201 192
236 202 192
236 202 192
236 202 192
236 202 193
236 202 193
236 202 193
236 202 193
236 202 193
236 202 192
235 201 192
235 201 192
235 201 192
235 201 192
235 201 191
234 201 191
234 201 191
234 201 190
234 201 191
234 201 191
234 201 191
234 201 190
234 200 190
233 200 190
233 200 190
233 200 190
233 199 189
232 199 189
232 199 189
232 198 188
232 198 188
232 198 188
231 198 188
231 198 188
231 198 188
231 198 188
231 198 188
231 198 188
231 198 188
231 198 188
231 198 188
231 198 188
231 198 188
231 198 188
231 198 188
230 198 188
230 198 188
230 198 188
230 198 188
230 198 188
230 198 188
230 199 188
230 199 189
230 199 189
231 199 189
231 199 189
231 199 189
231 199 189
231 199 189
231 199 189
231 199 189
231 199 189
231 199 189
231 199 189
231 199 189
231 199 189
231 199 189
231 199 189
231 199 189
231 199 189
231 199 190
231 199 190
231 199 190
231 199 190
231 199 190
231 199 190
231 199 190
231 199 189
231 199 190
231 199 189
231 199 190
231 199 190
231 199 190
231 199 190
231 199 190
231 199 190
231 199 190
231 199 190
232 199 190
231 199 190
231 199 190
231 199 190
231 199 190
231 199 190
232 199 190
232 199 190
232 200 191
232 200 191
232 200 191
232 200 191
231 199 190
217 185 175
185 150 140
160 121 107
133 87 66
128 83 62
127 82 62
128 82 62
128 82 62
125 81 62
128 82 62
127 82 61
131 84 63
131 84 63
125 80 60
125 80 60
126 81 61
124 80 61
127 87 70
151 117 107
175 150 160
157 138 155
127 122 118
144 139 137
171 156 174
167 154 175
131 128 125
125 123 119
153 144 156
138 133 142
102 107 89
104 109 86
123 120 117
161 150 167
169 155 180
182 166 193
172 157 182
154 134 167
130 94 157
127 91 157
134 97 163
132 94 164
128 94 157
131 95 163
124 89 155
131 101 158
121 90 152
109 76 137
103 81 128
85 88 81
106 105 103
152 142 159
149 135 157
88 75 96
92 68 91
106 73 101
126 88 116
120 80 109
130 89 115
132 93 122
135 95 122
128 87 113
128 87 114
129 86 109
126 84 112
126 88 112
124 87 113
126 87 111
126 89 112
127 90 116
121 87 108
112 86 97
90 83 78
88 91 68
106 105 92
100 97 85
98 94 85
108 100 92
110 105 100
115 109 105
100 96 84
93 88 78
90 91 71
89 90 72
88 90 69
90 91 74
158 144 153
166 149 161
171 152 160
144 132 133
115 110 101
106 104 90
157 145 150
173 157 167
164 149 159
147 137 140
131 126 120
140 128 130
163 140 150
166 141 150
166 141 150
166 142 150
165 141 150
165 141 150
165 140 150
164 140 150
164 140 150
164 140 150
164 140 151
165 141 151
165 141 151
165 141 151
166 141 151
166 142 151
167 142 151
167 142 151
168 143 151
168 143 151
168 143 151
168 142 150
167 142 150
166 141 149
165 140 149
164 140 148
164 139 148
164 140 149
164 140 149
164 141 150
165 142 151
165 142 151
165 142 151
165 142 151
173 147 151
195 164 151
196 165 151
196 165 151
197 166 152
197 166 152
197 167 152
197 167 153
197 166 153
197 166 153
196 166 153
196 165 152
195 165 152
195 164 152
195 164 152
194 163 152
194 163 152
197 165 154
228 195 181
235 201 188
235 201 188
235 201 188
235 201 188
235 201 188
235 201 188
235 201 189
235 201 189
235 201 189
235 201 189
235 201 189
235 201 190
235 201 190
235 201 190
235 201 191
235 201 191
235 201 191
235 201 191
235 201 190
235 202 189
235 202 189
235 202 189
235 202 188
235 202 188
235 202 188
235 202 189
235 202 189
235 202 189
235 202 189
235 202 190
235 202 190
235 202 190
235 202 190
235 202 191
235 202 191
234 201 191
223 196 185
172 165 152
117 130 113
96 105 80
102 109 88
96 103 77
97 104 79
85 97 71
103 110 89
90 101 75
102 109 95
85 99 77
91 105 87
131 129 129
147 137 142
129 130 130
114 132 111
161 158 140
204 183 167
232 201 187
235 202 188
235 202 188
235 203 188
235 203 187
235 203 187
235 203 188
235 203 188
235 203 189
236 202 189
236 202 190
236 202 190
236 202 190
236 202 191
236 202 190
236 202 190
236 202 190
236 202 190
236 202 190
236 202 190
236 202 190
236 202 190
236 202 190
236 202 190
236 202 190
236 202 190
236 202 190
236 202 190
236 202 190
236 202 190
235 202 190
234 201 189
236 203 190
235 202 190
236 203 190
236 203 190
236 203 190
236 203 190
236 203 190
236 203 190
236 203 190
236 203 190
236 203 190
236 203 190
236 203 190
236 203 190
236 203 190
236 203 190
236 203 190
236 203 191
236 203 191
236 203 191
236 203 190
236 203 190
236 203 190
237 203 190
237 203 190
234 200 191
234 200 191
234 200 191
234 200 191
234 200 191
234 200 192
234 200 191
233 200 192
233 200 192
233 200 192
233 200 192
233 200 192
233 200 192
234 200 191
234 200 191
234 200 191
234 201 191
234 200 191
234 200 191
234 200 191
234 201 191
234 201 191
234 201 191
234 201 191
234 201 191
234 201 191
234 201 191
234 201 191
234 201 191
234 201 191
234 200 191
235 201 191
235 201 191
235 201 191
235 201 192
235 201 192
235 201 192
235 201 192
235 201 192
235 201 192
235 201 192
235 201 192
235 201 192
236 201 192
236 202 192
236 202 192
235 201 192
235 201 192
235 201 192
235 201 192
235 201 192
235 201 191
234 201 191
234 201 190
234 200 190
234 200 190
234 201 190
234 201 190
234 200 190
233 200 190
233 200 189
233 199 189
232 199 189
232 199 189
232 198 189
231 198 188
231 198 188
231 198 188
231 198 188
231 198 188
231 198 188
231 198 188
231 198 188
231 198 189
231 198 188
231 198 188
231 198 188
231 198 188
231 198 188
231 197 188
230 197 188
230 198 188
230 198 188
230 198 188
230 198 188
230 198 188
230 198 188
230 198 188
230 198 188
230 199 189
230 199 189
230 199 189
230 199 189
231 199 189
231 199 189
231 199 189
231 199 189
231 199 189
231 199 189
231 199 189
231 199 189
231 199 189
231 199 189
231 199 189
231 199 189
231 199 189
231 199 189
231 199 190
231 199 190
231 199 190
231 199 190
231 199 190
231 199 189
231 199 189
231 199 189
231 199 189
231 199 189
231 199 189
231 199 189
231 199 189
232 199 190
232 199 189
232 199 189
232 199 190
232 199 190
232 199 189
232 199 190
232 199 190
232 199 190
232 199 190
232 199 190
232 199 190
232 199 190
232 199 190
232 199 191
232 199 190
230 198 189
220 187 177
182 148 137
162 125 112
131 85 64
131 84 63
130 84 63
131 84 63
125 81 60
131 84 64
133 85 64
129 83 63
127 82 62
123 79 60
128 82 62
130 84 64
135 87 64
127 82 61
127 81 61
136 97 82
157 130 128
161 139 148
159 147 160
138 133 129
156 145 158
165 152 168
134 128 126
104 107 88
126 124 118
162 152 168
176 162 184
159 147 165
132 128 129
162 150 166
180 166 189
171 158 186
156 145 161
127 124 127
120 100 135
127 89 154
134 98 163
127 88 162
121 86 154
129 93 162
130 94 162
123 85 159
123 85 154
121 91 151
102 75 133
90 83 94
101 104 103
116 116 116
143 133 144
131 120 142
77 65 94
81 57 88
112 81 109
121 89 117
128 92 116
127 86 115
131 92 119
127 87 115
135 93 120
132 89 117
127 87 115
132 94 121
129 94 117
133 97 120
132 90 115
131 96 118
123 88 113
130 101 121
109 91 100
97 96 83
76 79 58
81 81 57
76 78 55
76 79 56
82 84 63
96 95 77
141 122 127
157 139 150
138 122 129
145 131 138
141 127 130
125 114 112
128 119 118
156 141 150
167 147 158
175 157 164
165 147 155
156 140 147
158 144 145
145 135 134
148 134 141
158 143 153
165 147 157
159 145 159
162 140 149
166 141 150
166 141 150
166 141 150
166 141 150
166 141 150
165 141 150
165 141 150
165 141 150
165 141 150
165 141 151
165 141 151
165 141 151
165 141 151
166 141 151
166 142 151
167 142 151
167 142 151
168 143 151
168 143 151
169 143 151
169 143 150
168 143 150
167 142 149
166 141 149
165 141 148
164 140 148
164 140 149
164 140 149
164 140 149
164 141 150
165 141 150
165 142 150
165 141 151
165 141 150
167 143 151
191 161 151
196 165 151
197 166 152
198 166 152
198 167 152
197 167 152
197 167 153
197 166 153
197 166 153
196 166 153
196 165 153
195 165 152
195 164 152
194 164 152
194 163 152
194 163 152
195 163 152
197 166 154
229 196 182
235 201 187
235 201 188
235 201 188
235 201 188
235 201 188
235 201 188
235 201 188
235 201 189
235 201 189
235 201 189
235 201 189
235 201 190
235 201 190
235 201 190
235 201 190
235 201 191
235 201 190
235 201 190
235 202 189
235 202 188
235 202 188
235 202 188
235 202 188
235 202 188
235 202 188
235 202 188
235 202 189
235 202 189
235 202 190
235 202 190
235 202 190
235 202 190
235 202 191
234 201 190
230 198 187
177 171 159
121 133 119
107 115 91
95 103 79
108 114 90
101 109 87
100 107 84
105 111 93
93 102 78
89 102 72
91 100 74
81 98 74
74 99 75
112 118 110
125 121 113
139 134 129
126 134 119
113 131 109
148 149 128
207 185 169
234 202 187
235 202 188
235 202 188
235 203 187
235 203 187
235 203 188
235 203 188
236 203 189
236 202 189
236 202 190
236 202 190
236 202 190
236 202 190
236 202 190
236 202 190
236 202 190
236 202 190
236 202 190
236 202 190
236 202 190
236 202 190
236 202 190
236 202 190
236 202 190
236 202 190
236 202 190
236 202 190
234 201 189
230 198 187
233 200 188
233 200 188
232 199 187
232 200 188
235 202 190
236 203 190
236 202 190
236 202 190
236 202 190
235 202 190
236 203 190
236 203 190
236 203 190
236 203 190
236 203 190
236 203 190
236 203 190
236 203 190
236 203 190
236 203 190
236 203 190
236 203 190
236 203 190
237 203 190
237 203 190
237 203 190
237 203 191
234 200 191
234 200 191
234 200 191
234 200 191
234 200 191
234 200 191
234 200 191
234 200 191
233 200 192
233 200 192
233 200 192
233 200 192
233 200 192
233 200 192
234 200 191
234 200 191
234 200 191
234 200 191
234 200 191
233 200 191
234 200 191
234 200 191
234 200 191
234 201 191
234 201 191
234 201 191
234 201 191
234 201 191
234 201 191
234 200 191
234 201 191
234 200 191
234 200 191
234 200 191
235 200 191
235 200 191
235 200 191
235 201 192
235 201 192
235 201 192
235 201 192
235 201 192
235 201 192
235 201 192
235 201 192
235 201 192
235 201 192
235 201 192
235 201 192
235 201 192
235 201 191
235 201 191
234 201 191
234 200 190
234 200 190
233 200 190
233 200 190
233 200 190
233 200 189
233 199 189
233 199 189
232 199 189
232 199 189
232 198 189
231 198 188
231 198 188
231 197 188
231 197 188
231 197 188
231 197 188
231 197 188
231 198 188
231 198 188
231 198 188
231 198 188
231 198 188
231 197 188
231 198 188
231 197 188
230 197 188
230 198 188
230 198 188
230 198 188
230 198 188
230 198 188
230 198 188
230 198 188
230 198 188
230 198 189
230 198 189
230 199 189
230 199 189
230 199 189
230 199 189
230 199 189
231 199 189
231 199 189
231 199 190
231 199 190
231 199 190
231 199 189
231 199 189
231 199 189
231 199 189
231 199 189
231 199 189
231 199 190
231 199 190
231 199 190
231 199 190
231 199 190
231 199 189
231 199 189
231 199 189
231 199 189
231 199 189
231 199 189
231 199 189
231 199 189
232 199 189
232 199 189
232 199 189
232 199 189
232 199 189
232 199 189
232 199 189
232 199 189
232 199 190
232 199 190
232 199 190
232 199 190
232 199 190
232 199 190
232 199 190
232 199 190
231 198 190
217 184 174
192 158 148
160 122 109
129 88 70
127 82 62
122 78 59
125 81 60
127 82 62
126 82 62
124 80 61
127 82 63
128 83 62
135 87 64
128 83 62
125 81 60
127 82 62
126 81 62
131 84 62
126 81 61
149 113 100
171 146 141
163 144 145
175 159 174
150 139 143
147 139 143
157 146 154
106 109 94
117 115 107
173 159 171
180 164 188
167 155 171
128 124 126
105 108 94
109 110 97
152 143 154
144 136 144
100 102 92
89 93 74
108 84 130
133 96 162
134 96 161
133 97 166
128 90 165
139 104 171
125 89 158
126 87 161
131 96 161
119 85 152
123 101 142
153 140 158
151 138 162
161 148 171
147 138 157
102 92 115
87 75 103
95 74 106
99 76 102
101 70 99
115 86 114
112 78 104
122 80 109
124 82 112
122 81 110
125 82 111
118 79 106
127 91 118
125 87 115
117 80 104
118 86 107
116 87 104
113 89 100
114 98 105
117 102 110
138 126 137
132 123 130
123 114 118
127 116 114
123 114 113
117 109 108
94 89 81
136 121 129
136 119 124
136 119 125
144 127 137
140 124 132
136 119 126
136 120 125
104 96 88
115 104 103
118 109 106
137 125 126
151 137 142
157 142 149
99 97 84
90 91 66
113 109 104
152 139 148
166 143 153
166 141 150
165 141 150
165 141 150
165 141 150
165 141 150
165 141 150
165 141 150
165 141 150
165 141 150
165 141 151
165 141 151
165 141 151
165 141 151
166 141 151
166 142 151
167 142 151
167 142 151
167 143 151
168 143 151
169 143 151
169 144 151
168 143 150
168 143 149
168 142 149
166 141 149
165 141 149
164 140 148
164 140 149
164 140 149
164 140 149
164 140 150
164 141 150
165 141 150
165 141 150
165 141 150
164 141 150
185 157 151
197 165 151
197 166 152
198 166 152
198 167 153
197 167 153
197 167 153
197 167 153
197 166 153
196 166 153
196 165 153
195 165 152
195 164 152
194 164 152
194 163 151
194 163 151
195 163 152
195 164 152
201 169 157
231 198 183
235 201 187
235 201 187
235 201 188
235 201 188
235 201 188
233 200 187
235 201 189
235 201 189
235 201 189
235 201 189
235 201 189
235 201 189
235 201 190
235 201 190
235 201 190
235 201 190
235 201 189
235 202 188
235 202 188
235 202 188
235 202 187
235 202 188
235 202 188
235 202 188
235 202 188
235 202 188
235 202 189
235 202 189
235 202 190
235 202 190
235 202 190
235 202 190
231 201 189
203 186 170
140 142 129
111 116 93
103 109 88
106 111 91
96 103 78
87 97 71
94 103 79
89 101 78
89 98 76
85 99 74
87 101 76
83 100 76
87 104 85
101 109 107
134 130 134
143 137 129
115 126 106
123 137 117
110 129 106
152 148 133
220 192 179
235 202 188
235 202 187
235 202 187
235 203 187
235 202 188
235 202 188
236 202 189
236 202 189
236 202 189
236 202 190
236 202 189
236 202 189
236 202 189
236 202 189
236 202 190
236 202 190
236 202 189
236 202 189
236 202 189
236 202 189
236 202 190
236 202 190
236 202 190
236 202 190
236 202 190
234 200 188
233 200 188
231 199 188
231 198 188
228 197 186
228 197 186
225 194 185
232 199 188
234 201 189
235 201 189
235 202 190
236 202 190
236 202 190
236 202 190
236 203 190
236 203 190
236 203 190
237 203 190
237 203 190
236 203 190
236 203 190
237 203 190
236 203 190
237 203 190
237 203 190
237 203 190
237 203 190
237 203 190
237 203 190
237 203 191
234 200 190
234 200 190
234 200 191
234 200 191
234 200 191
234 200 191
234 200 191
234 200 191
233 200 192
233 200 192
233 200 192
233 200 192
233 200 192
233 200 192
233 200 192
233 200 191
233 200 191
233 200 191
233 200 191
233 200 191
233 200 191
233 200 191
233 200 191
234 200 191
234 201 191
234 201 191
234 201 191
234 200 191
234 200 191
234 200 191
234 200 191
234 200 191
234 200 190
234 200 191
234 200 191
234 200 191
234 200 191
234 200 191
234 200 191
234 200 191
234 200 191
235 200 191
235 200 191
235 200 191
235 200 191
235 201 191
235 201 191
235 201 191
235 201 192
235 201 191
235 201 191
234 201 191
234 200 191
233 200 190
233 200 190
233 200 189
233 200 189
233 200 189
233 199 189
232 199 189
232 199 188
232 199 189
232 198 188
231 198 188
231 198 188
231 197 188
231 197 188
231 197 188
231 197 188
231 197 188
231 197 188
231 197 189
231 198 189
231 197 189
231 197 189
231 197 189
231 197 189
231 197 188
230 198 188
230 197 188
230 198 188
230 198 188
230 198 188
230 198 188
230 198 188
230 198 189
230 198 189
230 198 189
230 198 189
230 198 189
230 199 189
230 199 189
230 199 189
230 199 189
230 199 189
231 199 189
230 199 189
231 199 190
231 199 190
231 199 190
231 199 190
231 199 190
231 199 190
230 198 190
231 199 190
229 198 189
230 198 189
231 199 190
231 199 190
231 199 190
231 199 190
231 199 189
231 199 189
231 199 189
231 199 189
231 199 189
231 199 189
231 199 189
232 199 189
232 199 189
231 198 189
232 199 189
232 199 189
232 199 189
232 199 189
232 199 189
232 199 189
231 198 189
232 198 190
232 199 190
231 198 190
231 198 189
232 199 190
231 198 189
230 197 188
224 191 181
202 167 157
159 121 108
135 90 72
130 84 62
132 84 62
132 85 63
127 82 61
127 82 62
125 81 62
129 83 63
123 79 59
132 84 62
127 82 61
124 80 60
126 81 61
133 85 63
131 84 62
129 84 65
131 88 70
159 131 124
151 131 127
177 160 164
172 157 169
113 113 101
150 140 145
182 167 184
156 143 156
143 137 141
161 151 166
159 148 164
113 115 106
88 97 70
119 119 110
153 144 150
168 155 179
178 164 187
153 141 157
107 106 105
132 103 154
137 100 169
138 102 170
131 96 171
131 96 165
131 99 164
134 100 167
124 87 160
123 92 157
121 103 137
145 132 151
154 140 161
155 145 162
154 142 163
154 143 162
93 80 107
78 67 94
82 68 96
88 68 91
89 63 88
112 79 108
113 84 112
114 82 109
115 79 106
125 90 120
114 80 109
122 85 114
116 80 105
121 87 111
121 89 110
113 87 98
102 80 87
111 89 99
98 84 86
100 93 90
151 137 149
148 131 145
150 135 147
139 122 134
144 124 132
142 127 136
143 127 134
115 105 103
92 89 78
95 92 78
86 81 74
111 102 99
141 127 134
137 122 132
119 102 107
103 93 94
85 80 60
85 85 63
91 92 74
130 118 114
123 116 111
100 97 87
109 106 91
158 136 142
165 141 150
165 141 150
165 141 150
165 141 150
165 141 150
165 141 150
165 140 150
165 141 150
165 141 150
165 141 151
165 141 151
165 141 151
165 141 151
165 141 151
166 142 151
166 142 151
167 142 151
167 143 151
168 143 151
168 143 151
169 144 151
169 144 150
169 144 150
168 143 149
167 142 149
167 142 149
165 140 149
164 140 149
164 140 149
164 140 149
164 140 149
164 140 150
164 140 150
164 141 150
164 141 150
165 141 150
164 140 150
175 149 150
197 166 152
198 166 152
198 167 152
198 167 153
198 167 153
197 167 153
197 167 153
197 166 153
196 166 153
195 165 152
195 165 152
194 164 152
194 164 151
194 163 151
194 164 151
195 164 151
196 164 152
196 165 152
205 173 159
232 199 185
234 201 187
235 201 188
231 198 185
231 198 185
230 197 185
230 197 185
230 197 185
232 199 187
235 201 189
235 201 189
235 201 189
235 201 189
235 201 190
234 200 190
235 201 189
234 201 188
235 201 188
235 202 187
235 202 187
235 202 187
235 202 187
235 202 188
235 202 188
235 202 188
235 202 188
235 201 189
235 201 189
235 201 190
235 202 190
235 202 190
236 203 191
213 191 177
163 160 144
115 119 100
101 107 82
105 110 86
100 106 84
102 108 84
95 103 81
91 100 79
94 103 76
95 102 83
86 98 71
99 106 86
94 101 90
113 117 126
133 128 156
147 139 169
122 120 115
118 123 107
112 125 104
114 132 112
118 131 111
172 163 148
220 192 177
234 202 187
235 202 187
234 202 186
233 201 186
233 201 186
235 202 187
236 202 188
234 201 187
236 202 189
236 202 189
236 202 189
236 202 188
236 202 189
234 200 186
235 201 188
235 202 188
236 202 189
236 202 189
236 202 189
236 202 189
236 202 189
236 202 190
234 201 187
232 200 187
230 197 185
222 192 181
226 196 185
224 193 184
226 195 185
221 191 183
222 192 183
224 193 184
227 196 185
231 199 187
234 201 189
232 200 188
229 199 186
233 201 188
234 201 189
236 203 190
236 203 190
236 203 190
237 203 190
237 203 190
237 203 190
237 203 190
237 203 190
237 203 190
237 203 190
237 203 190
237 203 190
237 203 190
237 203 191
237 203 191
234 199 190
234 200 190
234 200 190
234 200 191
234 200 191
234 200 191
234 200 191
234 200 191
234 200 192
234 200 192
233 200 192
233 200 192
233 200 192
233 200 192
233 200 192
233 200 192
233 200 192
233 200 191
233 200 191
233 200 191
233 200 191
233 200 191
233 200 191
234 200 191
234 200 191
234 200 191
234 200 191
234 200 191
234 200 190
234 200 190
234 200 190
234 200 190
233 199 189
234 199 190
232 198 190
233 199 190
234 200 190
232 198 189
234 200 191
234 200 191
234 200 191
233 199 190
234 200 191
232 199 190
233 199 190
234 200 191
234 200 191
234 200 191
234 200 190
234 200 191
233 200 191
232 199 190
232 199 189
230 198 188
233 199 189
230 197 186
232 199 189
230 197 187
231 198 188
230 197 187
230 198 189
229 197 187
230 197 187
227 195 185
227 194 186
229 196 187
228 195 187
229 196 188
229 196 187
231 197 188
229 196 188
229 197 188
228 195 186
230 197 188
227 195 187
226 194 186
229 196 188
227 195 187
226 194 186
226 194 186
225 194 187
225 194 185
224 194 185
229 197 188
227 196 186
224 194 186
222 192 183
227 196 188
227 196 189
224 194 184
225 195 187
224 194 186
226 196 187
225 195 186
224 194 186
227 196 189
221 192 182
222 193 184
227 197 188
226 196 187
226 196 188
229 198 190
225 195 186
223 193 186
226 196 188
227 196 188
225 195 187
225 196 188
223 194 186
226 195 186
226 196 186
222 193 184
222 192 183
222 193 186
220 191 181
224 194 184
225 195 186
222 192 183
228 197 188
223 193 184
224 193 183
224 193 184
226 194 185
226 194 185
225 194 186
225 194 185
225 193 184
223 192 185
225 194 185
223 193 186
224 193 185
221 191 182
228 196 189
218 188 180
221 189 180
192 156 145
169 132 119
125 81 61
128 82 62
123 79 61
128 83 62
128 83 61
131 84 63
129 82 61
126 81 62
129 83 62
125 80 60
125 80 61
130 83 62
131 84 62
129 84 62
123 79 61
127 82 61
123 79 60
146 109 96
163 137 132
149 132 132
160 146 152
160 146 150
149 140 140
176 161 176
162 148 166
129 126 119
110 111 93
142 134 144
169 157 174
146 139 145
131 125 128
161 149 163
169 154 179
167 152 176
154 142 158
123 121 118
105 107 92
120 104 134
137 98 170
141 106 174
133 97 166
131 93 170
136 99 170
124 90 159
110 87 134
102 89 112
108 104 105
130 122 139
130 125 131
109 108 103
97 101 91
88 92 76
82 74 94
77 67 93
79 66 95
81 66 94
93 70 100
96 70 100
107 82 110
107 76 105
110 81 110
102 69 99
110 77 106
112 83 109
121 89 114
114 85 106
119 97 113
136 117 132
136 116 131
133 119 127
127 113 121
133 124 131
132 121 130
127 118 123
120 110 116
129 121 127
128 116 123
125 113 119
144 130 136
108 103 97
89 89 72
90 89 77
76 80 59
85 86 69
87 83 68
132 113 123
120 102 106
88 83 68
95 87 80
80 75 60
86 82 70
122 110 109
143 125 131
137 116 120
163 141 147
166 141 150
166 141 150
166 141 150
165 141 150
165 141 150
165 140 150
165 140 150
165 141 150
165 141 150
165 141 150
165 141 151
165 141 151
165 141 151
166 141 151
166 141 151
166 142 151
166 142 151
167 142 151
168 143 151
168 143 151
168 144 151
169 144 150
169 144 150
169 143 149
168 143 149
167 142 149
166 141 149
165 140 149
164 140 149
164 140 149
163 139 149
164 140 150
164 140 150
164 140 150
164 141 150
164 140 150
164 140 150
163 140 150
167 143 150
195 165 152
198 166 152
198 167 152
198 167 153
197 167 153
197 167 153
197 166 153
196 166 153
196 166 153
195 165 152
195 165 151
194 164 151
194 164 151
194 164 151
194 164 151
195 164 151
195 165 151
196 165 152
197 166 152
205 174 159
224 193 180
221 191 177
225 194 183
226 195 182
217 187 178
224 192 181
226 194 182
227 195 184
229 197 186
232 199 188
231 199 187
228 196 187
232 199 188
229 197 188
230 199 186
226 197 184
226 196 184
224 194 179
228 197 182
233 200 186
231 199 186
232 199 185
228 197 184
231 199 186
232 199 187
230 198 186
231 199 188
230 198 186
232 200 189
230 199 188
235 206 193
192 174 156
147 141 121
106 110 88
97 103 76
104 109 87
101 108 83
95 104 78
92 99 77
101 108 83
90 100 73
93 101 75
91 102 86
113 115 120
139 132 164
150 140 180
158 146 193
152 141 181
150 141 147
144 139 135
125 128 117
128 134 118
117 127 109
116 128 109
184 170 153
226 196 182
233 201 186
228 198 183
233 201 186
228 199 182
232 199 185
233 201 185
236 202 188
235 202 188
235 202 187
232 199 184
231 198 183
233 200 185
230 198 182
231 198 184
234 200 186
235 202 188
235 202 188
236 202 189
236 202 190
235 202 189
236 202 189
233 200 186
232 199 186
225 195 179
217 189 176
218 190 179
214 187 176
200 178 171
215 188 180
208 182 176
219 190 181
225 194 184
218 190 179
222 194 182
229 199 186
226 196 184
227 197 184
229 199 186
234 201 188
234 202 189
236 202 189
237 203 190
237 203 190
237 203 190
237 203 190
237 203 190
237 203 190
237 203 190
237 203 190
237 203 190
237 203 191
237 203 191
237 203 191
231 198 188
233 199 191
233 199 189
232 199 190
233 199 190
234 200 191
232 199 190
230 198 189
231 198 190
229 197 189
229 197 189
231 198 190
230 198 189
232 200 191
230 198 191
231 199 190
229 197 189
229 197 189
227 196 189
231 198 190
223 193 185
230 198 190
225 194 186
230 198 188
222 192 183
229 197 188
227 196 187
225 194 186
228 197 188
226 195 186
226 194 187
229 196 188
228 195 186
227 194 187
226 194 185
225 193 184
230 197 189
226 194 187
226 194 185
224 192 184
230 197 188
230 197 189
228 196 188
229 196 186
224 193 186
222 191 184
222 192 184
224 192 186
219 189 182
226 195 187
221 191 183
228 196 189
221 191 182
219 189 179
221 191 184
224 193 183
221 191 183
222 192 183
222 192 184
219 190 181
224 193 185
223 193 186
220 190 182
227 195 188
219 189 183
216 187 181
218 188 182
216 187 181
219 189 181
215 186 181
220 190 184
220 190 184
215 187 180
217 188 180
213 185 179
214 186 181
218 188 182
218 189 184
214 186 179
216 188 183
216 188 181
208 182 176
212 185 179
216 188 181
209 183 179
212 186 179
213 187 178
214 187 180
217 189 181
211 184 175
213 187 180
219 191 184
213 187 178
215 187 179
218 190 183
213 186 181
208 182 174
214 187 180
208 183 178
212 186 180
209 184 177
214 187 181
217 189 182
210 184 180
209 184 179
213 186 178
211 185 179
213 187 181
214 188 179
206 181 173
214 188 181
214 187 182
214 187 180
215 188 181
209 184 179
214 186 177
216 188 181
205 180 171
215 187 179
214 187 182
205 180 173
209 182 174
210 183 180
213 185 177
213 186 177
210 184 182
211 184 177
213 186 182
212 186 183
211 183 176
209 184 181
215 187 182
208 183 179
200 173 166
185 153 144
159 121 107
136 93 75
123 79 60
129 83 62
128 82 61
124 80 60
129 83 63
129 83 62
128 83 62
125 80 60
126 82 62
127 82 61
124 80 60
131 84 63
127 82 61
124 80 60
128 83 63
127 82 61
129 85 67
148 113 101
164 141 141
135 124 116
154 141 147
166 148 163
125 119 116
137 125 130
155 142 154
124 121 112
149 142 145
172 159 180
170 155 173
137 131 136
99 103 84
123 122 115
153 141 152
133 126 135
92 94 75
91 96 74
102 101 94
117 110 121
136 107 163
138 105 173
135 99 171
129 96 165
124 93 152
114 91 137
112 99 115
134 122 137
155 143 164
141 131 153
147 138 156
118 118 117
101 105 94
91 93 85
81 72 95
82 69 99
84 71 100
87 72 102
97 80 106
83 64 96
90 71 100
99 75 105
97 73 104
105 77 107
109 83 111
99 72 96
110 81 104
108 86 106
142 119 142
159 140 159
150 135 155
150 135 155
150 135 157
157 143 162
156 139 151
84 86 75
85 89 69
93 92 79
75 78 61
74 75 58
87 85 77
100 96 90
121 108 113
128 115 121
122 110 113
114 104 103
138 119 131
156 131 150
137 117 130
145 124 139
158 137 151
122 106 107
131 119 117
115 104 101
122 107 108
160 137 145
166 141 150
166 141 151
165 141 151
166 141 151
165 141 150
165 140 150
165 140 150
165 140 150
165 140 150
165 141 150
165 141 151
165 141 151
165 142 151
165 141 151
166 142 151
166 142 151
166 142 151
167 142 151
167 143 151
168 143 151
168 143 151
169 144 151
169 144 150
169 144 150
169 143 150
168 143 149
166 142 150
165 141 149
164 140 149
164 140 149
163 139 150
163 139 150
164 140 150
164 140 150
164 140 150
164 140 150
164 140 150
163 140 150
163 140 150
163 140 150
189 160 151
198 167 153
198 167 153
198 167 153
197 167 153
197 167 153
197 167 153
196 166 153
195 165 152
195 165 152
194 164 151
194 164 151
194 164 151
194 164 150
195 164 151
195 165 151
196 165 151
196 166 151
197 166 152
198 167 152
200 170 157
199 174 166
207 179 168
201 176 171
206 178 168
208 181 171
202 176 170
208 181 173
211 183 172
210 183 174
218 190 180
213 186 179
211 184 176
204 182 177
210 187 176
206 184 170
220 191 182
219 191 179
216 189 179
213 188 178
221 192 181
219 191 181
215 188 179
220 192 183
218 190 180
221 192 182
220 191 181
219 191 181
218 190 184
229 202 191
216 193 180
171 158 140
109 113 88
102 107 87
107 111 88
100 106 83
92 101 76
107 112 88
96 105 78
91 101 74
97 106 87
111 112 120
133 128 155
146 136 176
155 143 189
158 145 193
158 145 194
157 145 188
153 142 162
145 135 133
166 152 154
133 129 122
140 137 128
111 119 100
136 135 119
169 156 141
217 190 176
211 188 170
223 195 179
217 190 174
221 194 178
220 192 178
219 192 177
224 194 181
220 191 176
215 186 170
218 188 173
219 189 174
218 189 173
221 191 177
225 194 181
223 193 180
219 189 176
231 199 188
229 198 187
222 192 180
225 195 182
225 196 180
223 195 178
218 190 177
213 187 173
202 180 166
209 184 171
188 170 160
192 173 166
206 181 172
204 180 173
208 183 175
205 182 172
210 186 174
213 190 176
209 187 172
212 187 175
221 195 181
219 193 179
229 198 185
228 197 184
234 201 188
235 201 189
232 199 187
237 203 190
234 201 189
234 201 188
233 200 189
235 201 189
237 203 190
235 201 190
235 201 191
236 202 190
222 191 185
222 192 183
220 190 183
220 190 183
215 187 178
220 191 184
225 195 187
214 186 179
228 196 188
213 186 180
212 185 180
214 186 180
217 188 182
220 191 185
226 195 188
223 193 187
220 190 185
214 186 180
220 191 185
215 187 180
219 190 183
214 187 180
218 190 183
212 185 178
213 185 178
209 183 176
215 188 182
216 188 181
212 185 180
212 185 181
213 185 179
208 182 175
214 186 180
207 181 174
209 182 175
219 189 182
210 182 176
215 187 180
217 188 182
208 182 179
208 181 177
213 185 180
214 186 180
215 186 182
208 181 176
209 182 177
205 177 173
212 184 180
205 178 175
212 184 179
204 177 174
205 179 175
204 179 175
213 186 179
213 186 179
206 182 180
212 186 181
203 178 171
192 170 166
202 178 172
210 183 178
197 174 166
204 178 173
195 173 166
207 181 173
204 179 172
207 181 178
210 183 179
202 178 174
202 178 173
205 180 177
194 172 168
196 173 169
204 178 172
192 170 163
204 179 177
207 182 182
196 173 171
205 180 174
200 177 174
195 173 170
201 179 174
190 170 165
198 175 171
198 176 170
197 176 176
198 175 171
199 177 177
201 178 178
196 174 170
196 175 171
203 180 174
197 176 171
199 177 177
188 169 160
195 174 170
200 177 177
195 174 167
195 174 170
190 171 169
189 169 162
201 178 173
197 176 171
203 180 176
196 174 170
184 166 159
197 175 171
198 176 175
192 172 172
193 172 171
196 174 171
196 175 174
191 170 164
199 177 173
198 176 173
183 165 160
199 177 173
192 170 162
181 164 160
192 171 169
185 166 160
192 171 168
178 161 155
194 173 169
193 172 167
196 174 169
191 170 164
194 172 167
193 173 170
188 170 167
188 169 168
182 167 164
189 167 161
174 145 137
157 117 104
137 94 76
125 81 60
128 83 61
124 79 59
128 82 60
126 81 61
129 83 63
122 79 60
128 83 62
128 82 61
125 81 61
122 79 60
128 83 61
129 83 62
126 82 62
131 84 63
132 85 62
125 80 61
124 87 72
159 132 125
145 125 126
153 139 141
150 136 141
148 134 143
121 116 110
155 144 158
165 150 167
135 130 130
134 129 125
164 152 167
151 141 149
110 112 95
112 112 98
141 132 138
162 147 163
148 133 147
111 103 104
103 100 94
146 133 148
155 140 160
147 133 158
144 129 159
125 110 136
110 96 125
120 103 123
106 98 101
131 113 127
134 117 135
145 132 144
125 118 122
110 109 110
104 103 102
96 98 87
122 114 130
101 90 114
83 72 97
81 68 98
76 63 93
86 72 100
83 68 98
88 74 101
90 70 101
89 70 99
90 70 101
86 64 95
103 80 105
95 76 97
102 86 104
150 137 154
120 112 116
117 112 110
106 105 105
106 105 102
110 107 111
117 114 114
111 109 108
128 120 135
136 126 136
124 116 125
81 78 72
95 92 92
95 88 91
134 122 130
135 122 131
130 114 125
114 90 91
142 117 129
168 145 166
170 145 167
172 147 167
174 149 169
188 163 177
160 140 148
101 93 84
145 128 129
166 141 150
166 141 151
166 141 151
166 141 151
165 141 151
165 140 150
165 140 150
165 140 150
165 140 150
165 140 150
165 141 151
165 141 151
165 141 151
165 141 151
166 142 151
166 142 151
166 142 151
166 142 151
167 142 151
167 143 151
168 143 151
168 143 151
168 143 150
168 143 150
168 143 150
167 143 150
167 142 150
166 141 150
165 140 149
164 139 150
164 139 150
163 139 150
163 139 150
163 139 150
163 140 150
164 140 150
164 140 150
163 140 150
163 140 150
163 140 150
162 139 150
182 155 151
198 167 153
198 167 153
198 167 153
197 167 153
197 167 153
196 166 153
196 166 153
195 165 152
195 165 152
194 164 151
194 164 151
194 164 150
194 164 150
195 165 150
195 165 151
196 166 151
197 166 151
197 167 152
198 167 152
199 168 152
195 167 156
180 160 155
168 150 147
176 155 150
175 155 150
186 162 159
183 162 159
203 178 174
203 180 176
198 175 171
205 182 176
197 177 168
188 175 163
182 168 157
200 182 170
194 175 167
190 173 160
193 176 164
206 182 173
201 179 169
207 183 177
201 177 167
205 180 173
197 175 170
201 178 171
206 183 178
199 177 171
223 197 190
217 195 183
179 165 151
101 108 83
97 104 78
99 105 83
114 116 98
98 104 80
99 105 79
88 98 72
105 111 87
113 115 118
134 129 154
148 138 180
155 143 189
160 147 194
158 146 194
158 146 194
158 144 192
159 145 192
154 142 175
137 129 129
153 142 144
147 134 135
136 128 119
131 127 116
121 120 109
135 131 117
180 163 151
192 175 159
196 181 163
198 179 165
202 183 168
190 175 155
199 179 166
205 180 167
204 179 166
203 178 164
203 178 164
200 176 161
199 175 159
197 173 162
210 184 176
204 179 167
208 182 171
221 192 184
210 184 175
210 185 172
204 183 161
209 186 164
209 185 166
205 184 167
201 181 159
188 173 154
183 169 157
188 172 157
189 170 160
186 168 161
181 164 161
192 172 167
195 176 169
200 181 171
197 179 167
184 174 161
199 182 167
186 174 160
202 181 167
218 190 179
222 193 183
224 194 183
219 191 183
225 195 186
221 192 181
225 195 185
222 193 182
220 191 180
227 196 186
226 195 187
228 197 187
222 192 181
225 194 185
198 176 170
205 182 175
204 181 176
199 177 172
197 179 169
199 177 173
205 182 179
203 182 173
201 180 177
206 181 177
203 179 174
200 177 174
196 174 169
200 177 173
205 181 178
205 180 176
202 177 175
191 170 166
199 176 175
187 167 167
191 170 165
200 176 171
204 180 176
199 177 171
198 177 175
197 175 171
205 181 178
194 173 168
197 176 174
204 180 179
186 167 166
195 174 173
194 172 169
188 168 166
189 169 165
201 177 170
196 174 174
199 175 172
208 183 179
191 170 166
192 171 168
186 167 162
200 177 177
192 171 167
186 166 163
185 164 164
186 165 165
179 158 158
191 168 166
182 161 161
189 165 170
185 164 158
189 166 166
184 166 163
183 166 167
189 169 167
195 174 172
195 173 172
182 164 164
177 161 153
185 166 167
188 168 164
187 167 161
184 166 165
184 166 163
181 164 165
182 164 163
183 165 165
192 172 170
176 159 159
172 157 154
184 166 167
186 167 165
193 171 169
180 163 166
176 160 158
186 168 166
181 164 163
191 171 169
193 173 173
175 160 156
184 167 166
182 164 162
176 161 160
181 166 168
176 161 160
175 161 159
179 163 162
188 170 169
182 165 163
177 163 161
180 164 164
180 163 160
161 149 147
176 162 157
174 159 158
181 165 163
183 165 166
169 156 157
171 157 157
185 167 165
181 164 164
165 153 151
169 157 159
175 160 159
181 165 166
182 165 163
175 160 161
168 156 158
178 163 164
163 152 152
185 168 171
177 162 159
172 158 158
169 156 155
175 160 160
169 156 155
167 154 154
161 149 149
179 162 161
161 149 147
161 149 149
168 154 154
176 161 164
182 164 161
180 165 167
174 159 158
170 157 162
176 161 160
162 153 156
170 160 163
169 157 152
152 132 124
148 113 99
134 90 72
124 80 60
126 82 63
128 83 63
128 82 62
125 80 61
125 81 61
121 78 58
129 83 62
122 79 60
127 82 62
131 84 63
127 82 61
125 80 61
129 84 62
128 82 62
124 80 61
129 84 64
129 83 62
131 98 81
170 146 139
168 147 147
164 149 156
125 111 112
135 118 128
119 114 108
135 126 132
141 134 140
121 118 107
148 138 146
169 154 174
163 147 170
134 126 129
139 130 135
154 136 150
141 125 138
122 110 111
74 69 63
88 85 78
107 100 103
130 121 127
115 109 112
95 96 85
90 89 81
127 113 128
135 120 137
133 118 134
141 121 141
135 119 143
132 118 134
83 89 71
80 88 67
93 96 88
91 98 88
112 107 117
92 82 103
89 77 104
92 78 107
85 73 103
84 71 100
88 73 104
85 72 100
96 81 107
87 71 102
89 73 99
76 59 90
85 69 94
112 100 119
106 94 115
149 139 159
117 115 113
108 109 97
106 107 99
109 110 102
105 107 94
108 110 101
110 110 106
143 133 152
156 144 163
112 102 120
58 52 62
120 111 124
138 127 142
82 85 73
89 88 77
88 75 69
86 58 47
105 76 69
132 107 114
150 125 137
135 111 120
141 117 125
194 167 182
196 170 186
167 143 152
166 142 150
166 142 151
166 142 151
166 141 151
166 141 151
166 141 151
166 141 151
165 141 151
165 140 151
165 140 151
165 140 151
165 141 151
165 141 151
165 141 151
166 142 151
166 142 151
166 142 151
166 142 151
166 142 151
167 142 151
167 143 151
167 143 151
168 143 151
168 143 150
168 143 150
168 143 150
167 142 150
166 141 150
165 140 150
164 140 150
164 139 150
163 139 150
163 139 150
163 139 150
163 139 150
163 139 150
163 140 151
163 140 151
163 140 151
163 140 150
162 140 150
162 139 150
168 144 150
196 166 153
198 167 153
197 167 153
197 167 153
197 167 153
196 166 153
196 166 153
195 165 152
194 164 151
194 164 151
194 164 151
194 164 150
194 164 150
195 165 150
195 165 150
196 166 151
197 166 151
197 167 151
198 167 152
199 168 152
200 168 153
175 151 143
129 119 120
143 130 135
150 135 137
150 136 137
160 145 146
170 153 148
174 159 157
174 157 152
179 166 164
170 159 148
172 164 152
164 163 150
170 162 152
165 162 145
171 162 152
181 173 161
187 170 168
187 168 163
169 155 155
193 174 172
179 163 160
179 163 160
186 168 166
189 170 169
212 190 183
222 200 192
180 167 155
117 116 99
95 103 76
99 105 85
93 100 77
90 99 71
93 102 73
100 106 82
118 118 120
135 129 154
148 138 176
157 145 191
157 145 193
159 147 194
159 147 194
159 146 193
158 146 194
161 147 194
156 144 193
155 143 178
156 145 159
155 138 138
164 137 135
144 131 126
127 121 109
123 118 108
133 128 116
165 154 147
180 168 157
172 167 149
176 169 147
170 164 142
180 167 152
168 158 142
188 170 160
179 161 145
180 161 148
186 166 152
180 162 144
181 162 150
182 163 151
182 162 151
188 168 158
193 172 163
201 177 166
196 174 164
193 172 166
193 173 159
185 172 145
182 170 147
174 164 137
174 164 140
177 168 141
172 165 138
171 164 142
145 143 140
150 146 146
186 167 164
157 149 148
157 153 145
172 165 155
169 163 150
167 166 153
164 165 151
169 163 150
183 171 158
193 176 165
196 175 172
194 173 164
202 178 169
208 183 175
204 180 173
199 177 169
209 183 176
204 180 172
202 178 168
203 179 170
210 184 179
215 188 182
208 182 177
182 167 164
169 157 149
181 168 163
184 173 172
178 170 162
183 172 167
183 168 163
182 167 165
175 164 163
183 168 165
179 163 157
185 167 170
180 163 160
187 167 165
184 166 162
186 165 164
181 162 158
177 158 154
185 167 166
168 152 148
172 157 157
181 165 166
171 157 156
177 162 164
176 161 161
174 159 160
175 160 154
182 165 166
170 157 157
176 160 165
185 166 168
175 160 162
174 158 157
177 161 161
171 158 161
172 158 159
179 163 164
168 155 159
180 164 164
177 161 162
181 165 168
175 161 163
169 155 159
177 161 164
166 151 155
170 153 160
166 148 156
159 140 153
169 147 158
170 151 158
162 143 153
164 147 154
166 151 155
176 160 159
165 153 155
177 162 167
171 157 162
166 153 158
172 158 153
162 150 151
163 152 150
165 153 153
161 151 153
177 161 162
161 151 153
168 156 162
163 152 155
171 157 158
166 154 153
170 156 157
158 148 152
160 149 156
172 158 160
162 151 151
166 153 150
174 160 163
165 152 153
162 151 153
169 156 159
165 154 156
163 152 154
170 158 161
173 160 165
154 147 148
153 147 150
162 152 155
159 151 153
165 154 154
171 160 163
162 152 156
156 147 149
154 146 145
161 151 152
162 152 152
161 152 157
167 156 160
158 149 149
165 154 156
155 147 147
153 146 142
168 156 154
160 151 153
153 145 143
157 149 148
158 151 153
162 153 158
160 153 156
154 146 150
156 148 148
155 147 151
157 149 153
157 149 151
148 141 144
159 149 157
158 149 149
158 149 152
152 144 149
158 148 151
143 138 139
134 130 127
147 140 141
150 145 145
155 147 150
150 144 147
155 146 150
157 148 147
155 147 152
144 141 143
153 148 150
142 141 139
152 148 151
144 126 123
131 98 80
130 91 74
124 80 61
124 80 61
130 83 63
130 84 62
129 83 63
126 82 62
126 81 61
123 79 60
130 84 63
128 83 63
127 82 63
129 83 62
126 81 60
126 81 61
127 82 62
125 81 61
127 81 60
125 80 60
129 83 62
137 105 90
170 144 137
157 142 134
152 142 145
126 107 110
141 119 133
133 127 123
161 150 163
160 147 166
139 132 133
147 135 143
150 134 152
130 120 124
92 94 77
112 105 105
156 141 156
137 123 132
80 63 62
81 69 71
124 110 123
148 134 152
146 133 146
140 129 139
116 111 109
122 108 105
165 144 165
170 150 180
172 153 180
166 146 171
162 142 170
127 119 127
114 112 114
150 142 152
146 139 153
148 138 154
139 130 147
106 97 119
94 82 107
98 86 110
82 68 102
88 74 103
79 65 93
80 65 99
85 70 99
84 68 102
82 67 96
77 67 87
72 60 83
70 68 69
102 97 97
105 106 94
95 100 84
154 144 162
166 152 172
174 160 181
166 153 174
164 150 173
166 153 172
114 112 115
76 76 80
57 54 70
47 42 57
39 38 54
82 78 86
129 122 128
117 107 109
98 70 58
106 78 70
86 54 42
97 71 62
92 65 58
120 86 79
107 79 75
176 150 164
182 156 167
167 143 150
167 142 151
167 142 151
166 142 151
166 141 151
166 141 151
166 141 151
166 141 151
166 141 151
165 141 151
166 141 151
165 141 151
165 141 151
166 141 151
166 142 151
166 142 151
166 142 151
166 142 151
166 142 151
166 142 151
166 142 151
167 143 151
167 143 151
167 143 151
167 143 150
167 142 150
166 142 150
165 141 150
165 141 150
164 140 150
163 139 150
163 139 150
162 138 150
162 139 151
162 139 151
163 139 151
163 139 151
163 140 151
163 140 151
163 140 151
163 140 151
162 140 150
162 139 150
162 139 150
193 163 152
198 167 153
197 167 153
197 167 153
197 166 153
196 166 153
195 165 152
195 165 152
195 165 152
194 164 151
194 164 151
194 164 150
195 165 150
195 165 150
196 166 151
196 166 151
197 167 151
198 167 151
198 168 152
199 168 152
200 169 153
201 169 153
165 142 136
116 110 114
114 108 113
123 114 124
120 113 119
136 129 130
132 129 132
146 142 142
150 150 142
149 151 149
144 158 140
140 155 137
143 158 141
150 158 146
144 151 139
152 159 153
158 156 149
155 149 147
162 155 152
172 159 162
170 158 155
163 152 153
174 160 163
193 177 175
227 205 202
206 188 186
160 150 150
135 131 129
111 115 95
105 109 89
100 106 83
94 101 79
116 115 116
126 124 136
149 140 177
156 144 189
156 144 193
157 145 192
157 145 193
157 146 193
157 145 191
157 145 193
158 146 194
160 147 193
162 149 194
161 148 190
182 166 180
167 145 143
197 170 170
192 169 170
179 164 163
194 179 182
194 179 183
193 178 182
199 182 185
195 183 177
148 152 132
156 157 134
141 144 128
150 149 131
153 147 134
173 158 150
157 145 135
160 148 137
158 146 133
165 151 143
172 156 151
164 150 139
168 154 144
174 158 148
173 158 155
172 159 156
182 167 164
166 159 136
168 159 141
170 161 139
173 166 133
165 162 127
149 150 122
152 151 130
148 146 131
154 152 135
132 133 138
149 142 146
145 142 140
144 147 141
141 145 138
134 144 131
148 153 142
118 137 122
154 154 142
155 155 145
170 161 156
182 167 164
181 164 162
186 167 163
183 166 162
183 165 160
176 159 156
186 167 165
186 167 161
176 160 153
194 172 167
192 172 171
181 164 163
188 169 164
160 154 153
156 153 149
171 162 161
145 150 144
156 157 151
160 163 159
162 162 161
163 163 160
147 150 143
156 153 151
166 157 157
160 149 152
161 147 150
157 144 147
153 139 140
157 141 145
157 141 147
162 147 149
160 146 156
162 149 152
166 153 153
156 146 152
163 152 158
167 156 159
161 151 151
163 152 157
159 149 151
166 154 155
153 145 147
155 147 144
166 156 162
164 154 159
162 152 156
159 149 147
157 148 149
151 144 145
149 143 147
151 143 147
154 146 148
151 143 147
161 151 156
160 150 151
164 153 160
160 151 157
153 141 147
144 133 141
144 129 147
141 126 143
150 134 151
149 135 144
143 128 143
145 132 147
144 133 146
150 138 144
149 142 143
147 141 145
148 141 148
155 146 151
148 142 140
155 148 146
151 145 150
157 150 155
154 147 150
152 145 146
156 148 155
159 151 153
151 145 150
142 138 138
148 142 146
150 144 149
146 140 142
157 149 156
152 145 147
161 152 159
156 148 154
148 143 144
152 146 148
148 142 148
142 139 140
142 139 148
149 145 152
141 140 148
126 131 133
148 145 148
137 137 141
135 137 140
144 143 149
145 142 146
153 147 155
151 145 145
149 144 144
155 148 149
149 144 144
155 148 148
150 143 149
150 143 146
151 144 148
154 148 151
151 145 148
145 141 139
151 146 154
147 143 151
147 144 149
155 151 156
152 150 160
151 148 154
149 145 149
150 147 152
143 139 139
144 140 144
146 141 147
149 143 148
158 150 156
149 143 146
143 138 141
149 143 148
142 137 142
138 134 137
129 127 130
137 133 138
135 133 132
133 130 132
138 135 137
139 136 138
143 139 140
140 137 135
145 141 144
143 143 145
143 145 151
133 136 136
138 129 129
130 104 96
127 86 71
128 82 63
128 83 63
133 85 63
128 82 62
129 83 62
128 83 63
121 79 59
129 84 62
125 80 61
126 81 61
126 81 61
123 80 60
124 80 60
128 82 62
127 81 62
127 82 61
124 80 60
124 80 60
130 84 61
124 81 59
155 125 113
187 158 151
168 149 145
137 127 127
125 96 103
145 120 137
137 130 129
147 136 145
157 146 161
115 110 102
137 123 131
170 145 162
147 132 142
120 111 112
152 135 149
157 140 159
109 88 100
85 57 62
91 67 71
128 114 119
155 144 158
119 117 112
96 99 76
107 99 90
148 128 130
165 144 164
173 154 182
170 150 180
169 149 178
135 122 138
109 108 96
108 106 98
111 111 110
117 111 114
83 85 88
70 72 82
72 65 83
90 81 101
90 80 102
101 89 115
98 87 112
101 88 111
95 82 112
89 76 104
99 86 111
94 84 105
81 70 94
114 102 121
118 107 122
123 114 129
148 140 153
150 141 151
159 148 162
120 119 114
126 123 121
116 114 114
119 118 118
127 123 123
85 84 92
66 61 79
58 53 70
54 49 69
34 34 49
42 38 55
107 93 101
108 80 76
114 79 68
101 73 68
89 63 53
104 73 64
90 61 49
103 75 65
105 71 61
150 125 129
167 143 150
167 143 150
167 143 150
167 143 151
167 142 151
167 142 151
166 141 151
166 141 151
166 141 151
166 141 151
166 141 151
166 141 151
166 141 151
166 142 152
166 142 151
166 142 151
166 142 151
166 142 151
166 142 151
166 142 151
166 142 151
166 142 151
167 142 151
166 142 151
167 142 151
166 142 150
166 142 150
165 141 150
164 140 150
164 140 151
163 139 151
163 139 151
162 138 151
162 138 150
162 138 150
162 139 150
162 139 151
163 139 151
163 140 151
163 140 151
163 140 151
163 140 151
162 140 151
162 139 151
162 139 150
187 158 152
198 167 153
197 167 153
197 167 153
196 166 153
196 166 153
195 165 152
195 165 152
194 164 151
194 164 151
194 164 151
194 165 150
195 165 151
195 165 151
196 166 151
196 166 151
197 167 151
198 167 151
199 168 152
200 168 152
201 169 153
201 169 153
201 169 153
161 140 137
88 85 96
98 95 104
99 97 96
126 122 126
136 133 137
146 144 143
136 145 139
131 145 131
125 142 127
126 144 129
136 149 137
138 151 140
135 146 137
139 147 137
143 150 142
139 143 136
142 143 144
155 149 151
154 146 151
156 148 151
183 169 168
223 201 197
218 196 200
196 178 189
180 166 184
159 150 159
151 145 150
129 128 121
133 131 125
138 132 144
143 135 167
155 143 188
157 146 192
158 146 195
159 147 193
156 145 193
156 144 192
156 144 193
155 144 192
155 144 192
159 147 192
162 149 194
155 145 185
141 133 157
138 127 130
160 132 125
183 154 157
208 186 192
226 205 210
221 202 211
227 207 217
227 206 216
229 209 218
218 201 207
187 179 177
134 146 126
121 138 111
133 137 122
138 139 125
144 138 133
150 142 137
139 132 116
142 136 122
147 139 130
151 142 127
134 130 110
156 146 142
155 145 143
152 144 142
153 146 141
157 152 136
157 156 127
155 156 126
146 146 125
150 152 113
141 144 118
137 145 112
140 148 112
134 148 105
127 139 107
113 124 121
119 125 126
117 128 138
119 133 125
132 145 140
119 139 123
119 143 125
118 139 126
128 144 134
129 144 130
143 150 145
156 148 145
163 153 151
162 151 150
162 152 153
160 149 152
155 146 145
158 147 146
170 156 157
156 144 140
171 156 159
168 154 157
164 150 148
166 152 155
152 149 154
140 149 150
130 148 138
134 146 143
131 154 145
141 154 148
134 150 146
143 152 149
141 145 145
138 144 140
143 145 143
143 138 142
145 137 135
151 140 147
150 138 142
138 130 126
138 128 129
142 131 139
138 126 129
145 135 139
147 136 144
144 138 144
158 150 156
155 147 154
157 150 152
152 146 152
160 152 159
142 138 143
152 145 152
151 146 147
155 147 155
144 140 144
158 151 159
152 146 153
156 149 153
144 139 140
147 140 149
146 140 147
151 145 151
144 140 137
151 145 149
151 145 149
152 145 148
137 130 134
145 133 148
134 121 139
136 122 139
120 104 124
129 110 137
137 120 145
132 118 136
143 126 147
138 126 141
147 136 148
135 130 136
141 133 146
132 127 132
137 132 136
144 139 144
144 140 142
152 145 152
154 147 155
155 148 154
150 143 147
152 146 148
155 148 152
147 141 145
133 131 128
155 148 153
149 143 154
142 138 140
152 146 149
146 142 146
148 143 149
156 148 156
162 154 162
154 147 152
152 147 154
139 137 138
134 132 134
136 137 147
115 125 128
120 128 132
138 141 154
130 134 143
137 137 141
141 140 147
136 136 142
153 149 158
137 134 136
143 139 141
147 142 142
158 150 157
144 138 141
140 135 127
146 139 139
150 144 148
143 137 137
141 136 140
151 146 146
140 139 145
153 149 163
140 144 152
139 143 146
149 149 156
145 148 160
151 150 158
147 146 152
152 147 155
139 137 140
150 144 152
146 142 144
148 143 147
132 131 128
143 138 141
133 130 133
136 133 138
139 136 135
131 128 134
125 125 121
133 130 134
131 130 129
129 127 125
133 130 132
156 149 154
151 145 146
150 145 150
139 141 145
136 140 143
129 131 133
129 111 106
119 86 70
117 76 57
123 79 59
118 75 55
118 76 58
124 80 60
123 80 59
124 80 58
122 79 58
123 79 60
123 79 59
134 86 64
120 78 59
124 80 59
125 80 61
128 82 62
127 82 61
123 80 59
130 83 62
118 77 60
130 84 62
139 98 81
165 139 124
171 141 133
158 143 141
147 126 134
134 96 108
153 130 147
147 135 139
144 134 141
162 145 163
124 117 115
121 87 96
118 80 93
108 96 94
115 105 111
152 139 151
144 125 142
85 56 61
85 56 62
84 58 59
125 109 123
152 141 154
128 124 121
108 108 99
135 127 134
149 128 134
172 148 161
170 150 180
173 153 183
145 129 154
132 124 134
134 130 127
131 127 124
119 116 116
80 84 88
73 88 99
63 69 84
69 79 96
84 79 97
110 98 120
110 98 123
107 94 119
91 80 103
91 83 95
99 86 106
98 87 106
105 94 111
105 96 112
120 109 125
113 104 122
131 122 136
137 131 136
134 129 133
138 132 138
126 124 122
139 132 136
134 129 133
138 131 134
125 121 121
67 65 85
68 62 83
70 65 82
57 51 75
41 36 58
47 36 49
84 59 51
92 63 50
92 61 47
99 67 57
104 73 66
104 73 62
98 68 57
104 74 65
135 111 112
168 143 150
168 143 150
168 143 151
167 142 150
168 143 151
167 142 151
167 142 151
167 142 151
166 141 151
167 141 151
167 142 151
167 142 151
167 142 152
167 142 152
167 142 152
167 142 152
167 142 151
166 142 151
166 142 151
166 142 151
166 142 151
166 142 151
166 142 151
166 142 151
166 142 151
166 142 151
166 141 150
165 141 150
164 140 150
163 139 150
163 139 151
163 139 151
162 138 151
162 138 151
162 138 151
162 138 150
161 138 150
162 139 151
162 139 150
162 139 151
163 140 151
163 140 151
162 140 151
162 140 151
162 139 151
162 139 151
171 146 151
197 166 153
197 166 153
196 166 153
196 166 153
195 165 153
195 165 152
195 165 152
194 165 151
194 164 151
194 165 151
195 165 151
195 165 151
196 166 151
196 166 151
197 167 151
197 167 151
199 168 152
199 168 152
200 169 152
201 169 153
201 169 153
201 169 153
201 168 153
148 128 122
76 77 83
118 112 120
123 117 127
116 120 119
137 137 141
132 147 138
127 146 132
120 149 130
120 147 129
118 145 124
119 151 126
118 145 123
130 150 135
124 139 123
136 146 138
152 150 151
144 139 146
161 153 164
167 158 157
226 205 201
230 207 206
189 173 186
182 168 184
184 169 186
177 164 184
186 169 181
182 169 177
152 143 149
146 143 157
158 147 190
158 146 194
158 146 194
155 144 192
157 145 193
156 145 192
159 148 194
156 144 191
159 147 192
158 146 194
159 147 194
154 143 189
143 135 168
106 109 106
125 118 110
132 109 95
149 118 125
172 151 162
203 183 190
229 208 213
228 208 218
229 208 218
229 208 218
226 206 215
204 191 195
163 162 154
112 130 107
130 138 121
120 124 106
131 130 109
137 132 122
134 129 114
136 129 116
132 128 117
153 144 139
136 130 116
130 125 113
151 143 140
149 144 136
148 144 143
145 147 124
151 153 121
144 149 113
152 156 113
150 155 120
136 146 99
143 154 109
126 139 96
132 143 104
110 124 109
112 124 112
99 117 119
103 117 118
103 121 117
101 128 118
97 133 112
97 131 108
102 135 116
94 124 108
126 145 133
128 137 128
146 146 147
154 148 149
152 145 153
149 142 145
126 122 126
137 131 137
135 129 131
132 127 131
133 127 130
134 128 134
129 126 126
147 139 146
158 148 154
138 148 143
130 143 136
128 144 140
135 153 148
127 153 146
127 153 145
130 149 144
128 149 139
145 151 148
129 138 133
147 145 146
142 141 142
137 128 128
141 131 132
139 127 132
131 120 123
136 120 123
133 122 125
140 126 132
145 135 145
145 134 139
145 135 138
138 134 139
152 142 147
146 141 145
139 136 137
158 151 157
153 146 154
149 144 148
164 156 158
145 140 147
158 150 157
160 152 160
148 143 148
154 146 152
145 140 141
156 148 159
149 143 149
146 139 148
129 126 131
152 145 149
145 139 143
136 132 137
128 123 130
144 130 149
138 122 143
138 122 141
136 114 145
126 107 135
131 114 136
116 96 121
140 122 146
138 123 144
127 118 133
134 121 142
132 125 129
136 129 139
130 124 135
147 140 144
148 142 145
151 144 152
159 151 158
151 145 150
157 149 152
157 149 158
155 147 155
143 138 143
167 157 169
148 142 149
147 142 147
146 141 141
141 137 140
150 144 144
162 154 162
144 139 141
153 146 150
146 142 145
145 141 145
135 134 139
140 139 144
126 131 134
126 133 142
112 125 133
120 132 139
127 133 142
125 133 143
119 126 135
123 129 132
143 142 151
150 144 147
150 144 145
143 139 140
151 143 142
145 137 133
150 142 145
148 140 139
150 141 142
142 136 141
139 135 134
143 139 142
145 146 156
144 146 152
140 146 154
143 148 154
133 141 148
145 144 153
141 148 160
150 152 161
131 134 140
149 145 146
140 137 135
153 146 151
148 142 144
142 138 143
144 138 143
138 134 138
124 124 118
123 123 121
137 132 135
136 132 131
128 127 126
127 126 127
124 123 125
141 136 141
141 137 142
134 133 140
140 139 141
132 140 145
136 141 144
123 126 129
120 110 110
115 87 75
102 66 49
109 70 49
111 72 53
99 63 47
112 72 51
111 71 52
107 69 51
106 68 49
106 69 50
110 72 52
115 74 53
111 71 52
117 75 55
110 71 54
113 73 55
113 73 55
117 75 55
119 76 55
106 70 52
118 76 56
121 85 68
172 147 137
171 142 137
153 144 148
141 121 128
128 87 102
158 138 152
161 148 154
145 138 135
156 144 154
123 111 114
141 84 105
131 48 85
120 88 97
127 118 121
157 142 159
120 94 105
89 56 64
89 56 62
86 57 60
111 92 95
122 120 115
106 110 92
132 124 124
93 88 87
106 92 96
171 147 155
169 150 178
152 134 162
84 76 91
112 106 115
132 132 124
78 92 60
72 86 81
51 72 84
37 70 85
47 76 89
65 70 93
70 71 94
86 85 103
108 102 114
99 91 101
91 81 105
96 85 104
114 103 127
119 106 131
125 112 133
118 109 127
123 111 127
114 108 115
107 105 99
114 111 108
114 114 108
113 111 106
127 122 127
148 139 152
147 140 149
150 143 151
146 138 149
90 85 99
63 57 80
67 62 80
51 39 69
47 36 52
86 59 55
97 68 56
96 71 63
99 70 61
108 75 64
103 72 59
107 78 70
102 70 60
141 114 115
167 142 149
169 143 151
168 143 150
168 143 150
168 143 151
168 143 151
168 143 151
168 142 151
167 142 151
168 142 152
167 142 151
167 142 152
168 142 152
168 143 152
168 143 153
168 143 153
168 143 152
168 143 152
167 142 151
167 142 151
166 142 151
166 141 150
166 142 151
166 142 151
166 142 150
166 142 151
165 141 150
165 141 150
164 140 150
164 140 150
163 139 151
163 139 151
162 138 151
162 138 151
162 138 151
161 138 151
161 138 150
161 138 150
161 138 150
162 139 150
162 139 151
162 140 151
162 140 151
162 140 151
162 140 151
162 139 151
162 139 151
163 140 151
194 164 153
197 166 153
196 166 153
196 166 153
195 165 153
195 165 152
195 165 152
194 164 151
194 164 151
195 165 151
195 165 151
195 166 151
196 166 151
197 166 151
197 167 151
198 167 152
199 168 152
200 168 152
200 169 152
201 169 153
201 169 153
201 169 153
200 168 153
199 167 152
120 107 109
102 98 106
107 107 113
127 133 130
127 136 127
122 144 127
126 146 128
108 148 116
118 144 120
115 141 123
109 147 118
104 132 108
128 153 131
131 149 139
136 143 141
142 138 140
143 137 143
133 131 132
184 171 166
217 197 196
196 177 183
179 167 182
184 171 188
185 169 181
202 184 195
200 183 192
179 170 168
125 133 120
104 116 116
129 131 157
149 139 185
156 145 193
155 143 191
155 144 192
156 145 192
154 143 192
157 146 194
158 146 192
156 145 193
158 147 192
148 139 175
114 114 121
99 104 93
92 100 78
115 106 93
152 120 125
145 120 144
177 146 177
199 176 190
228 206 213
225 205 215
224 205 216
225 205 214
225 206 215
204 191 193
153 155 142
109 124 94
123 128 108
137 132 123
131 126 113
131 127 114
116 115 88
129 124 104
127 123 97
136 131 114
140 133 120
140 134 128
138 134 130
144 140 129
143 146 116
138 143 107
147 153 107
154 159 113
142 153 96
140 151 90
131 144 87
132 146 84
130 143 97
116 129 100
114 127 121
100 115 113
91 117 120
90 119 116
81 121 105
93 130 112
90 129 107
96 130 112
100 131 112
103 130 117
130 140 135
141 142 142
146 143 148
151 143 147
145 139 140
133 128 133
117 114 117
125 119 119
125 120 124
127 122 123
127 121 123
123 119 121
139 133 134
144 137 143
130 146 139
121 146 133
128 153 148
119 150 137
123 154 142
125 146 140
127 150 142
130 152 146
135 148 142
135 150 143
137 142 139
145 134 136
127 114 117
145 135 139
134 118 124
130 116 120
137 123 127
134 118 119
133 116 120
141 126 131
138 122 126
143 132 137
146 137 141
141 137 136
156 148 156
144 139 142
146 141 148
146 140 145
140 137 139
152 146 152
154 147 148
139 136 137
150 144 149
147 141 147
149 142 148
145 140 145
135 131 138
140 134 141
127 123 129
131 127 131
142 136 136
140 135 140
135 131 132
134 127 132
135 123 140
133 120 139
131 111 136
133 114 138
122 101 133
125 99 135
118 94 127
123 103 130
133 116 137
127 115 130
133 122 137
119 111 124
122 114 128
112 108 117
139 131 140
148 141 152
140 134 135
147 140 149
149 143 146
145 140 141
147 141 148
137 134 134
160 152 161
150 145 149
141 138 139
149 143 147
141 138 138
151 145 148
146 141 143
154 147 153
149 144 149
147 141 147
147 142 149
146 144 144
146 143 148
120 130 135
110 123 132
108 123 129
103 122 130
112 125 135
111 126 139
118 130 139
112 125 134
132 135 143
142 139 143
155 148 157
152 144 151
153 144 147
134 128 116
154 145 146
147 139 134
146 139 134
147 138 136
137 133 130
141 139 135
130 133 133
147 153 161
133 144 150
139 147 155
127 143 156
125 145 159
134 143 150
143 150 164
139 144 149
149 150 159
153 151 155
150 146 149
158 150 153
154 147 151
142 138 140
128 127 124
135 131 135
127 125 127
121 121 122
121 120 122
120 120 120
117 118 118
122 122 118
119 118 121
128 126 130
141 136 139
146 143 146
150 149 155
135 140 146
130 139 143
116 136 137
118 123 132
113 102 105
101 75 68
95 62 44
102 67 46
91 60 43
99 64 45
100 64 46
99 64 46
96 63 45
99 64 45
104 67 49
101 65 45
90 58 42
103 66 46
99 63 47
108 70 51
98 63 46
93 61 42
104 68 47
101 65 48
104 67 47
140 109 95
171 142 132
161 135 132
152 141 147
133 114 121
131 93 106
147 134 133
159 147 151
141 134 133
155 144 152
132 97 110
140 66 97
137 59 96
115 70 81
127 118 122
142 126 144
101 68 71
96 59 67
91 54 56
87 55 59
111 95 92
123 120 114
128 120 118
126 120 113
57 53 54
55 52 52
136 118 124
164 146 170
87 79 94
45 44 49
103 100 96
88 96 63
60 81 46
57 78 83
60 79 89
61 80 92
49 75 89
63 75 92
79 80 100
66 75 97
115 105 122
131 117 140
122 109 135
131 119 138
129 116 137
103 94 109
90 87 95
115 107 114
115 110 112
121 117 123
130 122 129
129 121 130
130 123 137
118 112 116
133 127 138
130 124 127
124 121 123
127 121 120
113 111 111
99 93 102
93 89 104
58 53 73
77 71 81
100 72 67
92 67 57
99 71 62
92 65 55
107 79 71
91 68 57
101 72 60
109 77 68
142 116 119
170 144 151
170 144 152
169 144 151
169 144 151
169 144 152
169 144 151
169 143 151
169 143 152
169 143 152
168 142 151
168 142 151
168 142 152
168 142 152
169 143 153
169 144 153
169 144 153
170 144 153
169 144 153
169 144 153
168 143 152
167 142 151
167 142 151
166 141 151
166 141 151
166 141 150
165 141 150
165 141 151
165 141 151
165 140 151
164 140 151
163 139 151
163 139 151
163 138 151
162 138 150
162 138 150
161 138 150
161 138 150
161 138 150
161 138 150
161 138 150
161 138 150
161 139 150
162 139 151
162 140 151
162 140 151
162 140 151
162 139 151
162 139 151
162 139 151
186 158 153
196 166 153
196 166 153
195 165 153
195 165 153
195 164 152
194 164 152
194 164 151
194 164 151
195 165 151
195 165 151
196 166 151
197 166 152
197 167 152
198 167 152
199 168 152
200 168 152
200 168 152
201 169 153
201 169 153
201 169 153
201 169 153
201 169 153
200 168 153
200 167 152
126 111 114
115 114 118
109 119 109
116 134 123
118 146 122
125 155 134
114 148 120
106 144 114
98 141 105
108 144 114
111 145 118
108 142 117
112 136 118
125 136 130
125 127 128
125 124 125
156 148 142
200 183 179
215 196 201
180 166 180
170 160 171
196 179 189
215 196 202
216 197 199
193 181 177
114 128 109
75 109 78
85 110 84
109 120 129
137 135 167
154 143 190
155 144 192
155 144 192
157 146 194
155 144 193
154 144 192
154 143 192
153 143 192
150 141 185
140 134 158
117 118 121
113 114 110
105 108 96
112 105 94
142 118 122
143 121 147
164 139 173
171 144 176
191 170 183
214 195 202
227 207 215
227 207 217
227 207 216
223 203 213
203 188 191
140 144 129
118 123 99
123 120 105
120 117 97
128 124 99
125 120 100
127 123 98
124 120 100
134 128 109
126 123 108
132 124 124
131 124 123
138 131 124
142 144 117
137 143 101
130 140 81
137 146 90
133 144 80
138 153 68
131 147 79
129 143 87
117 137 88
111 127 92
105 123 108
103 122 117
98 120 118
95 125 110
86 123 105
82 126 104
83 123 101
90 132 108
84 125 99
116 138 127
118 131 126
144 145 149
133 133 132
146 140 143
136 130 133
127 121 125
130 124 125
128 121 129
119 111 118
118 113 118
127 120 121
122 116 118
126 121 128
136 130 133
132 149 142
128 150 141
110 144 129
118 145 132
106 145 130
107 144 132
100 141 125
110 149 133
122 149 139
123 140 132
143 145 146
127 127 129
131 119 123
145 129 135
131 115 112
143 128 133
126 105 108
124 107 108
134 117 118
138 124 126
138 127 131
139 131 131
138 131 133
151 145 150
159 151 154
153 146 152
146 141 146
148 143 148
148 143 145
144 139 141
142 138 138
155 148 155
151 145 152
156 148 160
138 133 140
133 128 130
138 132 145
135 129 137
119 117 121
130 126 128
134 129 132
126 124 127
128 123 129
132 124 135
125 116 128
125 113 128
129 110 141
108 86 121
118 96 126
122 103 129
110 82 123
126 104 137
121 96 130
119 103 126
113 100 119
113 105 123
103 97 112
112 105 121
115 109 121
126 118 133
134 129 135
127 125 125
133 129 132
138 133 137
147 141 143
143 137 140
142 137 141
145 139 142
137 133 133
151 145 147
146 141 142
161 152 164
148 142 146
156 149 155
154 146 152
144 139 143
149 144 150
145 142 150
115 126 126
112 122 127
118 128 139
96 116 122
95 118 123
95 119 123
105 124 135
100 120 131
96 117 125
118 128 136
133 133 139
137 137 139
149 141 134
141 135 133
146 137 133
150 140 130
148 139 131
151 142 134
150 140 134
156 145 135
141 137 132
137 141 144
134 145 152
127 144 156
128 148 160
122 145 160
137 146 159
130 149 163
125 143 152
135 150 164
147 150 163
135 142 149
145 142 148
144 139 145
151 145 147
147 142 143
132 129 132
126 122 125
112 112 107
121 119 123
120 119 121
110 112 108
113 115 113
111 113 108
116 116 116
126 125 123
144 139 143
149 145 145
139 142 148
126 137 140
122 138 144
114 129 139
118 131 139
108 113 122
113 101 101
93 72 65
104 68 49
103 67 48
97 62 44
111 70 51
95 61 44
105 67 48
97 62 45
102 65 47
101 65 47
98 63 44
98 63 45
100 65 46
96 62 44
101 65 45
101 64 47
104 67 46
98 64 45
96 63 44
120 95 80
169 137 129
176 155 152
151 142 144
116 85 97
138 99 113
141 129 127
159 145 147
126 117 111
152 141 150
155 112 133
169 67 112
158 74 109
130 86 98
159 143 154
159 141 157
102 64 67
96 51 57
101 66 64
111 81 79
107 94 81
133 126 125
148 128 133
127 106 103
39 39 40
57 52 52
68 63 67
104 92 107
52 49 53
40 40 37
93 97 70
76 88 43
82 92 76
39 76 82
58 82 94
60 84 98
33 70 83
64 83 100
81 89 106
63 75 97
125 114 126
128 116 132
110 103 113
103 98 103
105 96 113
107 100 110
134 124 133
141 131 145
122 114 119
125 119 128
134 129 140
119 116 128
86 88 101
108 106 118
141 134 145
145 138 147
157 147 163
138 132 133
128 121 123
101 96 109
95 84 99
92 84 97
100 80 77
121 93 81
99 71 60
114 79 64
109 83 75
99 72 56
105 73 60
102 74 62
135 106 105
169 143 150
171 145 152
170 144 152
170 144 152
170 144 152
170 144 152
170 144 152
170 144 152
169 144 152
169 144 152
170 144 152
169 143 152
169 143 152
169 143 152
170 144 153
170 144 153
170 145 154
171 145 154
170 144 153
170 144 153
168 143 152
168 143 152
167 142 151
166 141 150
166 141 150
166 141 150
165 141 151
165 141 151
165 141 151
165 140 151
164 139 151
164 139 151
163 139 151
163 138 150
162 138 150
162 138 150
161 138 150
161 138 150
160 138 150
160 138 150
161 138 150
161 138 150
161 139 150
161 139 150
161 139 150
162 139 151
162 139 151
162 139 151
161 139 151
161 139 151
176 150 152
196 166 153
195 165 153
195 165 153
195 165 152
194 164 152
194 164 152
194 164 151
194 164 151
195 165 151
195 165 151
196 166 152
197 166 152
198 167 152
199 167 152
199 168 152
200 169 152
200 169 152
201 169 153
201 169 153
201 169 153
201 169 153
201 168 153
200 167 152
199 167 152
191 160 147
134 126 123
114 120 119
124 138 129
108 138 113
98 140 109
97 148 109
102 148 111
90 148 107
93 149 104
113 151 120
109 134 114
105 135 116
105 123 119
125 131 135
126 125 129
188 172 172
207 189 193
185 171 186
169 155 171
187 172 180
220 199 202
225 204 207
197 181 182
148 148 143
87 115 87
73 110 75
61 101 65
71 104 83
114 125 141
144 136 177
152 142 190
151 140 190
152 141 191
155 144 192
153 142 192
153 143 192
158 147 191
155 147 177
158 150 168
151 147 160
142 138 148
131 128 136
116 114 116
127 115 120
142 119 149
146 128 163
164 137 172
177 154 178
192 173 187
202 186 192
224 204 214
225 205 215
227 206 216
221 202 211
204 188 192
149 145 131
113 113 87
115 113 87
122 118 99
122 118 89
122 117 93
130 123 108
119 112 93
123 114 101
116 109 92
121 115 105
120 115 96
130 131 92
142 148 97
132 144 71
132 144 78
130 142 72
125 142 69
126 143 80
128 147 77
110 129 84
108 125 93
94 114 102
90 113 109
96 119 121
98 128 115
80 121 98
84 125 102
78 123 97
79 122 97
93 129 110
111 131 118
116 129 118
141 142 144
139 138 137
132 126 130
126 120 126
110 105 106
107 103 107
111 106 113
123 116 119
108 103 108
102 99 101
111 107 108
120 113 121
118 113 120
120 145 138
122 147 136
109 145 132
109 149 135
107 150 137
112 145 129
108 149 133
108 146 136
108 149 135
111 142 126
127 138 130
128 120 121
127 109 111
127 112 109
129 111 117
137 114 119
132 110 112
130 107 110
127 108 112
124 103 105
132 121 124
137 125 133
127 121 123
148 141 144
153 145 152
150 144 149
138 135 131
147 142 142
156 149 153
140 137 140
150 144 149
145 140 137
154 147 151
145 139 143
143 137 145
139 134 141
128 124 132
127 123 125
125 121 125
120 118 117
124 120 127
123 120 121
109 108 112
122 114 125
130 121 135
110 101 117
104 99 112
107 95 114
114 99 120
106 82 116
127 97 139
116 92 128
112 92 123
122 102 129
117 101 126
94 87 102
99 90 115
97 88 111
101 93 112
115 108 120
120 116 124
130 124 127
136 130 132
132 127 129
130 125 124
134 127 131
142 134 137
136 132 134
139 134 138
154 147 155
139 136 134
147 142 146
149 143 146
142 138 139
145 140 144
158 150 159
144 139 145
147 142 150
128 132 139
105 120 131
95 115 121
101 117 127
91 114 126
84 111 121
84 110 118
99 119 128
102 122 129
106 121 128
127 131 134
139 136 140
143 137 138
144 136 135
150 140 133
143 135 126
141 132 116
135 128 116
145 135 123
145 137 126
140 141 140
138 147 156
134 146 157
134 152 161
123 143 161
126 148 160
125 143 151
117 142 151
132 149 159
128 145 156
125 140 151
124 136 145
138 141 142
143 141 143
154 147 151
135 131 135
133 129 130
123 120 123
107 109 102
110 112 110
99 102 99
107 109 109
103 108 102
117 115 117
116 116 116
121 121 123
133 130 134
134 133 135
130 136 136
124 140 143
108 127 130
123 135 148
106 125 136
99 117 129
105 112 122
97 87 93
101 70 61
98 63 45
96 61 43
102 65 47
93 59 43
97 62 44
90 59 42
99 65 46
102 66 49
96 61 44
96 63 45
101 65 46
96 62 45
103 67 46
101 65 45
104 67 48
93 61 43
99 65 47
143 118 109
177 145 145
144 127 125
118 116 123
132 100 111
154 122 133
141 132 132
103 84 105
123 111 112
141 129 139
149 96 121
165 64 109
162 78 107
132 77 96
154 141 154
153 138 148
115 83 82
109 72 72
111 75 76
113 91 81
130 123 120
158 141 154
149 118 119
115 93 73
70 66 60
66 62 61
58 54 50
49 47 50
62 58 61
56 57 48
84 96 42
89 104 43
82 96 73
54 81 92
58 85 99
49 79 90
52 80 94
74 92 107
47 73 91
82 88 103
105 100 110
110 104 118
120 110 125
136 122 139
128 112 134
132 122 131
137 126 130
132 121 128
124 117 117
134 124 135
115 113 121
92 96 109
85 87 95
91 91 102
119 117 125
127 123 119
142 134 131
150 141 148
159 150 157
116 107 120
108 98 105
93 77 81
118 94 81
121 93 82
116 89 76
115 86 73
108 79 66
105 75 61
99 72 60
125 100 100
168 143 151
171 145 153
171 145 153
171 145 153
171 145 152
170 144 152
170 144 152
171 145 152
171 145 152
170 144 152
170 144 152
170 144 152
170 144 152
171 144 153
171 144 153
171 144 153
171 145 154
172 145 154
171 145 154
171 145 154
170 144 153
169 144 153
168 143 152
167 142 151
166 141 151
166 141 150
165 141 150
165 141 151
165 141 151
165 141 151
165 140 151
165 140 151
164 139 151
163 139 150
163 139 150
162 138 150
162 138 150
161 138 150
161 138 150
161 138 150
161 138 150
160 138 150
161 138 150
161 138 150
161 139 150
161 139 150
161 139 150
161 139 151
161 139 151
161 139 151
161 139 150
164 141 151
192 163 153
195 165 153
195 165 153
194 164 152
194 164 152
194 164 152
194 164 151
195 164 151
195 165 151
196 166 152
196 166 152
197 167 152
198 167 152
199 168 152
200 168 152
200 169 153
201 169 153
201 170 153
202 170 153
201 169 153
201 169 153
200 168 153
200 167 152
200 167 152
200 167 152
193 163 150
131 128 125
110 134 119
106 138 111
107 146 115
88 142 99
102 142 108
96 149 109
95 136 101
81 137 98
80 132 98
79 122 97
92 117 105
131 130 139
158 150 162
190 174 182
173 159 165
149 140 153
136 127 141
179 164 169
212 192 194
197 182 185
175 163 169
137 134 134
96 111 98
72 110 74
73 111 73
75 111 74
96 120 109
135 136 165
152 143 191
155 144 193
152 142 191
156 145 193
152 142 191
154 144 192
149 140 177
156 150 172
150 146 166
144 138 156
147 141 155
130 128 136
118 120 117
118 111 112
142 122 144
118 100 145
161 136 160
169 141 162
169 149 167
177 164 169
194 179 188
218 199 207
229 208 218
227 207 216
226 206 216
204 188 194
133 129 110
118 116 93
128 123 99
120 115 88
108 105 64
113 106 82
104 97 61
107 98 73
99 87 71
114 106 96
117 114 95
120 120 86
129 135 88
131 142 82
125 139 68
129 147 57
134 149 65
119 140 59
121 141 71
112 132 81
112 129 98
95 115 102
84 108 111
92 113 111
89 119 107
78 121 99
79 123 97
73 120 93
83 124 98
91 128 107
109 133 120
139 148 144
133 136 130
145 140 142
129 123 128
117 111 118
114 109 112
91 88 85
107 100 104
93 90 89
94 89 88
104 100 103
108 104 107
121 114 123
129 118 145
118 145 135
127 155 144
109 145 132
108 151 133
106 151 134
99 141 127
95 146 126
106 151 130
105 142 124
106 141 124
125 135 132
124 120 119
132 113 113
128 104 111
124 97 106
128 105 112
116 93 93
113 90 89
127 107 112
122 101 106
125 105 108
129 111 108
138 124 133
138 131 130
147 141 149
157 149 153
149 143 147
151 145 151
155 148 152
148 143 147
139 136 143
152 146 151
140 135 138
140 135 142
127 123 129
127 124 127
126 121 130
113 111 118
113 110 114
112 109 115
102 101 108
108 107 110
131 125 132
108 105 117
107 105 110
117 120 121
114 107 119
99 101 105
109 95 118
102 87 113
109 84 119
104 75 115
103 74 111
107 85 118
89 73 101
93 79 108
84 74 98
86 75 102
87 79 103
106 97 114
113 108 111
136 128 134
122 117 119
119 114 113
132 125 131
130 124 121
118 114 112
125 121 122
130 127 128
144 137 143
146 141 144
145 140 143
146 141 144
154 148 152
148 143 146
133 131 130
157 150 155
134 134 138
127 129 130
101 116 127
99 118 130
82 112 122
75 114 126
63 102 109
72 109 119
79 107 115
82 108 114
84 113 117
101 113 111
139 138 138
144 136 133
140 133 127
147 135 119
146 135 120
139 129 110
141 131 116
149 139 130
148 138 129
130 135 137
120 136 142
122 141 149
128 152 167
122 143 157
131 152 165
116 132 141
129 148 165
128 152 163
129 149 162
129 147 162
130 140 144
151 147 154
150 146 151
148 142 148
140 136 141
140 136 137
121 120 122
107 108 109
106 109 104
95 99 94
97 102 98
106 109 105
111 113 110
116 116 114
119 119 116
146 140 143
129 130 128
135 138 141
125 135 140
106 116 129
116 124 139
110 121 140
108 115 131
102 107 127
113 103 126
97 92 93
104 82 74
98 66 50
87 56 41
96 62 44
96 61 43
102 65 45
96 62 43
96 62 43
100 65 47
97 63 44
103 66 47
100 65 47
98 64 44
90 59 42
106 68 47
95 62 43
108 73 54
157 135 133
165 139 142
171 149 147
116 111 108
120 91 102
128 103 113
131 120 127
110 80 117
109 98 113
119 114 123
164 100 127
166 67 109
149 76 102
132 95 105
154 140 150
149 137 142
121 99 92
116 86 85
125 99 97
116 100 94
160 149 160
159 124 133
135 82 75
121 98 72
94 90 66
78 73 66
81 74 72
51 49 50
66 61 60
77 80 57
100 112 59
75 94 15
91 101 63
54 78 86
58 79 92
49 80 96
69 89 102
73 89 102
42 76 96
76 85 99
147 136 145
135 124 137
113 106 113
126 118 127
128 121 129
129 119 127
145 128 140
135 112 124
149 126 136
124 118 129
97 100 112
104 108 122
98 101 114
101 102 116
105 106 118
125 121 129
140 131 141
137 130 127
138 131 130
108 106 105
115 98 92
108 79 64
119 90 76
106 77 62
115 87 71
109 76 59
121 94 80
120 89 74
139 111 109
168 142 150
170 145 153
170 145 153
171 145 153
171 145 153
171 145 153
171 145 152
171 145 153
171 145 152
171 145 152
171 145 152
171 145 153
171 145 153
171 144 153
171 145 153
171 145 153
172 145 154
172 146 154
173 146 154
173 146 155
172 146 154
172 146 154
170 144 153
169 143 152
168 142 151
167 142 151
166 141 150
166 141 151
166 141 151
166 141 151
165 141 151
165 140 151
165 141 151
165 140 151
164 140 151
163 139 150
162 139 150
162 138 150
161 138 150
161 138 150
161 138 150
160 138 150
160 138 150
160 138 150
161 138 150
161 138 150
161 139 150
161 139 150
161 139 150
161 139 150
161 139 150
161 139 150
163 140 150
185 157 152
195 165 153
195 164 153
194 164 152
194 164 152
194 164 151
194 164 151
195 165 152
196 165 151
196 166 152
197 166 152
198 167 152
199 167 152
199 168 152
200 168 153
201 169 153
201 169 153
201 170 153
202 170 153
201 169 153
201 169 153
200 168 152
200 168 152
200 168 152
200 168 153
200 168 153
194 164 149
135 142 129
105 141 111
99 140 109
91 146 103
78 142 90
86 140 95
81 135 95
73 118 90
73 121 95
110 132 119
149 153 153
152 146 154
163 151 167
140 128 141
132 120 138
101 94 104
109 103 114
154 143 148
175 162 161
169 158 159
139 134 134
132 133 130
112 126 114
85 111 87
63 103 69
68 112 72
93 117 96
102 120 125
139 137 172
152 142 191
153 142 192
154 144 193
150 140 189
144 136 174
130 129 146
136 134 145
131 131 140
124 126 128
108 110 107
106 110 108
93 99 84
95 99 87
132 113 136
124 103 143
139 118 148
153 119 138
165 141 156
163 149 157
162 150 159
184 169 178
215 196 206
224 204 215
228 207 220
222 203 212
189 174 176
140 134 119
115 113 79
106 104 65
113 108 71
99 95 59
105 97 60
96 85 54
97 85 64
95 83 65
103 98 68
113 120 68
124 136 67
108 122 48
120 138 47
122 141 48
118 136 55
121 142 56
121 140 53
120 140 72
102 123 87
87 110 105
81 107 98
78 106 108
80 114 103
70 115 90
76 125 93
72 120 93
80 123 96
99 132 114
109 134 120
119 133 127
143 141 142
141 136 137
119 115 117
103 97 100
97 92 94
90 86 90
91 89 90
91 86 93
74 70 69
73 70 74
93 89 103
105 102 116
115 104 138
105 134 121
100 141 125
100 147 129
104 146 129
102 155 134
101 149 130
98 150 129
86 150 123
105 147 131
109 148 131
124 135 130
123 114 116
123 104 108
124 106 109
125 102 107
108 83 87
109 84 89
112 91 87
119 101 104
121 99 108
115 98 101
121 103 104
130 116 120
142 135 135
144 139 143
145 141 142
153 146 148
143 138 145
144 139 144
154 147 152
161 153 160
145 140 144
143 138 140
148 142 148
134 128 136
113 111 116
123 118 130
97 97 105
115 113 116
97 96 101
108 107 109
104 103 104
85 90 87
99 99 103
93 97 94
102 109 105
96 101 100
100 106 104
99 98 109
103 90 114
106 84 117
100 69 112
106 76 115
88 61 100
73 45 92
76 62 93
60 47 84
75 65 94
75 67 90
97 89 103
97 91 100
111 105 112
113 109 108
112 107 107
117 112 111
101 98 96
110 105 105
113 110 107
125 119 123
141 135 138
139 135 138
152 146 154
160 151 159
152 146 152
139 136 139
149 143 147
152 146 154
135 134 141
122 129 136
106 118 128
84 109 122
69 104 120
63 100 114
59 105 122
60 105 119
51 103 116
64 99 104
80 111 117
105 118 123
134 132 128
139 135 132
145 134 127
148 135 121
147 135 115
140 129 103
137 127 110
127 122 103
136 135 127
132 134 126
115 140 153
126 149 163
120 142 158
103 141 159
127 148 162
111 139 154
112 150 164
122 147 162
112 138 148
119 145 155
124 146 154
141 145 155
146 144 154
149 144 146
143 139 140
141 135 142
112 112 110
102 105 102
94 99 95
93 99 90
94 100 90
83 91 85
101 105 97
98 102 99
120 120 118
131 129 127
133 134 134
131 137 144
110 122 129
103 124 135
111 113 140
99 109 128
102 103 131
97 103 122
108 101 126
92 86 100
85 82 78
105 78 70
97 63 45
97 64 44
103 66 47
98 65 46
100 65 46
101 64 45
99 64 47
98 63 43
95 62 44
97 62 44
90 58 40
98 64 45
97 64 44
101 66 46
108 74 57
146 125 124
166 141 153
129 119 114
133 128 116
137 102 113
146 119 131
109 104 102
105 74 110
95 88 112
102 107 121
151 102 126
148 51 96
146 78 99
139 102 109
160 147 153
128 125 112
128 117 114
135 115 116
130 114 109
154 143 148
159 149 158
156 106 110
133 73 71
118 97 63
99 93 68
85 83 62
75 72 55
49 49 49
78 77 72
101 110 62
91 104 45
99 110 58
77 94 46
72 85 89
51 78 88
44 80 94
48 77 93
53 83 98
70 87 100
69 67 76
117 105 106
141 133 144
135 128 137
147 139 153
120 116 119
136 129 138
131 106 121
108 59 79
129 84 101
121 116 132
100 104 121
96 100 113
105 106 124
120 117 126
93 97 114
140 133 141
157 146 149
140 132 137
135 129 133
119 109 102
114 85 71
124 93 76
95 66 52
118 91 78
115 84 68
126 96 81
98 68 51
132 105 103
168 143 152
170 144 153
170 144 153
170 145 153
170 145 153
171 145 153
171 145 153
171 145 153
171 145 153
171 145 153
171 145 153
171 145 153
171 145 153
172 145 153
172 145 153
172 145 153
172 145 154
173 146 154
173 146 154
173 146 155
173 146 155
173 146 155
172 145 154
171 145 153
170 144 153
168 143 151
167 142 151
167 141 151
166 141 151
166 141 151
166 141 151
166 141 152
166 141 152
166 141 152
166 141 152
165 140 151
164 140 151
163 139 150
163 139 150
162 138 150
161 138 150
161 138 150
160 138 149
160 138 149
160 138 149
161 138 150
160 138 150
161 138 150
161 139 150
161 139 150
161 139 150
161 139 150
161 139 150
161 139 150
179 153 152
195 164 153
194 164 152
194 164 152
194 164 152
194 164 152
195 164 152
195 164 151
196 165 151
197 166 152
198 167 152
198 167 152
199 168 152
200 168 152
200 168 152
201 169 153
201 170 153
202 170 153
202 170 153
201 169 153
201 169 152
201 168 152
200 168 152
200 168 152
200 168 153
201 168 153
201 169 153
194 166 149
116 142 116
82 143 97
93 137 102
78 136 95
80 136 92
70 144 91
68 134 92
102 145 114
189 184 184
198 184 192
194 177 189
155 143 150
103 92 102
77 65 74
87 73 85
74 58 67
117 103 114
133 125 131
155 146 151
149 143 149
143 139 138
128 131 127
100 115 103
72 101 88
65 96 83
67 99 84
90 110 105
123 122 154
134 125 171
144 133 180
143 132 178
145 135 179
128 123 148
129 125 142
128 126 139
121 121 130
99 103 104
92 98 87
94 103 91
88 95 80
94 99 90
120 109 117
126 101 139
124 108 141
137 112 120
148 116 118
160 146 154
178 165 174
171 158 160
170 156 165
207 189 198
226 206 216
228 208 218
214 195 203
167 155 151
122 118 88
101 100 74
99 94 75
96 89 63
101 95 59
93 84 54
88 77 53
90 87 54
92 91 53
106 113 59
113 130 41
115 132 53
123 143 45
116 132 44
124 144 32
119 139 49
120 140 56
110 130 67
88 112 82
82 108 96
76 104 106
70 104 109
73 111 101
68 111 87
67 111 86
70 116 89
77 122 93
104 137 114
108 132 113
131 138 133
158 153 157
140 133 136
124 119 123
95 91 92
88 85 86
85 81 80
75 71 78
62 59 61
62 61 65
86 85 90
74 68 87
98 92 123
116 108 139
110 143 127
100 142 122
86 146 120
84 145 121
79 148 123
84 150 122
79 136 113
82 137 115
103 151 130
110 142 128
117 133 124
119 113 116
116 97 100
110 88 91
120 86 89
106 84 80
105 81 82
101 74 75
91 75 71
97 68 75
115 95 100
124 108 114
133 123 129
137 128 132
155 147 153
151 145 147
149 143 147
152 146 151
146 141 144
144 140 144
147 142 150
154 147 154
144 139 147
129 126 127
107 105 113
105 104 106
107 104 110
93 92 98
77 79 85
102 101 107
93 92 99
103 101 109
104 103 108
97 97 104
95 105 98
85 97 91
94 108 97
94 100 98
87 97 93
95 86 106
88 83 98
88 60 101
93 62 106
83 50 101
72 42 90
45 21 73
51 37 80
54 40 87
57 48 81
65 55 80
78 72 83
94 88 102
97 94 94
112 107 109
97 92 90
102 97 90
94 90 85
106 104 99
115 112 106
127 122 123
136 132 132
142 137 137
146 141 145
144 139 146
153 146 153
154 147 153
155 147 152
138 136 142
133 135 149
89 109 126
69 100 120
73 100 121
63 100 119
54 96 113
49 96 110
62 104 119
57 98 113
70 106 117
113 121 125
130 131 133
145 136 130
142 132 122
130 120 100
144 132 110
151 137 117
137 129 115
135 127 121
147 142 141
159 157 162
126 145 155
112 142 153
115 145 163
118 150 163
118 150 167
118 146 164
105 136 148
115 142 154
105 140 154
111 144 158
118 143 157
132 140 149
130 128 137
150 143 148
141 137 142
107 110 103
112 113 111
99 102 97
89 95 87
85 92 81
85 94 84
92 98 90
80 89 81
89 96 86
105 108 103
131 129 130
137 136 138
129 136 139
112 127 136
114 122 145
96 103 125
96 101 126
102 101 128
91 94 129
86 101 117
102 109 124
81 94 108
87 83 72
95 71 52
90 58 43
96 60 42
102 64 47
93 59 42
102 65 46
100 64 43
99 64 43
93 59 42
95 61 44
99 63 45
100 66 46
100 65 47
86 55 39
99 71 58
133 113 110
160 139 148
137 122 112
126 125 113
148 125 129
146 126 128
114 114 97
109 77 114
102 99 117
105 106 118
156 87 119
157 69 105
149 76 100
115 72 79
125 113 112
123 119 114
141 133 131
139 133 106
138 131 133
148 141 150
149 141 140
147 98 102
153 89 85
134 106 77
110 93 61
104 98 71
94 92 70
95 91 75
109 107 95
110 119 67
118 130 70
98 115 37
98 111 73
76 98 89
46 80 95
64 82 95
47 83 98
49 76 96
74 80 93
84 80 88
90 73 76
131 127 130
139 131 135
151 143 149
131 127 125
146 124 138
139 76 108
140 58 101
148 72 110
131 110 130
123 124 142
102 107 125
110 110 124
109 110 125
103 105 124
124 121 132
136 129 132
147 139 138
138 123 118
122 94 81
107 79 66
111 82 69
104 73 58
108 79 64
121 93 78
125 95 81
137 109 107
167 142 149
169 144 153
169 144 153
170 144 153
170 144 153
170 145 153
171 145 153
171 145 153
171 145 153
171 145 153
171 145 153
171 145 153
172 145 153
172 145 153
172 145 153
173 146 153
173 146 153
173 146 154
173 146 154
173 146 154
174 147 155
174 147 155
173 146 155
172 146 154
171 145 153
170 144 153
169 143 151
168 142 151
167 142 151
167 142 151
167 142 152
167 142 152
167 142 152
167 142 152
166 142 152
166 141 152
165 141 151
164 140 151
163 140 150
163 139 150
162 139 150
162 139 150
161 138 149
161 138 149
161 138 149
160 138 149
160 138 149
160 138 150
160 138 150
161 139 150
161 139 150
160 139 150
161 139 150
161 139 150
161 139 150
167 143 150
193 163 153
194 164 152
194 164 152
194 164 152
195 164 152
195 164 152
196 165 152
196 165 152
197 166 152
198 167 152
199 167 152
199 168 152
200 168 152
201 169 153
201 169 153
201 169 153
202 170 153
202 170 153
201 169 152
201 169 152
201 169 152
200 168 152
200 168 152
201 168 153
201 169 153
201 169 153
202 170 154
184 162 144
99 146 109
90 146 102
69 130 85
68 135 85
60 134 82
101 141 110
181 182 177
195 181 196
181 165 187
192 175 191
176 159 165
103 95 108
73 52 65
81 54 74
84 55 78
82 61 72
109 93 105
139 128 136
144 135 148
141 136 141
141 134 140
122 115 130
100 92 120
73 72 111
64 66 100
53 56 97
73 71 111
88 79 129
95 85 129
88 74 120
94 81 121
89 74 111
105 93 120
113 100 125
92 77 106
87 77 104
108 97 117
91 86 97
95 89 101
101 96 104
115 107 118
129 107 136
127 112 135
144 129 147
143 120 124
145 125 132
155 143 149
158 147 157
146 136 138
190 173 179
216 197 205
229 208 217
223 203 215
216 197 207
170 157 155
109 108 81
93 92 71
88 89 72
92 90 63
88 83 63
81 77 60
83 82 46
86 94 43
89 103 45
106 122 41
106 125 36
104 122 36
110 130 25
120 139 25
125 145 27
121 140 38
107 129 66
102 125 81
64 94 100
57 93 107
61 99 98
64 103 97
66 111 89
67 110 86
72 119 93
85 127 101
100 131 112
120 135 123
127 133 130
140 139 140
129 125 123
109 105 107
88 84 85
68 63 66
64 58 65
67 60 73
55 51 64
61 57 72
64 58 76
71 67 88
76 68 107
93 87 126
115 145 132
101 135 122
85 132 116
81 149 124
90 153 131
85 140 118
75 143 117
85 143 118
105 154 135
105 144 129
109 125 116
119 115 112
120 102 102
99 78 80
97 79 78
93 68 68
96 71 71
92 57 52
84 62 52
96 68 72
99 75 77
103 91 91
130 119 122
132 130 132
152 145 145
150 144 151
158 150 158
139 136 138
152 145 152
158 150 154
149 143 148
150 145 144
142 137 136
146 137 146
117 113 121
96 97 97
90 89 92
91 92 97
88 88 91
76 78 85
74 75 85
83 83 92
77 81 85
86 89 92
82 94 86
75 94 76
79 97 81
82 105 84
81 102 84
83 90 88
83 86 91
86 55 102
79 43 95
72 30 91
59 29 81
49 20 76
38 20 74
37 24 76
53 44 80
54 50 70
83 79 85
81 79 84
71 70 70
93 88 91
80 76 74
74 71 67
91 87 83
93 90 89
107 101 99
127 120 123
145 138 144
151 144 148
135 133 135
148 143 144
157 150 155
146 141 143
150 144 150
127 128 135
118 121 139
99 114 130
65 96 115
65 95 119
64 96 117
61 95 117
60 98 117
55 93 110
58 95 109
57 97 106
123 130 139
116 121 122
136 129 121
140 128 114
139 125 94
144 131 105
152 139 131
123 120 109
124 122 121
150 143 152
174 165 175
143 151 162
114 141 155
112 146 165
95 133 150
94 138 154
99 136 148
112 150 169
95 133 152
100 139 158
101 136 162
98 123 144
110 117 145
129 124 146
134 128 144
153 146 153
127 126 124
103 105 107
88 94 85
88 97 86
82 91 78
79 90 74
78 90 76
83 92 84
97 104 95
109 113 108
125 126 123
134 134 132
130 132 139
111 115 127
96 112 128
100 98 131
97 89 128
93 94 128
90 86 119
80 84 111
75 88 105
76 96 108
78 84 87
88 82 76
89 70 61
96 63 46
97 63 44
104 66 47
99 64 45
92 60 44
93 60 41
92 60 43
103 67 47
93 60 43
102 65 45
98 64 46
97 62 43
104 72 59
134 119 126
146 126 144
154 132 123
151 135 129
159 126 145
154 142 140
125 115 116
133 105 136
109 107 121
96 98 117
152 101 124
166 92 119
144 79 98
124 93 92
108 92 88
113 109 103
147 145 111
126 132 73
141 141 126
136 135 128
146 139 138
171 137 139
156 97 89
141 113 80
119 100 72
115 110 73
112 108 85
119 107 93
123 117 97
130 132 97
107 115 73
112 127 62
89 105 79
90 99 96
83 99 109
64 92 106
60 78 94
63 84 101
61 77 91
89 82 90
117 113 125
135 138 152
144 135 144
123 114 118
138 128 135
147 112 128
151 89 112
140 74 101
157 93 118
117 93 121
115 114 132
110 112 133
110 112 131
112 113 132
105 106 129
85 86 118
113 109 127
148 137 142
119 93 80
106 78 63
116 89 74
114 86 72
123 94 78
103 73 58
118 88 72
130 103 98
166 141 150
169 144 153
168 143 153
168 143 152
169 144 153
169 144 153
170 145 153
170 145 153
170 145 153
171 145 153
171 145 153
171 145 152
171 145 153
171 145 153
172 145 153
173 146 153
173 146 153
173 146 153
173 146 154
174 146 154
174 147 154
174 147 155
174 147 155
174 147 155
172 146 154
172 145 153
170 144 152
169 143 152
168 142 151
168 142 151
168 143 152
168 142 152
168 143 152
168 143 152
168 143 152
167 142 152
166 142 152
166 142 152
165 141 151
164 140 150
164 140 150
163 140 150
162 139 150
162 139 150
161 138 150
161 138 149
161 138 149
160 138 149
160 138 149
160 138 149
160 138 150
160 138 150
160 138 150
160 138 150
160 139 150
160 138 149
162 140 150
189 160 152
194 164 152
195 164 152
195 164 152
195 164 152
196 165 152
196 165 152
197 166 152
197 166 152
198 167 152
199 168 152
200 168 152
200 168 152
201 169 152
201 169 152
201 170 153
202 170 153
202 170 152
201 169 152
201 169 152
201 169 152
201 169 152
201 169 152
201 169 152
202 169 153
202 170 153
203 170 153
203 171 153
177 163 141
90 146 96
61 136 83
71 137 86
98 145 108
159 168 161
182 171 186
152 138 170
149 136 159
206 187 199
206 188 193
119 107 120
78 59 81
74 38 70
80 51 74
93 66 97
109 87 111
129 115 132
137 130 143
145 137 146
128 123 132
110 105 120
96 88 118
65 58 101
62 54 102
66 58 105
71 63 110
65 53 106
59 46 97
66 45 100
67 47 96
67 41 93
70 49 93
66 40 89
72 51 93
76 56 94
65 35 87
86 68 104
90 76 108
96 88 104
119 109 127
132 113 133
144 124 143
144 131 145
160 146 145
160 139 140
169 153 162
158 148 152
167 153 161
147 136 141
180 166 169
227 206 211
229 208 216
227 206 218
209 191 201
158 148 151
100 99 90
86 88 76
84 83 74
80 81 73
74 77 68
81 84 55
84 93 43
83 99 37
96 116 26
100 122 27
111 132 25
111 132 24
98 120 28
118 136 25
118 138 24
116 135 46
104 128 76
77 104 89
60 92 101
56 92 102
61 102 91
63 105 86
65 109 81
72 112 89
90 124 103
113 134 122
130 135 130
135 134 136
137 136 135
124 121 124
105 100 101
81 76 80
59 54 62
44 36 48
63 58 67
48 36 64
50 39 59
51 44 64
59 52 76
73 64 100
95 92 137
123 146 139
94 138 117
88 148 121
87 152 125
71 146 114
75 148 120
75 145 115
78 144 112
95 145 122
96 137 117
113 135 128
115 113 113
98 83 85
90 63 61
80 54 51
75 47 42
79 55 48
74 54 47
73 54 46
81 60 59
86 66 62
94 81 80
123 116 117
133 126 135
141 137 141
150 144 151
150 145 149
137 134 133
163 154 161
143 139 141
151 145 150
144 140 142
142 137 142
136 130 135
100 100 101
106 101 109
88 87 93
83 82 90
73 75 83
67 70 73
67 70 75
66 70 73
77 84 84
79 90 82
70 80 77
69 96 70
72 100 69
77 102 79
76 101 74
74 99 75
80 87 86
78 65 88
90 45 108
73 27 94
59 23 84
48 27 82
37 26 76
39 26 78
41 30 74
54 49 79
59 56 68
66 64 70
68 66 68
62 60 57
55 56 52
69 67 59
79 74 67
90 85 81
85 82 78
103 101 92
129 124 125
146 141 144
157 150 157
152 146 149
148 142 147
149 143 149
143 138 150
131 131 144
110 117 135
88 102 123
83 104 130
66 94 116
73 99 124
71 93 118
67 100 122
62 98 120
64 95 113
60 101 113
85 109 119
119 122 120
140 132 123
130 120 100
141 126 99
151 139 131
141 133 134
104 107 95
125 123 121
159 147 162
171 161 177
170 169 182
139 157 168
110 143 158
96 124 139
85 128 150
89 140 163
84 127 151
88 127 154
70 115 144
78 119 152
86 107 141
86 101 138
111 107 141
126 120 137
127 123 136
112 113 111
102 106 99
79 88 76
82 93 80
74 86 71
80 93 77
78 89 78
82 93 79
80 88 78
97 104 93
114 116 109
138 137 138
135 134 142
110 117 132
99 110 131
87 86 125
89 85 123
84 86 115
86 74 115
72 78 116
75 73 105
78 81 106
69 82 85
74 96 79
84 83 56
89 63 42
104 67 47
97 63 44
94 61 41
94 60 44
101 65 47
101 65 45
103 66 46
95 61 43
97 61 44
92 60 43
97 63 45
107 78 60
111 106 117
140 130 137
154 132 134
138 106 113
150 115 137
154 137 157
135 123 140
127 112 131
99 110 119
110 94 113
149 107 120
154 83 112
147 88 108
116 85 84
79 55 54
87 82 70
140 144 62
162 163 78
136 147 91
146 143 140
144 141 140
166 157 151
166 133 131
141 118 84
138 133 110
148 142 112
129 118 97
111 89 63
126 101 92
132 130 102
131 136 96
123 130 86
113 120 91
87 96 89
72 80 89
86 98 111
80 87 98
76 78 91
68 73 86
92 83 91
132 126 143
164 161 187
172 157 176
133 127 127
160 148 153
154 113 127
145 68 108
152 71 111
155 92 118
151 103 127
132 120 138
128 128 145
106 110 133
108 108 136
97 99 132
93 90 132
97 86 121
115 85 75
110 77 61
119 93 77
117 85 68
129 103 88
110 83 68
111 80 64
125 99 95
160 136 145
167 143 152
167 143 152
167 143 152
168 143 152
168 143 152
169 144 152
169 144 152
169 144 152
170 145 152
170 144 152
170 145 152
170 145 152
171 145 152
171 145 152
171 145 152
172 145 153
173 146 153
173 146 153
174 146 154
174 147 154
174 147 154
175 147 154
174 147 155
174 147 154
173 146 154
172 145 153
171 145 153
170 144 152
169 143 152
169 143 152
169 143 152
169 143 152
168 143 152
168 143 152
168 143 152
168 143 152
167 142 152
166 142 152
166 142 151
165 141 151
164 140 150
163 140 150
163 140 150
162 139 150
161 139 150
161 138 149
161 138 149
160 138 149
160 138 149
160 138 149
160 138 149
160 138 149
160 138 149
160 138 149
160 138 149
160 138 149
160 138 149
180 153 151
194 164 153
195 164 152
195 164 152
195 165 152
196 165 152
197 166 152
197 166 152
198 167 152
199 167 152
199 168 152
200 168 152
200 169 152
201 169 152
201 169 152
202 170 152
202 170 152
201 170 152
201 169 152
201 169 152
201 169 152
201 169 152
201 169 152
201 169 152
202 170 153
202 170 153
203 171 153
203 171 153
203 171 153
175 164 136
59 141 80
90 145 101
152 168 156
175 166 180
123 113 151
99 87 144
173 156 172
224 203 208
227 206 207
176 156 166
91 70 105
89 56 101
86 53 90
92 57 103
106 77 114
109 89 120
124 110 131
136 124 143
129 119 134
130 122 139
107 99 128
72 65 108
55 46 99
62 55 106
72 64 115
70 59 107
70 55 104
70 49 95
57 32 83
64 38 88
69 47 90
63 38 86
65 34 89
74 48 97
72 50 93
70 58 90
85 71 100
100 99 114
109 110 116
112 101 111
152 128 144
204 182 187
204 183 186
181 162 163
167 152 154
160 150 153
162 151 162
161 148 156
177 162 165
205 187 189
230 209 212
229 208 216
228 208 218
203 186 197
144 135 138
74 80 88
71 76 86
64 69 82
65 69 74
69 79 63
73 90 44
83 101 37
88 109 28
88 109 28
94 115 28
94 115 28
107 128 25
121 140 19
124 144 27
108 131 57
119 140 59
85 109 81
57 87 99
71 100 110
70 103 98
76 113 96
76 115 90
90 119 99
99 122 105
124 134 130
145 145 149
146 140 150
135 128 140
130 122 131
93 84 103
69 60 82
57 42 72
51 38 65
49 34 68
47 38 57
46 34 60
51 33 73
52 32 82
70 57 104
78 66 120
121 146 139
99 144 124
80 148 122
85 147 120
68 140 108
66 137 108
78 142 117
89 147 117
93 143 121
116 148 136
100 129 115
90 107 96
94 80 79
83 72 67
79 45 35
79 48 41
72 42 35
78 42 38
66 61 48
67 52 41
73 49 40
80 72 67
95 93 86
125 119 120
147 143 145
143 138 145
162 154 159
146 140 143
146 141 146
152 146 147
150 144 153
146 141 147
132 128 131
130 125 128
110 107 112
104 100 108
84 83 90
52 57 64
53 60 64
73 73 84
45 52 62
47 57 54
49 64 60
56 72 63
54 76 62
63 93 63
75 109 68
74 104 73
74 106 68
73 96 72
78 93 79
78 72 89
74 59 93
67 31 95
55 29 87
50 29 85
37 26 77
40 29 83
40 36 76
42 34 72
48 48 65
52 52 58
54 56 58
57 55 54
59 57 51
44 44 31
53 50 37
64 61 49
84 80 73
89 86 81
133 127 129
152 144 150
153 146 155
154 147 150
154 147 154
141 137 143
135 132 140
119 121 133
108 115 139
93 107 131
74 99 125
81 97 126
75 96 122
75 94 121
75 98 122
66 95 117
61 97 112
70 98 118
100 115 131
115 121 120
135 127 112
144 134 121
152 140 136
166 154 163
154 146 151
132 127 138
119 119 123
164 153 169
175 163 180
181 169 184
151 154 168
122 148 164
96 137 154
85 127 150
76 128 154
67 122 150
69 122 154
63 114 144
65 106 136
63 105 142
67 90 129
86 85 128
107 101 132
119 114 135
114 115 112
95 101 91
84 95 81
75 87 72
75 88 70
70 82 66
72 85 67
72 84 69
79 89 73
93 100 87
115 116 113
132 133 134
114 123 127
107 113 132
94 101 125
84 78 119
77 80 118
79 76 116
68 75 107
61 69 96
68 73 105
62 74 90
71 70 92
64 88 79
82 91 72
82 73 53
92 70 44
96 64 44
103 66 46
102 65 46
98 62 45
96 62 44
107 68 48
96 63 44
96 61 44
87 58 41
106 67 47
116 88 78
148 130 127
170 151 149
154 127 135
139 117 120
142 111 145
166 144 156
139 112 134
149 124 133
99 105 115
118 110 122
136 99 103
145 94 92
142 108 116
103 78 82
91 69 68
74 70 72
149 152 73
167 170 79
116 135 80
129 123 122
142 133 133
154 144 149
155 145 144
123 122 85
135 131 100
123 123 90
131 101 87
139 100 89
141 92 91
119 113 91
130 137 89
129 134 106
119 118 99
107 100 98
90 92 100
100 96 103
100 102 112
88 89 103
88 79 88
96 81 92
137 125 140
198 180 204
192 176 210
146 129 157
137 126 132
155 123 135
157 79 117
169 90 126
167 89 125
153 98 126
142 125 142
131 129 140
109 113 128
102 104 144
91 90 132
99 91 127
97 75 78
112 84 71
117 88 73
106 76 62
106 75 60
103 73 56
106 73 56
120 94 89
164 140 148
166 142 152
166 142 152
166 142 151
166 142 151
166 142 151
167 143 151
167 143 152
168 144 152
168 144 152
169 144 152
169 144 152
169 144 152
169 144 152
170 144 152
170 144 152
171 145 152
172 145 152
172 145 153
173 146 153
174 146 153
174 147 154
175 147 154
175 147 154
174 147 154
174 147 154
173 147 154
172 146 153
172 145 153
171 145 153
170 144 152
170 144 152
170 144 152
170 144 152
169 144 152
169 144 152
169 144 152
169 143 152
168 143 152
167 143 152
166 142 151
166 142 151
165 142 151
164 141 151
163 140 150
162 139 150
161 139 149
161 139 150
161 138 149
161 138 149
160 138 149
160 137 149
160 138 149
160 138 149
160 138 149
160 138 149
160 138 149
160 138 149
160 138 149
169 145 150
194 164 152
195 164 152
195 165 152
196 165 152
197 166 153
197 166 153
198 167 152
199 167 152
199 168 152
199 168 152
200 168 152
200 169 152
201 169 152
201 170 152
202 170 152
201 170 152
202 170 152
201 170 152
201 169 152
201 169 152
201 170 152
201 169 152
202 170 152
202 170 153
203 171 153
203 171 153
203 171 153
203 171 153
203 171 152
170 160 132
123 144 125
143 139 155
108 100 143
82 71 130
116 103 148
198 180 195
234 213 214
234 213 215
198 179 186
112 88 116
88 51 102
87 48 102
92 53 105
99 71 115
110 85 124
118 101 129
121 104 126
129 117 132
119 106 116
104 96 119
69 57 89
71 59 103
59 49 96
62 50 104
64 53 99
61 42 95
64 41 92
69 45 92
80 57 104
60 27 84
61 34 86
69 44 91
71 57 92
76 61 93
66 58 90
90 89 103
84 94 94
84 97 95
93 100 95
144 126 135
201 178 182
226 202 203
187 172 175
170 159 166
162 151 152
156 148 153
146 136 146
158 146 154
198 180 183
231 210 211
235 213 214
231 210 216
221 202 210
193 178 190
129 123 139
58 67 95
60 70 86
59 70 83
62 78 62
63 81 54
75 97 33
74 99 32
75 98 29
80 103 30
86 108 28
97 118 26
106 125 22
117 135 22
126 146 33
114 135 61
99 121 72
75 101 102
81 98 106
85 107 109
90 115 104
101 123 111
107 128 114
129 135 132
145 145 151
153 146 154
144 137 149
133 122 141
129 118 137
95 83 110
85 71 104
59 37 87
48 34 64
50 33 72
48 32 65
49 33 67
49 32 72
50 35 77
62 46 92
85 70 118
111 138 123
110 142 129
91 142 119
74 142 112
65 133 105
65 148 117
58 133 104
74 147 114
91 142 118
111 140 128
119 129 123
99 110 101
81 70 65
77 55 47
73 49 43
78 39 36
76 37 31
72 31 28
71 27 25
76 45 36
65 53 42
80 67 62
98 94 93
115 111 111
141 136 135
145 140 141
152 145 154
150 144 148
147 141 147
146 141 145
143 139 139
154 147 153
146 140 144
127 124 126
113 110 115
76 77 84
57 61 66
75 75 84
64 66 75
40 47 56
28 41 48
20 38 43
48 61 57
46 70 54
55 81 58
64 93 63
66 97 61
70 103 65
75 108 67
71 103 66
73 95 74
77 74 89
73 52 97
66 37 98
53 33 94
46 28 89
42 30 85
41 33 88
40 31 81
42 38 74
40 38 62
40 42 51
42 45 55
39 42 45
39 41 38
43 43 36
51 49 41
43 42 19
51 51 35
92 88 85
124 119 119
142 136 144
141 137 139
144 139 150
157 149 157
154 146 157
144 138 150
131 128 148
98 108 130
91 102 132
79 98 126
77 94 123
78 92 121
85 98 130
69 94 116
69 93 117
62 91 112
64 94 111
87 107 114
114 121 123
143 137 132
160 149 150
170 161 174
168 157 175
149 141 157
151 143 156
157 145 163
172 161 179
162 153 167
182 169 187
167 158 172
149 153 163
117 143 156
77 124 150
59 118 146
63 123 152
64 127 153
60 115 149
64 119 148
59 94 133
54 78 122
73 76 126
89 84 121
102 99 114
101 103 101
90 98 86
76 87 70
71 84 67
69 84 64
75 89 71
70 84 66
73 87 69
70 85 65
86 95 84
101 107 97
122 123 123
125 128 135
123 121 140
100 99 127
92 76 125
84 69 118
78 77 115
76 56 109
63 63 98
66 65 96
64 67 95
67 67 86
61 74 79
61 89 64
71 82 51
79 85 46
84 68 43
92 60 43
94 61 42
98 63 44
89 58 39
94 59 41
98 63 45
94 61 43
93 59 41
104 66 45
116 90 79
166 142 135
209 182 170
206 176 165
180 146 139
178 145 146
197 170 171
178 147 151
145 112 124
118 117 121
111 96 110
148 117 109
136 103 90
117 93 97
116 90 97
102 92 87
84 93 89
111 128 81
136 160 85
79 123 84
81 80 85
139 130 128
119 104 87
100 89 72
107 103 68
119 119 90
131 127 98
153 119 103
162 111 105
144 93 102
146 128 130
149 145 132
151 151 123
126 126 95
89 82 79
102 92 97
97 89 98
99 91 99
100 96 101
79 73 91
101 75 105
111 77 122
188 164 196
163 140 184
121 85 142
128 109 124
162 132 147
163 115 139
171 105 137
154 91 125
162 117 138
149 136 139
140 136 142
113 113 117
97 97 138
89 86 135
110 82 82
118 88 74
108 76 60
114 86 72
112 83 66
106 79 63
125 94 76
132 105 94
162 139 147
165 142 152
165 142 151
166 142 151
166 142 151
166 142 151
166 142 151
166 142 151
166 143 151
167 143 152
167 143 151
168 143 152
168 143 151
168 143 151
168 144 151
169 144 151
170 144 152
170 144 152
171 144 152
172 145 152
173 146 153
173 146 153
174 147 153
175 147 154
175 147 154
175 147 154
174 147 154
173 147 154
173 146 153
172 146 153
171 145 153
170 144 152
170 144 152
170 144 152
170 144 152
170 144 152
170 144 152
170 144 152
169 144 152
168 143 152
168 143 152
167 143 152
166 142 151
166 142 151
165 141 151
164 141 150
163 140 150
163 140 150
162 139 150
161 138 149
161 138 149
160 138 149
160 137 149
160 137 149
160 137 149
160 138 149
160 138 149
160 138 149
160 138 149
160 138 149
164 141 150
191 161 152
195 164 153
196 165 153
196 165 153
197 166 153
198 167 153
198 167 152
199 167 152
200 168 152
200 168 152
200 169 152
201 169 152
201 169 152
202 170 152
202 170 152
202 170 152
202 170 152
201 170 151
201 170 151
201 170 152
202 170 152
202 170 152
202 170 152
202 171 153
203 171 153
203 171 153
203 171 153
203 171 152
203 171 152
202 170 152
168 148 137
82 76 122
79 67 138
83 71 132
151 135 164
221 201 207
236 215 217
237 216 216
212 192 197
153 127 149
92 57 111
89 51 110
98 56 120
100 61 118
93 61 111
108 81 116
110 86 114
123 106 123
123 109 123
102 88 109
87 72 103
63 44 86
68 54 100
79 68 109
64 49 91
69 51 97
60 34 85
67 38 92
82 62 104
81 58 99
65 43 87
61 46 89
71 58 93
81 79 97
84 90 102
72 90 87
93 114 98
90 113 94
88 108 102
108 102 104
166 142 153
202 180 187
179 163 168
164 155 162
155 148 153
155 146 149
162 152 158
151 141 148
178 164 167
208 190 196
233 212 211
227 207 206
226 206 212
223 204 212
193 178 187
111 109 134
58 69 100
56 71 88
47 67 80
56 78 55
64 87 41
66 90 31
72 95 30
69 93 30
81 105 30
73 96 29
91 113 27
117 133 14
125 142 20
112 130 45
92 111 69
86 100 102
109 116 122
119 124 131
108 120 116
117 126 121
127 134 129
135 135 138
156 149 168
157 147 165
145 132 156
121 108 135
116 100 135
101 83 120
77 56 102
59 39 87
66 43 96
56 35 85
52 32 78
49 31 71
46 30 68
53 29 86
55 31 93
63 41 109
126 143 139
103 141 126
93 137 119
77 151 121
54 137 104
51 134 103
55 138 105
68 142 111
86 149 126
99 135 120
106 125 111
97 94 90
87 78 80
83 51 57
81 37 43
78 34 39
78 22 29
73 23 24
74 25 24
75 36 31
72 38 33
71 61 52
90 87 86
113 115 119
146 140 150
154 147 157
155 148 155
155 148 153
144 139 140
150 144 152
150 145 151
151 145 151
158 149 161
122 121 122
108 106 110
93 93 97
66 66 74
64 65 75
30 40 47
55 57 65
10 28 38
29 40 50
33 48 50
48 70 55
41 63 50
58 86 57
65 94 62
69 100 63
65 96 60
71 103 64
68 93 70
64 73 75
59 47 89
55 33 93
44 32 91
43 32 89
44 34 93
42 34 90
41 36 88
39 38 77
40 40 71
39 41 61
36 41 53
38 42 50
39 41 45
38 41 44
39 39 30
46 44 15
67 65 59
96 93 87
121 117 113
141 136 143
149 143 145
141 138 139
141 138 139
136 133 138
131 128 142
113 114 133
107 111 136
92 105 134
81 96 125
80 94 125
85 100 133
89 99 128
80 95 126
77 94 124
74 95 120
78 101 124
85 100 114
126 130 134
172 161 168
167 158 164
149 145 157
152 143 157
157 148 166
159 148 166
164 150 169
156 142 163
167 155 172
176 164 183
178 166 182
165 158 172
154 157 169
105 130 148
66 116 144
55 109 140
57 111 141
60 122 151
58 109 135
58 104 136
55 74 121
56 64 119
70 66 110
88 86 107
86 92 94
86 94 85
68 83 64
74 88 69
64 78 62
68 83 63
65 80 61
64 80 59
72 87 68
82 92 79
108 110 105
112 118 113
123 126 132
109 113 133
94 91 125
83 74 114
80 75 114
65 65 104
67 53 99
66 58 93
61 56 91
60 61 89
62 60 83
56 67 72
57 71 66
58 84 50
64 79 43
77 73 46
83 64 45
99 63 44
93 60 42
96 62 42
94 60 44
101 64 44
97 63 44
101 66 47
99 63 45
103 74 60
179 154 141
212 185 173
231 200 184
217 187 171
209 176 169
222 191 182
228 193 178
213 171 162
195 169 159
171 149 144
183 162 136
154 132 107
117 113 115
143 122 119
122 132 105
129 139 116
142 149 127
125 151 107
129 133 111
118 105 112
153 140 143
135 119 110
104 90 73
110 106 83
137 131 115
133 130 112
143 125 115
164 116 121
165 116 135
147 134 148
155 147 142
149 147 138
146 138 122
106 91 88
119 102 103
103 87 95
125 112 114
111 102 112
94 83 92
109 83 107
101 65 123
143 106 167
132 91 157
113 81 130
135 121 128
169 152 160
157 125 137
164 124 142
157 118 136
159 129 143
160 145 154
148 143 151
117 118 115
89 88 126
107 83 84
107 77 61
102 68 51
116 84 69
112 83 67
111 85 70
112 81 67
117 91 80
157 134 143
164 141 151
164 141 151
164 141 151
164 141 150
164 141 150
164 141 150
165 142 151
165 142 151
166 142 151
166 143 151
166 143 151
167 143 151
167 143 151
167 143 151
168 143 151
168 143 151
169 143 151
169 144 151
170 144 152
171 144 152
172 145 152
173 146 153
174 147 153
175 147 153
175 148 154
175 147 154
174 147 154
173 147 153
173 146 153
173 146 153
172 146 153
171 145 152
171 145 152
171 145 152
171 145 152
170 145 152
170 145 152
170 144 152
169 144 152
169 144 152
168 143 152
168 143 152
167 143 152
166 142 151
165 142 151
165 141 151
164 141 151
163 140 150
162 139 150
162 139 150
161 138 149
161 138 149
161 138 149
160 137 149
160 138 149
160 138 149
160 138 149
160 138 149
160 138 149
160 138 149
160 138 149
184 156 152
195 164 152
196 165 153
197 166 153
198 166 153
199 167 153
199 167 153
200 168 152
200 168 152
200 168 152
201 169 152
201 169 152
201 170 151
202 170 151
202 170 151
202 170 152
202 170 151
202 170 151
202 170 151
202 170 152
202 170 152
202 170 152
202 171 152
203 171 152
203 171 153
203 171 153
203 171 153
203 171 152
203 171 152
202 170 151
201 169 151
159 134 143
87 77 140
111 98 139
202 184 194
234 213 214
238 216 217
238 216 216
230 208 212
172 149 169
99 63 119
95 54 117
92 50 113
100 59 121
90 44 104
111 79 120
110 79 119
114 91 117
117 98 118
104 89 106
115 101 124
105 90 115
82 69 101
69 53 94
71 53 95
69 45 92
61 37 83
67 44 86
72 53 93
74 52 96
74 55 94
74 66 94
71 65 91
64 75 84
72 100 78
71 109 73
75 113 78
83 122 86
78 109 91
92 97 103
143 124 133
180 156 174
163 145 159
149 143 146
158 156 160
162 154 161
163 153 155
165 154 163
170 156 163
200 183 189
225 206 205
235 214 212
235 214 212
230 210 212
219 200 208
191 176 188
95 97 126
45 64 94
38 62 84
47 70 69
55 77 40
55 77 27
54 76 27
59 82 30
72 97 31
68 90 28
89 108 24
105 125 22
124 143 12
124 140 42
116 129 89
117 123 116
111 117 123
134 133 138
144 142 144
125 127 123
150 147 150
159 151 159
161 150 169
131 120 141
124 107 144
93 75 123
96 78 120
86 65 120
87 61 119
71 41 110
71 47 103
66 37 103
55 31 84
52 30 78
52 29 81
54 32 84
55 26 98
62 34 108
118 145 134
94 141 125
79 146 118
61 141 108
54 136 106
55 139 105
60 152 117
59 133 104
79 132 111
91 134 116
110 127 122
95 82 91
94 57 71
90 37 67
89 29 55
87 26 49
86 20 42
86 23 44
83 23 34
81 14 24
70 45 59
55 53 87
86 84 108
101 101 133
117 118 154
137 135 157
124 126 143
154 147 164
153 146 153
159 151 156
157 149 157
144 139 144
147 141 148
123 121 127
101 102 107
62 69 76
56 65 69
26 43 51
33 45 52
10 30 41
16 34 42
11 30 40
14 33 41
31 52 48
44 67 52
52 79 53
61 89 58
68 100 63
63 93 59
67 96 66
64 84 70
54 65 77
46 37 85
52 38 95
47 33 96
44 33 91
40 38 94
42 35 93
41 38 91
42 39 86
36 39 73
37 42 73
39 42 59
36 42 55
39 41 47
38 39 35
39 40 30
42 41 24
43 43 23
88 86 86
133 126 128
141 136 135
155 147 152
149 144 147
148 142 150
147 140 154
124 121 138
119 118 142
103 107 134
93 99 127
84 93 126
86 91 124
91 98 129
89 95 128
83 94 122
83 93 123
70 89 115
76 92 114
103 112 126
147 145 154
171 162 171
151 146 149
114 117 112
129 126 129
138 131 147
147 132 159
137 113 151
164 140 160
176 160 171
165 153 172
165 153 170
174 162 179
148 146 158
134 140 151
88 125 143
56 115 138
52 112 138
57 118 145
51 103 127
53 102 125
51 71 111
51 69 113
59 54 104
70 72 90
76 82 85
73 84 71
71 84 64
65 82 57
71 87 65
67 83 62
66 82 63
64 81 59
65 79 61
81 92 73
96 100 94
104 113 108
116 121 128
104 113 127
94 87 119
81 68 110
75 48 108
66 54 99
62 51 91
65 47 93
50 55 75
57 58 84
50 57 73
51 64 66
47 63 55
47 71 47
58 81 53
68 78 49
75 66 46
95 68 53
94 61 45
99 63 45
90 59 42
93 60 43
95 61 44
100 64 44
98 64 45
100 72 57
175 153 150
206 182 178
224 197 181
219 191 175
224 193 182
233 201 188
231 200 186
231 197 183
219 190 177
222 192 178
225 195 176
181 160 134
174 159 151
216 189 176
195 180 158
195 182 158
220 195 180
164 173 141
176 171 148
205 178 169
227 196 185
215 186 174
157 138 130
137 121 114
173 156 134
192 171 151
199 176 157
189 162 148
203 171 167
207 182 177
196 176 165
194 175 160
166 148 138
140 118 110
149 125 123
144 124 124
151 134 134
146 128 126
122 100 108
124 99 130
125 100 139
152 121 165
149 117 161
177 151 164
183 164 161
185 167 164
187 167 164
184 155 161
183 159 161
182 163 164
175 160 157
173 158 156
143 130 130
112 92 86
107 72 56
116 84 66
108 80 68
105 73 58
101 71 57
107 76 62
113 83 75
156 133 140
163 141 151
163 141 151
163 140 150
163 141 150
163 140 150
164 141 150
164 141 150
164 141 150
165 142 151
165 142 151
165 142 151
166 142 151
166 143 151
166 143 151
167 143 151
167 143 151
167 143 151
168 143 151
168 143 151
169 144 151
171 144 152
172 145 152
173 146 153
173 146 153
174 147 153
174 147 153
174 147 154
174 147 154
174 147 153
173 147 153
173 146 153
172 146 153
172 146 153
172 146 152
171 145 152
171 145 152
171 145 152
170 144 152
170 144 152
169 144 152
169 144 152
169 144 152
168 143 152
168 143 152
167 143 151
166 143 151
166 142 151
165 141 151
164 141 151
164 140 151
163 139 150
162 139 149
161 138 149
161 138 149
160 138 149
160 138 149
160 138 149
160 138 149
160 138 149
160 138 149
160 138 149
160 138 149
172 147 151
195 164 153
196 165 153
197 166 153
198 167 153
199 168 153
199 168 153
200 168 152
200 168 152
201 169 152
201 169 152
201 169 151
201 170 151
202 170 151
202 170 151
202 170 151
202 170 151
202 170 151
202 170 151
202 171 152
202 171 151
202 171 152
203 171 152
203 171 152
203 171 152
203 171 153
203 171 152
203 171 152
202 170 152
202 170 151
201 169 151
200 168 151
158 135 146
170 155 172
227 206 212
235 214 217
235 214 215
239 218 218
236 215 215
197 175 186
121 89 129
96 52 117
97 57 116
90 44 107
92 48 101
98 54 105
101 63 110
110 79 113
112 91 112
123 103 119
109 96 105
102 88 109
90 73 100
91 78 99
73 53 89
70 51 89
72 47 91
66 46 88
73 51 95
68 44 90
68 52 92
65 69 84
74 92 86
66 94 74
75 105 78
71 114 71
75 118 72
73 118 76
77 109 88
82 99 105
131 113 127
143 124 140
154 139 145
137 134 129
159 151 147
156 150 150
167 156 160
165 155 160
171 158 161
181 167 175
211 193 194
231 211 210
235 214 212
234 213 212
233 212 213
218 200 204
178 165 181
82 87 120
32 56 90
45 69 72
54 77 40
57 80 28
55 78 28
56 78 28
60 84 30
68 92 30
72 94 27
109 129 17
116 133 25
111 126 49
109 122 76
113 119 111
119 119 122
145 140 143
141 137 136
143 138 141
146 139 144
149 140 150
148 136 160
121 106 139
107 92 129
90 66 121
90 61 129
82 51 119
82 57 117
76 46 117
69 36 110
72 44 110
63 34 98
51 26 83
51 26 86
51 27 89
58 26 103
64 33 117
100 133 115
86 143 123
68 140 111
59 150 113
54 136 107
54 135 105
55 139 110
58 136 106
69 135 112
84 130 113
97 99 102
94 86 92
97 37 77
98 31 72
94 30 69
101 34 76
90 27 63
90 22 48
80 18 36
78 19 47
70 40 101
61 52 123
46 58 133
65 82 149
89 99 166
102 108 167
102 109 166
118 120 159
128 127 153
140 137 147
144 141 143
137 135 136
124 125 123
114 118 114
98 102 102
55 65 67
30 50 50
18 41 42
23 49 48
15 37 42
11 30 37
8 30 42
11 30 40
21 40 43
35 54 44
53 80 54
60 88 59
70 103 67
62 92 58
62 89 62
57 76 69
47 49 76
38 31 80
42 32 86
40 34 88
40 37 89
39 38 92
39 37 91
41 37 93
41 37 87
38 41 76
44 46 83
49 51 67
46 49 54
45 48 55
45 48 55
38 40 38
43 43 32
51 48 31
73 72 63
124 119 119
141 137 134
149 144 148
149 143 147
149 144 147
153 145 158
128 124 143
120 118 144
114 111 138
94 98 128
94 96 132
87 89 128
96 97 132
92 95 127
88 95 127
88 90 122
87 92 125
88 94 108
110 115 126
142 140 146
144 141 144
111 115 104
95 106 91
114 115 112
112 106 116
136 121 154
124 96 141
158 134 138
195 169 158
186 169 162
188 172 177
173 160 178
165 154 173
141 139 149
123 137 150
98 128 145
64 116 139
54 116 141
55 114 141
50 97 124
56 85 120
51 64 111
70 63 104
79 80 93
84 90 82
92 96 85
74 84 63
67 80 58
69 80 56
68 82 59
68 85 61
61 78 55
65 83 56
79 89 77
97 103 91
102 107 105
109 115 120
114 114 133
95 88 119
73 50 105
68 56 100
63 52 94
58 53 82
47 50 66
48 51 67
57 59 72
48 56 62
49 56 65
46 60 59
47 70 50
55 77 50
54 70 47
72 72 58
77 69 50
87 67 54
97 63 44
86 55 38
103 66 45
99 63 45
89 57 41
98 63 44
100 73 61
173 150 142
217 192 181
227 201 189
229 201 188
233 203 189
233 204 189
233 203 188
237 206 192
232 201 187
235 204 190
235 204 189
224 196 178
212 187 176
231 201 188
225 198 180
224 198 182
235 203 190
198 189 168
208 190 172
233 202 191
235 204 191
230 199 189
212 183 174
194 169 158
214 186 170
205 181 161
218 191 174
229 197 184
235 202 191
234 202 192
233 201 188
230 199 185
208 176 168
188 155 148
173 143 136
199 168 162
197 167 159
181 151 144
178 148 144
165 137 150
159 129 144
200 168 180
223 189 189
234 201 192
232 201 191
228 197 187
229 199 188
226 195 186
223 193 183
226 196 183
226 195 185
221 192 181
148 119 106
113 85 69
111 79 64
98 67 52
107 73 58
106 77 62
101 69 55
109 81 74
155 133 141
163 141 151
163 141 151
163 140 150
163 140 150
163 140 150
163 140 150
163 141 150
163 141 150
163 141 150
164 141 151
164 142 151
165 142 151
165 142 151
165 142 151
166 142 151
166 143 151
166 143 151
166 143 150
167 143 151
168 143 151
169 143 151
170 144 152
171 145 152
172 146 153
173 146 153
173 146 153
174 147 153
174 147 153
174 147 153
174 147 153
174 147 153
173 147 153
173 146 153
172 146 153
172 146 153
172 146 152
171 145 152
171 145 151
170 145 151
170 144 151
169 144 151
169 144 151
169 144 151
168 144 152
168 143 152
167 143 152
167 143 152
166 142 151
166 142 151
165 141 151
164 141 151
164 140 150
163 140 150
162 139 149
162 138 149
161 138 149
161 138 149
161 138 149
160 138 149
160 138 149
160 138 149
160 138 149
160 138 149
163 140 150
194 163 152
197 166 153
198 166 153
198 167 153
199 168 153
200 168 153
200 168 152
200 168 152
201 169 152
201 169 151
201 169 151
202 170 151
202 170 151
202 170 151
202 170 151
202 170 151
202 171 151
202 171 151
202 171 151
202 171 152
202 171 151
202 171 152
203 171 152
203 171 152
203 171 152
203 171 152
203 171 152
202 170 152
201 169 151
200 169 151
199 168 150
197 165 150
202 178 175
236 215 217
236 215 215
236 215 216
235 214 215
239 217 217
222 200 205
152 124 153
95 57 116
98 58 113
102 64 112
92 51 101
100 65 109
95 52 96
112 81 114
107 79 100
125 107 114
115 97 106
108 92 109
107 90 103
105 89 106
87 71 91
88 66 95
78 51 92
83 64 99
66 43 90
72 51 95
61 53 84
59 78 78
72 97 78
79 113 85
74 119 79
69 121 76
72 119 80
74 116 88
76 102 99
76 95 102
101 92 115
141 118 130
146 135 139
138 133 122
136 132 125
163 154 157
167 157 163
158 149 151
174 161 167
172 159 164
198 182 184
224 204 203
235 214 213
235 214 213
236 214 213
235 214 214
214 196 205
157 148 171
78 84 116
41 64 70
44 65 51
54 76 27
50 71 25
54 76 27
53 74 26
67 89 27
74 95 24
103 121 28
120 134 67
132 142 93
138 142 118
133 131 135
140 137 141
137 134 137
151 142 148
144 137 138
137 132 134
132 124 133
113 103 130
112 96 131
79 55 113
84 53 124
79 49 122
82 50 124
79 46 120
74 39 116
68 36 110
70 37 112
61 30 101
62 31 99
52 26 88
52 24 92
56 28 100
59 23 108
111 144 132
75 136 111
53 138 108
55 138 106
58 129 101
56 135 104
66 129 104
73 125 106
75 119 104
87 85 94
93 73 93
103 56 93
101 38 88
99 36 85
100 35 81
101 36 81
96 35 81
92 31 69
87 25 56
72 35 99
61 48 134
40 58 159
32 59 165
42 69 175
37 69 174
41 71 171
47 75 171
77 91 167
96 103 155
128 127 155
137 135 138
122 125 121
120 124 124
103 107 109
87 94 96
37 61 54
26 53 47
27 55 49
29 58 52
18 41 43
16 39 45
15 37 42
8 28 40
16 35 44
21 39 42
43 66 49
60 87 57
63 94 60
66 95 62
58 82 60
44 54 63
45 38 76
41 30 80
41 32 86
43 35 91
38 35 84
37 41 90
38 37 87
38 37 86
40 37 86
47 47 90
42 45 84
56 58 79
53 56 70
52 56 67
44 48 58
48 49 43
46 46 34
58 56 45
92 89 89
130 124 124
142 136 141
148 143 147
142 137 145
149 143 152
138 133 143
117 114 133
112 110 138
102 101 132
101 100 135
94 94 132
100 99 138
95 93 131
94 95 129
91 90 128
85 87 119
82 84 115
109 110 131
112 114 121
127 125 125
109 113 107
88 92 82
117 113 115
122 114 123
138 125 143
157 142 161
163 145 161
158 139 134
192 172 151
209 187 164
210 189 173
199 181 176
195 178 184
176 162 174
155 151 160
147 145 162
117 130 154
86 125 149
54 115 135
53 105 128
52 89 119
60 62 104
80 74 103
87 78 97
96 94 94
95 93 82
82 86 70
77 80 64
74 85 60
70 85 59
62 76 53
56 73 51
64 82 56
62 75 56
84 94 82
100 105 100
104 110 113
100 111 116
92 92 120
75 60 108
64 52 96
57 53 89
54 58 75
48 56 68
52 61 68
52 61 62
53 63 66
46 54 58
41 50 48
47 62 51
50 66 52
53 68 46
61 68 53
83 83 68
97 80 71
103 77 65
98 64 45
104 67 47
99 62 43
96 62 44
98 63 44
94 64 47
158 140 135
211 185 181
223 196 187
226 199 189
235 205 194
235 207 194
237 207 195
233 203 192
233 203 192
234 204 192
229 200 190
237 206 194
236 205 193
235 203 192
237 206 194
237 206 194
237 206 195
228 200 188
233 204 192
235 204 193
235 204 192
231 201 190
230 201 190
213 184 176
229 199 187
222 194 180
222 194 181
227 198 186
231 201 189
230 198 189
228 197 187
231 200 189
225 193 183
207 176 167
196 166 159
214 184 176
212 180 172
204 173 165
200 170 162
199 171 173
193 165 171
204 176 180
230 199 189
228 198 188
232 201 193
231 200 190
230 200 189
224 194 186
229 199 189
227 197 185
225 195 185
150 122 113
107 80 68
110 79 63
123 91 76
111 80 63
88 59 46
99 67 52
116 85 73
154 130 136
163 141 150
163 141 151
163 140 151
163 140 150
163 140 150
163 140 150
163 140 150
163 141 150
163 141 150
163 141 150
163 141 151
164 142 151
164 142 151
164 142 151
165 142 151
165 142 151
165 142 151
166 142 150
166 142 150
166 143 150
168 143 151
168 143 151
169 144 152
171 145 152
171 145 152
172 146 152
173 146 152
173 147 152
174 147 153
174 147 153
174 147 153
174 147 153
174 147 153
173 147 153
173 147 153
173 146 153
172 146 152
172 146 152
171 145 151
170 145 151
170 144 151
170 144 151
169 144 151
169 144 151
169 144 151
168 143 151
168 143 152
168 143 152
167 143 152
167 143 152
166 142 152
166 142 151
165 141 151
164 140 151
163 140 150
162 139 150
162 139 149
161 138 149
161 138 149
161 138 149
160 138 149
160 138 149
160 138 149
160 138 150
161 139 150
190 160 152
198 166 153
198 167 153
199 167 153
200 168 153
200 168 153
200 168 152
201 168 152
201 169 151
201 169 151
201 169 151
202 170 151
202 170 151
202 170 151
202 170 151
202 170 151
202 171 151
202 171 151
202 171 151
202 171 151
202 171 151
202 171 152
202 171 152
202 171 152
203 171 152
203 171 152
202 170 152
202 170 152
201 169 151
200 168 150
198 166 150
198 166 150
197 165 150
226 201 197
238 216 216
237 216 216
234 213 215
237 216 216
224 204 206
163 141 158
107 78 119
94 53 103
92 51 101
107 70 104
103 67 102
102 63 105
107 71 105
102 73 95
116 89 114
118 96 105
106 83 91
118 100 112
115 98 109
100 84 97
91 66 87
71 44 83
67 49 85
66 46 86
82 70 101
54 66 76
50 83 63
70 113 74
70 116 76
70 117 83
60 114 71
78 122 91
67 117 82
80 107 109
85 106 112
88 88 123
119 100 120
138 126 123
119 116 103
142 134 124
159 150 151
175 162 166
155 146 150
170 157 163
165 153 159
183 169 176
201 187 190
231 212 210
232 211 211
236 215 213
236 214 213
233 212 212
213 195 207
155 145 159
72 79 93
38 58 53
48 68 24
53 74 26
57 80 27
64 86 26
68 91 28
79 98 44
108 121 78
123 129 118
134 140 115
125 127 118
124 124 122
129 128 131
144 139 142
155 145 143
152 141 143
129 124 123
119 110 122
112 99 119
94 75 118
79 49 117
80 48 121
82 49 121
79 45 123
67 36 106
68 35 109
68 35 109
67 33 110
62 30 104
60 29 98
53 23 91
62 33 105
59 24 110
65 30 117
115 135 126
93 129 116
71 123 100
77 130 106
74 128 108
91 126 113
98 114 115
105 115 118
114 110 119
114 89 109
107 66 99
102 49 91
107 40 92
104 39 91
103 40 93
107 40 91
102 38 87
99 36 84
89 38 97
75 46 125
52 51 141
26 60 168
32 59 169
21 60 170
23 59 169
16 62 174
11 61 172
15 60 164
82 93 167
104 111 155
121 125 139
117 122 122
117 124 117
97 106 103
60 81 71
36 69 54
27 56 51
30 59 51
30 60 51
24 51 49
27 55 52
19 43 47
13 34 43
8 29 41
17 35 41
45 68 51
55 81 54
60 87 53
67 96 62
73 89 77
87 91 91
76 67 95
61 50 90
58 50 92
44 39 86
37 38 85
34 38 84
36 39 88
41 44 86
56 57 94
52 53 92
50 52 83
56 59 84
50 54 69
59 62 69
49 52 66
57 59 57
57 58 53
72 72 70
103 100 97
130 126 127
143 137 143
154 146 160
153 146 154
137 134 141
144 138 145
126 122 141
102 102 130
94 94 128
103 101 134
101 101 140
94 94 129
96 95 133
94 89 131
97 88 135
107 94 141
114 105 138
142 133 153
136 133 142
126 122 128
104 101 105
105 99 106
113 102 118
108 98 115
136 124 131
210 188 189
204 184 184
201 181 166
204 184 162
232 207 180
228 205 177
226 202 180
222 201 186
201 184 180
176 165 170
168 158 174
148 144 163
114 132 152
57 105 127
48 93 115
55 81 114
68 70 105
94 82 109
116 104 115
98 89 90
98 97 83
77 76 67
72 73 60
67 72 68
64 71 65
68 81 67
59 78 64
64 82 59
70 83 63
91 97 84
95 105 101
87 102 105
82 98 112
92 87 117
63 57 96
58 57 90
59 62 87
50 59 68
57 68 69
51 62 61
51 61 58
55 66 52
53 63 55
49 58 53
47 57 48
51 58 46
55 59 56
69 73 63
87 89 79
84 82 70
109 96 94
107 83 76
95 66 51
90 57 40
93 60 42
86 56 39
95 62 48
154 133 130
212 187 181
222 196 189
227 201 193
227 201 189
233 205 195
231 202 193
228 199 191
227 199 189
237 208 195
235 206 194
237 207 195
238 208 196
235 205 194
235 206 195
237 207 196
237 207 196
228 200 189
230 201 190
236 206 195
233 202 191
234 204 193
232 203 192
233 202 192
236 205 195
233 202 194
230 200 191
232 203 190
231 202 189
235 205 193
231 199 190
231 200 191
229 197 188
226 195 187
218 188 181
219 190 182
222 192 184
222 191 182
216 186 178
208 179 174
214 184 185
226 196 189
229 199 188
231 201 190
230 199 192
230 200 189
228 197 189
230 199 192
228 198 190
227 198 189
160 131 120
111 84 70
104 75 60
111 80 67
109 73 55
99 66 51
108 79 68
113 82 68
151 129 135
162 141 150
162 141 150
163 141 150
163 140 150
163 140 150
163 140 150
163 140 150
163 141 150
163 141 150
163 141 150
163 141 150
163 141 151
164 142 151
164 142 151
164 142 151
164 142 151
165 142 151
165 142 151
165 142 150
165 142 150
166 143 150
167 143 151
168 143 151
169 144 151
169 144 152
171 145 152
171 145 152
172 146 152
173 146 152
173 146 152
173 147 153
174 147 153
174 147 153
174 147 153
174 147 153
174 147 153
173 146 152
172 146 152
172 146 152
171 145 151
170 145 151
170 144 151
170 144 151
169 144 151
169 143 151
168 143 151
168 143 151
168 143 151
168 143 152
168 144 152
168 143 152
167 143 152
167 143 152
166 142 152
165 141 151
164 140 150
163 140 150
163 139 150
162 139 149
161 139 149
161 139 149
160 139 149
160 138 149
160 138 150
160 138 150
160 138 150
176 150 151
198 166 153
199 167 153
199 167 153
200 168 153
200 168 153
201 168 152
201 169 151
201 169 151
201 169 151
201 169 151
202 170 151
202 170 151
202 170 151
202 171 151
202 171 151
203 171 151
203 171 151
203 171 151
202 171 151
202 171 151
202 171 151
202 171 151
202 171 152
202 170 152
202 170 152
202 170 152
201 169 152
200 168 151
199 168 151
197 166 150
197 166 150
196 165 150
196 164 150
227 203 200
236 214 216
239 217 217
239 218 217
238 216 215
206 184 191
135 108 133
103 68 100
98 61 97
89 40 85
103 65 98
99 58 96
101 63 91
100 62 89
102 69 93
118 97 112
105 82 92
102 79 89
100 80 84
102 88 96
96 79 94
84 60 90
68 52 87
71 49 90
67 64 84
64 77 82
73 107 85
66 112 76
56 116 66
53 109 64
56 113 71
62 114 77
70 113 91
60 96 91
80 89 119
77 75 123
101 90 103
139 128 125
128 124 112
119 117 103
130 128 121
154 145 146
156 143 141
162 151 153
172 160 162
178 165 171
201 185 190
224 206 205
235 214 212
235 214 213
234 214 212
235 214 213
234 213 212
215 197 201
160 150 152
66 78 59
42 62 26
50 70 24
50 70 24
57 80 26
63 85 34
98 114 72
124 128 138
137 136 156
146 141 165
141 138 146
129 128 131
146 140 150
156 148 148
170 157 158
170 157 157
157 144 143
107 96 108
92 78 109
79 50 112
81 48 121
83 49 123
75 44 116
72 40 112
70 38 109
66 34 107
65 32 103
64 32 104
65 31 107
55 26 96
60 27 100
56 23 101
58 26 106
60 26 113
132 138 138
112 131 128
100 120 113
126 122 126
139 118 140
148 123 148
139 124 148
150 113 153
144 108 144
146 101 139
138 81 126
112 54 98
107 45 93
101 38 89
103 39 91
97 37 85
102 39 92
98 38 94
91 41 109
72 48 135
48 53 157
41 57 165
30 58 166
32 57 163
28 58 162
23 62 176
16 58 161
13 62 164
33 67 156
67 85 143
94 107 129
111 118 120
104 114 106
90 106 93
64 90 74
40 78 61
40 76 60
40 75 59
38 73 60
32 63 57
32 62 59
27 54 54
21 45 48
12 33 43
14 32 39
31 51 44
61 79 60
104 116 96
114 122 110
129 126 130
122 116 132
120 109 137
114 103 133
96 87 115
80 74 106
54 52 88
35 37 84
45 47 88
41 46 85
49 54 88
53 54 90
61 64 94
66 70 89
63 66 83
61 65 76
60 62 65
63 65 70
84 84 85
91 90 91
119 114 117
134 127 132
138 133 136
132 129 133
145 140 146
144 139 142
134 129 144
117 115 127
111 108 140
91 90 127
96 95 130
96 93 130
96 89 129
105 89 139
114 88 147
126 96 149
138 117 156
149 134 158
155 143 165
130 125 140
109 102 111
90 77 99
82 69 90
97 86 105
99 90 104
159 142 144
216 193 193
235 208 202
231 205 195
211 189 171
217 190 175
215 188 177
217 193 174
197 177 161
187 170 158
170 157 155
150 140 147
159 150 161
110 120 125
75 116 130
57 93 117
67 81 109
77 77 100
104 89 107
119 106 113
102 87 84
88 82 86
81 76 80
73 70 79
77 67 86
67 70 90
64 69 82
65 75 81
56 74 66
58 77 55
76 86 70
86 95 81
99 102 103
93 105 120
71 76 111
60 61 99
58 62 89
63 73 81
55 67 66
59 71 61
61 73 59
54 65 48
54 65 53
58 67 48
56 66 46
50 58 48
61 60 46
65 62 48
66 61 51
73 71 63
92 90 83
112 108 109
122 109 112
100 80 75
100 70 56
95 61 43
102 65 45
91 60 43
140 115 108
209 187 185
224 199 191
228 203 195
226 201 191
228 202 193
237 209 199
231 203 195
232 204 195
234 206 197
234 206 198
232 204 195
234 205 195
234 205 194
234 205 193
236 206 198
233 204 195
235 206 197
234 205 198
233 203 196
229 200 191
229 201 192
234 205 197
232 202 194
232 203 192
231 201 193
233 203 195
230 201 191
230 200 189
233 203 193
233 202 193
231 200 191
228 197 189
231 200 193
229 199 192
230 200 193
226 198 189
229 200 192
230 200 192
231 200 195
228 199 191
232 203 197
228 199 192
227 198 190
231 201 192
229 200 190
231 201 192
227 198 191
216 187 183
165 136 128
103 74 58
106 77 63
107 76 60
104 70 53
108 74 59
110 83 71
117 89 79
152 129 134
162 141 150
162 141 150
162 141 150
162 141 150
163 141 150
163 141 150
163 140 150
163 140 150
163 141 150
163 141 151
163 141 151
163 141 151
163 141 151
163 141 151
163 142 151
164 142 151
164 142 151
164 142 151
165 142 150
165 142 150
165 142 150
165 142 150
166 143 151
167 143 151
167 143 151
169 144 151
169 144 151
171 145 152
171 145 152
172 146 152
172 146 152
173 147 153
173 147 153
174 147 153
174 147 153
174 147 153
173 147 153
173 146 152
172 146 152
172 145 151
171 145 151
170 144 151
170 144 151
170 144 151
169 143 150
169 143 150
169 143 151
168 143 151
169 143 152
168 144 152
168 144 152
168 143 152
168 144 153
168 143 152
167 143 152
166 142 152
165 141 151
164 140 151
163 140 150
163 140 150
162 139 149
161 139 149
161 139 149
160 139 149
160 139 150
160 139 150
160 138 150
168 144 150
196 165 153
199 167 153
200 168 153
200 168 153
201 168 152
201 168 152
201 169 151
201 169 151
201 169 151
201 169 151
202 170 151
202 170 151
202 170 151
202 171 151
203 171 151
203 171 151
203 172 151
203 172 151
202 171 151
202 171 151
202 171 151
202 170 151
202 170 151
202 170 152
202 170 152
201 170 152
200 169 151
199 167 151
198 167 150
197 166 150
196 165 150
196 164 150
195 164 150
196 165 151
228 205 201
239 218 217
234 213 214
236 215 214
219 198 201
160 135 149
101 62 102
94 55 94
91 50 86
101 64 94
98 55 84
103 70 96
95 58 80
107 74 97
110 87 101
110 82 94
117 94 107
107 80 91
126 108 121
111 90 101
90 72 95
90 70 100
70 53 89
64 68 80
72 100 85
42 99 57
75 116 88
64 112 79
67 118 82
53 117 69
58 112 73
64 110 85
61 99 84
62 86 101
69 76 113
92 80 122
122 108 110
138 133 126
130 128 114
122 119 107
140 135 132
176 160 155
168 150 139
171 157 157
166 155 161
176 164 170
215 197 198
230 210 208
235 214 213
233 212 211
214 197 194
216 198 200
202 187 193
169 157 162
85 88 80
47 64 36
48 69 23
48 70 23
63 80 45
81 92 82
110 115 132
133 130 168
145 136 191
148 138 184
144 136 163
140 132 152
137 133 140
140 135 141
170 156 155
180 165 165
191 170 172
134 119 127
98 84 109
82 55 114
80 47 117
78 46 115
72 42 110
74 42 112
69 36 108
63 30 103
60 28 97
61 27 102
65 31 105
60 26 102
56 25 96
56 23 98
60 29 104
60 23 110
142 139 143
140 137 136
159 137 155
158 125 153
169 118 162
165 116 164
169 117 169
164 112 165
168 115 166
171 114 162
164 105 149
144 86 128
133 73 114
100 41 88
96 36 83
104 39 94
96 37 96
100 40 104
89 40 112
79 47 129
65 51 149
44 54 160
42 57 162
37 53 153
33 56 158
36 59 168
29 58 162
20 56 157
22 66 160
40 77 139
89 103 124
79 98 113
91 109 99
69 95 78
57 91 74
46 86 65
47 86 68
44 82 65
42 79 63
37 70 60
31 61 54
30 59 56
26 52 53
23 47 49
24 46 47
33 47 44
92 97 89
142 137 136
153 147 151
158 148 165
160 149 176
147 136 170
148 136 165
120 111 137
113 105 128
93 87 112
50 55 90
44 48 83
49 55 90
46 50 89
64 66 97
67 68 90
65 69 88
63 67 82
71 75 86
64 69 79
73 76 83
87 86 90
92 92 92
127 123 129
133 130 131
136 133 138
133 130 133
145 140 143
130 128 130
134 128 143
112 111 129
94 92 117
90 90 121
90 90 122
96 90 131
108 88 143
122 81 150
125 81 156
161 127 168
206 179 190
204 183 186
175 162 164
134 123 137
117 107 123
106 98 121
95 92 112
76 76 97
95 94 114
140 129 138
194 174 176
197 180 180
204 180 181
175 139 164
171 138 156
167 134 157
164 145 151
167 154 152
149 138 132
133 125 124
130 125 129
150 143 157
128 130 143
99 120 132
70 104 114
85 88 114
93 83 98
134 116 128
121 103 114
93 75 83
92 66 88
84 69 98
78 61 99
81 52 112
75 60 99
66 63 107
59 62 103
54 63 89
53 68 74
79 89 83
93 103 92
89 103 104
101 103 119
79 77 106
69 57 94
66 70 83
58 69 80
55 66 64
62 74 60
60 73 54
65 77 52
69 81 50
66 73 45
71 83 50
66 68 46
71 70 52
65 61 45
64 56 40
74 68 65
96 94 85
123 119 119
137 128 133
118 105 104
102 80 70
101 68 52
90 58 41
97 61 43
128 98 92
200 177 175
220 197 193
230 206 197
226 203 193
223 199 190
229 203 195
235 207 199
229 203 196
235 207 199
233 206 198
233 205 196
229 202 193
236 208 199
232 204 197
233 205 197
230 202 195
232 203 196
231 202 197
225 197 192
230 202 194
230 203 194
233 205 197
230 202 196
230 201 194
233 203 196
234 204 198
231 202 194
234 203 195
232 201 193
230 199 191
233 203 195
231 202 193
234 205 196
229 200 193
228 199 193
226 198 191
228 200 191
227 199 191
227 199 191
231 203 192
229 201 193
228 199 192
228 199 191
230 200 191
230 201 193
229 200 192
226 196 191
159 130 125
106 76 63
110 75 59
108 77 64
106 73 58
99 68 54
107 75 61
119 88 76
143 121 125
162 141 150
162 141 150
162 141 150
162 141 150
162 141 150
163 141 150
163 141 151
163 141 150
163 140 150
163 141 150
163 141 151
163 141 151
163 141 151
163 141 151
163 142 151
163 142 151
164 142 151
164 142 151
164 142 151
164 142 150
164 142 150
165 142 150
165 142 150
165 142 150
166 142 151
166 142 151
167 143 151
168 143 151
169 143 151
170 144 151
170 144 152
170 144 151
172 146 152
173 146 153
173 147 153
173 147 153
173 147 153
173 147 153
173 146 152
172 145 152
172 145 151
171 145 151
171 145 151
170 144 151
170 144 150
169 144 151
169 144 151
169 143 151
169 143 151
168 143 152
169 144 152
169 144 152
169 144 153
169 144 153
168 144 153
168 144 153
167 142 152
166 142 151
164 141 151
163 140 150
163 140 150
162 140 150
161 139 150
161 139 150
161 139 150
160 139 150
160 139 150
160 139 150
162 140 150
192 162 153
200 168 153
200 168 153
201 168 153
201 168 152
201 168 151
201 169 151
201 169 151
201 169 150
201 169 150
202 170 151
202 170 151
202 170 151
203 171 151
203 171 151
203 172 151
203 172 151
203 171 151
202 171 151
202 170 151
202 170 151
201 170 151
201 170 151
201 170 151
201 170 152
201 169 151
200 168 151
199 167 151
198 166 150
197 165 150
195 164 149
195 164 150
194 163 149
194 163 150
198 168 156
224 202 200
235 214 213
236 215 214
222 201 203
182 160 168
112 78 105
93 53 82
88 43 74
88 46 75
98 59 84
104 67 94
97 55 75
95 61 78
107 74 88
97 62 74
97 66 79
110 88 97
121 102 114
110 92 105
102 85 95
94 81 100
80 70 93
77 80 89
56 95 72
73 111 85
58 110 73
61 110 75
64 112 78
67 115 81
66 112 80
59 112 81
67 101 95
78 94 116
80 78 128
88 78 128
107 93 113
116 111 110
146 142 140
146 137 133
145 138 142
161 150 142
151 136 127
169 153 154
167 157 160
176 165 170
199 184 188
205 188 193
191 179 181
180 169 166
161 153 152
157 150 156
141 136 152
134 121 146
101 94 106
92 88 86
61 73 44
61 80 40
88 94 91
107 111 129
133 126 170
145 136 193
150 138 199
147 136 186
146 136 176
144 136 161
137 131 138
139 135 141
171 161 163
190 175 177
184 165 171
174 158 166
112 95 125
77 51 111
78 46 115
77 45 114
73 42 112
66 36 102
65 33 105
62 31 101
58 26 96
58 25 98
53 21 96
55 23 95
51 20 92
57 27 101
54 19 97
55 20 100
148 138 145
168 136 153
182 130 164
193 131 172
189 128 178
179 121 175
175 120 174
174 119 173
180 123 175
188 127 176
186 124 167
178 117 158
143 87 122
123 67 106
99 39 89
95 37 100
99 39 107
97 39 108
94 38 109
80 44 133
65 47 136
55 52 156
51 53 161
51 54 161
38 54 155
45 54 159
31 56 158
31 60 154
29 66 140
46 79 119
60 86 99
73 97 88
85 107 92
65 97 77
47 85 65
47 88 68
47 87 70
49 90 71
45 85 67
46 87 69
39 75 63
40 73 64
34 65 59
29 57 55
34 55 55
97 97 95
139 131 132
174 161 169
181 167 184
182 168 194
166 154 188
158 148 184
139 131 165
133 125 151
131 122 145
115 108 126
92 89 111
53 57 91
46 52 85
54 60 91
68 73 96
75 80 100
74 78 96
71 75 93
74 78 88
80 82 89
90 89 96
106 103 108
120 117 118
127 125 126
133 130 131
138 134 139
144 139 146
129 127 127
129 126 131
128 125 138
107 107 124
90 87 112
94 93 125
95 88 128
114 90 145
117 76 149
134 78 159
155 107 171
192 164 189
205 186 193
203 184 179
185 170 170
136 129 135
120 116 124
107 107 119
80 91 109
69 87 109
80 92 117
86 95 113
122 119 132
121 121 133
131 120 139
130 82 146
128 75 143
140 96 154
142 124 151
141 129 140
132 125 132
119 115 110
129 125 130
154 144 158
165 156 175
137 143 156
101 121 129
101 114 125
103 91 103
122 96 106
115 85 101
87 57 90
83 63 106
88 51 107
73 51 118
78 54 111
74 51 120
69 50 122
65 56 111
52 56 96
57 69 88
64 71 76
95 102 100
105 106 108
102 97 110
95 86 110
83 78 99
65 70 79
62 75 70
69 83 61
61 72 53
64 76 53
61 73 49
68 73 46
66 74 47
79 79 48
91 88 51
80 71 42
82 75 43
76 61 39
84 72 53
97 88 87
113 107 106
132 127 130
129 125 123
122 108 102
110 85 78
102 71 56
110 71 50
132 106 93
188 169 169
216 193 193
228 204 198
224 201 194
231 205 199
232 206 200
229 202 197
235 208 202
235 208 203
228 202 194
233 206 199
235 208 200
233 206 198
233 206 200
233 206 200
233 206 199
233 205 196
229 202 196
231 204 196
230 203 195
234 207 199
232 205 197
234 206 198
226 199 193
232 204 197
231 203 197
233 204 198
231 202 195
227 199 192
229 199 191
230 201 194
230 201 194
232 204 196
229 199 191
232 204 198
232 204 198
232 204 196
229 201 194
227 201 192
227 201 190
230 203 194
229 201 193
229 200 193
228 200 191
230 202 193
222 194 185
155 129 121
101 66 55
103 71 58
111 81 65
108 82 71
124 92 80
117 86 72
102 68 53
145 122 127
162 141 150
162 141 150
162 141 150
162 141 150
162 141 150
162 141 150
163 140 150
163 140 150
163 141 151
163 141 151
163 141 151
163 141 151
163 141 151
163 141 151
163 141 151
163 142 151
163 142 151
163 142 151
164 142 151
164 142 150
164 142 150
164 142 150
164 142 150
164 142 150
164 141 150
165 142 151
166 142 151
167 143 151
167 142 151
168 143 151
168 143 151
169 144 151
170 144 151
171 145 152
171 145 152
172 146 153
173 147 153
173 147 153
172 146 153
172 146 152
172 145 152
171 145 151
171 145 151
171 144 151
171 145 151
170 144 150
169 144 151
169 143 151
169 143 151
169 143 151
168 143 151
169 143 152
169 144 153
169 144 153
169 144 153
168 144 153
168 144 153
167 143 152
166 142 152
165 141 151
164 141 151
164 141 151
162 140 150
162 140 150
161 139 150
161 139 150
161 139 150
160 139 150
160 139 150
160 139 150
182 155 152
200 168 153
200 168 153
201 168 152
201 168 152
201 169 152
201 169 151
201 169 151
201 169 150
202 169 150
202 170 151
202 170 151
202 170 151
203 171 151
203 171 151
203 172 152
203 172 151
203 171 151
202 171 151
202 170 151
201 170 151
201 169 151
201 169 151
201 169 151
200 169 152
200 168 151
199 168 151
198 166 151
197 165 150
196 165 150
195 164 149
194 163 149
194 163 150
194 163 150
193 163 150
192 164 153
191 173 174
197 180 181
184 164 166
160 139 143
126 105 116
105 77 97
113 89 102
102 74 91
98 70 83
92 67 81
96 66 87
101 67 85
91 63 86
89 52 73
115 92 109
103 76 91
100 75 93
109 90 99
96 81 91
101 86 100
89 82 95
94 98 105
61 93 72
58 104 73
48 106 63
67 113 82
69 112 83
73 113 88
61 108 74
68 108 84
70 102 99
80 85 118
74 64 128
91 75 138
105 88 128
134 124 127
142 148 152
157 149 155
167 156 162
154 147 141
144 140 131
148 136 133
147 141 142
132 128 135
156 149 160
150 143 161
136 133 144
130 134 130
138 140 141
118 120 131
124 115 139
125 104 140
129 108 135
119 103 121
102 95 94
89 90 77
118 112 127
130 122 146
144 133 176
149 135 176
150 136 178
150 136 178
148 134 172
153 140 175
151 140 160
146 139 149
145 138 145
169 158 162
181 167 173
152 137 155
117 100 133
84 59 112
77 47 114
75 47 114
72 41 108
69 38 104
58 30 96
56 27 93
54 23 94
51 20 91
50 19 90
51 20 90
52 19 91
49 18 86
51 23 90
51 29 95
152 131 141
170 132 154
196 138 173
201 135 176
201 136 182
193 131 180
193 131 181
192 131 180
198 134 180
198 134 179
201 135 180
200 132 170
171 111 146
127 72 110
94 37 89
99 38 96
93 38 108
96 39 113
90 37 108
89 41 121
82 42 134
63 48 151
59 50 155
58 51 156
59 50 155
54 55 161
46 53 152
43 57 151
38 69 127
41 72 109
51 86 93
68 95 86
60 95 73
53 93 70
54 96 73
49 91 68
53 97 75
51 94 72
51 94 74
47 88 69
44 82 67
39 73 62
39 73 64
34 65 57
83 89 84
131 126 122
184 168 170
205 188 200
201 184 203
190 175 200
181 168 196
173 162 191
169 158 183
149 139 164
137 128 149
124 116 132
98 94 115
83 83 101
60 65 90
70 75 97
73 77 95
71 73 94
75 79 98
78 82 95
75 78 88
77 81 91
99 100 108
114 112 118
117 117 119
125 124 124
129 126 130
124 121 129
124 121 126
140 136 142
141 137 143
112 112 124
109 107 127
90 90 113
88 87 120
99 83 133
108 77 141
131 71 159
155 99 175
180 153 187
177 162 176
181 167 176
198 182 179
194 179 163
151 143 147
129 122 135
104 107 126
77 90 111
94 103 128
67 84 110
76 90 117
65 83 106
78 92 114
97 95 126
129 95 150
135 80 150
138 104 154
136 119 145
135 125 134
140 134 143
131 127 138
127 124 132
131 126 134
168 156 178
168 158 184
147 150 165
135 141 150
116 112 120
118 98 115
105 75 101
99 66 113
89 44 108
86 45 108
85 45 111
87 43 111
77 41 104
79 44 115
71 46 109
58 51 106
53 60 110
69 78 93
88 95 91
105 107 108
118 113 123
107 106 106
81 87 90
68 79 78
60 76 67
68 82 68
72 87 59
71 85 54
73 85 51
79 86 50
88 90 52
103 92 51
91 85 49
90 80 46
101 80 44
84 62 34
75 60 42
96 83 78
103 96 86
123 118 117
131 127 127
139 132 137
129 114 115
113 89 83
97 70 55
121 96 86
168 150 145
213 193 191
208 187 189
218 196 193
229 205 200
235 209 204
229 204 199
232 206 202
227 202 196
233 207 200
233 206 202
235 208 202
230 204 198
230 204 197
234 207 201
229 203 196
232 205 199
232 205 199
232 205 199
232 205 199
233 206 199
234 206 199
231 204 197
228 201 195
231 203 197
229 201 195
232 204 198
232 204 198
231 203 197
232 204 197
230 202 196
230 200 196
234 205 200
229 201 195
225 199 193
226 199 193
230 202 195
228 201 193
230 201 195
230 203 195
225 199 191
229 201 194
230 201 193
228 199 190
226 196 188
168 140 132
105 70 61
107 73 63
104 74 62
100 70 58
108 80 67
113 81 68
113 82 70
151 128 133
162 141 150
162 141 150
162 141 150
162 141 150
162 141 150
162 141 150
162 141 150
163 140 150
163 140 150
163 141 151
163 141 151
163 141 151
163 141 151
163 141 151
163 141 151
163 141 151
163 141 151
163 141 151
163 142 151
163 142 151
163 142 151
163 142 151
163 142 151
163 141 150
164 141 150
164 141 150
164 141 150
165 142 151
166 142 151
166 142 150
167 142 150
167 142 150
168 143 151
169 143 151
169 144 151
170 144 152
170 145 152
171 145 152
171 145 153
172 146 152
171 145 152
171 145 152
171 145 151
171 144 151
170 144 151
171 145 151
170 144 151
170 144 151
170 144 151
170 143 151
169 143 151
169 143 151
169 143 152
169 144 153
170 145 153
169 144 153
169 144 153
169 144 153
168 144 152
167 143 152
166 142 152
165 142 151
164 141 151
163 141 150
162 140 150
161 140 150
161 139 150
161 139 150
160 139 150
160 139 150
160 139 150
173 148 151
199 167 153
201 168 153
201 168 152
201 168 152
201 169 151
201 169 151
201 169 150
201 169 150
202 169 151
202 170 151
202 170 151
203 171 151
203 171 151
203 171 152
203 172 152
203 172 152
202 171 151
202 171 151
201 170 151
201 169 151
200 169 151
200 168 151
200 169 151
199 168 151
199 167 151
198 167 151
197 166 150
197 165 150
196 164 150
194 163 149
194 163 149
193 163 150
193 163 150
193 162 150
193 162 150
186 158 149
115 96 95
89 67 72
104 86 92
120 106 112
133 123 130
139 130 137
145 132 140
145 138 138
120 110 122
95 85 105
83 66 101
60 45 92
77 59 98
83 67 103
81 67 101
87 71 103
81 61 93
77 65 86
83 70 94
87 78 102
72 75 85
72 82 86
65 78 85
55 85 71
70 93 86
60 94 79
69 104 82
72 111 85
66 90 85
65 97 88
64 79 105
71 79 111
67 68 116
103 93 129
108 96 110
144 149 150
132 128 132
131 118 123
116 112 109
103 109 93
115 115 105
115 115 115
113 115 113
143 133 155
134 127 140
129 126 129
118 125 121
109 111 126
89 81 121
108 88 137
140 114 160
170 138 178
155 125 156
143 119 130
123 112 123
131 118 131
142 127 151
147 129 152
150 133 164
149 132 153
147 132 162
155 136 158
154 138 161
141 131 142
134 125 134
150 142 157
150 144 145
174 163 169
151 140 151
117 104 133
82 63 116
73 57 114
74 51 114
68 45 109
65 39 102
56 27 94
60 28 101
52 22 91
50 20 90
52 19 91
54 20 94
48 18 86
50 20 89
45 34 80
49 39 88
166 130 152
180 130 155
193 130 164
199 132 170
206 139 180
208 139 180
209 139 179
201 136 176
203 136 175
203 137 176
197 133 169
195 130 166
173 114 145
143 89 124
120 63 115
94 39 112
95 38 110
96 39 116
93 38 113
85 42 135
80 43 143
73 46 152
65 49 152
64 49 153
56 49 150
61 47 144
59 50 147
44 56 149
39 63 116
58 81 105
66 91 105
58 94 81
59 99 77
59 97 75
52 94 72
55 101 77
55 102 78
55 101 76
52 96 74
50 93 75
47 88 70
47 87 70
40 76 68
34 65 59
89 100 92
162 151 145
208 190 190
215 197 202
214 196 207
205 189 204
206 189 205
201 186 202
192 177 192
170 157 173
144 135 151
108 103 121
96 94 113
76 78 97
73 75 97
75 79 98
85 89 104
81 84 102
81 84 98
72 78 99
88 91 104
97 98 103
92 94 103
98 100 104
126 125 125
127 125 126
118 118 120
115 113 115
123 122 122
138 134 139
128 124 129
132 127 144
119 116 136
94 93 121
88 84 120
108 80 139
138 72 164
155 100 176
169 142 183
166 153 180
171 156 184
182 168 187
206 188 181
196 179 159
150 143 144
124 123 139
102 111 129
81 97 121
82 94 120
62 84 110
63 83 102
82 95 117
63 82 104
75 80 107
114 85 130
125 78 133
125 102 135
148 134 153
135 128 141
134 129 132
139 135 143
105 106 106
132 126 132
142 135 151
172 159 190
168 159 182
136 140 148
121 130 134
124 113 123
126 101 134
96 46 99
92 46 112
92 41 103
92 46 94
84 48 108
81 43 106
77 47 115
73 46 120
67 52 116
47 52 119
52 58 99
66 80 76
103 106 102
115 116 114
106 109 112
97 105 98
81 94 85
69 83 69
69 85 63
68 82 55
68 80 48
81 91 53
93 97 54
101 97 53
108 100 55
107 90 48
112 92 49
109 95 50
109 81 41
90 63 33
87 66 47
107 94 93
133 124 128
124 121 123
124 124 127
130 126 127
105 98 92
101 85 83
104 77 63
156 140 132
193 178 175
215 194 192
226 204 202
220 198 194
225 201 197
224 201 199
232 207 204
231 206 202
234 209 203
234 208 204
232 207 202
231 206 201
232 206 200
233 207 202
231 205 201
226 201 195
229 203 197
230 204 199
226 201 197
231 205 201
229 202 198
231 204 199
233 206 201
229 202 197
227 200 196
230 202 198
231 203 199
233 206 200
230 202 196
228 199 194
228 199 195
227 200 195
231 204 197
228 201 195
229 201 196
232 204 198
228 200 194
229 200 194
227 200 192
231 202 193
231 202 193
233 203 194
232 202 192
222 191 182
140 106 92
121 84 68
127 89 76
116 78 63
130 95 81
111 74 55
115 84 72
149 126 130
162 141 149
162 141 149
162 141 150
162 141 150
162 141 150
162 141 150
162 141 150
162 141 150
163 141 150
163 141 151
163 141 151
163 141 151
163 141 151
163 141 151
163 141 151
163 141 151
163 141 151
163 141 151
163 141 151
163 142 151
163 142 151
163 142 151
163 142 151
163 141 151
163 141 151
163 141 151
164 141 151
164 141 151
164 141 151
165 141 150
165 141 150
166 141 150
166 142 150
167 142 150
167 142 151
168 143 151
169 143 151
170 144 152
170 144 152
170 145 152
170 145 152
171 145 152
170 144 151
170 144 151
170 144 151
171 144 151
170 144 151
170 144 151
170 144 151
170 144 151
170 144 151
169 143 151
169 143 152
169 144 152
170 144 153
170 145 153
170 145 153
169 144 153
169 144 153
168 144 153
167 144 152
166 143 152
165 142 151
164 141 151
163 141 150
162 140 150
162 140 150
161 139 150
161 139 150
161 139 150
161 139 150
160 139 150
168 145 151
196 165 153
201 168 153
201 168 152
201 169 152
201 169 151
201 169 151
201 169 151
202 169 151
202 169 151
202 170 151
202 170 151
203 171 151
203 171 152
203 172 152
203 172 152
203 172 152
203 171 152
202 170 151
201 169 151
200 169 151
200 168 151
200 168 151
200 168 151
199 168 151
199 167 151
198 166 151
196 165 150
196 165 150
195 163 149
194 163 149
193 162 149
193 162 150
192 162 150
192 162 150
192 162 150
193 162 151
180 151 141
93 66 65
90 69 73
117 103 109
135 124 129
148 139 145
145 138 140
143 135 142
127 121 131
88 82 109
65 59 102
65 57 105
62 54 104
77 68 113
56 44 102
71 58 99
60 39 94
69 46 101
62 37 89
74 53 95
55 19 87
56 24 89
67 41 88
70 49 88
65 52 85
75 68 90
89 83 107
96 96 110
84 94 97
82 89 97
79 93 98
59 77 89
59 80 90
74 84 101
88 82 118
106 100 125
125 112 119
118 109 110
95 100 87
87 95 84
84 94 79
90 95 88
100 105 103
129 123 135
140 134 138
127 127 126
116 114 123
88 88 114
111 91 145
145 114 170
178 141 192
179 142 190
179 143 176
156 128 151
140 119 130
139 121 127
145 126 130
145 125 123
142 123 121
145 125 123
145 125 123
148 129 133
144 127 136
142 126 138
131 120 128
139 132 137
134 134 138
150 146 152
120 121 131
109 108 127
66 80 112
65 78 111
61 76 107
63 76 111
65 55 109
56 39 97
55 23 96
53 21 91
50 18 88
47 17 85
52 19 92
51 20 89
45 26 80
42 40 75
41 55 72
162 130 149
175 121 144
188 124 154
197 130 162
196 131 161
191 128 158
204 136 169
201 134 166
196 131 166
195 130 161
193 129 162
184 124 153
177 119 146
142 92 124
111 60 110
96 37 110
93 37 105
93 38 118
93 39 119
86 39 126
76 42 140
72 45 148
65 44 144
59 48 146
57 43 136
58 43 138
60 48 140
57 56 144
81 81 132
80 88 121
87 99 122
86 107 109
76 102 103
68 101 90
62 101 86
56 101 83
54 99 77
56 103 78
55 100 77
56 102 79
55 101 81
51 94 73
43 79 68
55 81 73
102 108 102
165 154 151
211 191 186
226 204 202
221 201 202
218 199 202
217 198 202
213 194 196
195 178 183
170 156 163
126 113 130
107 101 116
93 92 108
69 73 90
69 74 99
78 83 99
83 87 100
74 79 104
82 86 102
79 84 99
86 90 101
93 95 104
114 113 122
115 116 120
128 125 129
126 125 127
132 130 132
124 123 126
132 128 133
129 126 133
130 126 133
108 108 113
122 118 140
92 93 121
94 89 129
115 68 140
143 94 167
161 132 176
169 153 182
163 150 183
176 161 190
193 176 178
194 177 158
167 154 140
130 125 128
112 116 132
78 92 113
78 94 119
68 87 111
75 91 115
62 84 108
61 81 102
71 87 110
88 91 122
98 76 114
110 68 126
135 112 140
150 137 153
143 139 150
139 132 145
127 124 133
123 121 128
134 129 135
143 136 150
163 150 180
173 160 188
147 140 156
138 123 126
180 109 120
175 99 114
109 66 106
94 51 93
95 45 94
90 53 105
86 53 107
81 48 101
71 55 109
72 56 115
57 45 110
53 48 113
55 64 116
74 80 95
102 107 105
121 123 116
114 120 106
105 113 106
87 99 80
80 97 67
76 92 56
74 90 55
80 93 54
96 101 56
107 107 60
113 102 55
110 101 55
110 104 55
115 98 51
112 90 47
110 82 41
100 72 37
101 73 54
104 88 80
116 104 104
122 121 119
131 128 133
129 127 133
128 124 132
112 103 101
100 81 70
136 118 113
184 175 175
221 201 199
220 199 197
223 202 199
225 203 199
227 204 201
230 207 206
229 205 202
230 207 203
231 206 202
231 207 203
228 204 200
230 206 202
226 202 197
232 206 202
229 204 201
229 204 201
226 202 198
232 207 203
232 206 203
232 206 203
226 202 197
227 201 198
225 200 195
228 202 197
226 198 194
229 202 198
230 204 200
226 200 196
228 202 197
228 201 197
224 198 194
226 200 193
228 202 196
229 201 196
233 205 199
231 202 195
231 203 194
234 205 195
234 204 195
236 206 195
236 205 194
233 203 192
233 203 193
222 191 181
148 108 95
131 91 77
136 93 80
131 89 70
140 102 87
149 122 123
162 141 149
162 141 149
162 141 149
162 141 149
162 141 150
162 141 150
162 141 150
162 141 150
162 141 150
163 141 151
163 141 151
163 140 151
163 141 151
163 141 151
163 141 152
163 141 151
163 141 152
163 141 151
163 141 151
163 141 151
163 141 151
163 141 151
163 141 151
163 141 151
163 141 151
163 141 151
163 141 151
163 141 151
163 141 151
164 141 151
164 141 150
165 141 150
165 141 150
165 141 150
166 141 150
167 142 151
167 142 151
168 143 151
168 143 151
168 143 151
169 144 151
169 144 152
169 143 151
169 144 151
169 144 151
170 144 151
170 144 151
171 144 151
170 144 151
171 145 152
170 144 151
170 144 152
170 144 152
170 143 152
170 144 152
170 144 153
170 144 153
170 145 153
170 145 153
169 144 153
169 144 153
168 144 152
166 143 152
165 142 151
165 142 151
164 141 150
163 141 150
162 140 150
162 140 150
161 140 150
161 139 150
161 139 150
161 139 150
161 139 150
190 160 152
201 169 153
201 169 152
201 169 152
201 169 151
201 169 151
202 169 151
202 169 151
202 170 151
202 170 151
202 170 151
203 171 152
203 171 152
203 172 152
203 172 152
203 172 152
202 171 152
202 171 152
201 169 151
200 168 151
200 168 151
199 167 151
199 167 151
199 167 151
198 166 151
197 166 151
196 165 150
195 164 150
194 163 150
193 163 150
193 162 150
193 162 150
192 162 150
192 162 150
192 162 150
192 162 151
192 162 151
171 144 135
86 63 63
102 89 95
116 108 108
120 118 115
138 131 135
131 126 130
118 112 129
110 100 117
69 63 98
53 45 101
58 50 99
65 56 101
62 50 100
68 52 100
57 32 94
61 36 91
66 42 90
61 32 91
73 49 90
63 29 84
67 39 92
66 41 87
72 50 93
76 61 98
91 79 106
76 75 84
94 95 107
71 81 82
62 79 79
73 89 94
56 81 81
69 77 103
104 89 129
150 136 149
158 146 150
137 133 134
91 101 90
82 98 80
70 88 64
95 99 101
114 114 119
98 100 98
115 117 110
114 111 122
97 84 131
98 72 144
135 103 168
162 127 179
187 149 196
178 143 186
176 142 175
159 129 142
150 125 123
144 124 116
144 122 109
148 127 108
148 126 104
146 125 100
145 122 105
154 130 109
147 125 117
144 124 118
132 120 106
139 131 124
122 132 126
118 130 127
111 130 132
110 127 134
82 106 122
59 89 112
63 83 116
59 86 113
51 71 101
55 59 105
51 52 93
51 26 91
47 17 86
50 18 87
49 18 89
45 21 81
47 35 82
38 59 65
31 63 55
135 116 127
165 112 135
168 110 137
170 113 137
176 118 141
165 113 135
170 115 138
183 124 149
177 119 143
178 120 145
161 107 135
178 119 148
169 114 143
148 95 130
105 54 121
94 39 117
93 39 127
96 40 132
94 40 131
88 42 141
80 42 142
70 43 141
71 45 150
62 42 138
58 39 132
66 43 143
62 49 141
74 64 147
95 86 146
105 99 151
111 111 148
105 113 140
92 109 124
90 109 119
71 100 99
65 102 92
57 101 79
58 105 82
52 95 75
59 107 84
52 95 74
51 95 75
58 93 79
77 100 92
121 120 119
151 142 142
173 159 154
198 179 174
196 178 173
198 181 174
196 180 176
189 173 167
183 166 166
155 139 147
137 122 134
90 82 102
66 72 93
65 72 98
75 80 99
82 85 105
84 88 111
77 82 103
85 89 104
83 88 104
87 90 103
96 98 112
98 100 107
114 113 118
120 118 122
120 120 122
131 128 135
130 127 129
127 124 127
136 132 137
131 127 132
124 122 128
118 115 132
98 97 122
106 87 136
134 112 156
164 139 183
161 148 179
164 151 183
158 145 182
184 167 184
184 167 164
170 154 139
130 120 118
135 127 140
115 117 132
95 105 123
70 87 111
58 79 100
60 83 107
72 87 107
67 82 102
60 79 100
69 81 100
99 78 117
126 97 137
123 110 122
145 136 151
136 131 138
131 126 131
121 117 123
133 128 143
135 129 144
137 130 149
167 155 180
164 151 185
147 138 164
174 107 119
187 105 118
190 107 118
171 103 116
112 74 111
91 61 94
84 57 107
80 71 105
76 70 108
73 62 108
69 59 104
65 69 119
50 63 117
43 55 112
54 64 101
85 91 94
105 115 101
108 117 101
105 113 101
75 88 76
75 91 65
75 92 59
82 98 58
94 104 57
104 103 56
111 108 57
111 108 58
114 103 54
106 102 53
111 100 53
113 101 52
111 81 41
113 79 39
97 65 39
99 69 49
111 94 91
112 107 110
126 124 125
131 129 140
138 134 144
125 119 126
114 104 108
127 115 114
188 173 173
208 192 192
224 202 202
226 205 204
228 205 205
228 205 204
228 206 203
231 207 204
230 207 205
229 206 203
225 202 199
229 205 203
230 206 202
227 204 200
230 206 203
231 206 203
227 203 202
231 206 205
229 205 202
232 207 203
226 202 199
230 205 201
231 206 204
228 203 198
228 202 196
230 203 199
228 201 196
230 203 198
230 203 198
229 202 195
233 207 199
231 203 197
230 202 196
231 204 197
235 207 198
233 204 195
232 204 192
233 205 192
236 206 195
235 204 195
234 204 194
232 202 193
233 204 195
232 203 195
233 202 194
210 180 171
158 121 110
133 93 79
126 84 67
149 119 120
162 141 150
162 141 149
162 141 149
162 141 150
162 141 150
162 141 150
162 141 150
162 141 150
162 141 150
162 141 151
163 141 151
163 140 151
163 140 151
163 141 151
163 141 152
163 141 152
163 141 152
163 141 152
163 141 152
162 141 151
162 141 151
162 141 151
163 141 151
162 141 151
163 141 152
163 141 152
163 141 152
163 141 152
163 141 151
163 141 151
163 141 151
164 141 151
164 140 150
164 141 150
165 141 150
165 141 150
165 141 150
166 141 150
167 142 151
168 143 151
167 143 151
167 143 151
168 143 151
168 143 151
168 143 151
168 143 151
169 143 151
170 144 151
170 144 152
171 145 152
171 145 152
171 145 152
170 144 152
170 144 152
170 144 152
170 144 153
170 144 153
170 145 153
170 145 153
170 145 153
169 145 153
169 144 153
168 144 152
167 143 152
166 143 151
165 142 151
164 142 151
163 141 150
163 140 150
162 140 150
162 140 150
161 139 150
161 139 150
161 139 150
161 139 150
175 150 151
201 168 153
201 169 152
201 169 152
202 169 152
202 169 151
202 169 151
202 170 151
202 170 151
202 170 151
203 171 151
203 171 152
203 172 152
203 172 152
203 172 152
203 171 152
202 171 152
201 170 152
200 169 151
200 168 151
199 167 151
199 167 151
198 167 151
198 166 151
198 166 151
197 165 151
196 164 150
195 163 150
194 163 150
193 162 150
193 162 150
192 162 150
192 162 150
192 162 150
192 162 150
192 162 151
192 162 151
192 162 151
166 139 131
105 88 92
112 100 103
140 131 137
142 135 142
135 128 131
135 127 139
108 98 127
91 83 113
62 55 101
53 45 99
63 54 98
69 59 96
76 62 100
73 58 95
84 63 106
72 49 92
58 27 89
56 26 83
54 14 79
61 23 87
58 30 85
65 41 87
75 57 98
88 77 107
91 85 104
84 86 98
75 84 89
65 81 85
64 85 85
59 75 92
101 93 129
165 150 174
190 175 187
155 148 154
101 111 93
79 95 73
92 102 86
102 109 96
114 113 119
123 120 117
105 106 104
114 110 119
109 97 129
105 79 144
110 77 157
151 115 179
172 135 190
185 147 195
179 144 183
157 127 143
154 125 122
136 114 93
144 120 98
136 115 86
139 116 88
145 122 91
140 119 90
141 119 89
146 123 97
140 118 97
138 119 96
135 121 104
134 127 117
118 134 131
110 133 127
113 142 144
99 132 131
71 119 120
75 112 125
56 108 117
51 102 114
44 103 109
45 85 105
48 66 101
50 53 98
52 34 92
49 18 87
54 20 95
50 28 88
44 43 77
33 60 55
26 69 44
126 103 109
139 97 117
136 93 111
139 95 116
159 108 131
149 100 125
151 104 126
154 105 127
149 102 128
147 101 122
142 97 119
153 105 129
147 100 129
117 75 114
88 44 110
91 39 123
84 35 114
89 37 124
90 42 141
89 44 131
82 45 135
78 41 145
72 41 139
76 41 149
64 40 137
79 65 143
82 61 145
94 82 155
104 87 153
116 104 158
117 110 157
118 115 155
103 108 143
96 110 131
93 115 126
81 108 112
60 105 89
60 105 84
57 104 80
55 100 79
56 103 80
58 102 83
68 102 88
82 103 96
72 93 85
127 123 120
141 133 129
165 151 143
154 144 136
152 142 133
144 136 126
156 144 138
159 145 142
121 111 119
95 87 107
77 71 105
65 71 93
78 82 100
75 79 104
79 84 101
76 80 105
81 86 111
85 89 104
93 96 107
93 98 109
97 99 109
96 98 107
120 117 124
118 117 116
122 120 123
133 131 134
131 129 128
128 125 127
123 121 121
128 124 129
136 131 142
135 130 145
121 116 133
131 117 152
161 145 180
177 160 194
167 152 187
163 150 189
160 147 182
149 137 153
165 151 138
135 123 122
131 122 130
130 123 132
123 122 133
84 95 114
71 88 108
62 82 100
77 93 116
66 83 104
52 70 88
64 79 96
90 93 112
106 96 118
130 114 133
129 121 129
130 123 131
143 135 143
136 130 138
143 135 143
142 134 146
143 135 158
142 129 160
149 133 160
159 129 152
183 117 134
186 105 118
187 105 118
191 107 118
192 108 118
172 100 114
106 81 100
90 71 92
90 69 88
82 67 98
87 78 98
76 75 111
61 63 100
53 63 117
45 62 119
61 72 92
103 105 110
108 113 102
114 120 106
99 107 94
94 105 87
82 98 65
85 102 64
88 100 57
96 100 55
102 105 57
115 109 57
115 109 59
109 106 55
117 106 56
118 108 57
110 96 50
109 92 48
105 78 38
107 73 35
98 65 44
103 82 71
132 121 129
120 120 124
125 123 130
128 126 133
119 122 123
127 124 131
129 119 113
162 151 147
193 183 182
216 197 199
215 196 197
224 203 203
223 202 201
228 206 205
232 209 206
228 205 204
230 207 206
230 207 205
230 207 205
226 203 201
230 207 205
226 203 201
230 206 204
229 205 203
230 206 203
229 205 202
228 204 200
232 207 203
230 204 201
230 205 201
229 204 198
232 206 200
236 208 202
235 207 199
233 206 198
231 203 194
237 207 199
237 208 198
234 206 195
234 205 197
234 205 196
234 205 196
235 205 197
236 207 197
235 207 195
234 205 196
233 205 196
229 202 195
229 202 198
230 203 199
224 198 194
230 202 199
229 201 199
217 190 189
164 130 123
148 120 121
162 141 150
162 141 151
162 141 150
162 141 150
162 141 150
162 141 150
162 141 150
162 141 150
162 141 150
162 141 151
162 140 151
162 140 151
163 140 151
163 140 152
163 140 152
163 140 152
163 140 152
163 140 152
163 140 152
162 141 152
162 141 152
162 141 151
162 141 152
162 141 152
163 141 152
163 141 152
163 141 152
163 141 152
163 141 152
163 141 152
163 141 151
163 141 151
163 140 151
164 140 150
164 140 150
164 140 150
164 140 150
165 141 150
165 141 150
165 141 150
166 142 151
166 142 151
166 142 151
167 142 151
167 142 151
168 143 151
168 143 151
168 143 151
169 144 151
170 144 152
171 145 152
171 145 152
171 145 152
171 145 153
171 145 153
171 145 153
171 145 153
171 145 153
171 145 153
171 145 154
170 145 153
169 144 153
169 144 153
168 144 152
168 144 152
166 143 152
166 143 151
165 142 151
164 141 150
163 141 150
162 140 150
162 140 150
162 140 150
161 139 150
161 139 150
161 139 150
167 143 151
199 167 152
201 169 152
201 169 152
202 169 151
202 169 151
202 169 151
202 170 151
202 170 151
202 170 151
203 171 152
203 171 152
203 171 152
203 172 152
203 171 152
202 171 152
201 170 152
201 169 152
200 168 151
199 168 151
199 167 151
198 167 151
198 166 151
198 166 151
197 165 151
196 164 150
195 164 150
194 163 150
193 162 150
193 162 150
192 162 150
192 161 150
192 161 150
192 162 150
192 162 150
192 162 151
192 162 151
192 162 151
192 162 151
171 143 136
118 106 117
135 129 140
134 130 135
140 135 141
133 129 131
108 105 117
108 101 122
74 66 104
58 50 96
58 51 90
64 51 100
64 50 95
73 52 101
68 47 90
70 41 96
60 27 93
63 33 91
63 32 90
66 37 92
59 32 90
54 23 82
70 45 94
88 78 103
95 92 104
91 92 103
79 90 91
47 66 65
64 80 94
72 75 102
147 133 159
190 174 190
183 172 180
150 143 149
96 108 84
79 99 58
91 103 84
115 120 113
129 127 130
133 128 137
136 124 150
101 87 133
85 57 135
110 78 152
132 98 166
155 119 179
175 139 190
177 142 184
170 137 171
141 118 127
143 119 108
134 113 86
135 114 85
137 116 86
139 117 88
141 119 90
137 116 85
137 116 88
135 115 88
138 117 88
139 118 92
129 118 94
118 127 116
112 138 131
94 142 134
101 141 138
89 142 137
80 132 128
69 131 126
48 122 115
43 115 110
34 116 111
35 115 114
46 83 106
49 71 102
52 42 96
47 17 84
52 19 91
42 32 76
41 47 74
28 64 51
17 68 27
126 102 110
129 93 108
125 83 102
126 88 110
124 85 103
141 97 120
154 103 129
154 105 135
144 99 126
134 94 113
139 94 116
130 90 113
128 87 112
116 71 119
90 46 109
86 37 123
85 37 131
88 38 129
92 41 139
87 44 140
79 48 137
85 47 145
72 41 139
77 49 139
73 54 149
88 66 150
85 63 148
101 82 153
106 88 153
117 104 156
115 106 159
109 108 148
109 117 144
99 114 132
93 111 128
76 107 107
74 109 104
65 101 92
55 102 81
57 104 83
56 103 81
56 99 81
74 107 94
86 111 100
95 115 110
97 111 100
96 104 98
131 129 124
142 133 132
129 124 120
130 126 123
133 127 128
130 125 128
111 105 112
83 79 99
63 61 98
65 70 96
70 74 100
79 83 103
86 88 114
86 89 116
87 89 114
91 93 116
92 94 122
93 94 110
96 99 115
102 103 118
113 113 115
124 122 127
125 124 125
131 129 132
132 130 134
124 123 124
140 136 141
136 131 139
135 129 136
133 130 140
130 126 140
152 143 167
172 157 188
165 151 188
165 152 196
160 147 188
155 146 176
110 109 125
114 111 121
137 128 140
150 139 154
151 142 157
139 134 146
97 106 121
72 87 106
74 86 107
76 86 106
71 85 102
71 81 97
60 76 93
88 91 111
110 103 117
124 115 125
123 117 120
130 123 128
134 128 135
137 127 139
128 123 125
139 128 137
134 116 129
132 104 121
135 103 115
183 106 121
187 105 118
186 105 118
188 106 118
193 108 118
193 108 118
195 109 118
178 104 115
96 95 110
85 83 91
82 82 97
80 72 92
70 74 102
54 75 104
47 80 114
52 70 109
78 84 114
105 106 115
108 113 108
119 120 115
99 110 90
98 108 86
96 108 83
80 97 57
92 100 56
91 105 58
106 112 59
111 110 59
106 109 58
105 103 55
104 104 56
112 105 56
103 98 50
108 93 47
115 83 40
108 71 33
103 68 39
96 72 59
104 94 95
114 113 112
119 116 119
116 113 118
118 114 119
130 125 133
138 128 135
165 154 153
194 181 180
214 196 196
219 200 199
223 203 202
225 205 203
226 205 204
229 207 207
229 206 202
233 209 207
231 208 205
229 205 201
227 203 199
233 208 203
232 207 204
228 203 201
233 207 204
236 209 205
234 208 203
234 208 200
235 209 202
235 209 202
232 206 197
229 203 194
234 207 200
234 206 199
233 204 198
236 207 200
237 209 199
233 204 195
236 207 197
236 208 197
234 207 198
234 206 197
234 206 199
234 206 201
229 201 200
228 201 199
224 198 196
225 199 197
227 201 201
221 197 196
223 198 198
227 203 201
221 197 196
222 196 197
223 196 198
188 164 169
162 141 151
162 141 151
162 141 151
162 141 150
162 141 150
162 141 150
162 141 150
162 141 150
162 141 150
162 141 151
162 141 151
162 140 151
162 140 151
163 140 152
163 140 152
163 140 152
163 140 152
163 140 152
163 140 152
163 140 152
162 140 152
162 140 152
162 141 152
162 141 152
162 141 152
162 141 152
163 141 152
163 141 152
163 141 152
163 141 152
163 141 152
163 141 152
163 141 151
163 140 151
163 140 151
164 140 150
164 140 150
164 140 150
164 140 150
164 141 150
165 141 150
165 141 150
166 141 150
166 142 150
166 142 150
166 142 150
167 142 151
167 143 151
168 143 151
168 143 151
169 144 152
170 145 152
171 145 153
171 145 153
172 146 153
172 145 154
172 146 154
172 145 154
171 145 154
171 145 154
171 145 154
170 145 153
169 144 153
169 144 153
168 144 153
168 144 152
167 143 152
166 143 151
166 143 151
164 142 151
163 141 150
163 141 150
162 140 150
162 140 150
162 140 150
162 139 150
162 139 150
161 139 150
192 162 152
201 169 152
201 169 151
202 169 151
202 169 151
202 170 151
202 170 151
202 170 151
202 170 151
203 171 152
203 171 152
203 171 152
203 171 153
202 171 152
202 170 152
201 170 152
201 169 152
199 168 151
199 167 151
198 166 151
198 166 151
197 165 151
197 165 151
197 165 151
196 164 151
194 163 150
194 162 150
193 162 150
192 161 150
192 162 150
192 161 150
192 161 150
192 162 150
192 162 151
192 162 151
192 162 151
192 162 151
192 162 150
192 162 150
173 148 146
119 111 123
145 138 146
133 127 134
148 141 149
127 120 135
104 97 118
94 89 116
78 71 102
67 58 103
66 54 102
77 61 102
66 41 103
73 47 103
75 50 103
65 38 97
75 49 103
75 46 103
59 27 88
69 43 101
60 28 87
66 45 90
68 46 94
85 79 100
82 84 98
82 88 94
75 88 88
58 70 84
75 77 106
164 151 167
205 189 199
152 147 150
112 116 114
90 109 70
79 97 59
99 107 90
107 109 108
119 116 124
141 130 155
114 99 147
83 57 131
91 60 141
108 76 149
118 85 153
137 105 162
157 125 166
161 130 163
149 121 135
142 117 112
133 114 84
127 109 82
128 111 82
133 114 84
137 116 84
127 110 82
137 116 85
132 112 85
135 116 85
138 117 86
128 112 86
127 122 101
113 133 118
105 136 133
92 136 128
81 133 128
70 139 126
49 134 116
31 136 118
40 131 120
51 134 123
29 126 113
29 122 112
40 97 107
45 76 101
44 56 91
53 40 99
54 20 96
44 30 79
36 54 62
22 66 37
18 70 30
123 103 110
129 97 111
124 85 104
133 88 108
131 90 111
128 88 107
153 103 136
150 101 133
152 101 132
126 86 105
129 89 113
134 90 117
123 82 111
107 65 113
93 46 126
88 38 129
90 39 140
86 38 135
89 54 142
92 55 146
88 51 144
83 54 146
87 55 145
79 49 143
87 64 140
89 61 149
91 66 149
102 84 150
106 89 153
101 88 144
113 105 153
103 105 142
95 109 129
93 110 127
82 114 112
87 112 115
77 109 108
69 107 94
62 107 89
56 102 81
58 105 83
55 100 80
67 104 87
85 111 103
96 118 108
89 109 98
112 121 116
128 129 131
133 128 126
139 132 133
126 123 121
157 146 154
140 132 142
102 101 108
76 79 95
70 71 101
72 74 99
82 84 110
81 80 109
84 86 119
88 89 116
91 93 118
94 94 119
90 91 113
97 100 118
97 99 119
92 94 107
111 111 124
121 120 124
122 121 124
127 125 128
123 122 125
127 125 130
126 122 126
146 140 151
137 131 140
143 135 146
150 140 159
161 149 181
167 154 194
162 148 187
155 142 181
150 139 175
115 117 146
88 99 116
137 133 145
175 162 174
186 169 184
161 152 164
130 126 134
97 100 113
78 89 109
59 77 99
66 81 99
63 77 95
69 81 97
76 84 101
64 77 94
100 98 111
113 106 115
136 125 134
137 127 138
134 124 133
126 117 127
132 123 133
132 121 127
150 126 127
141 101 108
168 96 109
187 105 118
185 104 118
187 105 118
188 106 118
192 108 118
193 108 118
192 108 118
194 109 118
171 105 116
107 96 103
87 79 92
71 83 98
73 84 95
70 88 107
55 70 100
55 79 109
85 102 117
114 119 130
103 111 101
97 105 90
94 107 79
96 108 82
99 108 87
88 105 61
85 100 55
105 110 58
104 111 60
109 121 65
102 113 60
105 106 56
106 105 55
103 104 54
102 110 58
107 96 49
113 80 38
110 73 35
102 65 30
97 69 51
105 90 80
119 111 117
131 126 131
132 127 139
133 125 133
128 121 128
125 120 127
145 136 134
181 171 168
209 193 194
219 201 201
223 205 204
220 205 199
227 206 204
230 208 206
234 211 205
238 213 206
232 209 200
233 209 200
237 212 205
234 209 200
236 210 201
238 212 204
234 209 201
237 210 203
235 209 204
238 211 204
236 209 202
234 207 200
231 205 198
235 208 203
230 204 201
234 207 201
231 205 201
232 206 202
230 204 199
229 203 199
228 201 198
227 201 196
227 202 198
223 198 196
224 199 198
227 202 201
226 201 201
228 202 203
224 200 200
223 199 200
222 198 203
226 202 204
226 201 201
225 200 199
223 198 197
226 200 200
205 180 183
163 142 152
162 141 152
162 141 151
162 141 151
162 141 151
162 141 150
162 141 151
162 141 150
162 141 150
162 141 151
162 141 151
162 140 151
162 140 151
162 140 152
162 140 152
163 140 152
163 140 153
163 140 153
163 140 153
163 140 152
162 140 152
162 140 152
162 140 152
162 141 152
162 141 152
162 141 152
162 141 152
163 141 152
163 141 152
163 141 152
163 141 152
163 141 152
163 141 152
163 141 151
163 141 151
163 140 151
163 140 151
163 140 150
164 140 150
164 140 150
164 140 150
164 141 150
164 141 150
165 141 150
165 141 150
166 141 150
165 141 150
166 142 151
167 142 151
167 142 151
168 143 151
169 144 152
170 144 152
171 145 153
171 146 153
172 146 154
172 146 154
172 146 154
172 146 154
172 146 154
172 146 154
171 145 154
170 145 154
169 144 153
169 144 153
168 144 153
168 144 152
167 143 152
167 143 152
166 143 151
165 142 151
164 141 151
163 141 150
163 140 150
162 140 150
162 140 150
162 140 150
162 140 150
162 139 151
183 155 151
201 169 152
201 169 151
201 169 151
201 169 151
202 169 151
202 170 151
202 170 151
203 171 152
203 171 152
203 171 152
203 171 153
203 171 153
202 171 153
202 170 152
200 169 152
200 168 152
199 167 151
198 166 151
197 166 151
197 165 151
197 165 151
197 165 151
195 164 151
195 163 151
194 163 150
193 162 150
192 162 150
192 161 150
192 161 150
192 161 150
192 161 150
192 162 150
192 162 150
192 162 151
192 162 150
192 162 150
192 162 150
192 162 150
192 162 150
168 143 143
141 129 144
143 133 148
138 131 137
137 129 140
129 123 135
106 98 121
87 80 106
75 70 98
70 59 97
61 45 93
70 47 106
59 31 90
62 30 106
69 45 104
75 52 105
64 36 100
65 34 101
64 38 96
58 28 91
56 16 87
89 73 110
92 94 100
91 96 106
86 94 97
66 79 87
62 67 81
101 95 117
177 164 171
186 174 177
120 125 118
111 118 106
90 101 80
91 103 73
76 86 72
97 95 112
109 100 135
120 102 155
98 71 148
91 56 150
96 63 148
90 59 139
90 59 137
104 80 125
136 108 148
150 120 143
136 113 124
124 108 87
119 102 77
123 106 77
123 108 78
127 108 79
134 115 83
135 113 84
135 115 83
144 121 89
130 110 82
132 115 82
129 120 91
117 118 96
102 127 111
82 131 123
56 137 122
35 135 118
34 140 122
29 140 123
35 138 121
43 143 126
43 138 123
26 136 122
26 138 122
33 119 112
38 98 104
43 74 98
47 57 94
47 18 84
44 34 77
34 53 59
19 66 33
15 69 24
108 96 91
114 95 100
129 93 113
118 83 101
124 82 104
144 94 122
152 101 128
151 99 127
136 92 113
128 87 106
124 85 105
120 81 108
97 66 85
91 54 100
77 37 111
82 38 122
90 51 137
84 46 137
89 47 145
89 55 146
97 63 148
84 51 140
80 46 139
86 54 144
87 51 147
91 61 152
87 60 145
91 68 145
98 79 150
100 87 148
102 92 143
101 99 141
94 103 130
88 102 123
85 112 115
86 112 114
85 111 113
66 107 94
63 108 88
62 107 90
59 107 88
60 103 83
68 108 90
80 111 100
92 120 110
98 117 112
118 123 122
145 139 145
150 141 143
129 126 120
135 130 127
138 132 132
120 117 119
104 105 104
80 81 106
71 71 103
64 67 105
81 83 113
91 92 112
89 89 118
91 92 114
88 89 124
95 96 121
92 93 120
100 100 122
92 94 113
96 97 113
93 94 114
114 114 119
123 122 126
119 119 118
121 120 122
123 122 127
127 124 126
134 128 134
146 138 150
143 135 147
159 147 173
160 145 184
158 143 182
163 148 187
156 143 184
136 130 162
88 95 115
121 119 132
203 182 184
215 193 198
194 177 190
156 145 159
153 144 158
130 122 138
85 93 114
66 80 100
71 79 96
76 85 104
57 70 87
67 74 85
82 89 108
103 99 111
121 109 123
122 111 120
129 118 132
127 117 129
123 114 124
137 128 141
135 125 128
174 148 148
180 108 119
186 105 118
186 105 118
187 105 118
188 106 118
185 104 118
189 106 118
192 108 118
193 108 118
192 108 118
195 109 118
176 110 117
90 92 96
83 91 93
71 92 94
67 95 97
55 83 108
55 89 113
92 104 122
126 124 137
119 120 121
114 118 108
93 109 76
101 117 79
97 112 79
90 104 62
89 104 58
94 106 55
101 115 62
93 104 56
100 107 58
98 112 58
100 109 58
104 111 58
103 104 55
104 95 48
112 88 43
109 73 34
105 71 34
96 69 47
109 93 85
110 102 97
115 109 111
121 116 122
131 124 127
128 121 124
126 121 124
133 124 129
159 153 150
197 183 184
213 196 197
218 201 196
227 210 200
228 209 200
228 207 200
236 213 208
238 214 208
240 215 208
234 210 202
239 213 204
238 212 205
238 211 204
236 210 202
233 208 199
231 207 199
233 208 202
232 207 202
233 207 204
233 207 204
233 208 204
232 207 203
232 206 203
227 201 198
229 203 201
225 200 201
228 204 203
224 200 202
225 200 202
226 202 203
224 200 200
224 201 202
224 201 203
222 199 202
224 201 203
223 199 204
225 201 203
222 198 197
227 203 202
226 202 202
225 201 201
230 205 201
228 202 198
201 177 178
164 142 153
162 141 152
162 141 152
162 141 152
162 141 151
162 141 151
162 141 151
162 141 151
162 141 151
162 141 151
162 141 151
162 141 151
162 140 152
162 140 152
162 140 152
162 140 153
162 140 153
162 140 153
162 140 153
163 140 153
162 140 152
162 140 152
162 140 152
162 140 152
162 141 152
162 141 152
162 141 152
162 141 152
162 141 152
163 141 152
163 141 152
163 141 152
163 141 152
163 141 152
163 141 152
163 141 151
163 140 151
163 140 151
163 140 151
163 140 151
163 141 151
164 141 151
164 141 150
164 141 150
164 141 150
165 141 150
165 141 150
165 141 150
165 142 150
166 142 151
167 142 151
167 143 151
169 144 152
169 144 152
170 145 153
170 145 153
171 146 154
172 146 154
172 146 155
173 146 155
172 146 154
172 145 154
171 145 154
170 144 153
170 144 153
169 144 153
168 144 153
168 144 152
168 144 152
167 143 152
166 143 151
166 143 151
165 142 151
164 141 151
163 141 150
163 140 150
163 140 150
162 140 150
162 140 150
162 139 150
172 147 151
198 166 151
201 169 151
201 169 151
202 169 151
202 169 151
202 170 151
202 170 152
202 170 152
203 171 152
203 171 152
203 171 153
203 171 153
202 170 153
201 170 152
200 169 152
199 168 152
198 167 151
197 166 151
197 165 151
197 165 151
196 164 151
195 164 151
195 163 151
194 163 150
193 162 150
193 162 150
192 161 150
192 161 150
192 161 150
191 161 150
192 161 150
192 162 150
192 162 150
192 162 150
192 162 150
192 162 150
192 162 150
192 162 150
192 162 150
192 162 149
175 153 156
145 134 152
151 139 155
146 138 155
138 130 142
124 118 132
126 117 138
83 81 106
69 61 96
77 66 107
62 38 99
63 44 100
72 52 110
80 60 114
71 48 113
74 51 108
69 46 106
72 49 100
75 57 104
58 55 79
73 82 90
80 97 81
84 104 83
79 102 81
76 91 87
88 88 102
145 135 141
173 164 162
132 130 129
111 117 111
117 119 122
94 101 85
73 81 76
74 74 88
88 84 113
85 67 133
84 54 143
76 35 138
81 50 139
82 53 138
84 52 138
100 73 138
98 74 126
118 93 122
121 99 106
120 100 88
127 109 82
119 102 74
127 109 79
117 103 73
128 111 80
128 109 81
129 110 80
132 113 84
131 111 82
124 108 77
128 112 82
120 115 90
98 126 101
65 129 113
64 133 116
33 131 113
36 139 123
17 138 120
17 137 121
17 136 116
26 145 124
20 141 121
20 139 120
21 147 126
25 131 116
31 121 116
34 108 108
43 57 88
48 30 88
41 31 72
26 55 47
15 59 26
15 66 23
117 106 111
118 103 103
123 99 111
111 84 89
114 81 96
115 80 96
114 77 89
123 84 101
118 80 96
108 78 93
107 81 86
102 74 86
87 67 84
85 59 100
78 41 122
87 50 135
84 41 134
89 51 143
89 53 148
94 57 153
84 42 145
86 48 148
80 42 146
79 47 142
82 46 146
76 45 140
80 55 140
87 65 142
94 74 143
98 81 145
98 88 143
95 102 136
86 92 127
81 99 117
74 99 103
80 110 107
71 111 103
65 105 96
63 108 91
59 107 86
57 102 83
59 107 85
58 103 81
78 105 92
78 112 98
97 119 110
109 120 114
134 134 132
137 131 129
115 114 101
108 109 91
97 102 83
94 98 86
82 88 82
56 62 77
58 60 98
70 71 109
73 73 115
98 97 122
97 97 116
101 100 118
93 94 117
97 98 117
101 101 121
101 101 120
101 102 121
95 97 120
101 103 118
106 106 120
114 114 118
116 117 119
125 125 123
113 112 118
125 120 128
127 122 128
138 129 138
162 148 164
182 164 182
191 173 191
197 177 190
182 164 187
181 165 184
147 137 155
121 115 123
150 137 150
217 194 198
213 191 198
185 168 180
155 144 153
141 132 140
125 121 135
98 99 111
71 81 94
77 84 102
83 86 100
71 79 92
74 79 91
80 83 96
116 110 124
125 116 124
125 118 125
144 132 145
130 121 127
123 115 117
115 105 111
129 118 122
182 115 129
189 106 118
188 105 118
185 104 118
187 105 118
188 106 118
188 105 118
189 106 118
196 110 118
193 108 118
193 108 118
194 109 118
192 108 118
178 106 115
93 95 97
67 100 100
69 89 97
53 83 96
56 90 102
89 109 112
94 110 108
102 113 101
105 113 94
98 110 85
87 101 70
95 111 76
87 107 56
94 109 61
87 104 58
89 109 59
93 107 56
93 112 60
87 101 54
97 109 58
102 109 58
88 96 52
100 89 44
110 85 43
102 70 34
98 68 35
88 63 32
103 89 86
107 100 97
115 108 110
127 119 120
109 104 102
105 101 98
126 118 121
116 110 103
145 137 134
197 186 190
210 195 196
218 202 197
225 207 201
219 204 195
224 205 200
230 208 206
236 212 209
235 211 209
229 206 201
233 209 204
230 207 198
232 208 200
234 210 203
232 208 203
234 209 205
234 209 204
232 206 202
230 204 200
230 206 203
232 207 204
230 206 203
230 206 204
227 203 202
225 201 201
225 200 202
224 200 201
227 203 204
224 199 200
227 203 204
224 200 201
224 200 202
223 200 204
226 202 203
225 201 202
226 201 205
224 200 200
228 203 200
228 203 198
228 202 196
230 204 199
235 207 201
207 181 181
166 144 155
163 141 152
163 141 152
163 141 152
162 141 152
162 141 152
162 141 151
162 141 151
162 141 151
162 141 151
162 141 151
162 141 151
162 141 152
162 140 152
162 140 152
162 140 153
162 140 153
162 140 153
162 140 153
162 140 153
162 140 153
162 140 152
162 140 152
162 140 152
162 140 152
162 141 152
162 141 152
162 141 152
162 141 152
162 141 152
162 141 152
162 141 152
163 141 152
162 141 152
162 141 152
162 141 152
163 141 151
163 141 151
163 140 151
163 140 151
163 141 151
163 141 151
164 141 151
164 141 151
164 141 151
164 141 151
164 141 151
164 141 151
165 141 150
165 141 150
165 141 150
166 142 151
167 143 151
168 143 152
169 144 152
169 144 152
170 145 153
171 145 154
171 145 154
171 145 154
172 146 155
172 145 154
171 145 154
170 144 153
169 144 153
169 144 153
169 144 153
168 144 153
168 144 153
168 144 153
168 144 152
167 143 152
166 143 151
165 142 151
164 142 151
164 141 151
163 140 150
163 140 150
163 140 150
162 140 150
162 140 151
166 143 151
194 163 151
201 168 151
201 169 151
201 169 151
202 169 151
202 170 152
202 170 152
202 170 152
203 171 152
202 171 153
203 171 153
202 171 153
202 170 153
200 169 152
200 168 152
198 167 151
198 166 151
197 165 151
196 164 151
196 164 151
195 164 151
194 163 151
194 162 151
194 162 150
193 161 150
192 161 150
192 161 150
191 161 150
191 161 150
191 161 150
191 161 150
191 161 150
191 162 151
191 162 150
191 162 150
191 162 150
191 162 150
191 162 150
192 162 149
192 162 149
191 161 149
176 155 163
174 161 176
168 158 175
151 141 161
154 144 165
140 130 153
115 112 132
70 74 88
75 73 96
66 63 96
68 64 94
74 70 98
93 85 116
144 129 158
151 134 162
149 132 159
146 130 158
141 127 152
136 127 142
127 126 131
131 139 125
136 142 130
131 136 130
114 115 123
122 113 130
154 146 144
139 136 126
95 105 84
99 108 94
115 117 120
111 109 114
78 80 91
64 61 98
75 59 114
72 39 131
71 29 135
80 39 149
82 46 146
92 62 147
104 80 149
97 74 135
97 77 120
123 97 125
128 105 113
114 97 83
119 103 73
118 102 74
118 104 74
115 100 73
127 109 80
134 114 81
129 110 78
128 110 80
122 104 77
137 116 83
129 114 84
111 119 93
66 120 103
57 131 113
30 136 118
16 130 115
16 135 116
16 133 118
17 137 117
17 140 116
17 143 122
18 143 123
17 139 117
18 136 113
20 134 115
23 126 113
36 106 106
46 66 95
43 39 80
36 28 65
28 54 48
17 61 29
14 64 22
111 96 97
98 87 78
115 97 101
112 88 93
112 88 99
92 71 71
97 74 80
88 72 76
103 81 89
90 75 80
103 87 93
97 78 88
89 76 79
93 75 113
93 65 129
85 44 137
92 49 142
88 51 145
87 45 151
83 42 144
82 41 147
81 40 147
80 43 144
78 42 144
75 40 138
81 48 145
82 52 143
74 48 133
86 66 142
94 73 144
91 81 135
88 86 133
78 92 119
74 97 110
71 101 103
67 107 95
56 98 83
65 111 95
61 103 87
59 106 87
56 103 81
60 109 89
71 112 92
64 100 86
83 110 98
73 104 94
111 124 120
134 134 129
132 127 123
103 105 89
86 91 68
80 89 53
77 83 66
50 61 68
48 56 82
49 50 98
81 79 112
102 97 120
120 115 131
105 104 119
116 114 121
120 116 124
116 114 124
115 112 122
112 112 123
102 102 115
103 103 120
99 100 119
104 105 111
108 110 120
111 111 113
117 113 120
119 115 121
126 122 131
118 115 120
142 133 147
152 141 152
184 166 174
200 179 183
214 191 190
201 180 180
193 174 178
180 163 161
142 132 133
139 127 131
166 151 157
172 158 168
161 148 152
127 117 112
118 112 116
106 104 105
99 100 113
79 86 98
75 83 97
68 83 99
80 88 105
84 87 100
78 81 90
93 95 108
110 98 108
116 103 120
110 101 98
107 99 90
104 96 82
100 86 77
166 103 110
188 105 118
185 104 118
189 106 118
188 106 118
187 105 118
186 105 118
187 105 118
188 106 118
194 109 118
192 108 118
195 109 118
192 108 118
191 107 118
194 109 118
177 105 113
104 105 105
61 102 105
54 101 100
68 102 109
94 117 118
98 115 119
100 109 104
98 108 86
89 103 73
90 109 64
87 103 63
86 105 58
83 104 55
90 109 59
87 106 57
87 105 56
89 109 59
92 110 59
94 111 59
91 97 52
99 101 53
109 95 49
112 91 50
112 83 55
89 66 34
95 73 49
100 84 71
101 95 85
112 105 97
113 106 103
100 94 84
108 101 97
114 108 108
108 102 96
127 119 117
175 163 165
189 176 177
214 197 199
216 200 200
223 206 205
220 203 202
225 206 206
226 204 205
231 209 207
229 207 205
228 205 204
227 205 201
229 206 204
228 206 204
226 203 201
229 206 206
226 203 204
224 203 202
230 207 205
225 203 202
231 207 206
228 204 204
230 206 205
228 204 202
229 204 203
227 203 203
228 204 205
225 202 203
228 205 206
227 203 203
226 201 200
228 204 203
227 203 202
228 204 200
231 206 202
231 205 202
232 206 203
234 207 203
225 200 194
231 205 201
226 201 199
208 184 186
165 143 154
163 141 152
163 141 152
163 141 152
163 141 152
163 141 152
162 141 152
162 141 151
162 141 152
162 141 152
162 141 152
162 141 152
162 141 152
162 141 152
162 141 152
162 140 153
162 140 153
162 140 153
162 140 153
162 140 153
162 140 153
162 140 152
162 140 152
162 140 152
162 140 152
162 140 152
162 141 152
162 141 152
162 141 152
162 141 152
162 141 152
162 141 152
162 141 152
163 141 152
162 141 152
162 141 152
162 141 152
162 141 152
163 141 151
163 141 151
163 141 151
163 141 151
163 141 151
163 141 151
163 141 151
163 141 151
164 141 151
164 141 151
164 141 150
164 141 150
164 141 150
165 141 150
166 142 151
166 142 151
167 143 151
168 144 152
168 143 152
169 144 153
169 144 153
170 145 154
171 145 154
171 145 154
171 145 154
171 145 153
170 144 153
169 143 153
168 143 152
168 143 152
168 143 153
168 144 153
168 144 153
168 144 153
167 144 152
166 143 152
165 143 151
164 142 151
164 141 151
163 141 150
163 141 150
163 140 150
162 140 150
162 140 151
163 140 151
187 158 151
201 168 151
201 169 151
201 169 151
201 169 151
202 169 152
202 170 152
203 171 152
203 171 153
202 171 153
202 171 153
202 170 153
201 170 153
200 168 152
199 168 152
198 167 151
197 166 151
196 165 151
196 164 151
195 163 150
194 163 151
194 163 151
193 162 151
193 161 150
192 161 150
192 161 150
191 161 150
191 161 150
191 161 150
191 161 150
191 161 150
191 161 151
191 161 150
191 162 150
191 162 150
191 162 150
191 162 150
191 162 150
191 162 149
183 154 143
159 132 126
141 119 122
162 151 173
152 145 164
159 149 170
158 146 166
148 138 164
131 121 147
89 89 108
78 83 94
68 71 91
72 76 90
69 73 95
102 97 122
152 141 162
180 164 184
188 171 192
186 170 187
192 175 188
191 174 188
190 176 187
213 196 203
215 199 203
176 164 174
139 129 146
140 132 137
149 144 141
109 115 100
81 95 65
107 108 105
114 109 127
82 78 104
85 81 113
69 55 115
74 32 144
69 26 134
72 27 139
74 27 142
75 35 141
88 57 148
93 72 136
100 78 136
109 91 122
118 99 118
135 111 121
121 103 91
116 98 78
118 104 76
113 97 70
116 103 74
128 113 80
113 100 73
129 110 81
121 107 75
129 110 79
132 113 84
114 109 83
92 110 89
57 126 107
17 128 111
15 124 113
16 133 116
17 139 118
16 133 116
17 144 120
16 136 117
17 136 117
16 133 115
17 137 117
17 138 116
17 141 118
21 134 115
31 109 104
34 88 93
39 25 74
38 30 69
30 49 54
22 54 37
16 62 24
104 88 84
113 96 98
107 91 89
102 87 85
107 90 95
106 91 95
108 94 106
91 81 84
98 89 93
104 91 96
98 89 89
95 89 90
87 84 81
106 89 120
104 76 140
92 55 139
86 40 145
81 40 141
80 38 141
75 38 137
73 38 135
81 40 141
79 40 141
75 39 140
72 39 137
74 39 139
67 40 130
73 43 135
70 48 128
78 56 135
91 78 136
85 84 126
66 84 108
59 84 96
58 93 89
58 102 85
60 103 88
60 107 85
59 107 87
57 104 84
58 106 85
58 105 86
59 104 86
63 106 86
69 106 89
79 107 98
97 118 105
124 124 129
127 124 123
121 117 118
109 109 100
104 104 97
97 96 92
62 69 85
39 45 85
73 69 112
120 111 128
131 122 132
129 120 130
128 121 128
131 127 128
122 120 122
118 116 117
121 119 122
120 118 122
105 105 110
103 103 118
98 98 114
99 101 113
104 105 111
100 101 112
107 107 111
110 109 116
118 113 122
110 108 112
137 128 140
123 116 126
146 133 148
159 144 152
189 169 174
202 182 180
200 179 177
204 183 179
170 155 152
121 112 121
144 136 151
167 155 172
146 136 142
97 93 71
104 100 89
82 86 86
77 85 84
59 73 83
67 80 96
52 78 92
67 80 93
67 80 90
72 78 83
103 92 116
111 85 121
111 86 110
97 81 86
90 85 71
99 88 72
162 100 104
187 105 118
187 105 118
187 105 118
187 105 118
186 105 118
186 105 118
187 105 118
188 105 118
187 105 118
193 108 118
193 108 118
191 107 118
196 110 118
195 109 118
192 108 118
194 109 118
179 105 113
110 107 109
62 108 107
73 111 110
86 114 114
93 115 111
105 116 108
100 109 88
87 102 72
81 101 58
82 101 58
87 106 57
85 106 57
82 103 55
84 103 55
85 104 55
90 110 56
91 110 58
87 106 57
90 102 53
95 104 56
92 90 46
110 97 72
117 96 74
107 88 67
96 76 41
101 87 69
106 99 84
116 109 99
111 105 88
113 107 88
107 100 90
112 105 93
108 103 86
120 112 106
155 145 140
200 185 189
208 192 195
213 199 196
217 201 201
222 205 204
229 207 207
228 207 203
232 210 202
236 213 207
233 210 201
237 213 206
235 212 207
231 209 202
232 209 203
230 208 202
231 209 206
230 208 204
232 210 205
229 206 203
235 210 207
235 210 207
229 205 200
231 206 201
238 212 205
232 206 200
233 207 202
233 208 202
231 206 201
232 206 202
228 202 197
233 208 203
230 205 201
232 206 203
231 205 204
228 202 202
227 202 203
224 200 201
226 202 201
223 199 202
204 182 188
163 141 152
163 141 152
163 141 152
163 141 152
163 141 152
163 141 152
163 141 152
163 141 152
163 141 152
162 141 152
162 141 152
162 141 152
162 141 152
162 141 152
162 141 152
162 141 153
162 140 153
162 140 153
162 140 153
162 140 153
162 140 153
162 140 152
162 140 152
162 140 152
162 140 152
162 140 152
162 140 152
162 141 152
162 141 152
162 141 152
162 141 152
162 141 152
162 141 152
162 141 152
162 141 152
162 141 152
162 141 152
162 141 152
162 141 151
163 141 151
163 141 151
163 141 151
163 141 151
163 141 151
163 141 151
163 141 151
163 141 151
163 141 151
164 141 151
164 141 151
164 141 150
164 141 150
164 141 150
165 141 150
165 142 151
166 142 151
167 143 152
167 143 152
168 143 152
168 144 153
170 144 154
169 144 153
170 144 153
169 143 153
170 144 153
169 143 153
168 142 152
168 143 152
168 143 152
168 143 152
169 144 153
169 144 153
168 144 153
168 144 153
167 144 152
166 143 152
165 143 151
164 141 151
164 141 151
163 141 150
163 140 150
163 140 151
162 140 151
162 140 151
175 149 151
200 168 151
201 169 151
201 169 151
201 169 151
202 169 152
202 170 152
202 170 153
202 170 153
202 170 153
202 170 153
201 170 153
200 169 153
199 168 152
198 167 152
197 165 151
197 165 151
196 164 151
195 164 150
194 163 151
194 162 150
194 162 151
193 162 151
192 161 151
192 161 151
191 161 151
191 161 151
191 161 151
191 161 151
191 161 151
191 161 151
191 161 151
191 161 151
191 161 150
191 161 150
173 145 137
157 129 125
125 97 102
91 63 81
64 26 63
84 64 86
156 145 165
172 158 175
159 151 167
138 131 154
143 133 156
134 127 151
128 122 148
95 91 127
77 78 104
72 72 103
70 73 100
71 68 107
75 77 105
107 102 125
156 143 166
188 171 193
192 175 194
193 176 193
186 169 188
195 179 192
204 187 200
217 199 206
167 155 165
150 140 152
180 169 170
119 123 114
90 102 85
98 101 94
102 100 107
103 97 120
91 82 115
79 63 121
70 36 131
75 29 144
69 25 134
76 28 148
77 29 149
74 28 142
78 36 147
88 58 145
97 80 137
98 87 116
124 105 129
130 109 122
129 109 107
119 105 81
111 103 72
106 103 78
116 110 80
114 106 77
102 100 72
115 102 73
114 101 72
129 109 79
128 110 79
122 113 84
82 106 89
50 118 102
15 122 111
15 126 111
31 131 115
24 130 110
34 126 113
35 135 115
17 136 115
16 130 111
17 137 115
18 144 121
16 132 112
17 138 115
19 137 115
20 117 103
33 76 84
40 25 73
38 26 70
35 43 59
26 57 41
30 65 41
104 83 75
116 99 98
102 83 78
111 94 97
124 105 115
125 108 124
119 105 117
111 99 111
118 105 113
125 117 126
122 113 117
134 120 130
117 106 122
109 96 123
95 75 128
98 62 147
80 41 137
84 39 139
80 40 138
73 37 131
72 38 136
75 39 136
77 40 141
73 38 133
69 37 134
66 37 128
70 40 134
69 38 132
75 49 133
76 56 131
78 67 128
80 79 126
65 76 115
70 92 113
64 95 99
59 104 88
59 108 89
57 103 83
58 106 84
57 104 84
56 101 82
57 106 85
56 102 82
57 103 82
62 103 86
83 113 99
97 114 104
121 121 122
125 123 121
132 127 129
125 120 121
115 111 105
106 101 106
87 85 101
99 92 107
129 116 122
151 137 140
138 130 135
130 124 133
123 120 124
118 116 119
129 125 131
121 119 119
122 121 119
123 120 119
113 111 112
99 101 106
96 95 105
102 103 109
95 95 110
109 106 118
118 116 118
114 108 120
125 118 132
129 121 140
135 125 142
136 126 145
133 124 138
149 137 156
167 151 169
175 159 171
191 171 175
192 172 169
197 177 173
148 138 138
144 136 143
161 152 163
123 117 116
113 105 102
94 92 89
94 97 101
78 85 97
69 82 97
59 75 83
66 83 99
61 75 90
70 77 86
60 74 85
84 77 91
100 62 109
110 68 116
108 82 104
103 89 89
157 101 108
186 104 118
187 105 118
188 106 118
187 105 118
187 105 118
188 106 118
186 105 118
186 105 118
185 104 118
189 106 118
192 108 118
192 108 118
195 109 118
193 108 118
192 108 118
194 109 118
191 107 117
191 108 118
181 106 115
109 106 107
70 111 111
70 110 106
93 109 109
99 113 112
110 120 103
85 103 58
84 102 60
85 104 56
81 100 54
88 108 58
88 108 57
90 109 59
85 103 55
85 104 55
91 110 58
86 103 54
93 113 60
93 103 56
119 117 96
123 114 107
122 112 107
116 103 91
102 88 73
101 92 65
100 94 68
101 96 59
103 95 71
108 103 71
120 113 88
106 101 75
123 114 96
110 103 70
121 114 97
172 160 160
204 189 192
216 198 203
214 199 198
212 199 198
223 204 205
229 209 208
234 212 207
236 213 206
239 215 206
238 214 204
238 214 204
237 213 203
237 213 205
238 214 205
239 214 207
239 213 206
241 215 208
239 214 206
238 213 207
238 212 206
237 211 203
235 208 202
235 208 201
232 205 199
232 205 199
232 206 199
232 206 199
229 203 197
229 203 198
230 205 202
225 201 200
225 201 203
226 203 205
223 201 204
222 200 205
221 198 204
221 199 205
204 182 189
165 144 154
163 141 152
163 141 152
163 141 152
163 141 152
163 141 152
163 141 152
163 141 152
163 141 152
163 141 152
163 141 152
162 141 152
162 141 152
162 141 152
162 141 152
162 141 152
162 141 153
162 140 153
162 140 153
162 140 153
162 140 153
162 140 152
162 140 152
162 140 152
162 140 152
162 140 152
162 140 152
162 140 152
162 141 152
162 141 152
162 141 152
162 141 152
162 141 152
162 141 152
162 141 152
162 141 152
162 141 152
162 141 152
162 141 152
162 141 151
162 141 151
163 141 151
163 141 151
163 141 151
163 141 151
163 141 151
163 141 151
163 141 151
163 141 151
163 141 151
163 141 151
163 141 151
164 141 150
164 141 150
164 141 150
165 142 150
165 142 151
166 142 151
166 142 152
167 142 152
167 142 152
168 143 153
168 143 153
168 143 153
168 142 153
168 142 152
168 142 152
168 142 152
168 142 152
168 142 152
168 143 152
168 143 153
169 144 153
168 144 153
168 144 153
168 144 153
166 143 152
166 143 152
164 142 151
164 142 151
164 141 151
163 141 151
163 140 151
163 140 151
163 140 151
166 142 151
195 164 152
201 169 152
201 169 151
201 169 152
202 169 152
202 170 152
202 170 153
202 170 153
202 170 153
201 170 153
201 169 153
200 168 152
199 167 152
197 166 151
196 165 151
196 164 150
195 163 150
194 163 150
194 163 150
193 162 151
193 162 151
192 161 151
192 161 151
192 161 151
191 161 151
191 161 151
191 161 151
191 161 151
191 161 151
185 155 147
178 147 142
151 121 121
127 94 104
94 61 83
72 29 68
69 24 66
63 21 64
60 21 60
82 58 87
161 149 171
159 150 172
162 150 170
156 147 163
164 156 171
142 135 151
143 132 159
124 115 150
113 104 143
88 83 118
70 72 101
71 69 111
66 64 105
68 68 102
81 77 116
123 114 144
159 144 171
170 154 180
179 163 186
189 172 192
183 167 185
213 195 205
192 177 185
147 138 143
159 151 159
150 145 149
104 115 102
105 105 111
111 106 118
72 70 92
88 82 113
71 57 111
76 41 144
69 26 132
76 28 146
73 27 141
72 27 138
71 27 137
77 28 147
74 28 139
81 43 141
87 63 139
99 89 115
125 110 128
134 118 128
120 116 110
110 110 85
97 111 84
106 108 80
107 111 84
120 116 86
100 108 80
104 108 80
110 111 82
115 104 75
123 106 76
108 102 75
79 111 94
23 118 104
41 121 111
74 127 128
94 131 138
83 134 138
106 136 148
109 140 154
98 136 143
74 133 127
33 133 113
30 129 109
16 130 111
17 138 117
16 128 107
22 118 101
33 79 89
38 34 74
41 27 73
40 38 66
38 52 59
47 68 58
93 70 58
100 81 74
106 86 81
113 93 94
119 100 107
126 109 122
139 121 139
132 120 139
126 115 130
127 121 129
116 113 118
126 119 127
119 114 124
115 104 127
98 82 130
85 57 132
76 39 132
77 39 136
72 38 132
69 36 127
63 35 124
72 38 133
66 37 127
70 38 134
69 37 131
64 36 127
68 37 130
62 38 123
66 40 127
63 44 121
69 58 121
68 70 116
63 77 109
61 87 102
54 87 91
55 98 83
53 97 79
55 100 80
57 104 83
54 99 81
52 95 78
56 102 82
53 96 79
59 107 85
66 105 84
72 107 89
96 115 108
115 121 124
131 127 136
137 130 136
125 119 124
123 118 124
131 125 134
119 115 117
150 137 137
160 145 145
156 143 145
139 130 135
131 126 128
130 124 128
127 122 126
126 122 124
119 119 121
123 122 122
121 120 118
127 124 121
112 111 109
107 106 107
99 99 116
98 97 109
94 94 100
115 112 120
106 101 111
129 121 133
129 119 134
128 120 133
133 124 136
118 109 122
126 116 131
123 110 133
154 139 160
171 156 167
190 172 178
198 178 177
182 165 164
160 148 147
126 121 124
143 134 145
116 112 119
111 112 123
92 98 113
75 87 105
62 76 91
65 77 91
54 70 82
63 73 81
61 72 79
65 74 85
97 79 106
110 80 114
113 74 115
99 79 98
158 93 111
185 104 118
189 106 118
187 105 118
188 106 118
186 105 118
187 105 118
187 105 118
189 106 118
188 106 118
187 105 118
187 105 118
194 109 118
193 108 118
193 108 118
193 108 118
194 109 118
193 108 118
191 107 117
192 108 117
190 107 117
186 109 117
107 107 105
67 106 104
87 110 109
86 108 94
105 114 94
93 109 72
86 106 60
83 104 55
82 103 56
83 103 54
81 101 54
86 105 55
85 105 55
86 106 56
88 108 59
82 101 54
88 104 64
131 132 116
159 151 146
127 117 115
132 124 121
116 107 96
117 109 84
108 101 67
118 111 74
105 97 72
119 112 73
107 99 56
116 109 71
119 111 73
103 96 57
112 105 79
123 115 95
168 157 153
198 183 189
215 197 202
214 198 204
224 205 209
222 204 203
222 203 199
232 211 207
231 210 205
235 212 207
233 210 199
238 214 206
233 209 202
232 208 202
236 211 204
232 208 202
234 209 203
236 211 208
232 208 207
234 209 207
231 207 206
233 208 206
232 208 204
230 205 203
231 206 205
228 204 204
226 202 201
228 204 204
222 198 198
224 201 203
221 199 202
220 198 201
220 199 206
221 200 209
222 201 207
222 200 206
221 199 207
218 197 204
143 128 132
131 115 120
135 117 125
140 122 129
148 129 138
154 134 143
157 136 146
158 137 147
158 137 147
162 140 151
163 141 152
163 141 152
162 141 152
162 141 152
162 141 152
162 141 152
162 141 153
162 141 153
162 140 153
162 140 153
162 140 153
162 140 152
162 140 152
162 140 152
162 140 152
162 140 152
162 140 152
162 140 152
162 140 152
162 140 152
162 141 152
162 141 152
162 141 152
162 141 152
162 141 152
162 141 152
162 141 152
162 141 152
162 141 152
162 141 151
162 141 151
162 141 151
163 141 151
163 141 151
162 141 151
163 141 151
163 141 151
163 141 151
163 141 151
163 141 151
163 141 151
163 141 151
163 141 151
163 141 150
164 141 150
164 141 150
164 141 150
164 141 151
165 142 151
165 141 151
165 141 152
166 142 152
166 142 152
167 142 153
167 142 153
167 142 152
167 142 152
167 141 152
167 141 151
167 142 152
167 142 152
168 143 152
168 143 153
169 144 153
169 144 153
169 145 153
168 145 153
167 144 153
167 143 152
165 143 152
164 142 151
164 142 151
163 141 151
163 141 151
163 141 151
163 140 151
164 141 151
189 159 152
201 169 152
201 169 152
201 169 152
201 169 152
201 169 153
202 170 153
202 170 153
201 170 153
201 169 153
200 168 152
199 168 152
198 166 151
197 165 151
195 164 150
195 164 150
194 163 150
193 162 150
193 162 150
193 162 150
192 161 151
192 161 151
192 161 151
191 161 151
189 159 150
187 157 149
175 144 139
157 124 128
116 81 95
111 71 98
88 41 79
78 28 75
77 28 70
80 29 77
71 25 68
75 27 73
65 23 63
82 51 84
174 161 190
186 174 202
184 169 194
178 167 185
158 150 167
141 135 154
131 122 150
133 122 153
124 116 152
112 104 142
106 98 134
78 74 116
69 68 108
67 66 109
89 82 125
82 82 117
113 102 143
141 129 161
181 165 186
180 164 186
163 148 174
196 179 196
194 177 192
154 143 149
143 135 139
141 135 140
135 132 136
119 116 122
96 91 110
92 87 114
70 65 99
68 57 108
73 43 124
67 25 126
75 28 144
74 28 138
74 28 143
75 28 144
74 28 142
73 27 142
82 30 157
76 30 148
84 51 146
106 92 137
137 131 142
145 139 146
120 118 118
87 101 84
92 107 83
82 102 76
101 111 85
92 117 89
92 104 78
95 107 81
106 110 80
110 110 79
108 105 75
93 99 79
80 115 101
83 125 130
106 137 153
123 133 165
139 132 181
139 129 182
137 132 182
146 133 187
147 139 186
149 147 184
130 146 168
97 137 141
40 127 108
16 133 113
16 133 109
22 116 98
38 83 87
42 28 72
59 51 74
74 68 89
77 78 92
72 78 86
88 65 48
92 71 59
101 79 75
105 86 90
118 97 103
132 113 125
133 115 130
144 128 148
139 124 147
134 124 140
124 120 130
126 123 127
131 126 131
126 117 136
96 74 135
84 58 126
74 45 124
70 37 120
71 39 128
73 39 131
67 37 127
68 37 129
65 37 128
65 37 127
60 36 125
63 36 126
64 37 127
59 35 123
63 38 121
66 44 125
71 61 124
65 62 118
60 72 110
55 74 100
53 84 89
54 97 83
58 106 85
55 100 82
57 103 83
59 108 86
59 107 87
58 105 86
55 101 81
55 100 80
58 106 84
76 114 99
88 112 103
116 122 120
130 128 133
141 136 142
125 123 126
122 119 120
144 137 143
134 125 126
152 140 136
156 145 138
159 147 146
146 137 138
148 138 140
141 133 136
132 126 127
127 123 127
129 125 124
125 121 118
125 122 120
121 120 118
112 110 108
114 111 110
101 99 107
90 90 97
92 90 104
100 94 108
110 106 113
112 104 116
117 103 125
120 107 129
112 103 114
122 110 127
106 97 117
116 101 127
125 106 138
142 127 153
163 148 166
179 162 169
176 160 159
161 147 146
141 131 135
124 114 127
110 106 117
114 113 123
101 105 119
77 90 109
72 82 97
68 79 98
77 81 95
58 72 86
65 74 84
70 75 84
78 66 89
96 66 101
104 65 110
156 96 111
188 105 120
189 106 118
188 105 118
188 105 118
187 105 118
186 104 118
187 105 118
188 106 118
188 106 118
186 104 118
185 104 118
187 105 118
190 107 118
197 110 118
194 109 118
194 109 118
193 109 118
192 108 118
192 108 118
195 109 118
192 108 118
189 106 116
188 109 117
125 103 103
66 107 100
83 102 92
89 105 69
86 106 57
77 97 53
82 101 54
84 104 55
84 104 55
86 106 56
80 99 54
80 99 52
81 101 54
87 106 57
86 104 59
112 120 94
160 153 151
167 154 157
128 119 112
113 107 95
121 113 91
110 104 66
110 103 59
102 97 46
107 102 43
115 110 49
114 108 42
111 105 50
107 102 50
110 104 51
109 103 57
118 111 70
138 128 112
182 168 168
204 188 196
208 191 201
212 196 194
228 209 205
228 209 202
234 213 206
236 213 206
235 212 205
236 212 207
236 213 207
230 207 201
229 207 202
231 208 203
231 208 203
233 209 205
228 204 203
230 206 205
230 206 207
228 205 205
226 203 203
224 201 204
223 200 206
220 198 201
222 201 205
218 196 202
215 194 200
219 197 203
216 195 201
217 196 203
218 197 203
219 198 206
217 197 206
221 200 209
219 199 206
219 199 208
216 196 203
202 182 189
72 69 63
55 55 44
55 54 44
49 48 38
54 54 45
59 56 48
59 58 46
83 79 68
82 77 68
84 77 71
124 106 108
135 116 122
139 120 125
139 120 126
145 126 134
146 126 134
149 129 138
146 126 134
155 134 145
158 136 147
157 136 146
157 136 148
160 138 150
161 139 151
162 140 151
162 140 151
162 140 151
162 140 151
162 140 151
162 140 152
162 141 151
162 141 151
162 141 151
162 141 151
162 141 151
162 141 152
162 141 152
162 141 151
162 141 151
162 141 151
162 141 151
162 141 151
162 141 151
162 141 151
163 141 151
163 141 151
163 141 151
163 141 151
163 141 151
163 141 151
163 141 151
163 141 151
163 141 151
163 141 150
164 141 151
164 141 151
164 141 151
164 141 151
164 141 152
165 141 152
165 141 152
165 141 152
165 141 152
166 141 152
166 141 152
166 141 152
166 141 152
166 141 151
167 141 151
167 141 151
167 142 152
168 143 153
168 144 153
169 144 153
169 145 153
168 145 153
168 144 153
167 144 153
166 143 152
166 143 152
165 142 151
164 142 151
164 141 151
164 141 151
164 141 151
163 141 152
178 151 152
201 168 152
201 168 152
201 169 152
201 169 152
201 169 153
201 169 153
201 169 153
200 169 153
200 168 152
199 167 152
198 167 151
197 165 150
196 165 150
195 164 150
194 163 150
193 162 150
193 162 150
193 162 150
192 162 150
191 160 150
185 153 147
175 142 140
150 116 121
133 96 109
118 76 101
107 59 96
100 59 88
95 48 83
100 49 87
87 46 81
87 41 80
83 35 77
81 29 77
62 22 62
70 24 64
71 42 75
176 162 192
193 180 211
195 182 213
190 178 206
188 175 202
166 156 180
143 137 160
132 123 154
121 114 144
117 106 141
112 101 143
111 107 145
87 77 131
79 76 116
80 71 124
87 81 129
103 93 144
96 86 138
113 102 146
145 129 165
161 145 177
168 152 177
175 158 183
158 142 165
135 125 136
137 130 138
133 132 136
130 122 131
119 113 124
105 101 116
90 87 108
88 79 109
75 47 128
69 30 133
68 26 127
76 28 143
75 28 143
79 29 151
70 26 137
77 29 150
79 30 146
80 30 152
73 27 139
79 47 144
111 100 154
129 129 139
122 134 140
125 133 128
96 112 99
83 114 93
83 111 84
85 110 83
84 113 84
84 117 89
84 111 83
90 104 77
94 102 75
85 102 77
89 102 80
115 129 137
127 134 166
148 133 188
140 126 187
130 118 185
124 113 182
124 113 182
130 119 186
146 131 194
157 141 199
160 149 197
143 146 175
98 142 139
35 124 105
16 133 108
31 125 108
49 104 95
69 65 84
91 85 100
90 84 102
105 101 113
91 93 103
84 54 34
82 57 42
85 61 51
98 80 83
101 82 86
107 90 99
127 110 125
129 115 136
148 132 157
131 119 140
127 118 134
116 111 120
132 127 138
111 106 122
93 77 128
75 50 118
66 43 114
67 37 119
65 37 117
68 38 124
65 37 124
64 37 124
56 34 118
59 36 123
65 38 130
58 35 120
59 36 123
59 35 120
59 35 120
63 41 122
62 44 119
66 62 120
53 61 101
53 70 96
53 81 90
60 105 91
58 106 86
56 103 84
59 108 88
59 108 87
58 106 86
55 103 82
60 109 87
58 106 86
55 100 80
59 107 87
85 110 102
109 118 117
133 130 138
140 135 141
141 135 146
142 137 144
148 139 146
135 129 130
139 134 124
145 138 132
162 150 141
156 145 140
158 145 144
148 139 140
129 125 127
129 124 123
113 113 109
117 116 115
114 114 112
113 112 108
104 106 102
107 107 102
108 106 110
90 90 99
89 84 96
100 96 108
98 94 104
111 100 118
122 110 130
117 107 124
121 110 127
115 104 125
114 100 119
118 105 126
119 105 120
113 100 122
136 122 149
141 129 143
169 154 163
160 144 152
145 130 139
118 111 113
113 109 115
110 113 123
88 94 108
73 87 106
81 92 113
82 87 101
63 74 87
70 74 81
75 79 86
68 72 75
85 65 94
90 67 92
152 88 113
187 105 118
187 105 118
185 104 118
188 105 118
188 105 118
189 106 118
186 105 118
187 105 118
188 106 118
187 105 118
187 105 118
187 105 118
188 106 118
192 108 118
192 108 118
192 108 118
194 109 118
192 108 118
194 109 118
194 108 118
193 108 117
192 108 118
191 107 117
193 108 117
188 108 116
120 105 103
75 95 74
90 108 68
80 99 54
77 97 52
87 108 58
82 101 54
84 104 57
83 104 56
86 105 57
83 103 55
90 109 59
92 111 61
95 109 69
133 132 116
153 146 139
148 138 129
117 109 83
120 112 78
99 92 57
110 102 62
111 105 46
114 108 42
116 109 41
118 113 42
117 111 42
112 105 43
112 105 43
123 118 41
115 108 51
108 102 56
108 102 62
161 149 141
198 182 189
213 196 204
217 199 203
225 207 206
230 210 210
230 210 209
229 209 207
228 208 203
232 210 208
223 202 202
222 201 201
226 204 205
226 204 205
228 206 205
227 205 207
224 202 203
226 205 205
223 202 204
222 200 205
223 202 205
221 200 204
220 199 206
220 198 206
218 197 204
217 197 203
220 199 205
218 197 203
216 196 203
219 198 205
216 196 201
217 197 204
216 196 205
220 199 207
216 197 203
220 200 208
220 199 205
221 199 205
191 173 176
100 93 91
53 52 40
52 51 41
54 54 43
46 47 35
54 55 38
47 48 30
50 52 32
54 57 34
82 73 67
106 90 86
112 96 95
116 98 96
115 97 95
117 100 99
112 95 95
115 98 100
113 96 98
117 99 98
122 103 102
118 100 103
110 94 99
95 84 83
75 69 62
100 90 90
103 92 91
111 98 100
121 107 110
122 107 110
123 108 112
139 121 128
142 124 131
144 125 133
155 134 142
156 135 145
158 137 147
161 140 150
162 140 151
162 140 151
162 141 151
162 141 151
162 141 151
162 141 151
162 141 151
162 141 151
163 141 151
163 141 151
163 141 151
163 141 152
163 141 151
163 141 151
163 141 151
163 141 151
163 141 151
163 141 151
164 141 151
164 141 151
164 141 152
164 141 152
164 140 152
165 140 152
165 140 152
165 140 152
165 140 152
165 141 152
166 141 152
166 140 151
166 141 151
166 141 152
167 142 152
167 143 152
168 143 153
168 144 153
169 145 153
169 145 154
168 145 153
168 145 153
167 144 153
166 144 152
165 143 152
165 142 152
164 142 151
164 142 152
164 141 152
164 141 152
170 146 152
197 166 153
201 169 153
200 168 153
200 168 153
200 168 153
200 168 152
200 168 152
200 168 152
199 168 152
198 166 151
197 166 151
195 164 150
195 164 150
194 163 149
193 162 149
189 159 147
178 147 140
169 136 134
145 103 118
131 89 108
104 46 93
108 59 98
104 53 92
95 47 80
107 53 95
110 60 98
107 62 96
99 49 89
94 48 83
90 44 81
84 45 79
83 44 77
73 28 70
76 27 72
75 40 75
166 154 182
189 177 206
194 181 212
195 182 213
196 182 212
189 175 203
180 167 197
138 129 157
114 108 141
106 102 126
95 91 132
108 99 138
101 92 129
66 62 115
88 81 129
80 70 131
95 85 138
99 89 143
111 99 149
112 102 146
114 102 145
148 134 166
172 156 178
157 142 167
111 97 129
108 98 122
119 117 127
131 128 135
145 133 155
142 133 159
133 126 144
126 119 130
114 109 89
87 65 112
77 33 138
73 27 138
70 26 134
75 28 137
72 27 143
74 27 142
74 28 148
76 28 143
76 28 146
79 30 151
77 50 152
85 84 129
111 123 131
115 131 127
100 127 117
85 123 105
66 112 88
72 115 90
79 115 87
74 116 89
63 112 88
79 114 86
69 107 80
57 97 74
83 106 80
101 113 118
139 130 165
151 137 187
152 135 195
142 127 191
137 124 190
125 115 184
126 115 184
131 120 188
140 127 193
152 138 200
162 146 204
170 154 204
152 150 182
93 138 137
36 135 115
27 130 108
70 100 96
116 116 123
124 117 129
125 120 130
107 105 112
105 102 114
82 52 31
75 50 33
75 51 36
76 54 46
93 74 73
98 81 86
114 98 112
116 102 119
128 114 140
132 117 141
134 121 143
131 123 142
104 102 111
100 95 119
94 81 120
82 56 124
68 38 121
64 37 114
58 37 110
60 35 116
58 35 117
65 37 129
59 35 120
57 35 116
55 34 117
55 33 114
54 34 115
58 36 120
56 35 117
56 35 119
58 39 115
52 45 103
56 62 107
56 68 106
55 77 94
59 104 90
60 108 88
57 103 84
55 100 81
59 108 88
55 100 79
58 106 86
57 104 84
59 107 86
54 100 81
56 103 84
69 106 89
90 108 100
123 125 125
119 118 117
137 131 141
139 133 142
135 129 126
133 127 122
127 127 114
124 126 114
150 141 134
164 151 142
149 137 133
131 126 123
121 119 114
114 113 111
113 114 110
104 106 104
104 106 105
97 100 95
105 108 103
100 103 102
96 97 98
89 87 97
98 97 106
102 100 105
105 98 115
115 105 121
119 103 128
107 98 112
110 96 120
103 93 109
111 98 116
118 108 126
109 98 112
104 90 111
134 122 139
132 121 143
151 139 156
165 149 163
156 139 154
139 128 136
127 123 130
132 126 135
124 124 137
87 98 113
93 96 113
72 78 88
79 83 98
70 75 81
65 70 77
69 70 77
90 66 95
146 91 106
188 106 117
189 106 118
189 106 118
188 105 118
186 105 118
186 105 118
187 105 118
189 106 118
189 106 118
187 105 118
186 105 118
186 105 118
187 105 118
186 105 118
193 108 118
192 108 118
195 109 118
195 109 118
194 109 118
193 108 118
194 109 118
193 108 118
193 108 118
190 107 116
192 107 117
189 106 116
187 107 117
126 99 93
81 101 61
87 107 58
77 97 52
78 98 53
78 97 53
85 106 57
85 104 57
77 95 51
85 105 58
78 98 52
86 104 60
106 113 84
143 135 120
138 129 117
136 125 105
105 98 62
109 103 56
119 113 57
103 97 42
108 102 41
114 109 39
122 117 40
122 116 39
118 113 40
124 119 41
124 117 41
114 107 40
113 107 45
110 104 53
104 99 50
131 122 90
171 159 155
199 184 192
218 200 205
213 197 198
226 207 209
226 207 206
228 207 207
227 207 204
229 208 208
228 207 209
221 201 204
223 202 206
226 205 208
224 203 204
222 201 203
221 201 203
221 201 205
218 198 205
221 201 209
218 199 206
218 198 205
215 195 204
218 197 205
219 199 205
220 200 207
218 198 203
219 199 204
217 196 205
219 198 205
218 197 203
214 195 201
216 196 203
216 197 204
220 199 207
222 201 208
222 200 208
225 202 208
221 199 206
193 174 181
79 74 72
54 53 43
53 53 42
50 50 39
53 55 36
53 55 32
46 49 26
51 53 31
57 58 37
97 83 82
112 95 96
112 96 95
126 106 106
112 95 94
112 95 94
113 95 97
111 95 93
114 97 97
108 91 92
100 85 86
74 68 55
52 53 29
53 54 31
51 53 30
51 52 30
51 53 30
46 48 28
47 48 27
52 53 30
51 53 30
52 53 31
60 59 42
94 82 74
113 95 93
118 100 103
113 96 99
122 104 109
141 120 126
137 116 117
139 118 121
137 118 122
150 128 134
150 129 137
154 133 139
155 134 142
159 138 147
156 135 144
150 131 138
152 132 140
157 136 145
161 139 149
162 140 150
163 141 151
162 140 150
163 141 151
164 141 151
164 141 152
164 140 152
164 140 152
164 140 152
164 140 152
165 140 152
165 140 152
165 140 152
165 140 152
165 140 151
165 140 151
165 141 151
166 141 152
167 142 152
167 143 152
169 145 153
169 145 153
169 145 153
168 145 154
168 145 154
168 145 153
167 144 153
166 144 152
166 144 152
165 143 152
164 142 152
165 142 152
164 141 152
164 142 152
193 163 153
200 168 153
200 168 153
199 168 152
199 168 152
199 167 152
199 168 152
198 167 152
198 167 151
197 166 150
196 165 150
190 158 146
178 145 138
159 124 126
146 108 117
116 72 96
109 49 92
98 36 84
103 38 90
104 43 92
110 46 96
106 47 94
106 45 91
97 42 85
93 44 82
112 59 100
102 58 91
102 60 91
105 60 93
86 45 79
102 60 91
89 54 81
79 36 73
78 39 71
130 127 138
173 168 188
193 180 211
196 183 214
195 182 212
195 181 212
192 178 207
164 152 180
121 113 140
101 94 132
90 81 125
96 89 129
79 69 127
93 86 132
71 63 121
73 67 121
88 77 133
95 86 140
102 88 143
91 80 141
103 90 147
116 104 148
126 113 156
133 118 161
126 114 147
97 88 122
123 115 138
145 139 153
169 158 179
170 159 184
173 162 182
154 146 154
133 129 96
128 124 41
109 97 94
78 57 110
71 30 134
72 27 135
71 27 131
72 27 133
69 26 133
73 28 139
75 28 145
74 29 143
71 37 134
66 57 134
62 85 122
81 112 111
77 125 105
74 117 99
67 124 105
64 117 98
69 117 97
70 122 100
72 118 93
56 118 91
67 111 87
56 116 89
70 103 83
73 104 88
102 113 125
147 142 178
154 144 192
161 144 202
152 136 198
147 134 197
144 131 196
143 130 195
145 133 197
151 138 200
159 144 204
165 149 206
173 155 207
175 157 201
148 151 174
93 137 136
59 123 112
110 127 129
130 125 142
131 123 136
119 115 125
118 114 122
120 118 129
75 47 24
74 48 31
70 45 27
75 52 41
69 51 44
85 68 72
106 91 100
115 101 116
130 117 138
140 125 148
125 112 135
118 109 127
113 106 125
97 89 113
83 66 123
66 47 107
63 37 112
55 37 109
57 35 107
52 36 107
55 36 111
56 35 117
56 35 117
51 32 109
53 33 110
54 33 111
56 35 119
57 35 116
55 35 116
53 34 111
54 36 114
55 41 113
57 53 115
54 65 103
54 78 95
56 98 85
51 94 74
58 105 85
53 97 80
53 96 78
57 104 83
60 108 88
55 101 82
56 103 84
59 107 85
61 110 86
56 100 82
88 106 97
117 119 124
124 121 126
120 118 126
137 132 138
123 116 116
102 103 95
98 109 92
114 119 105
145 135 126
143 130 124
140 131 130
132 128 122
106 107 105
106 109 104
108 109 106
108 110 105
109 111 109
106 108 104
109 112 106
113 115 111
106 106 106
90 86 98
95 93 99
89 85 95
99 94 106
109 98 120
113 103 124
129 120 136
112 102 120
112 104 115
114 106 119
118 107 127
118 106 128
118 105 125
123 109 130
129 119 132
129 113 135
172 154 172
178 161 175
167 155 173
164 152 163
185 171 178
165 156 162
183 170 175
147 140 147
124 115 121
87 88 96
88 87 90
78 78 82
75 70 76
151 92 102
188 106 118
188 105 118
187 105 118
188 106 118
188 106 118
187 105 118
188 106 118
185 104 118
186 105 118
187 105 118
188 106 118
187 105 118
185 104 118
189 106 118
186 105 118
191 107 118
194 109 118
195 109 118
194 109 118
193 108 118
194 109 118
191 107 117
193 109 118
191 107 116
191 107 117
190 107 118
191 107 117
192 108 118
190 109 115
142 103 91
78 98 53
81 100 53
81 100 54
82 103 55
82 101 55
81 100 54
76 95 51
85 104 58
85 106 62
97 113 77
127 131 111
151 146 129
145 135 129
121 112 106
108 102 68
98 93 46
112 106 40
113 107 41
114 108 39
120 113 39
121 115 39
132 125 41
129 123 40
127 122 40
123 118 40
118 112 39
119 113 40
111 105 40
118 112 40
116 110 55
155 141 125
195 178 181
212 195 202
217 199 205
219 200 206
218 198 200
219 199 200
219 198 199
223 201 200
226 205 203
225 204 202
219 198 197
225 205 204
224 203 204
220 200 200
226 205 210
220 200 204
224 203 208
221 201 210
216 197 204
219 199 205
220 200 207
217 198 204
220 199 203
223 202 207
218 198 203
218 197 204
219 197 207
219 198 207
217 197 204
216 197 204
219 199 207
219 199 205
219 199 206
219 199 205
221 200 207
222 200 208
221 199 209
214 194 207
176 162 181
67 65 66
53 52 42
50 49 38
53 55 35
54 57 33
50 53 31
52 55 31
51 53 31
74 69 57
106 88 88
118 101 102
107 91 91
119 101 100
128 108 107
113 96 97
113 96 98
115 96 97
110 94 95
75 70 55
54 56 32
51 52 30
53 54 31
50 51 30
53 54 31
48 50 29
48 50 29
53 54 30
52 54 30
51 53 30
55 57 33
52 54 30
62 60 40
114 97 100
121 101 98
128 107 107
114 96 99
119 101 103
128 107 105
134 113 111
128 107 106
125 105 104
137 115 113
128 108 110
142 120 122
122 104 97
71 70 50
76 75 53
75 73 54
90 85 73
87 82 67
89 83 72
97 89 81
116 104 101
109 100 93
124 110 109
129 114 115
138 120 124
155 133 142
159 136 147
160 137 146
159 136 147
161 138 148
164 140 151
163 139 149
164 139 150
164 139 150
164 140 150
165 141 151
166 142 152
166 142 152
168 144 153
168 144 153
169 145 153
169 146 154
169 146 154
168 146 154
168 145 153
167 144 153
166 144 152
165 143 152
165 143 152
165 142 152
165 142 152
164 141 152
183 155 153
199 168 153
199 167 152
198 167 152
198 167 152
198 167 152
196 165 150
193 161 149
178 147 137
158 123 124
128 90 104
114 64 92
107 52 88
97 37 81
102 37 86
98 36 85
92 34 80
95 35 82
99 37 85
105 40 93
102 42 88
113 52 99
99 44 85
93 39 83
96 45 85
92 47 83
103 62 87
98 56 87
101 57 87
90 48 82
105 68 92
88 54 77
74 39 68
71 67 67
102 115 101
129 137 130
174 166 189
192 179 210
196 183 215
197 184 215
192 178 206
168 156 186
117 110 140
103 96 133
87 79 127
78 71 122
68 61 119
60 52 112
65 57 119
71 61 120
67 55 122
87 74 136
71 67 124
82 71 134
88 76 137
100 89 144
99 87 140
124 113 148
111 101 141
105 97 133
132 124 150
167 157 177
161 151 171
181 168 193
174 163 179
146 139 115
126 123 47
117 116 20
118 114 36
94 82 85
74 39 127
73 28 141
71 27 134
67 25 126
74 27 137
66 25 132
70 27 138
71 27 138
67 55 137
65 64 133
55 95 114
61 99 106
44 117 93
53 120 97
46 127 103
51 123 102
43 120 96
64 129 107
44 117 93
45 119 95
50 115 92
66 123 101
73 122 102
86 116 116
106 128 136
149 147 180
160 151 192
164 148 201
163 146 204
161 145 205
162 146 206
162 146 205
163 147 206
167 151 207
170 153 208
175 157 209
179 160 208
181 161 206
170 156 192
115 129 140
83 130 123
98 123 124
132 126 136
111 110 113
116 114 123
107 111 110
101 104 103
72 46 26
55 41 33
66 46 31
60 43 33
65 45 32
67 52 47
75 64 71
108 95 109
119 109 130
122 112 132
135 120 144
116 106 125
120 109 130
103 92 121
74 63 107
63 42 110
55 35 102
54 35 104
54 37 107
50 34 106
51 35 111
55 36 118
54 33 112
55 34 113
52 32 108
55 34 112
55 34 115
53 33 111
55 35 114
50 30 106
54 34 116
54 34 113
49 39 100
52 62 102
52 74 93
61 104 92
57 103 84
54 99 79
55 100 82
55 101 81
56 102 83
55 101 81
55 101 80
53 97 79
59 106 86
59 108 86
58 104 84
84 114 100
124 123 135
130 126 132
129 125 134
131 127 130
131 124 125
102 106 94
71 94 74
101 108 92
135 124 117
141 131 124
120 117 116
110 112 111
107 108 107
111 112 107
112 115 110
104 106 102
102 105 102
106 109 103
107 110 105
104 106 105
100 100 102
95 92 99
87 83 91
95 91 100
93 88 99
106 97 114
117 103 129
100 88 109
121 107 127
109 100 115
113 104 123
117 107 129
122 113 130
112 103 120
110 99 118
105 97 111
139 126 140
162 145 160
166 148 166
154 139 163
159 146 168
191 176 190
209 193 204
224 203 202
195 178 178
164 148 149
129 119 113
103 95 90
78 70 66
140 92 101
188 105 118
187 105 118
187 105 118
188 106 118
188 106 118
188 105 118
188 106 118
186 105 118
188 105 118
188 106 118
187 105 118
188 105 118
188 105 118
184 104 118
189 106 118
185 104 118
190 107 118
194 109 118
194 109 118
192 108 118
194 109 118
192 108 117
194 109 118
196 110 118
194 109 118
195 109 117
192 108 118
192 107 118
192 108 118
191 107 116
186 106 114
144 103 90
75 93 51
70 90 49
80 100 53
79 99 52
83 103 54
79 97 56
103 116 81
107 120 91
118 126 102
128 138 110
129 127 109
119 113 105
117 109 93
105 100 59
112 108 37
120 114 38
120 114 39
124 118 40
118 113 39
127 122 39
125 120 38
133 127 39
123 116 37
133 127 40
119 113 41
129 122 43
124 118 42
123 114 57
127 119 68
127 115 91
176 159 158
199 179 185
204 186 198
199 180 188
205 185 189
209 189 194
217 196 198
211 189 191
213 192 191
211 191 190
214 193 193
221 200 202
224 203 207
221 200 206
221 201 210
213 194 201
218 198 209
218 198 210
214 196 204
215 196 206
217 198 208
215 196 206
217 197 208
220 200 210
218 198 210
218 198 207
218 197 208
216 196 208
216 196 206
212 193 203
217 198 208
216 197 207
214 195 207
217 197 209
217 196 209
215 194 209
212 192 207
203 185 205
195 178 197
177 163 184
75 71 73
53 53 41
55 57 34
55 57 32
45 46 27
47 49 28
52 55 31
54 57 32
90 80 74
111 94 96
117 99 96
109 93 93
116 96 99
116 97 98
109 92 90
106 90 90
64 62 44
55 58 34
54 56 32
55 57 33
55 56 32
51 53 30
50 51 29
52 52 29
49 50 29
52 53 31
57 58 32
51 52 30
52 53 30
51 52 30
54 55 31
79 72 58
115 97 98
119 101 102
127 107 106
120 100 101
119 100 99
127 105 101
136 115 113
135 113 115
124 106 106
129 108 108
119 101 97
77 76 50
66 69 39
62 64 37
67 69 39
64 67 39
67 70 39
64 66 39
67 69 40
64 65 39
65 67 40
68 70 41
70 73 42
69 69 46
139 118 116
144 123 125
142 119 119
149 126 126
152 128 128
143 121 122
144 122 124
152 129 131
149 127 131
147 125 131
157 133 137
153 130 134
152 130 137
158 134 140
154 131 137
152 132 137
153 133 138
154 134 138
157 136 142
160 139 145
157 137 143
161 140 146
162 140 148
165 143 151
163 141 150
164 142 151
165 142 152
173 148 152
197 167 153
196 165 151
184 153 142
174 141 135
152 113 119
140 97 112
116 63 95
104 46 88
99 39 85
102 37 87
100 36 85
89 32 75
94 34 78
97 35 79
95 34 77
93 34 80
106 39 90
97 36 86
101 38 90
97 43 87
104 48 92
102 43 89
92 42 81
93 43 81
98 42 86
101 52 88
109 66 98
107 70 94
105 69 94
105 66 94
92 63 80
95 89 88
87 91 81
76 95 66
94 115 81
149 150 154
192 180 209
194 180 211
190 177 206
188 175 203
162 151 177
123 115 143
87 80 119
80 73 118
69 58 115
74 65 122
68 59 125
71 57 125
62 50 126
72 59 126
77 65 132
80 67 137
86 74 135
82 66 136
88 80 131
93 83 138
91 81 136
105 95 144
117 109 142
150 141 166
155 148 164
168 158 180
168 157 173
149 141 122
118 117 41
125 121 21
116 113 19
120 118 25
102 93 80
79 48 128
66 25 125
65 25 123
67 25 125
72 27 136
70 26 134
73 27 144
69 31 137
62 63 126
49 83 115
58 96 106
60 109 101
30 123 94
58 127 107
47 118 96
29 123 97
44 125 101
23 126 98
17 122 97
15 121 92
37 125 100
32 116 91
61 126 104
65 119 109
83 128 127
137 145 162
163 151 188
162 147 191
160 143 188
165 148 199
175 156 208
177 157 209
178 159 209
179 160 209
180 161 209
173 154 198
178 158 201
169 151 190
155 139 171
135 134 152
98 124 121
105 112 111
109 110 108
98 102 100
99 105 100
102 105 105
100 104 102
71 47 29
66 45 29
68 45 30
64 44 32
59 44 36
58 43 34
57 44 38
97 85 96
90 86 98
116 106 127
102 96 114
99 90 109
98 90 109
94 89 108
94 85 115
51 39 88
57 36 105
50 36 94
52 36 105
50 35 101
49 34 105
51 34 109
51 32 103
51 32 107
57 35 119
52 33 109
54 34 114
54 34 114
51 32 107
54 34 112
54 34 113
53 35 109
48 36 105
52 55 105
53 77 93
54 92 86
53 96 76
58 105 85
55 101 80
55 100 82
57 102 83
55 101 82
59 107 86
60 109 88
60 104 84
52 94 79
84 110 99
109 121 120
136 131 145
144 134 151
144 135 149
138 131 141
118 113 120
102 104 94
76 92 76
102 105 87
113 108 97
133 127 122
118 117 115
107 109 106
110 111 109
105 107 103
110 112 108
113 115 109
115 117 112
112 115 113
113 115 111
102 102 99
100 100 101
91 86 97
99 97 105
89 82 99
88 82 93
104 97 110
98 86 107
111 101 116
107 97 110
100 88 109
114 100 120
109 100 116
113 102 120
95 84 107
103 94 110
109 99 113
117 107 128
139 125 144
132 120 136
129 116 136
130 120 143
160 149 175
189 177 201
207 192 210
204 187 194
168 150 152
133 122 123
105 95 93
135 93 95
186 105 118
187 105 118
189 106 118
189 106 118
190 107 118
192 108 119
187 105 118
190 106 118
189 106 119
186 105 118
188 106 118
188 106 118
189 106 118
187 105 118
187 105 118
189 106 118
187 105 118
190 107 118
195 109 118
194 109 118
194 109 118
193 108 118
195 109 118
192 108 118
196 110 118
194 109 118
193 109 118
192 108 117
191 107 117
190 107 116
192 108 117
192 108 116
189 107 115
141 100 87
78 94 51
79 92 52
81 98 53
77 96 53
77 96 54
113 121 97
145 141 134
150 151 140
145 142 133
126 121 116
124 116 107
121 113 96
109 104 48
109 104 38
113 106 38
125 119 38
115 109 38
132 128 36
119 114 37
129 123 39
133 125 38
132 126 37
129 123 39
135 130 38
132 121 64
145 133 87
153 140 85
155 138 105
158 138 121
171 150 147
197 176 182
200 181 189
194 175 185
187 166 178
193 171 181
199 178 189
188 166 176
194 173 182
192 170 181
200 180 191
197 176 182
205 185 193
207 186 199
211 191 205
213 193 208
213 193 208
215 194 210
214 194 210
213 194 210
214 195 211
215 195 211
214 195 209
215 195 209
212 192 208
215 195 209
214 194 208
215 195 210
211 192 206
215 195 211
212 192 207
214 194 209
214 195 210
214 195 210
213 192 209
213 193 210
212 192 208
207 189 206
189 174 197
193 177 196
166 154 180
89 84 86
53 54 33
50 51 29
53 55 33
52 54 32
52 54 30
56 59 33
61 62 39
111 94 94
110 95 94
116 98 98
100 84 87
113 96 96
111 94 92
57 58 35
59 62 35
56 58 34
61 63 36
53 54 31
50 52 30
55 57 33
50 52 30
53 55 32
56 57 34
53 55 31
53 54 31
51 52 29
54 56 32
55 57 33
59 60 34
56 59 35
108 93 89
130 111 111
123 103 104
128 108 109
124 104 106
134 113 112
135 113 113
135 113 114
132 111 114
106 93 87
64 66 38
65 67 39
64 65 37
65 67 38
67 69 40
67 69 40
68 70 41
62 64 38
64 66 39
69 71 41
67 70 40
69 71 41
63 65 38
68 70 41
108 97 85
141 119 125
139 117 119
143 120 119
140 118 119
147 123 123
150 127 127
146 123 125
143 120 123
149 125 125
147 125 123
148 125 127
150 126 126
136 117 114
78 77 51
69 72 42
74 75 46
69 72 43
79 78 53
86 83 64
95 89 73
93 88 73
97 91 78
101 94 82
106 98 88
116 106 98
144 125 126
157 132 137
151 115 121
139 98 111
122 74 100
111 50 93
100 37 85
97 35 82
93 34 78
99 36 86
94 34 77
93 33 80
98 36 82
94 34 80
94 34 78
95 35 80
89 32 77
96 35 82
99 36 83
94 35 83
100 37 87
100 38 88
106 52 93
96 42 84
95 44 81
93 46 78
84 44 76
93 43 82
100 60 90
104 61 92
100 68 87
106 68 97
100 89 94
107 112 101
103 106 101
90 105 78
84 111 63
118 135 110
161 160 172
196 184 213
186 175 202
180 169 195
159 150 182
119 112 149
83 76 124
63 53 115
60 44 116
61 48 119
69 55 127
72 58 134
69 53 129
65 48 129
60 44 125
69 53 129
71 57 126
74 61 127
75 61 126
91 77 137
87 76 134
91 80 134
115 105 147
144 137 156
158 150 166
158 149 168
142 137 118
121 118 55
106 106 18
109 108 18
117 116 19
119 117 20
100 95 55
83 64 103
65 25 119
71 27 136
70 27 136
71 27 135
69 26 134
69 26 135
67 48 130
60 67 126
42 87 106
59 113 109
56 124 108
35 118 93
20 118 93
29 123 97
10 117 93
11 121 95
11 128 99
12 132 100
14 131 101
19 128 98
32 122 97
31 121 97
60 126 112
82 119 113
111 132 137
139 139 161
159 145 175
164 146 185
172 154 191
181 160 200
186 165 206
188 166 207
186 164 206
189 166 204
165 145 180
145 127 160
142 124 154
147 128 160
125 119 144
109 110 122
107 112 110
100 105 94
90 98 84
92 100 91
101 108 100
106 110 112
60 42 30
64 44 31
54 42 34
58 42 32
53 40 33
53 39 31
62 50 47
75 66 73
91 83 102
92 88 99
89 84 99
72 71 80
92 88 101
95 91 106
95 91 107
69 66 89
71 61 105
46 35 93
46 35 96
40 35 86
48 36 104
47 31 97
50 32 107
50 31 108
55 34 114
54 34 112
49 31 104
51 32 108
51 32 107
51 32 109
51 32 108
49 31 107
51 32 110
50 37 108
53 71 98
56 95 87
55 101 83
55 100 80
60 107 86
57 101 82
59 100 80
54 96 77
55 101 82
72 101 87
117 127 129
148 143 156
167 155 179
163 149 176
169 155 185
172 156 185
163 149 176
159 147 160
119 113 114
97 97 86
72 84 70
95 97 88
115 112 105
105 106 104
103 105 104
109 111 109
104 106 106
113 115 113
111 113 110
116 118 116
110 112 108
109 112 109
109 112 108
103 103 106
97 93 100
98 94 102
91 86 96
90 83 99
84 74 94
99 91 107
96 85 109
117 106 127
106 92 117
119 105 129
103 91 113
107 95 116
106 91 118
119 106 127
116 103 128
117 104 127
103 95 107
111 102 113
110 99 113
106 99 106
129 121 136
149 139 163
173 164 193
185 175 206
172 161 183
158 147 160
131 124 129
142 96 102
189 107 119
187 105 118
188 106 118
187 105 118
191 107 119
187 105 118
188 106 118
188 106 118
189 106 118
188 106 118
188 106 118
185 104 118
189 106 118
186 104 118
186 104 118
188 106 118
189 106 118
186 105 118
186 105 118
192 108 118
194 109 118
193 108 118
194 109 118
195 109 118
194 109 118
194 109 117
193 108 118
190 106 116
194 109 117
191 108 117
190 107 117
192 107 116
192 108 118
185 104 113
188 105 114
140 98 87
90 87 54
81 86 51
78 89 49
81 94 55
101 109 85
126 122 124
157 149 152
140 135 140
125 117 119
128 122 108
100 96 54
111 106 34
116 109 38
120 116 35
126 120 38
129 123 36
128 122 37
137 132 38
137 130 38
130 125 37
127 120 36
145 138 47
151 140 65
151 139 80
149 135 89
157 140 113
163 147 115
167 147 123
172 147 132
187 159 158
195 172 175
187 167 168
177 157 162
180 162 170
177 156 166
186 164 176
182 160 172
180 155 166
186 163 175
185 162 169
191 170 180
200 179 193
203 185 200
208 189 206
211 192 210
215 194 212
215 194 212
213 193 211
210 191 208
213 194 212
214 195 212
209 190 207
213 193 210
215 195 212
212 192 209
209 189 207
209 191 207
210 191 207
208 189 205
212 191 208
215 194 212
214 193 211
216 196 211
216 195 209
211 191 203
206 188 202
198 181 197
185 171 190
181 167 195
148 138 172
59 58 51
51 52 30
52 54 30
48 49 28
52 54 30
51 53 30
48 51 29
83 74 66
123 103 103
101 86 87
122 103 101
102 88 86
57 58 34
55 57 34
56 58 34
58 60 35
56 57 33
45 46 27
55 57 33
58 60 35
56 57 32
54 55 32
53 54 31
57 58 33
55 55 32
55 56 32
58 59 34
58 60 34
57 59 34
62 64 36
64 62 40
120 101 98
130 110 111
126 105 104
122 103 105
123 103 106
133 112 115
132 111 112
94 84 78
65 66 38
63 65 37
67 69 40
66 69 40
65 67 39
65 68 40
63 65 37
63 65 37
62 63 37
68 70 39
65 67 38
65 67 39
62 65 37
64 66 39
69 71 41
66 69 40
111 97 90
141 119 120
146 123 122
139 116 113
140 118 120
144 121 118
153 129 127
144 122 122
140 119 118
141 120 119
150 126 124
116 101 93
73 73 47
70 72 42
73 75 43
67 69 40
72 74 42
70 72 42
68 70 40
69 71 41
66 68 40
71 73 42
68 70 40
70 72 42
71 73 42
80 79 57
136 109 115
94 40 83
97 36 81
103 38 86
106 39 88
99 36 82
103 38 87
99 36 83
101 36 83
98 36 85
91 33 75
104 37 86
104 37 89
105 38 89
95 33 76
95 35 81
99 36 84
99 36 86
100 37 84
97 37 86
98 41 88
102 42 91
101 42 89
91 44 79
100 46 89
90 42 80
88 46 76
91 52 80
102 64 89
106 70 97
113 94 109
115 116 110
117 119 116
125 123 125
139 137 141
108 119 104
86 118 72
142 147 140
182 174 189
177 172 197
168 164 188
154 151 179
103 105 137
74 70 118
63 55 119
59 54 116
57 42 120
60 41 118
65 44 129
62 43 124
62 43 126
63 42 125
59 43 124
66 49 127
67 52 124
67 50 127
77 66 130
91 79 137
104 93 143
125 113 154
144 136 159
160 151 168
139 134 115
114 113 50
111 109 18
117 115 19
119 117 20
113 111 19
112 111 19
113 105 63
83 65 99
62 27 112
62 24 120
65 25 126
63 24 124
67 26 131
63 24 126
61 44 122
50 65 110
40 96 103
36 112 93
45 120 99
17 114 90
10 119 91
10 120 92
10 117 91
11 121 93
10 119 94
11 123 94
11 121 94
11 124 94
11 125 96
18 122 92
34 117 94
40 119 96
82 127 112
108 120 120
137 126 151
140 126 161
152 137 170
156 142 170
176 156 183
185 161 191
182 157 186
168 145 172
142 123 149
98 81 104
100 84 106
107 93 119
104 94 112
103 103 102
111 112 112
108 111 110
105 108 107
115 117 122
126 127 130
120 120 126
59 41 29
60 42 29
60 45 35
58 43 34
50 41 36
48 40 36
49 42 36
55 51 53
68 66 71
50 56 62
59 62 72
57 59 70
89 89 97
75 78 83
80 81 92
86 82 104
69 64 96
55 47 93
42 36 92
45 35 98
40 32 88
49 33 102
53 33 111
52 32 107
54 34 113
55 34 115
55 34 115
52 33 110
55 34 116
54 34 113
50 32 106
53 33 111
48 31 105
55 37 113
47 53 90
58 86 83
59 96 77
63 96 79
56 92 74
65 94 74
65 93 77
66 99 83
106 111 111
136 131 140
176 160 187
173 156 190
169 154 196
156 143 190
152 140 189
159 146 192
168 154 193
178 161 194
172 156 178
152 140 153
102 99 96
89 89 82
108 107 105
105 107 106
109 109 108
108 110 111
112 114 109
108 111 110
112 114 109
109 112 107
113 115 111
108 110 107
110 113 108
105 107 102
99 96 102
86 79 92
81 72 91
86 77 93
86 77 95
94 87 104
99 85 110
119 105 132
107 90 115
88 76 98
99 85 107
102 90 111
102 88 113
115 104 125
105 92 116
95 80 103
103 90 108
106 91 117
110 100 116
115 105 120
136 125 146
142 130 151
171 160 176
183 172 200
171 159 188
144 134 150
169 124 138
188 107 117
189 106 118
189 106 119
189 106 118
187 105 118
186 105 118
188 106 119
185 105 121
189 106 118
184 105 120
185 105 120
188 105 118
186 105 118
188 106 118
189 106 118
188 106 118
188 105 118
188 105 118
185 104 118
187 105 118
192 107 118
194 109 118
194 109 118
192 108 118
194 109 118
193 108 118
192 108 118
192 107 117
194 109 118
191 107 117
191 107 117
190 107 116
193 108 117
190 106 116
194 109 118
190 107 116
185 104 113
156 98 94
96 81 59
83 84 51
82 88 50
83 90 57
103 107 85
131 126 127
128 118 120
136 125 135
118 112 106
98 94 70
102 96 33
117 110 35
122 117 34
119 114 32
138 130 36
134 130 37
140 135 34
130 125 35
140 134 36
138 132 45
145 137 61
155 144 78
157 145 81
155 143 88
154 139 110
152 140 102
178 156 122
170 143 132
174 144 140
175 150 150
184 161 163
178 158 158
176 154 153
177 154 153
175 151 157
184 159 165
179 157 165
178 152 157
182 158 166
187 164 171
197 175 185
209 189 200
211 192 205
214 195 209
214 194 210
215 195 210
212 193 207
217 197 211
215 195 210
215 196 209
217 197 211
215 195 210
216 196 209
215 195 209
214 194 208
214 194 208
213 193 205
214 193 205
219 197 207
218 196 206
221 199 207
220 199 207
223 201 207
221 200 208
202 184 197
195 178 197
175 163 197
179 165 196
174 161 200
158 147 182
66 65 65
52 54 31
52 55 31
57 59 33
55 57 32
52 53 30
54 56 32
83 76 69
116 96 94
86 76 66
56 58 32
58 60 34
54 56 33
54 56 33
57 58 34
53 55 32
51 52 30
53 55 32
55 56 33
59 61 35
53 54 33
55 57 33
55 57 34
57 59 34
56 58 34
59 60 34
54 56 32
59 60 34
58 59 34
58 60 35
75 71 57
125 104 104
131 109 109
125 107 109
134 113 114
127 107 110
96 87 76
60 62 35
64 66 39
64 67 38
62 64 37
67 69 40
66 68 39
66 67 39
67 69 39
69 71 41
66 68 40
67 69 39
66 69 40
67 70 41
67 69 40
67 69 39
66 67 38
70 72 41
72 71 47
133 113 109
148 124 126
144 122 125
146 123 122
154 130 131
148 125 124
147 123 124
142 121 121
146 123 123
112 99 92
72 73 43
70 72 41
66 68 38
72 75 43
70 72 41
68 70 40
69 72 41
72 74 42
70 72 41
69 71 41
71 73 42
69 71 41
69 71 41
69 72 41
71 74 43
91 59 74
99 36 83
94 34 78
105 38 88
93 34 78
98 35 80
95 34 80
94 34 76
97 35 82
96 35 82
94 34 79
99 36 81
96 34 80
98 35 82
92 34 77
93 34 77
95 35 83
94 35 81
86 32 76
100 37 83
98 42 86
99 45 87
90 43 80
92 43 80
92 46 80
93 45 81
95 45 81
84 44 76
86 48 74
113 99 112
141 134 146
131 128 135
138 132 147
144 138 150
140 136 147
129 132 134
112 133 117
132 145 125
174 174 164
180 176 190
167 167 192
141 142 173
95 100 143
67 85 125
54 66 118
57 53 124
57 43 117
64 44 126
61 41 121
66 43 127
65 43 127
66 41 122
64 43 126
64 42 121
61 40 120
63 45 118
62 44 121
78 62 134
101 90 146
137 126 163
143 133 152
132 127 118
107 107 35
109 108 18
107 108 18
113 110 19
111 110 18
104 105 17
108 108 17
107 103 55
88 72 97
61 23 117
62 24 118
63 24 123
64 24 124
66 24 129
68 26 134
59 39 116
38 90 101
38 102 98
16 112 91
10 114 88
11 121 92
19 115 89
14 115 90
19 116 88
18 121 89
13 120 92
11 125 96
11 123 93
11 127 94
11 119 93
11 123 94
23 120 93
27 119 90
36 112 83
85 107 107
122 116 140
123 112 143
109 104 134
102 106 121
126 120 139
143 127 147
142 122 146
140 118 139
103 87 102
66 51 67
70 58 75
88 77 96
89 85 107
111 110 117
116 116 120
119 119 124
125 125 133
136 133 143
145 141 154
135 133 143
58 40 27
54 41 33
54 42 35
54 42 35
50 41 36
54 42 36
43 39 37
50 46 48
66 64 66
57 60 66
63 64 75
62 68 68
70 76 78
84 88 90
84 86 91
81 82 93
80 80 95
47 46 83
40 34 88
39 35 86
44 37 94
47 34 102
50 32 106
57 35 117
51 32 106
58 36 117
53 33 111
53 33 112
51 32 107
52 33 108
51 32 107
52 33 110
52 33 112
52 30 100
51 43 97
55 80 79
65 89 71
56 91 73
58 91 74
58 95 76
76 96 81
106 114 115
169 151 170
188 165 192
180 157 193
168 151 194
153 138 185
147 135 185
145 134 186
151 140 189
164 150 195
179 164 202
188 171 203
191 171 194
150 139 149
116 109 107
105 102 102
107 108 108
106 110 109
98 101 99
112 113 109
106 110 108
108 110 107
115 117 113
108 111 106
107 109 103
111 113 108
104 105 105
101 98 106
91 84 93
88 81 93
88 79 98
87 77 95
90 82 98
93 83 101
90 78 99
96 82 108
102 87 110
92 78 101
81 68 93
109 97 114
98 88 106
88 74 98
110 97 118
103 87 110
111 98 119
110 96 122
104 94 107
116 106 121
141 132 148
159 151 171
174 164 189
173 162 192
170 128 147
186 106 118
190 106 118
186 105 118
188 105 118
187 105 118
190 107 119
185 105 121
180 103 124
184 105 120
181 104 123
180 104 123
183 104 120
181 104 122
183 105 122
185 104 119
189 106 118
189 106 118
188 106 118
186 104 118
188 105 118
188 106 118
193 108 118
197 110 118
194 109 118
195 109 118
195 109 118
193 108 118
194 109 118
194 109 118
192 107 117
193 108 116
191 107 117
190 107 117
191 107 117
191 107 116
192 108 117
191 107 116
189 106 114
187 105 115
150 95 90
91 81 54
89 74 52
88 79 50
90 93 52
96 94 77
117 109 96
117 109 109
131 125 123
130 124 87
112 108 48
122 115 36
119 114 34
130 125 35
135 129 35
132 127 36
144 139 36
148 143 36
143 137 41
136 125 48
152 145 55
157 146 77
159 149 82
150 139 91
152 140 95
152 139 100
163 145 114
167 141 117
164 132 126
176 146 143
173 146 145
155 130 128
146 123 118
172 149 147
167 144 141
180 157 158
167 142 140
191 167 169
185 161 163
181 157 156
195 173 174
200 178 181
216 194 199
218 199 204
221 202 207
222 202 208
223 203 209
221 201 209
221 202 208
222 202 209
225 203 211
224 202 211
225 204 211
224 203 210
218 198 204
227 206 211
225 204 207
228 205 209
227 205 209
224 202 205
225 203 206
225 203 207
222 200 204
221 200 207
204 186 202
186 172 194
188 173 196
166 156 193
170 159 195
153 145 188
153 143 179
71 70 62
52 54 30
52 54 31
50 52 31
57 60 33
55 57 33
63 62 42
79 71 62
54 55 31
57 59 35
57 59 33
53 56 32
50 51 30
58 60 35
58 59 34
58 60 35
54 56 33
55 56 34
57 58 34
59 60 35
55 57 33
55 58 35
57 58 33
54 56 33
57 58 34
58 59 33
57 58 33
61 63 37
60 62 36
58 59 33
102 88 83
132 111 111
136 114 115
129 109 110
92 83 70
61 63 37
63 65 38
63 65 39
66 67 38
64 65 36
65 67 38
65 67 39
65 67 38
66 68 39
65 67 38
65 67 39
67 69 40
68 70 40
66 68 39
67 68 38
68 70 40
67 69 40
67 70 40
67 69 39
84 79 59
143 120 116
152 128 127
154 130 128
140 119 119
151 127 125
144 122 122
146 124 126
115 102 90
67 70 41
70 72 41
70 72 41
72 74 43
69 71 41
67 69 39
71 74 42
71 73 41
69 72 41
67 70 39
70 72 41
70 72 41
70 72 41
71 73 42
71 73 42
75 65 52
87 43 71
92 34 77
100 37 82
95 35 79
98 36 80
92 33 76
100 36 82
99 36 85
96 35 81
92 33 77
99 36 84
95 34 80
96 35 82
95 34 78
86 31 74
94 34 84
93 33 79
93 34 83
90 33 79
95 40 85
100 42 88
97 38 86
85 38 75
98 48 82
82 42 72
85 49 70
87 44 78
86 44 76
95 73 100
148 139 163
147 139 154
146 138 151
141 136 146
144 138 151
119 123 133
124 130 135
108 127 115
120 136 118
190 179 164
186 180 181
144 153 167
121 135 159
80 100 130
65 86 122
53 71 117
55 69 118
67 54 127
63 41 122
74 44 126
69 42 121
71 44 125
69 42 119
70 42 122
73 46 130
66 43 126
77 45 131
61 41 119
65 51 123
96 82 138
127 114 153
128 120 127
109 108 53
106 106 18
113 112 18
113 110 18
107 106 18
108 106 17
107 106 18
106 104 17
98 95 49
71 53 97
53 21 104
60 23 118
59 22 115
62 23 124
63 24 121
62 23 121
59 44 119
33 88 90
17 109 89
9 106 84
14 114 86
18 117 89
17 109 85
20 114 87
18 120 91
32 112 84
24 114 85
21 117 89
27 126 92
20 117 87
15 119 89
11 125 94
11 119 91
23 119 92
33 118 91
71 102 96
101 101 121
106 99 133
105 99 124
96 98 115
110 104 131
122 110 141
106 91 117
108 97 129
94 83 110
61 52 68
71 65 80
91 87 111
109 101 123
138 135 149
123 123 130
130 128 132
133 130 141
125 125 138
149 144 160
125 126 138
59 41 29
49 39 33
59 44 34
52 41 33
51 43 38
40 38 37
36 39 40
48 50 52
58 57 65
67 69 80
75 76 83
65 71 79
80 85 89
97 97 99
100 99 108
88 89 97
88 86 102
59 57 96
35 35 79
40 34 86
43 34 93
45 33 98
53 33 108
53 33 111
53 33 112
55 35 114
56 35 117
51 32 107
52 33 108
51 32 107
53 33 111
52 32 109
50 31 105
65 33 110
69 40 99
61 67 86
59 88 72
64 83 68
68 95 77
76 81 70
115 112 114
169 146 161
197 173 196
192 169 198
180 160 195
174 156 197
163 149 193
159 141 185
155 139 185
159 146 192
168 154 198
178 163 203
192 176 209
198 179 206
197 177 197
156 142 149
115 111 113
97 99 100
102 105 103
106 108 107
104 107 103
104 107 103
108 110 106
106 110 107
100 103 99
106 109 106
112 115 109
111 112 108
84 82 89
89 82 93
84 76 93
90 82 96
84 77 94
86 77 94
95 81 107
109 95 118
108 94 119
101 86 117
91 76 104
98 82 108
97 84 105
109 93 124
108 95 119
105 93 115
99 85 106
95 83 101
92 81 96
91 84 95
91 84 98
105 101 106
135 129 141
166 158 179
177 140 160
188 108 122
189 106 118
188 106 118
188 105 118
185 105 120
179 104 123
182 104 123
176 103 126
179 104 126
184 105 121
179 104 125
175 103 126
182 104 123
175 102 125
177 103 126
178 102 120
180 104 124
182 104 121
187 105 119
189 106 118
188 106 118
188 106 118
192 108 118
194 109 118
193 108 118
194 109 118
194 109 118
193 108 118
195 109 118
195 109 118
193 108 117
192 107 117
195 109 118
192 108 118
194 109 117
194 109 118
191 107 117
187 105 114
191 107 116
188 105 113
191 107 115
160 93 97
97 78 57
88 77 49
86 67 47
84 84 51
77 84 48
100 99 91
121 120 124
137 131 98
119 116 45
125 120 35
125 120 34
136 132 34
132 128 34
145 139 35
149 143 36
140 135 35
141 136 39
143 137 46
148 140 52
145 137 53
150 140 78
137 129 66
148 137 78
153 138 94
163 140 117
165 137 121
160 132 125
166 135 131
152 120 111
146 122 119
145 122 126
150 126 129
159 136 141
167 144 148
167 143 146
173 148 150
173 148 148
181 155 155
187 162 163
194 171 172
199 177 180
211 191 195
222 203 208
223 203 207
221 201 207
222 202 208
220 200 207
218 198 206
218 197 205
222 202 210
222 201 209
222 201 209
216 195 204
218 197 207
219 199 207
218 197 206
220 199 207
216 195 204
218 197 208
214 194 205
211 191 202
207 188 205
181 167 196
176 163 197
176 164 200
171 159 195
163 154 198
167 157 195
152 145 192
145 136 167
71 71 68
50 53 30
56 58 34
53 55 30
57 56 36
100 84 84
104 90 89
56 58 33
55 57 34
57 58 33
55 57 34
59 61 36
60 62 35
56 58 33
58 60 36
57 59 33
56 57 32
59 60 35
56 57 32
56 58 33
51 53 30
53 55 32
59 61 35
59 61 36
65 66 38
60 61 35
61 62 37
63 65 37
61 63 37
65 65 40
115 98 96
124 105 102
77 72 56
60 63 36
62 64 37
64 66 38
64 66 38
63 64 37
67 69 39
68 69 40
65 68 40
67 68 39
67 68 39
69 70 39
67 69 40
68 69 39
69 71 41
64 66 38
68 71 40
70 73 41
65 67 38
69 72 42
68 70 41
68 69 39
114 101 93
147 122 122
144 120 120
147 125 125
148 124 124
143 120 118
97 89 74
69 71 42
72 74 43
67 69 39
68 70 39
68 70 40
71 73 41
68 69 39
72 75 42
69 72 41
68 70 39
67 70 41
71 73 41
70 71 40
72 75 43
72 74 42
70 72 41
81 49 64
84 31 70
100 36 80
94 34 80
97 36 80
96 35 80
96 35 79
93 34 78
87 32 76
98 36 84
94 35 79
99 36 85
91 33 74
93 34 78
91 32 77
96 35 80
95 35 82
98 35 83
92 34 82
91 33 82
98 42 89
103 48 90
103 51 91
97 42 84
97 46 85
85 44 75
86 48 76
73 46 62
87 58 95
118 96 148
126 108 147
132 116 153
136 128 143
132 134 145
117 123 121
96 112 105
95 116 106
85 113 104
102 124 115
136 145 138
177 175 166
151 162 162
122 142 154
72 95 123
55 81 117
64 75 123
64 67 122
65 56 122
70 41 120
67 40 118
71 42 123
65 41 117
71 44 127
69 42 120
75 43 124
77 43 125
73 44 126
62 40 114
72 51 127
99 82 137
97 88 119
102 99 75
113 106 77
112 106 68
105 103 49
117 113 53
122 115 65
104 103 32
110 109 18
103 102 18
87 82 50
58 41 92
54 21 104
50 19 98
46 18 88
55 21 102
58 31 106
63 42 111
58 66 93
27 97 77
23 102 81
18 104 81
22 103 79
45 111 84
37 104 77
37 114 86
40 108 78
41 109 80
47 115 83
26 115 87
35 113 83
32 113 85
35 117 87
27 119 89
16 111 84
11 113 84
28 122 95
72 107 105
106 104 129
114 105 137
98 95 116
90 91 101
98 94 112
111 104 133
116 108 142
106 97 131
97 88 117
76 69 89
73 70 88
90 84 111
116 111 134
146 142 160
133 131 142
130 135 144
124 126 141
126 126 135
118 122 128
111 115 120
57 42 32
54 40 31
43 38 35
49 40 34
40 39 37
40 38 38
41 38 37
53 52 53
56 58 67
74 75 89
88 88 100
94 94 101
93 93 103
99 97 111
86 86 99
106 103 113
77 79 88
47 48 77
39 34 87
37 35 83
38 31 83
46 34 96
56 35 115
56 35 116
53 33 113
54 34 112
57 36 119
54 34 115
53 34 114
54 34 114
52 33 109
53 33 110
56 32 106
56 31 103
54 33 100
74 64 83
66 66 55
62 77 60
63 75 61
80 86 84
159 142 153
188 158 175
200 175 196
192 167 195
186 166 198
177 154 189
179 161 198
175 156 192
179 161 198
179 163 201
185 169 205
189 174 210
196 179 210
201 182 211
206 185 206
183 165 178
135 125 130
108 108 104
102 104 105
107 110 106
103 105 101
104 106 103
105 107 103
116 118 115
107 109 102
112 115 111
108 112 106
108 109 107
96 93 99
98 93 101
79 69 90
84 75 93
83 73 92
73 58 87
84 69 97
91 72 104
99 84 111
110 94 118
97 79 106
102 85 109
92 77 103
92 77 102
92 77 100
88 72 99
88 71 99
93 81 101
103 92 109
114 104 121
109 100 115
120 112 124
142 134 149
177 139 153
190 110 122
189 106 118
190 107 119
186 105 119
186 105 120
184 105 123
178 103 124
175 102 126
178 104 126
175 102 125
175 102 125
169 101 129
177 103 125
171 102 129
177 103 126
173 102 126
174 102 126
174 102 126
177 103 125
178 102 121
186 105 118
186 105 118
188 106 118
194 108 118
193 108 118
193 109 118
194 109 118
193 108 118
195 109 118
195 109 118
196 110 118
193 108 117
193 108 117
192 107 117
192 107 116
192 108 117
191 107 117
193 108 117
187 105 115
187 105 115
191 107 115
195 109 117
187 105 113
160 94 95
104 72 57
90 68 48
83 72 49
83 79 50
79 82 59
104 107 90
118 117 88
120 118 46
130 125 34
135 131 34
130 124 32
139 135 32
144 138 34
141 137 34
139 134 34
144 137 37
136 130 41
138 130 42
145 139 51
142 137 57
143 137 53
142 135 68
149 136 86
149 130 93
144 121 95
157 127 116
147 116 105
153 121 111
134 105 98
136 114 115
145 121 124
130 109 108
141 116 118
147 120 125
135 109 110
151 124 128
160 135 144
167 145 155
171 146 151
192 171 181
195 174 186
215 196 208
218 198 210
213 195 206
214 195 206
212 193 204
215 195 208
216 196 207
215 196 206
216 197 208
214 195 207
213 194 207
211 192 205
211 192 205
210 191 205
211 192 208
208 189 204
204 186 202
206 187 206
202 184 204
200 183 208
184 171 203
168 157 196
163 154 193
158 149 188
154 147 194
151 144 190
145 140 192
135 132 188
142 135 175
72 70 69
52 56 31
54 54 33
105 88 90
120 102 104
124 104 106
79 71 63
52 52 31
49 50 29
56 58 34
54 56 33
54 56 33
54 56 33
56 58 34
56 58 33
57 59 33
63 65 37
62 64 37
60 62 35
55 57 33
60 63 37
57 59 34
60 61 35
56 58 33
62 64 36
60 61 36
60 61 35
63 64 38
61 63 35
96 85 73
73 72 50
64 66 39
64 65 37
63 64 37
64 65 38
65 67 39
64 66 38
67 69 40
65 67 38
63 65 38
64 65 38
62 63 35
69 71 40
66 68 38
70 72 41
63 65 37
65 68 39
68 70 40
68 70 39
64 66 37
69 70 40
71 72 40
68 70 39
70 71 42
123 106 103
144 122 122
147 124 124
137 116 115
86 82 61
70 72 41
69 71 41
68 70 39
69 71 41
73 75 43
70 72 41
69 71 40
71 72 41
71 73 42
68 70 40
69 70 39
70 72 41
71 73 41
72 74 42
70 72 41
72 75 43
73 70 47
81 42 66
92 34 76
96 35 79
92 34 75
94 34 78
86 32 72
90 33 74
90 33 77
93 34 81
90 33 76
100 36 83
92 33 78
95 34 77
87 32 75
96 35 82
91 33 80
94 34 81
96 35 84
97 34 81
94 35 83
85 38 73
96 50 86
98 54 88
89 42 77
90 41 81
88 42 75
84 44 72
83 46 95
92 49 140
95 62 138
109 83 139
106 87 131
116 113 121
106 115 118
94 119 108
81 111 102
74 110 94
73 115 101
73 106 89
127 143 133
174 172 160
171 173 159
121 140 144
59 98 124
58 86 123
70 72 125
70 69 124
66 63 123
70 55 121
69 46 125
81 43 120
81 44 128
69 42 121
83 44 127
73 44 127
74 44 128
72 43 124
93 54 130
95 64 132
102 79 142
106 86 135
130 108 140
135 114 146
141 118 150
140 117 153
144 120 160
135 115 134
121 108 106
110 105 73
91 91 41
77 75 55
61 47 82
43 22 79
39 15 74
43 23 74
46 31 80
46 39 70
79 74 90
58 80 76
48 101 86
29 101 76
38 104 76
35 103 76
40 102 77
46 113 81
47 108 78
52 110 78
47 106 75
53 111 78
47 112 80
43 103 79
48 111 83
50 101 76
45 94 70
43 98 75
41 95 74
44 107 88
81 105 111
124 116 157
130 118 166
122 112 150
93 89 109
93 90 105
100 93 117
131 118 161
131 118 163
119 107 145
98 92 118
97 91 117
111 102 136
132 130 153
149 147 161
126 131 137
121 124 130
111 117 120
108 114 116
94 103 99
93 101 97
51 40 32
50 40 33
48 40 35
44 40 38
40 40 40
39 39 38
38 39 39
45 48 51
56 64 66
60 67 70
82 84 92
79 81 90
75 81 81
73 76 86
63 70 72
65 72 74
59 66 72
49 47 85
35 34 80
37 36 82
42 34 91
44 34 93
55 34 113
50 32 107
52 33 112
54 34 111
54 34 115
55 34 113
53 33 113
52 33 109
58 33 110
52 33 109
66 32 104
65 30 102
66 29 94
68 60 81
68 73 60
66 63 50
68 70 58
109 92 99
181 155 166
198 169 184
197 170 189
194 171 196
191 165 193
191 169 199
189 165 193
190 167 195
194 172 201
194 174 203
200 180 208
201 183 212
201 182 209
201 182 204
209 188 207
203 182 194
162 147 155
114 109 113
100 103 102
101 103 102
109 111 109
101 103 102
104 107 103
104 107 101
103 106 102
107 109 105
104 108 102
106 108 104
98 93 101
94 90 98
83 76 91
80 69 88
82 68 94
74 58 88
72 61 79
88 74 99
79 62 95
71 53 83
75 57 88
80 64 87
82 64 95
83 64 94
75 58 86
88 78 92
93 80 104
106 92 114
114 101 122
107 95 115
111 99 116
114 107 117
163 130 145
187 108 120
189 106 118
185 104 118
189 106 118
181 103 121
187 105 120
169 100 127
178 103 125
177 103 127
169 101 129
166 101 133
173 102 129
172 102 128
174 103 129
166 100 130
163 99 131
174 103 126
168 100 128
173 102 127
175 103 126
181 104 123
181 104 123
182 104 120
188 106 118
191 107 118
194 109 118
194 109 118
193 109 118
193 108 118
196 110 118
196 110 118
194 109 118
193 108 117
194 109 118
192 108 117
192 108 118
189 106 117
189 106 116
193 108 117
194 109 117
188 105 115
186 104 113
190 106 115
188 106 114
186 104 113
157 93 95
113 67 63
94 67 56
96 78 69
94 90 72
116 113 79
117 118 83
124 121 48
135 131 33
134 130 33
142 138 34
143 137 34
136 132 33
148 143 34
145 140 35
135 131 39
139 135 43
142 136 40
135 129 43
138 134 48
142 137 46
138 129 59
140 130 71
149 129 89
148 121 105
161 131 124
152 122 112
145 113 104
145 113 103
133 104 96
126 101 98
124 93 86
121 96 93
148 125 132
134 105 106
145 119 126
150 125 134
150 126 136
168 145 159
176 154 168
183 165 183
198 181 201
205 187 208
203 185 207
205 188 208
204 186 206
202 185 203
207 189 209
209 192 210
209 191 211
205 188 208
203 186 209
201 184 206
201 184 206
200 183 204
200 183 204
200 183 205
202 185 208
201 184 208
201 184 207
191 176 203
181 168 202
174 163 198
156 149 194
149 143 191
147 141 189
150 143 190
151 144 188
148 142 190
158 149 190
137 132 175
85 78 79
117 100 97
119 101 104
115 97 99
126 107 107
113 96 95
71 68 54
54 56 33
58 60 35
54 56 32
59 60 36
56 57 33
59 60 34
56 57 33
61 63 36
57 59 35
58 60 34
57 58 34
57 58 34
54 55 32
55 56 32
59 61 37
63 63 35
60 61 35
63 65 38
63 64 37
61 63 37
105 92 80
131 110 110
105 92 83
65 67 39
61 63 36
66 67 38
61 62 35
64 65 37
67 68 39
64 66 38
68 70 40
68 69 39
65 66 38
69 71 41
69 70 39
67 68 38
65 67 39
66 67 38
68 70 40
68 70 40
68 70 40
66 68 38
69 70 40
70 72 41
68 71 40
66 68 39
80 77 54
136 115 111
131 112 108
72 73 45
70 71 40
71 73 42
72 74 41
68 70 40
71 74 43
69 71 40
70 72 40
71 73 42
71 73 42
70 72 41
73 75 43
74 76 43
69 70 39
68 70 39
69 72 41
69 71 41
74 76 43
76 63 54
86 32 71
83 30 69
93 34 77
88 33 72
90 33 75
90 33 77
89 32 77
91 34 76
91 33 77
93 34 79
96 35 82
90 33 78
95 34 81
92 34 77
96 35 82
93 33 78
95 34 83
101 36 88
90 33 80
89 33 77
90 44 77
92 47 79
92 50 80
83 45 72
85 45 72
79 49 65
78 42 89
90 33 139
86 33 139
89 42 139
92 47 138
88 55 127
91 91 113
87 106 95
97 117 110
94 123 113
74 126 112
80 123 112
89 123 117
103 127 127
145 154 145
164 170 157
115 134 136
70 97 123
57 92 123
61 92 122
63 78 116
73 62 120
79 57 126
81 43 122
80 42 122
80 42 121
85 45 125
86 45 131
79 43 122
80 44 126
77 41 117
83 51 121
111 80 152
123 88 159
138 103 165
148 116 174
152 120 181
152 121 187
153 122 185
153 122 183
147 117 181
148 118 178
138 116 147
123 107 119
81 77 78
52 52 53
56 54 58
59 56 60
44 40 57
57 57 58
56 60 56
75 77 72
73 90 81
38 108 81
37 107 79
37 105 79
40 95 70
44 100 72
46 102 73
43 109 82
53 102 70
49 113 81
64 100 69
61 94 68
67 89 63
61 78 58
61 76 58
67 77 56
61 76 58
59 77 59
55 76 60
68 84 84
88 89 114
124 113 158
129 118 160
114 105 142
111 103 132
105 98 124
107 100 131
118 108 147
104 96 128
94 88 110
106 98 130
124 117 146
130 130 140
119 123 124
116 121 126
105 113 114
111 116 118
104 111 112
94 103 97
93 102 101
54 43 38
46 39 35
46 41 39
49 40 33
34 36 37
36 39 41
44 48 52
55 57 64
68 72 79
61 65 75
66 71 71
71 76 79
59 65 70
52 61 64
70 71 85
55 62 69
51 57 70
41 47 71
28 33 67
33 34 75
36 33 80
43 34 93
52 33 108
53 33 111
51 32 106
51 32 106
54 34 113
53 33 110
53 33 111
54 33 108
57 31 100
60 30 98
69 29 100
59 31 100
75 33 93
87 64 81
70 65 62
75 62 52
78 54 54
145 114 122
188 160 167
203 171 180
203 172 188
203 173 189
194 163 182
201 175 194
200 175 195
200 173 194
209 185 204
208 183 202
199 172 192
207 187 206
208 187 204
206 185 199
210 188 199
211 189 200
170 151 156
122 114 115
92 95 95
101 103 104
104 107 104
107 109 106
95 98 93
98 101 93
98 102 95
102 105 100
99 103 96
97 100 96
89 89 91
75 66 84
77 69 86
67 51 82
72 56 85
86 72 96
99 80 111
96 78 108
94 75 111
100 82 112
80 59 97
98 81 110
86 69 98
100 82 110
96 79 104
92 71 101
95 80 107
91 76 102
102 89 109
78 69 83
87 80 90
135 95 102
187 108 119
190 107 118
187 105 118
188 105 118
186 105 119
175 103 127
178 103 124
175 103 126
173 103 130
174 102 126
169 101 128
166 99 126
167 101 129
165 101 134
160 99 132
164 100 132
167 100 128
170 102 128
170 102 129
163 99 128
170 101 127
175 102 123
173 101 121
180 103 122
187 105 118
193 108 118
196 110 118
194 109 118
195 109 118
196 110 118
194 109 118
195 109 118
194 109 118
194 109 118
193 108 118
192 108 117
192 108 117
191 107 117
193 108 117
195 109 117
194 108 117
189 106 117
191 107 115
193 108 117
191 107 115
186 104 113
191 107 115
163 93 98
120 75 76
108 81 78
124 104 104
119 110 97
131 128 88
131 126 43
133 128 36
128 125 31
137 132 32
141 134 32
143 138 33
137 131 32
142 135 36
141 136 39
133 128 44
123 119 43
136 130 43
129 123 47
129 125 48
133 125 45
128 121 50
134 115 74
133 110 88
136 106 94
128 94 79
124 90 74
122 93 80
123 88 73
121 89 75
120 88 79
121 95 91
121 95 92
115 91 88
124 92 85
132 105 105
145 119 127
158 135 148
165 143 157
174 153 172
198 181 203
198 182 205
200 184 210
202 185 212
197 180 205
199 183 207
201 184 210
201 185 212
203 185 211
203 186 212
202 185 211
202 185 210
199 183 207
196 181 204
197 181 207
198 182 207
199 183 208
196 180 205
196 181 205
198 182 208
179 167 202
160 152 193
161 151 193
159 150 193
157 148 191
139 134 184
143 137 183
156 148 194
154 146 188
153 144 188
134 126 166
122 104 112
118 99 98
125 105 106
110 94 94
121 102 103
101 87 84
57 59 35
58 59 35
56 58 34
58 60 34
57 59 35
58 59 34
56 57 33
61 63 36
57 58 33
58 59 35
58 59 35
60 63 37
59 61 35
62 64 39
62 62 35
61 62 36
63 64 38
62 64 35
62 64 38
109 94 84
132 110 110
135 113 113
135 113 112
80 74 59
65 66 37
61 63 36
65 67 39
64 66 37
67 69 39
65 67 39
69 71 40
68 70 40
65 68 39
66 68 38
68 70 40
68 70 40
66 67 39
66 68 38
67 69 39
71 73 41
69 71 41
66 69 40
68 70 39
65 67 38
70 72 42
68 71 41
70 72 41
114 100 89
71 70 43
74 76 43
71 73 42
71 73 42
73 75 43
70 72 41
68 70 41
71 72 41
69 72 41
69 70 40
71 73 41
70 72 41
70 72 41
68 70 39
71 74 43
71 73 42
71 73 41
73 75 43
69 68 42
77 48 57
83 31 67
88 33 72
75 28 61
85 31 69
94 34 78
95 35 78
96 35 80
88 32 74
92 33 76
91 33 74
90 33 78
87 32 74
83 30 68
98 36 83
89 32 77
90 33 79
95 34 82
89 32 76
88 32 80
86 36 77
84 42 72
84 47 71
89 57 78
72 46 57
82 52 66
86 44 88
88 33 136
86 31 137
87 31 138
88 32 139
92 38 145
94 53 138
105 113 138
107 123 129
115 129 134
109 131 130
120 138 138
107 139 139
105 136 136
92 132 128
91 134 128
134 147 145
100 125 131
63 105 123
71 85 120
64 86 116
69 81 122
76 81 124
81 70 124
73 52 115
77 40 116
87 44 124
85 44 124
80 43 123
84 44 126
78 40 119
93 54 129
117 78 147
133 99 165
147 108 174
141 106 169
147 110 175
154 116 178
153 119 183
155 123 185
150 120 182
153 121 183
155 123 186
157 125 184
149 119 176
117 99 136
95 90 97
86 87 80
103 99 103
105 97 113
127 119 130
112 105 117
119 113 121
95 104 101
31 101 75
39 100 71
47 98 69
53 98 69
57 107 75
51 95 66
52 98 70
58 98 68
58 100 71
65 82 57
68 75 53
69 76 54
69 76 53
66 74 53
68 75 52
68 75 54
60 72 53
56 72 57
55 73 58
58 75 65
77 85 92
98 96 119
111 104 130
84 81 99
79 79 83
73 75 76
81 80 88
70 72 67
77 77 84
105 100 121
133 126 148
143 139 148
121 121 120
96 103 99
93 100 96
90 100 92
83 94 87
95 103 99
85 95 94
51 46 47
41 38 36
34 37 38
39 38 37
36 39 41
28 36 39
60 59 63
65 66 77
42 52 62
65 67 81
75 78 90
56 61 74
60 65 76
78 80 94
65 68 76
78 77 86
58 59 77
31 37 65
31 35 71
31 35 72
37 35 83
41 33 87
47 32 100
53 33 113
49 31 104
54 34 111
51 32 107
52 33 108
50 32 107
61 30 101
64 30 102
72 29 97
71 27 89
82 23 77
76 30 85
85 58 76
84 70 66
75 45 43
84 40 44
132 104 114
187 155 163
190 157 165
189 157 167
201 167 177
205 174 185
209 180 192
208 176 187
207 174 185
212 181 191
212 185 196
207 178 191
202 178 192
197 176 187
205 184 189
209 188 192
195 176 181
172 156 160
118 112 117
93 96 96
100 102 101
96 98 93
90 93 88
96 99 96
93 97 91
92 95 88
92 96 90
91 94 90
97 99 96
80 77 85
79 70 89
77 71 86
77 67 88
74 62 86
69 53 83
104 88 115
76 49 92
89 68 107
94 76 108
84 65 95
90 70 104
92 73 108
80 62 92
90 75 106
89 73 93
81 65 90
86 72 91
97 87 100
91 80 96
120 90 97
184 104 116
191 107 119
187 105 118
188 105 118
190 107 119
176 101 121
178 103 123
176 103 127
166 100 130
177 104 125
165 101 133
164 100 131
159 100 135
159 99 134
158 97 131
159 99 134
162 101 133
160 100 135
168 100 127
165 99 125
162 98 128
161 99 129
170 102 129
177 103 124
178 103 121
183 104 120
192 107 118
194 109 118
194 109 118
196 110 118
193 108 118
193 108 118
195 109 118
194 109 118
193 109 118
192 108 116
192 108 117
194 109 117
194 109 117
193 108 116
192 108 117
194 109 117
192 108 117
185 104 112
187 105 113
190 107 116
189 106 115
189 106 115
189 105 114
177 100 106
141 102 106
145 120 122
130 117 106
127 123 78
133 131 42
128 124 30
132 128 31
142 138 33
139 135 32
134 130 31
125 120 31
131 126 39
137 131 38
132 127 42
130 123 45
132 125 39
130 128 49
126 121 43
126 119 48
128 115 43
130 113 64
116 97 63
126 98 86
120 91 75
117 88 74
108 81 65
107 75 53
110 74 56
108 69 46
109 79 62
109 72 54
110 77 63
109 72 53
127 101 102
135 105 108
136 107 110
142 119 129
168 152 170
194 177 201
200 184 210
199 184 209
201 185 210
200 184 210
200 184 209
200 184 210
199 183 211
199 183 209
198 182 208
201 185 210
200 184 211
197 181 210
199 183 208
192 178 202
195 180 207
197 182 205
200 183 206
205 188 210
202 186 208
187 173 199
176 163 196
159 148 179
137 131 174
126 120 167
123 118 165
94 93 150
130 124 163
140 133 177
130 127 171
150 142 176
122 117 159
123 108 122
124 103 104
117 97 98
122 102 102
124 104 107
83 75 70
59 60 35
60 62 37
61 63 36
55 56 33
55 57 33
58 59 34
58 60 35
65 66 37
58 60 35
61 62 35
62 63 35
58 60 35
57 59 35
67 69 39
59 61 36
64 66 37
66 67 40
114 98 93
128 108 111
138 114 115
130 110 109
134 113 113
123 105 102
70 71 43
67 68 39
68 69 39
63 66 38
63 64 37
63 65 37
65 65 36
65 67 38
66 67 39
65 67 38
68 69 38
70 72 42
70 71 40
69 71 40
67 69 39
65 65 36
67 69 39
69 70 41
64 66 38
66 68 39
68 70 40
69 71 41
118 102 93
146 122 123
100 91 79
69 71 41
70 72 42
70 72 41
71 74 42
69 71 40
69 70 40
73 75 43
70 72 41
71 72 41
68 69 40
71 73 41
68 70 40
67 69 39
73 75 42
68 69 39
69 71 40
71 73 41
70 65 45
63 28 51
70 26 55
76 28 60
76 28 61
85 31 69
83 30 71
90 33 76
91 34 78
93 34 78
95 35 82
88 32 75
93 34 80
92 34 81
95 35 79
86 32 76
95 35 83
89 33 75
88 33 80
95 35 86
90 37 80
86 46 73
81 48 68
90 49 73
110 75 96
93 72 78
84 53 88
84 32 126
85 31 133
82 30 131
86 31 141
90 32 143
85 34 136
82 63 135
80 82 134
100 121 135
113 134 141
110 136 134
101 136 134
87 131 125
92 139 133
76 127 116
69 128 115
74 131 122
73 123 121
65 98 117
75 89 120
73 82 120
77 86 126
79 75 122
82 66 125
80 55 118
89 43 123
93 45 124
92 45 125
84 42 120
85 43 122
89 46 122
116 81 145
134 93 162
145 104 170
146 107 172
139 102 169
139 103 165
151 112 178
146 113 177
151 119 178
149 118 177
145 115 174
154 123 184
151 120 178
151 120 177
137 111 169
118 103 130
104 100 106
107 104 101
122 116 130
138 130 149
151 139 163
155 140 162
98 115 119
64 105 86
43 94 70
57 97 70
54 99 70
46 103 72
48 102 72
60 103 67
62 93 65
70 78 53
73 74 48
79 79 49
71 75 50
69 74 50
71 74 49
70 76 50
66 75 54
67 76 54
61 74 56
56 73 57
55 75 59
55 74 58
68 80 76
64 70 74
54 59 51
56 62 49
58 63 49
53 58 45
59 65 54
70 74 65
92 94 93
131 128 134
121 120 122
124 124 124
92 98 88
89 100 89
81 91 84
87 97 95
100 106 107
97 105 106
38 43 49
39 38 37
40 38 38
34 39 40
36 38 39
35 44 45
48 52 54
55 64 67
63 68 79
67 73 77
50 60 63
50 57 62
48 58 61
53 60 66
47 56 59
32 47 52
43 52 56
39 48 64
27 36 66
26 34 66
40 34 84
40 32 86
46 31 98
53 33 111
48 30 100
49 31 99
49 31 101
48 30 103
46 29 96
56 29 95
62 28 93
69 27 91
77 23 79
77 25 81
85 43 84
108 82 90
112 85 89
101 76 75
117 84 91
137 105 114
166 136 144
163 137 145
182 148 153
180 145 148
190 153 157
204 170 178
200 166 170
189 153 157
203 171 173
201 173 177
198 169 177
170 142 149
176 154 156
166 152 150
182 167 168
174 161 162
154 142 149
122 117 119
98 99 97
96 99 98
94 97 95
95 98 93
93 96 91
89 92 86
90 94 88
93 98 89
86 91 84
91 94 90
77 75 82
77 76 80
69 55 79
76 61 86
77 63 89
68 48 78
73 58 84
77 61 88
75 61 82
74 52 85
63 39 78
72 57 84
73 55 86
70 50 79
77 63 84
67 50 78
73 62 76
85 73 91
90 80 97
144 101 116
181 102 114
190 106 118
190 107 119
189 106 118
189 106 118
184 105 121
170 103 130
173 102 124
170 102 128
168 101 130
160 100 134
168 102 131
158 99 134
156 98 135
158 98 134
156 99 134
152 98 136
157 100 136
146 95 135
152 97 133
164 100 131
155 97 132
164 99 127
157 99 134
171 101 128
175 103 124
174 102 126
189 106 119
194 109 118
195 109 118
194 109 118
196 110 118
195 110 118
193 108 118
195 109 118
193 108 118
195 109 117
196 110 118
191 107 117
194 109 118
191 107 117
192 108 117
190 107 116
193 108 116
186 104 113
190 106 115
190 106 116
194 109 116
189 106 115
190 107 116
190 106 116
185 107 116
155 114 123
132 107 103
124 118 66
128 125 41
131 127 30
136 132 32
127 123 30
140 135 32
128 124 29
130 124 35
132 126 41
141 137 39
134 129 45
121 117 46
123 120 46
131 126 47
132 127 43
123 115 54
120 109 54
114 95 55
113 87 58
109 79 58
105 74 57
107 75 54
100 68 47
102 72 52
102 68 45
102 72 52
108 70 46
104 67 42
109 74 57
108 71 53
113 80 67
127 96 89
142 112 111
149 123 127
157 132 142
188 171 191
198 182 207
200 185 211
197 182 207
202 185 212
199 183 210
198 183 209
199 183 211
199 183 210
200 184 211
198 183 208
201 184 208
201 185 209
202 185 210
202 185 209
204 187 206
213 194 210
214 194 210
217 198 209
210 191 203
175 161 186
132 126 170
94 90 144
79 79 142
66 68 141
55 59 132
58 62 132
90 88 138
129 122 158
133 126 154
137 131 164
119 115 149
125 119 157
122 106 118
121 102 104
116 97 98
112 95 97
118 99 98
65 64 42
60 62 36
59 61 36
60 61 36
62 64 37
56 57 33
61 63 36
65 67 38
61 63 36
58 59 34
61 62 36
60 61 36
61 62 37
64 66 38
64 66 38
69 67 44
122 103 102
143 120 119
130 109 109
139 116 118
131 109 109
131 108 111
142 120 121
116 100 91
69 71 42
68 70 40
66 68 39
63 65 37
64 66 38
67 69 39
68 70 40
71 72 41
63 64 36
67 68 39
66 67 38
70 71 41
68 70 40
66 68 39
68 71 40
70 71 39
69 71 40
69 72 41
69 70 39
66 68 39
121 104 96
144 121 121
148 124 122
139 118 118
83 80 57
68 70 40
71 73 41
73 75 43
71 72 41
67 69 39
71 72 40
72 74 43
70 71 40
69 71 40
70 72 41
65 67 38
73 74 42
68 70 40
71 73 41
71 73 41
71 73 41
71 58 53
71 38 54
75 28 59
79 29 63
79 29 63
84 31 69
88 32 73
84 31 71
89 32 74
87 32 73
94 34 77
93 34 79
97 35 82
94 35 80
93 34 81
86 32 75
89 32 74
99 35 83
90 33 78
91 36 80
79 51 66
78 53 62
77 55 62
81 61 65
125 96 111
113 83 111
81 35 122
86 31 136
87 31 133
83 30 135
87 31 134
82 30 128
83 39 132
75 62 128
67 87 123
74 103 120
107 137 141
84 134 126
88 134 122
86 131 120
69 130 118
62 126 113
56 121 104
63 125 115
52 113 116
56 113 119
79 97 123
74 88 119
79 84 124
80 71 121
86 66 117
85 56 116
87 48 123
86 43 122
91 44 124
82 40 113
94 47 128
110 63 132
134 92 156
142 95 165
141 99 166
144 102 168
147 103 169
143 106 166
147 110 171
147 114 173
145 115 171
156 123 178
154 122 183
146 116 174
148 118 173
148 117 173
159 125 182
146 117 171
132 114 147
132 126 133
137 131 139
145 136 151
148 138 150
147 136 153
123 121 127
50 97 76
58 95 67
59 97 67
57 98 68
61 99 68
66 97 65
70 92 59
87 84 47
75 74 47
73 76 49
81 77 45
78 76 46
76 77 47
71 75 49
70 75 48
71 78 53
71 77 52
61 74 55
58 71 53
53 70 56
54 72 57
55 73 57
51 68 54
48 57 45
49 53 43
61 63 59
72 74 68
87 87 88
86 91 76
85 92 71
89 98 79
94 103 79
93 98 87
83 92 84
92 100 94
96 105 105
82 91 91
88 96 96
108 112 116
36 45 54
43 40 39
36 36 35
39 41 40
45 48 52
33 43 47
48 56 62
38 51 56
43 57 56
35 48 52
44 56 64
37 50 55
51 60 65
41 52 51
44 55 54
56 62 67
47 57 57
51 59 66
29 39 62
30 34 69
34 35 76
33 32 75
47 31 98
47 30 100
47 30 100
48 30 99
46 29 99
46 29 97
55 28 91
69 28 94
64 26 86
77 21 71
77 24 81
91 46 81
114 84 110
143 119 131
143 121 133
136 109 122
135 106 121
141 115 128
150 117 121
147 112 120
150 125 129
161 127 130
176 141 146
174 141 149
182 148 153
183 149 148
173 143 144
169 134 137
151 119 124
139 114 118
147 124 125
156 139 142
160 149 152
156 146 152
130 123 126
118 113 119
114 111 112
96 98 97
80 85 80
85 88 84
93 97 92
79 84 76
83 88 80
73 80 69
77 84 73
85 89 84
80 78 82
70 68 75
72 65 79
64 47 77
75 59 88
78 59 90
93 74 104
73 53 86
67 47 83
75 58 87
75 54 90
76 60 85
85 66 94
78 58 92
87 73 96
80 63 92
91 78 100
95 82 103
120 91 109
182 104 116
192 107 118
188 106 118
190 107 118
189 106 118
189 106 117
180 103 120
172 102 127
161 98 127
171 103 129
152 98 137
158 99 133
151 96 134
139 95 140
149 98 138
155 99 136
149 99 139
156 98 133
146 96 138
145 97 140
140 97 144
143 95 139
156 97 130
155 98 135
161 98 131
167 102 132
163 98 124
170 102 127
188 106 119
194 109 118
194 108 118
194 109 118
195 109 118
194 109 118
192 108 118
194 109 118
196 110 118
191 107 116
195 109 117
192 108 117
193 108 117
193 108 117
191 107 116
190 106 116
194 109 118
191 107 115
190 107 116
194 109 117
186 104 114
191 107 116
189 106 115
187 105 114
187 104 114
185 111 120
147 109 103
131 116 63
132 129 40
133 128 31
137 131 31
131 127 30
135 130 30
126 122 30
121 118 37
125 117 40
120 117 46
118 112 45
128 123 52
126 122 45
128 125 51
132 127 51
120 109 45
110 89 48
116 95 49
101 72 50
99 71 52
101 73 53
97 69 51
102 68 45
101 67 43
97 65 45
104 72 49
103 73 52
99 65 41
98 62 37
103 68 46
106 70 47
111 75 59
128 101 95
137 108 106
147 122 121
194 175 188
211 193 210
210 193 208
206 189 206
210 192 210
213 194 211
210 193 212
207 189 212
206 189 209
212 194 213
214 195 211
215 196 212
215 196 212
212 194 210
212 193 208
214 194 209
214 195 207
213 194 208
196 180 195
174 161 184
133 126 165
64 66 135
46 48 112
41 48 123
59 60 123
47 50 117
42 47 126
83 84 128
120 114 145
124 119 142
131 125 150
124 119 142
109 106 124
133 125 157
123 105 115
128 108 110
109 92 99
128 108 113
120 101 99
58 60 35
62 64 38
57 59 36
63 64 36
59 60 36
62 63 36
63 64 37
62 63 36
63 65 38
59 61 35
61 63 37
63 64 36
63 64 37
72 70 46
130 109 108
133 111 113
134 112 108
138 115 113
142 118 118
140 117 118
140 116 111
142 118 118
139 116 116
91 83 67
68 70 40
65 66 38
66 68 38
67 69 39
68 69 38
71 72 40
70 73 42
69 70 39
69 70 39
65 67 37
66 67 39
66 67 39
69 71 40
66 67 38
68 70 39
70 72 41
71 73 41
84 81 60
139 117 113
148 124 123
149 125 123
154 130 127
143 121 119
140 119 116
72 73 42
73 74 41
72 73 42
68 70 40
69 71 40
73 74 41
72 74 42
72 74 41
73 76 43
71 73 41
69 71 40
67 69 39
69 71 41
68 70 40
69 72 41
68 69 39
68 53 50
87 67 73
71 37 58
65 25 51
77 29 64
75 28 61
83 31 70
85 31 73
95 35 81
82 30 70
91 33 75
93 34 79
88 33 76
88 32 76
89 33 77
94 35 84
92 34 84
95 35 83
97 39 85
82 51 64
77 54 62
75 62 55
70 63 52
76 69 56
125 106 118
88 49 126
85 31 131
82 30 128
85 31 132
83 30 131
83 31 134
88 31 135
82 44 126
67 82 125
68 83 122
69 91 120
77 125 125
91 133 123
62 131 115
58 133 116
52 126 108
40 121 100
51 122 103
73 129 119
72 119 121
67 101 116
59 103 113
68 100 118
82 81 120
83 89 126
85 78 119
90 68 127
92 50 123
96 45 121
91 45 123
100 45 123
95 53 125
129 87 152
147 101 164
133 91 155
145 102 168
143 101 164
131 92 154
150 109 168
143 109 167
140 106 162
140 111 169
151 120 173
149 119 175
145 115 170
149 118 171
145 116 171
144 114 167
154 121 176
149 121 173
142 129 151
152 143 157
153 144 156
157 144 160
149 137 151
120 117 119
61 104 78
54 97 69
61 97 68
59 94 62
66 94 60
68 95 62
79 80 48
78 74 44
82 76 44
76 76 48
83 80 47
77 77 48
80 80 48
72 76 50
78 77 45
71 74 48
71 79 55
72 75 50
66 76 54
55 70 53
51 68 54
53 71 56
51 69 54
52 68 53
52 60 41
61 64 56
86 84 88
94 95 90
93 95 88
84 90 76
93 96 85
112 111 111
106 107 114
103 104 107
101 103 110
107 112 118
94 99 107
99 104 112
97 102 107
39 42 46
46 43 41
53 53 56
62 61 69
68 63 78
76 69 88
64 64 83
52 58 70
43 53 61
57 63 73
37 49 56
52 59 67
55 62 73
49 58 68
66 69 81
76 77 89
56 62 73
76 79 81
51 55 69
41 42 78
33 33 76
37 31 84
45 29 95
45 29 98
47 30 103
46 29 98
47 30 101
49 31 105
54 27 90
59 26 86
62 23 81
63 24 76
71 22 65
96 67 86
115 85 99
150 116 130
145 118 130
144 118 134
138 109 122
124 88 97
132 94 105
130 97 106
140 105 118
134 98 105
150 115 121
138 98 109
144 107 121
139 107 116
152 121 128
142 120 134
130 101 109
130 107 114
139 119 125
136 120 126
133 129 130
140 134 140
126 125 129
132 127 136
131 126 135
106 106 111
83 88 86
87 91 84
69 74 65
87 90 81
67 75 63
76 82 70
67 72 64
72 76 67
63 63 65
63 55 69
70 59 78
66 52 78
66 52 76
90 70 104
89 69 103
93 73 106
98 81 109
95 74 108
81 59 95
92 71 104
89 70 102
93 76 106
98 84 108
80 61 90
83 69 97
118 85 113
185 105 117
190 106 118
189 106 118
189 106 118
188 106 118
188 106 118
186 105 118
170 101 125
171 101 126
163 100 132
154 97 131
152 97 134
150 98 136
134 92 140
139 95 141
149 96 137
133 95 145
141 94 136
152 97 137
155 99 137
148 95 133
137 93 138
148 95 134
146 96 140
139 94 138
155 99 136
161 99 129
163 99 126
163 99 125
174 101 122
192 108 119
195 109 118
194 109 118
195 109 118
194 109 118
194 108 118
192 108 118
196 110 118
194 108 117
193 108 118
193 108 117
195 109 117
194 109 118
194 109 118
194 109 117
191 107 117
192 108 117
187 105 115
191 107 115
187 105 115
184 103 113
192 108 116
187 105 113
185 104 113
184 103 111
165 97 99
126 114 53
138 135 34
127 123 29
146 141 34
141 137 33
127 121 28
128 124 31
130 127 39
131 127 41
125 122 42
125 122 54
123 120 53
116 112 44
117 114 53
124 120 53
112 101 56
106 94 63
101 84 58
103 78 55
99 73 54
103 72 52
101 68 44
102 70 50
98 71 53
97 67 47
97 68 48
96 64 41
102 66 42
98 66 43
101 62 36
102 62 34
100 62 34
107 71 52
124 90 80
143 115 116
183 164 178
205 188 205
204 188 205
211 192 208
212 193 210
208 190 206
210 192 212
211 193 210
213 195 210
215 196 211
216 197 212
215 196 211
211 192 211
211 192 209
212 194 210
211 193 211
203 186 205
192 176 198
152 142 165
139 132 154
116 110 145
50 50 113
57 61 136
61 65 138
57 60 137
69 72 146
46 54 146
70 72 144
114 108 135
120 113 142
121 116 134
124 118 142
121 116 140
130 124 148
130 122 144
121 105 117
127 107 110
127 107 111
122 103 105
88 78 70
56 57 34
61 64 37
61 63 37
62 64 37
59 60 34
64 65 38
59 60 35
60 62 36
61 62 35
62 64 37
59 60 34
88 82 67
135 114 113
132 112 110
134 114 112
138 116 118
141 117 115
141 117 117
141 118 119
141 118 118
140 117 116
148 124 120
124 105 103
72 72 47
63 64 37
66 68 39
65 67 39
65 68 39
65 66 36
68 70 39
68 70 40
66 67 38
68 70 39
69 71 40
72 73 41
67 69 38
69 71 40
66 68 38
70 72 41
89 83 63
141 119 116
145 121 115
143 120 116
145 121 121
151 126 124
143 120 117
155 129 125
113 99 86
71 73 41
70 72 40
66 68 39
66 68 38
69 71 40
69 71 40
69 70 40
71 73 42
70 71 40
70 71 41
70 72 40
76 78 44
70 72 40
72 74 41
57 57 33
45 42 25
78 60 62
97 74 85
72 38 59
76 29 62
82 30 68
79 29 64
89 33 73
83 31 68
91 34 79
85 31 73
90 33 77
91 34 80
88 33 76
92 34 82
90 33 79
94 34 84
92 42 81
80 63 62
73 60 52
71 66 49
66 66 44
67 69 42
72 71 60
87 47 124
76 27 118
71 26 113
84 30 132
87 31 135
82 30 128
83 30 130
82 30 132
77 54 126
67 78 121
57 87 113
56 106 120
53 118 112
44 125 105
50 127 106
53 131 110
45 130 109
35 133 113
46 122 110
70 124 117
70 114 119
75 109 118
76 108 121
78 105 123
90 100 128
85 92 126
90 86 126
98 72 120
94 52 117
86 42 115
98 44 120
105 45 122
115 67 136
129 86 151
133 94 160
137 92 155
138 91 156
143 97 160
142 99 160
145 104 164
143 102 161
144 108 165
148 118 173
144 115 170
142 113 168
143 113 170
148 117 172
149 117 172
139 112 164
144 115 164
148 117 168
144 126 155
135 129 133
128 123 126
108 106 95
119 115 105
104 104 95
59 100 70
60 90 62
64 94 64
65 97 62
69 87 55
74 94 61
73 73 46
83 74 38
78 73 42
79 74 42
84 77 43
81 79 46
77 75 45
78 77 47
79 77 45
73 76 48
75 77 47
67 73 49
71 76 51
59 72 53
56 74 57
52 70 55
54 72 56
53 72 54
53 67 48
66 71 57
89 91 82
97 100 89
81 85 75
90 93 84
106 108 99
109 108 108
115 112 119
100 102 107
103 105 115
111 109 121
118 117 128
103 108 117
107 110 118
85 72 92
114 92 123
101 83 111
106 87 124
69 63 94
74 67 98
64 61 91
49 52 73
72 66 87
66 61 79
56 60 69
23 42 50
38 51 59
24 42 49
37 49 58
51 61 68
70 74 84
62 67 77
64 68 76
64 63 89
43 43 79
34 30 75
40 29 89
48 30 104
44 27 95
43 27 92
43 27 92
49 27 94
52 27 91
65 25 83
68 22 71
72 21 68
86 32 60
89 62 60
121 89 90
111 82 80
116 87 82
121 80 82
122 86 87
124 79 92
138 105 116
137 109 123
124 84 91
131 101 103
144 114 127
138 101 111
137 102 112
129 102 112
141 111 120
130 101 107
136 111 119
133 117 125
131 112 127
139 127 136
136 126 137
122 118 122
120 117 120
127 121 134
133 126 138
113 111 115
96 98 97
85 86 86
71 77 69
69 72 63
56 62 53
54 62 47
66 71 61
53 61 47
66 60 73
71 62 80
80 70 92
90 75 97
88 70 102
88 72 101
83 69 93
87 71 96
69 49 87
80 63 93
64 41 78
77 60 87
66 51 77
74 55 86
75 58 85
83 69 91
113 79 99
184 104 117
190 106 118
189 106 119
190 107 118
189 106 118
190 107 119
189 106 118
180 104 122
172 102 126
170 100 122
159 97 123
148 97 136
153 96 130
147 96 137
137 95 141
143 96 139
137 95 142
134 92 139
141 95 138
123 91 144
139 94 139
129 92 144
138 95 140
147 97 139
140 95 140
145 94 130
151 96 134
152 97 135
149 95 128
158 98 129
180 104 122
189 107 120
197 110 118
193 108 118
197 110 118
193 108 118
192 108 118
195 109 118
196 110 118
193 108 118
193 108 118
192 107 117
193 108 117
195 109 117
193 108 117
189 106 115
192 107 116
193 108 118
192 107 116
186 104 113
181 102 110
170 96 102
162 91 99
138 78 83
136 78 83
125 72 74
129 90 88
130 105 48
135 130 31
135 132 32
125 122 30
132 128 31
139 135 33
141 137 34
126 121 37
128 123 46
123 119 43
112 109 47
119 115 49
122 118 52
120 117 49
118 114 51
106 96 57
102 82 50
98 70 51
96 70 52
99 71 51
97 76 60
98 73 53
97 70 52
96 66 45
95 68 47
99 70 51
93 68 49
100 68 45
93 63 40
98 62 36
99 63 38
99 61 33
98 60 35
118 77 63
123 97 97
179 162 184
186 173 198
186 173 196
187 174 198
196 181 203
189 175 196
195 179 205
194 179 207
194 179 208
194 180 207
195 180 209
192 178 206
195 181 207
194 179 209
189 175 204
189 175 204
181 168 195
155 145 171
111 108 124
116 111 128
110 107 151
82 82 147
71 75 162
62 65 150
74 78 164
64 69 156
66 70 158
86 86 147
109 102 137
116 109 129
116 109 132
133 124 151
123 116 143
122 114 129
109 104 125
122 115 147
121 104 118
128 107 111
130 109 111
122 104 107
71 69 50
63 65 37
59 60 36
60 61 37
65 66 38
63 64 37
65 66 38
64 65 37
61 63 36
63 65 37
89 82 65
140 118 117
124 102 102
131 110 113
131 111 115
142 119 119
138 115 115
139 116 114
139 117 118
139 117 117
146 121 120
146 121 120
139 115 116
110 95 89
65 67 38
68 70 40
66 67 38
63 64 36
66 67 38
67 69 39
67 69 39
68 70 39
69 70 40
68 70 39
67 69 39
69 70 39
64 66 37
68 69 39
104 93 79
143 121 117
146 122 119
146 121 122
148 124 123
147 121 117
148 124 123
151 127 124
147 124 125
151 126 122
93 86 69
68 70 40
67 68 39
68 69 39
67 69 38
70 72 40
69 71 40
69 71 39
65 66 37
68 70 40
72 73 41
70 72 42
73 75 43
68 69 39
57 56 32
48 46 28
51 48 32
92 74 78
66 58 49
58 41 43
63 30 53
71 27 58
83 31 71
84 31 71
87 32 75
95 35 81
89 33 78
87 32 75
94 35 82
95 35 83
103 55 90
86 58 70
63 63 43
67 69 43
64 68 41
69 71 43
65 67 41
67 66 57
76 43 109
81 29 127
79 29 125
78 29 123
79 28 121
81 29 126
79 29 124
81 29 126
82 30 130
65 82 121
67 77 119
51 98 113
45 109 113
48 116 115
54 124 109
48 128 111
16 125 106
17 133 110
26 124 106
50 121 110
60 122 114
62 119 114
74 113 118
78 103 115
78 107 124
81 99 119
79 87 117
74 87 115
88 74 115
92 60 113
97 46 118
91 43 115
93 48 118
119 76 137
137 86 150
138 85 155
140 86 156
143 91 158
131 88 149
139 93 159
148 104 166
140 101 159
149 109 168
142 110 164
129 103 151
142 114 168
143 114 165
142 113 167
142 112 164
136 108 157
144 114 164
139 110 159
131 108 153
131 125 131
112 111 111
98 99 88
90 91 63
88 87 63
81 89 64
68 91 64
68 88 63
73 90 54
73 85 53
84 81 45
80 73 39
88 79 41
90 80 40
85 79 43
87 79 41
73 72 43
89 82 42
75 74 45
76 75 43
84 79 43
74 76 48
79 78 46
67 74 49
66 75 52
54 71 54
50 67 53
51 69 53
51 68 53
61 74 60
97 100 93
112 110 112
138 132 139
141 135 145
140 131 146
143 135 147
144 136 147
135 129 143
125 122 133
113 113 125
116 114 125
112 112 122
107 109 114
100 106 110
149 118 159
130 105 148
109 90 135
78 68 107
72 66 104
62 59 93
54 54 84
48 51 76
66 63 93
53 54 74
51 53 72
52 56 68
31 44 52
26 41 48
37 51 51
38 50 55
55 62 69
74 75 90
76 77 86
77 76 91
67 66 90
45 42 80
45 35 88
47 29 99
43 27 98
42 26 94
40 25 90
54 28 96
58 21 75
64 22 75
76 29 71
95 64 88
106 78 90
112 76 83
126 88 98
119 82 89
124 96 104
126 93 97
142 102 108
124 98 110
123 90 98
140 104 117
131 94 107
134 98 112
152 122 140
153 114 138
141 106 121
144 117 122
129 98 97
120 95 95
118 89 84
118 95 97
148 130 142
134 121 137
119 113 111
105 106 99
122 119 124
111 108 113
95 99 88
108 107 106
113 109 118
115 110 117
91 90 92
61 66 57
61 63 54
51 56 47
56 59 48
64 66 60
93 82 94
94 84 103
102 87 111
96 78 108
94 76 106
93 74 107
74 55 86
65 46 81
61 35 79
66 43 80
64 45 76
55 39 66
70 49 83
65 49 76
73 58 83
70 59 77
124 78 87
156 88 97
168 95 103
169 96 107
171 96 106
178 100 112
186 104 116
191 107 118
181 104 121
168 101 126
160 99 130
141 98 144
147 94 131
144 95 139
144 96 135
144 95 137
142 96 139
134 94 143
127 92 144
126 93 144
131 92 140
148 94 129
115 88 143
127 91 139
132 91 136
135 90 128
149 96 132
135 92 135
142 94 133
156 96 125
162 98 127
162 98 121
190 108 119
195 109 118
193 108 118
194 109 118
196 110 118
193 108 118
195 109 118
194 109 118
192 108 118
194 108 117
195 109 117
195 109 118
193 108 117
189 106 115
180 101 111
163 93 98
153 86 92
136 78 82
122 72 72
119 69 74
116 68 70
114 66 68
117 68 72
121 70 73
135 86 95
130 95 96
131 111 46
132 127 33
131 127 30
138 134 33
141 136 33
149 144 35
138 133 35
125 121 43
118 116 47
115 111 47
114 112 53
116 113 51
117 114 55
113 110 54
122 117 53
99 87 58
103 77 49
97 74 56
97 72 53
88 69 55
94 73 56
98 72 53
89 70 54
92 70 54
98 72 53
94 66 46
88 61 42
97 64 41
100 67 46
94 67 46
101 65 42
101 67 43
98 60 32
106 64 42
125 96 96
169 155 174
183 172 198
187 175 202
173 164 190
184 172 202
185 173 203
185 172 203
185 172 203
184 172 205
186 173 206
191 177 208
186 173 205
188 175 207
187 174 205
186 172 202
190 175 205
162 152 175
134 124 139
121 113 125
120 114 140
92 89 140
70 75 150
75 79 158
79 77 151
83 82 161
73 76 164
86 83 157
106 101 163
134 123 168
138 125 161
147 134 169
136 125 159
126 117 145
113 106 126
116 109 132
123 116 142
111 105 154
125 105 113
120 101 104
128 107 110
113 98 97
61 63 37
59 60 35
61 63 38
56 58 35
60 61 36
60 62 36
66 67 38
66 68 39
106 93 89
131 109 107
131 110 111
135 113 114
147 123 123
141 117 118
132 110 108
133 110 109
124 104 105
144 120 120
149 126 126
139 116 113
132 111 112
139 116 114
141 119 122
95 85 71
67 69 38
68 69 39
66 68 39
68 70 40
67 69 40
68 70 39
66 67 38
69 71 40
68 69 38
71 73 41
68 70 40
63 65 37
114 101 91
147 124 124
141 119 115
152 126 121
156 131 127
147 122 117
149 125 124
143 119 117
148 124 122
145 122 118
146 123 118
141 118 115
75 74 46
71 73 42
71 73 41
71 72 40
71 72 41
73 74 41
71 72 42
72 74 43
72 74 41
73 76 43
72 74 41
72 75 41
66 67 38
53 53 31
55 54 33
50 47 30
57 53 39
72 63 54
54 55 33
54 51 34
65 51 48
70 44 55
75 41 63
80 37 67
86 36 72
92 38 79
80 39 69
98 62 86
130 107 120
137 115 124
118 102 105
67 70 43
66 70 42
64 66 40
61 65 39
69 68 55
71 39 102
69 26 111
77 28 119
80 29 123
75 28 121
77 28 119
79 29 122
77 28 118
75 28 118
74 27 119
71 63 118
55 92 112
45 113 114
34 124 114
29 132 112
33 132 112
17 130 108
18 130 111
17 132 109
28 133 112
34 127 113
61 122 118
66 114 116
65 111 115
80 109 117
79 107 118
80 90 114
85 101 124
88 89 120
90 81 117
89 68 114
90 54 114
100 43 119
106 54 121
122 72 141
131 81 144
134 83 148
146 98 163
130 80 144
133 88 150
132 90 146
142 97 161
134 96 151
146 106 166
140 105 156
134 107 152
140 113 165
140 111 162
141 112 162
136 108 158
145 115 168
140 111 163
141 112 158
134 110 152
121 109 131
113 111 112
95 92 79
87 78 59
88 82 64
78 80 62
69 86 64
76 77 54
75 77 53
84 79 52
83 74 48
84 72 43
89 77 42
87 78 40
83 77 40
92 81 38
86 77 39
83 77 41
81 77 43
82 76 40
76 73 42
76 75 43
74 76 47
71 73 45
68 75 51
53 69 51
51 69 53
49 66 52
54 73 55
52 70 54
98 102 92
123 122 121
126 122 125
144 137 149
150 141 165
166 153 176
171 158 180
143 134 152
130 125 139
125 119 133
122 119 131
104 106 115
100 105 110
102 107 113
147 117 165
124 101 148
93 79 120
68 63 100
59 57 91
61 60 94
56 58 89
49 52 78
55 55 83
50 52 73
54 54 73
45 50 64
54 54 69
49 52 65
50 58 65
39 53 59
47 57 60
54 60 69
67 70 75
58 63 67
73 76 81
54 58 63
47 45 76
44 35 85
39 28 82
39 26 84
33 21 77
50 24 84
54 21 75
72 19 59
93 59 84
122 93 110
127 102 124
142 109 129
135 96 113
131 95 118
139 105 121
144 103 122
145 106 129
140 103 123
135 95 107
115 77 78
112 78 76
138 100 112
149 105 119
152 104 126
150 116 135
129 96 101
107 77 65
105 74 57
107 79 68
111 95 87
139 116 124
139 123 137
121 108 105
99 100 93
122 118 118
111 110 107
113 111 110
102 101 101
110 106 107
97 95 88
94 92 88
77 81 67
60 66 50
51 58 41
64 69 51
66 69 58
84 77 79
79 70 83
75 61 77
83 73 87
71 55 82
83 66 92
98 82 104
77 53 93
76 55 94
91 72 100
77 58 92
70 48 89
74 53 88
84 66 98
98 82 106
98 83 107
93 76 103
114 77 91
108 63 66
116 68 73
108 63 68
112 65 68
107 62 68
133 76 84
111 72 94
103 74 108
123 80 110
120 80 115
128 88 126
118 89 140
132 92 138
137 93 136
119 87 137
124 88 138
123 92 143
120 90 144
127 93 143
126 92 140
130 93 141
127 92 141
132 91 134
134 93 139
135 93 137
133 92 137
152 95 127
148 94 128
157 97 125
165 98 122
185 106 122
194 109 118
195 110 118
195 109 118
193 108 118
194 109 118
196 110 118
192 108 117
191 107 116
175 98 106
151 85 92
150 86 92
134 75 81
113 66 67
106 60 59
104 60 60
113 66 70
119 67 70
119 69 71
122 69 74
106 62 63
124 71 77
117 68 74
122 63 70
126 69 75
113 75 67
136 111 49
122 119 29
134 132 32
133 130 31
138 134 32
128 124 30
119 114 32
121 119 47
115 113 47
116 112 49
113 109 54
120 116 56
122 119 58
104 102 52
111 108 57
101 85 56
95 72 56
97 75 58
94 75 59
94 70 52
93 75 60
91 70 55
91 69 53
93 68 51
96 70 53
96 68 48
91 70 55
98 69 47
97 65 44
89 61 41
96 67 43
97 65 41
90 58 32
97 54 20
114 84 80
172 156 176
186 172 198
185 171 193
187 172 193
191 176 198
185 171 196
184 171 200
182 170 200
183 171 202
182 169 198
186 173 204
191 176 206
192 177 208
193 177 206
197 181 208
189 174 198
160 144 162
125 116 136
125 116 142
127 118 155
91 87 151
75 78 157
79 81 163
90 87 161
91 89 163
102 97 168
93 92 167
108 101 165
128 117 167
153 138 183
144 129 172
150 136 178
147 132 175
128 119 156
120 112 147
121 116 143
98 100 171
112 109 167
124 107 120
139 117 120
119 102 106
93 82 72
59 60 35
60 62 37
62 63 37
63 64 37
64 66 38
66 65 41
105 91 86
135 112 114
139 117 120
138 116 117
131 110 110
136 114 113
133 111 115
141 117 115
136 113 109
130 109 111
134 110 109
139 116 115
136 114 112
134 112 109
140 117 118
146 122 120
129 109 104
76 73 50
65 67 39
69 70 39
65 67 38
69 70 40
69 71 41
71 73 42
68 69 39
66 69 38
66 67 38
74 72 46
104 90 78
145 121 122
140 116 114
144 121 120
144 121 119
146 123 124
152 128 126
146 122 118
146 121 116
149 123 117
147 121 119
153 128 127
145 123 121
124 108 99
69 71 40
69 71 41
71 73 41
74 77 43
71 72 40
71 72 41
70 73 42
68 69 39
72 74 41
73 75 42
73 75 42
61 61 37
51 50 31
52 50 32
51 49 31
62 58 43
109 89 96
60 56 40
58 59 36
58 58 37
57 59 36
60 61 38
62 62 40
67 66 44
62 63 40
64 66 40
98 88 84
138 117 125
143 121 129
133 114 119
110 98 94
70 72 45
67 70 42
69 70 47
77 45 107
70 26 111
79 29 124
82 29 127
79 29 125
78 28 121
78 28 121
73 27 115
72 26 112
76 28 119
75 27 117
60 64 105
52 89 105
37 115 108
33 111 105
27 133 114
16 124 104
17 132 110
17 130 107
16 126 104
22 125 104
54 113 107
65 114 111
72 107 113
79 106 118
91 102 123
88 101 121
82 108 121
91 89 114
99 94 129
97 86 124
90 76 118
98 53 117
94 42 112
112 58 132
129 76 146
128 72 147
130 83 146
134 87 148
129 83 147
136 91 153
134 82 144
134 89 148
144 98 159
130 93 145
140 107 156
137 110 157
129 103 148
132 105 151
138 111 157
147 116 166
140 112 159
127 101 148
126 102 145
120 96 137
99 95 105
78 79 64
84 79 60
86 75 62
87 73 56
88 77 65
77 69 58
82 69 58
80 65 58
90 74 46
91 74 46
83 66 48
87 73 42
84 71 41
88 77 40
87 76 36
86 79 42
85 76 37
80 74 39
83 80 43
87 78 39
80 75 40
78 76 43
73 74 45
68 73 47
55 68 49
51 69 52
50 68 51
48 64 51
55 72 57
104 107 102
129 124 129
144 138 148
143 135 146
163 152 167
166 154 176
159 149 169
138 132 145
133 129 139
109 111 116
88 93 95
78 89 90
79 93 97
80 96 93
157 124 179
116 95 138
99 83 128
92 79 123
59 58 87
67 63 97
62 59 91
46 51 74
68 63 93
58 58 80
8 33 39
7 30 37
38 45 58
50 51 65
45 50 63
65 67 76
48 55 59
30 45 44
29 45 45
58 64 66
50 57 53
43 50 48
67 66 70
79 72 83
74 67 85
55 48 72
67 58 83
68 51 81
74 47 69
92 68 73
101 66 75
115 90 100
108 78 91
127 90 102
117 76 91
128 95 110
123 81 93
116 78 89
125 87 95
128 81 90
120 73 83
116 75 78
109 65 53
114 72 62
120 78 82
142 103 115
125 91 96
123 98 101
114 76 68
120 78 76
115 86 81
130 104 108
141 115 132
148 126 137
132 118 125
131 123 131
154 143 154
147 138 156
151 141 156
125 120 126
96 99 87
82 91 66
79 88 64
75 84 60
77 86 62
81 87 67
82 92 62
79 88 60
71 72 65
81 78 79
76 71 77
69 52 80
75 57 85
76 59 86
81 65 94
82 61 100
81 58 98
73 50 91
62 29 80
64 35 80
63 34 83
65 43 78
76 59 88
87 71 97
89 75 96
97 86 105
109 80 92
109 65 68
115 66 70
113 66 68
114 66 72
125 71 78
104 65 81
101 70 100
89 69 106
81 69 114
84 72 119
75 69 120
85 78 130
69 73 133
73 74 131
72 71 128
84 79 138
87 78 132
92 81 136
91 80 135
84 80 138
82 79 141
108 85 137
116 84 131
117 87 133
136 92 135
133 90 131
132 92 133
148 93 125
139 90 123
183 104 119
195 109 118
191 107 117
181 102 111
172 97 103
157 88 94
134 76 80
135 76 78
117 65 70
122 67 72
123 68 73
118 67 70
119 66 69
114 65 67
112 64 66
114 65 69
118 68 72
117 68 70
122 70 72
107 63 65
108 65 67
117 67 71
123 60 66
132 58 66
130 67 73
125 80 64
129 107 46
138 132 33
131 129 31
132 128 30
117 115 27
131 125 29
123 119 40
118 115 40
112 107 47
115 113 52
111 107 45
108 106 51
119 116 54
111 110 55
105 102 55
87 72 56
95 75 60
94 78 62
91 71 53
93 75 58
97 74 56
93 75 60
93 71 54
93 73 58
92 69 52
96 72 53
89 69 53
88 67 48
95 70 49
92 67 49
87 59 39
89 63 42
91 57 33
101 56 20
111 76 59
157 143 156
172 160 181
183 170 190
192 175 197
194 178 192
195 178 192
199 182 203
191 176 197
180 167 188
182 169 193
191 176 204
188 173 202
189 174 203
185 171 198
186 172 198
182 168 195
144 135 161
122 114 130
133 124 152
132 123 170
105 102 161
92 89 160
101 93 155
88 86 152
89 80 155
107 99 166
109 100 163
123 116 167
133 120 170
143 127 172
152 136 181
148 133 179
147 132 177
150 136 179
139 127 164
113 103 144
96 98 160
88 93 166
98 100 165
128 108 115
125 103 104
134 111 111
68 66 45
62 64 38
61 63 36
63 65 39
69 68 44
109 93 92
136 113 113
136 115 119
135 114 118
141 117 117
139 116 119
141 117 118
138 114 114
133 110 111
136 114 115
139 116 114
147 121 120
138 115 112
138 114 111
142 118 118
143 120 120
151 125 122
144 120 119
121 104 97
65 67 39
68 69 39
67 69 39
68 70 39
67 69 39
67 69 39
67 68 38
69 70 41
85 80 59
134 114 105
151 126 124
144 120 118
143 119 119
148 123 121
151 125 122
152 127 125
145 120 115
141 118 114
144 119 118
147 123 122
149 125 123
143 119 118
150 125 123
147 122 118
101 91 76
69 70 40
70 71 39
70 72 40
68 69 39
69 70 40
72 73 40
68 70 40
69 71 40
73 75 42
68 69 40
58 56 35
56 54 34
55 53 34
58 59 35
75 68 59
123 97 108
109 88 100
63 59 44
58 57 36
61 63 39
59 59 38
64 65 40
64 65 40
64 66 40
65 67 41
102 87 89
141 119 126
142 120 126
140 120 127
135 113 122
104 93 87
69 70 49
67 46 87
72 26 113
72 26 111
74 27 116
69 25 112
69 25 107
74 27 114
78 28 122
72 26 114
74 27 113
76 27 118
74 29 115
61 78 110
39 107 105
35 118 107
19 130 108
14 112 93
16 127 105
16 125 102
15 121 102
16 122 103
34 119 102
54 117 109
69 113 116
63 104 107
71 100 108
81 107 118
78 102 113
86 103 122
87 103 124
82 96 114
88 101 122
101 74 120
106 57 121
117 48 125
106 49 120
143 83 154
124 65 134
131 78 143
132 84 146
135 86 149
128 81 143
138 94 154
130 86 145
127 84 139
133 90 150
141 98 158
135 108 160
142 113 164
135 107 156
135 107 154
135 108 156
133 107 154
130 104 148
131 105 152
113 91 131
110 97 121
96 87 93
103 91 92
96 81 78
87 71 74
80 66 59
90 71 66
85 65 52
85 66 53
87 67 50
91 71 45
85 67 51
86 68 48
87 72 42
90 73 40
91 79 38
88 78 37
87 77 36
86 76 36
92 81 36
88 78 36
82 73 34
78 75 41
69 70 42
72 73 45
57 69 50
52 71 53
52 70 54
48 65 49
59 73 59
142 135 154
176 164 186
170 158 183
171 158 180
178 166 186
174 161 182
171 159 180
148 139 158
136 133 147
118 119 127
91 100 102
86 96 98
79 94 92
75 94 92
153 123 180
126 103 152
112 94 139
91 79 118
76 69 103
31 43 59
16 36 46
8 32 41
40 48 63
9 35 41
8 33 40
8 33 40
8 34 42
42 47 58
85 72 92
62 65 78
67 70 78
73 74 81
73 72 85
68 71 83
98 94 108
105 98 114
124 114 132
109 102 116
126 116 133
122 109 132
128 116 135
132 118 138
124 103 122
133 106 117
107 83 85
102 68 58
99 65 53
109 69 66
111 72 67
107 68 61
117 68 64
108 74 61
111 65 59
115 66 63
113 80 78
121 66 67
115 61 53
103 64 50
113 72 64
122 78 79
141 102 111
145 106 119
130 88 94
144 105 114
151 114 127
145 114 129
163 130 148
156 127 142
153 133 148
132 126 131
131 126 135
147 139 154
139 133 142
136 131 135
125 124 122
121 119 121
126 125 126
128 124 130
132 129 131
142 136 142
133 128 134
139 133 143
132 122 138
112 101 122
106 92 113
106 94 117
99 82 109
93 75 101
72 47 87
61 27 79
54 6 73
55 6 77
54 6 75
46 5 63
45 5 65
50 6 71
50 6 69
54 28 68
57 39 68
70 58 77
74 66 71
99 68 74
113 65 66
98 58 63
107 63 65
107 62 66
88 67 99
94 69 101
89 67 101
67 64 113
81 67 111
77 75 130
60 68 124
66 73 133
76 75 130
63 71 129
65 73 129
53 69 127
59 76 142
74 76 135
53 72 137
58 71 133
60 72 135
63 71 130
54 65 117
59 68 122
59 63 115
69 67 114
85 71 113
110 75 112
132 77 91
139 80 83
118 67 69
103 59 61
116 66 68
107 62 61
114 65 68
114 65 68
121 68 73
115 65 65
120 68 74
121 68 73
117 67 70
110 62 64
119 69 71
119 68 70
113 65 67
108 64 63
115 67 69
117 68 70
118 68 71
123 58 66
114 48 58
123 52 62
134 65 75
122 68 68
130 100 52
120 117 29
130 127 31
133 129 30
126 121 29
130 127 30
127 124 34
129 125 45
108 106 44
101 99 56
104 104 61
105 103 59
100 98 57
105 104 55
102 101 60
90 74 53
87 76 62
89 73 59
89 75 61
90 75 60
92 73 57
94 77 62
90 77 62
91 70 55
91 69 51
96 75 56
88 69 51
89 70 52
92 65 44
85 62 43
88 66 48
91 64 44
87 57 34
98 57 27
105 64 42
141 123 123
134 130 131
158 149 165
170 158 183
180 167 194
172 159 181
176 164 186
165 155 176
166 155 179
168 157 188
168 157 189
168 157 190
170 158 194
166 154 190
162 151 187
161 150 186
140 131 168
121 113 143
149 137 172
152 141 184
130 120 177
105 101 170
107 97 162
112 103 165
104 89 153
112 98 161
118 107 166
128 114 169
130 116 159
140 125 169
144 127 177
137 122 168
146 133 174
148 133 174
152 139 179
120 111 156
94 94 155
83 89 158
85 90 153
99 101 155
126 108 122
137 114 116
114 98 92
62 64 38
63 64 37
74 71 51
121 102 99
128 107 112
142 117 119
133 111 113
136 112 112
139 116 113
140 116 117
141 118 118
136 113 114
139 116 117
135 113 115
142 118 121
142 119 117
142 118 117
141 118 116
145 120 113
138 115 113
142 118 115
142 119 119
143 119 119
100 90 76
64 65 36
69 71 39
70 71 39
71 72 41
69 71 40
69 70 39
79 77 51
130 108 105
144 121 118
149 125 123
148 124 121
146 122 123
144 121 120
144 119 117
150 126 123
148 123 119
144 120 118
149 124 119
149 125 126
141 118 117
145 122 120
145 120 117
146 122 121
142 119 113
83 81 56
68 70 40
70 72 40
69 71 40
72 74 40
71 72 40
67 68 39
72 74 42
72 73 41
67 68 39
57 59 35
59 60 36
57 57 35
53 53 32
84 73 66
109 87 98
128 104 113
121 100 104
61 59 40
59 59 37
63 63 39
60 61 38
61 62 39
62 63 39
61 63 39
125 110 112
134 114 124
147 127 132
141 121 128
136 116 123
138 118 123
75 49 97
71 26 110
68 25 109
67 24 102
73 27 115
72 26 112
70 25 106
71 26 111
73 26 113
70 25 109
74 27 115
74 27 113
72 30 111
60 66 107
42 100 104
15 117 99
16 123 102
15 116 97
15 120 101
16 122 99
15 118 96
15 121 97
32 121 102
54 106 103
73 107 112
72 105 108
76 94 110
86 107 118
83 98 116
107 90 127
95 94 125
98 89 126
100 93 120
99 79 122
107 56 122
104 44 113
116 52 125
133 73 146
127 75 140
132 78 147
130 75 143
139 85 150
132 85 143
130 84 145
137 87 146
131 92 147
126 86 141
130 95 146
130 103 150
128 102 149
132 106 155
125 100 144
132 105 150
136 107 156
132 105 155
123 97 142
104 82 120
91 77 104
93 81 93
73 57 73
81 64 73
71 48 61
77 57 52
81 60 55
86 65 47
86 66 45
90 69 48
91 71 41
88 68 47
85 65 49
94 73 44
84 66 45
93 76 35
93 78 31
85 75 35
90 78 34
84 76 39
84 75 36
83 75 38
76 73 40
78 77 46
67 71 44
55 68 49
46 63 48
49 66 50
50 68 52
55 69 54
137 128 145
161 152 173
153 145 158
156 147 160
143 137 150
145 140 146
134 132 136
116 116 122
98 104 107
103 110 112
92 103 107
86 98 101
72 91 90
71 91 93
150 120 173
130 106 153
106 89 129
109 91 132
52 52 73
8 32 40
9 34 42
8 32 40
9 35 41
9 36 44
8 33 39
9 36 42
8 33 40
8 33 40
30 40 50
83 73 90
74 74 89
85 83 96
86 85 99
93 90 105
117 111 127
99 96 110
134 124 145
138 130 150
142 132 147
146 137 151
141 132 149
129 120 134
137 115 128
138 109 122
131 103 115
122 94 102
125 99 104
132 93 104
128 93 104
126 90 98
127 83 93
129 85 92
138 94 104
135 101 109
138 99 109
133 79 99
124 77 91
114 63 61
107 63 57
115 77 72
144 99 111
141 101 116
150 120 131
161 121 136
156 120 135
159 126 140
149 116 134
151 126 140
126 111 120
88 95 81
95 101 81
92 98 83
86 94 72
107 110 104
151 143 159
165 154 173
169 156 178
177 163 183
168 156 175
173 161 179
161 149 171
179 165 185
149 134 156
129 115 140
125 109 137
119 103 131
96 76 107
57 19 78
57 7 77
54 6 75
57 7 78
53 6 72
56 7 78
51 6 69
44 5 60
45 5 58
47 5 63
43 4 57
49 5 66
43 10 55
63 52 69
87 78 87
107 78 85
117 71 78
108 63 66
116 67 76
94 65 96
94 69 104
85 70 113
83 72 121
81 73 126
68 72 131
80 74 127
72 72 124
58 71 132
63 68 125
59 71 129
47 74 139
51 74 138
63 73 133
47 65 121
54 70 131
37 73 142
73 70 119
52 72 131
70 69 120
60 66 116
48 62 113
51 54 97
42 46 83
97 63 75
111 62 66
103 60 61
112 64 67
110 62 64
115 65 67
121 69 73
125 70 75
111 61 60
118 66 69
121 69 74
116 68 70
115 67 65
117 71 68
118 76 68
106 73 61
112 70 63
114 75 63
116 72 69
111 65 67
120 61 65
120 50 59
119 50 59
121 52 62
124 53 62
134 80 88
119 94 50
135 132 31
118 117 28
121 119 27
124 123 29
118 112 26
121 116 32
120 118 45
105 102 49
106 104 52
112 110 61
108 106 56
105 104 54
104 101 59
93 92 58
91 78 58
87 71 54
89 72 57
96 77 60
89 69 52
91 73 57
92 73 56
86 72 60
88 70 53
85 70 55
85 66 52
86 71 57
84 67 52
90 65 47
90 65 45
88 64 46
91 63 41
98 60 31
101 59 27
93 53 20
100 84 72
96 102 85
96 102 84
140 134 147
162 152 176
169 159 193
160 150 180
156 146 176
148 139 170
155 145 174
159 148 187
155 145 182
158 146 188
159 147 190
165 152 192
154 144 185
156 144 181
133 119 157
154 140 181
154 139 183
128 114 164
122 107 159
119 107 161
116 104 165
120 105 162
110 99 149
121 107 158
141 125 174
130 114 164
135 118 165
127 110 158
127 111 157
145 129 171
135 120 162
139 125 166
106 96 144
91 91 137
71 79 134
79 83 139
95 97 153
101 99 127
135 115 119
130 109 113
89 80 69
80 75 54
130 110 107
135 113 114
136 114 116
132 110 111
135 113 113
139 115 117
129 107 108
139 116 118
140 116 112
138 115 115
139 115 115
133 111 112
139 116 116
146 122 119
135 114 113
149 124 120
141 117 114
150 125 122
146 121 115
147 122 117
147 122 119
142 119 117
72 71 47
69 70 40
67 68 39
68 70 39
67 69 39
95 88 67
144 120 119
145 120 117
142 119 118
145 121 116
153 128 125
146 122 120
153 127 125
143 119 115
147 123 120
152 127 126
149 125 123
150 126 125
144 121 119
154 128 124
154 128 124
155 129 125
151 126 120
144 120 118
133 114 106
71 73 41
67 68 38
68 69 38
69 72 41
67 68 38
72 74 41
71 73 41
69 71 40
61 61 36
62 62 38
60 60 36
63 62 38
58 58 35
97 82 80
132 110 115
121 98 107
112 93 101
104 88 89
59 60 37
61 63 38
65 66 40
65 67 41
67 68 41
66 68 42
128 110 111
137 116 123
142 121 129
136 116 124
140 119 126
110 91 109
64 28 99
69 25 106
65 23 102
69 25 106
70 26 110
71 26 111
75 27 116
68 25 110
69 25 110
64 24 101
64 24 101
68 25 103
68 25 108
56 72 105
38 100 96
14 113 93
15 118 97
16 122 101
16 128 103
15 118 97
14 113 92
16 123 100
44 121 107
59 106 103
75 106 112
73 87 98
89 94 115
93 89 116
98 83 120
94 81 111
97 86 120
111 71 123
98 85 120
107 77 123
107 63 122
105 48 120
115 56 123
133 76 145
135 74 145
135 77 144
128 72 144
128 74 140
131 72 139
132 80 144
132 85 141
134 88 147
132 90 147
127 93 140
132 105 154
126 102 148
135 108 156
139 112 159
123 98 143
127 101 148
122 97 138
119 94 135
84 62 103
69 58 82
79 61 75
83 64 66
68 48 56
85 64 48
80 58 50
82 60 48
90 68 49
83 63 46
89 69 47
95 76 33
96 77 35
93 72 45
92 72 45
91 69 48
91 72 40
95 76 36
87 75 33
89 78 35
86 75 33
86 75 32
86 76 35
80 74 38
82 77 42
74 73 41
64 70 46
48 65 48
47 63 49
48 65 51
65 76 69
142 137 153
169 158 177
141 138 149
137 135 144
122 121 120
112 115 105
93 101 84
82 92 76
79 91 80
70 87 80
79 95 90
68 92 92
73 92 92
68 91 93
172 135 186
136 110 153
130 105 148
122 100 140
79 69 95
8 29 38
8 31 38
9 35 42
9 34 41
9 37 45
8 33 39
8 33 39
9 34 41
9 34 40
9 36 42
36 43 56
52 59 65
66 72 68
62 66 62
68 74 73
68 74 70
75 81 71
100 103 94
101 106 92
104 107 96
98 103 88
101 105 91
102 100 83
99 87 74
136 110 115
155 123 143
150 120 141
152 117 138
149 116 137
153 115 132
148 105 126
144 97 113
149 108 132
148 101 120
151 105 122
155 104 121
145 96 114
145 90 107
124 70 80
122 66 70
125 76 79
139 78 92
141 96 107
147 99 114
144 102 115
149 113 125
136 95 110
131 96 104
132 106 114
113 103 99
104 104 97
108 108 103
110 112 101
118 117 115
124 123 119
143 136 146
139 133 139
151 143 157
146 140 149
138 133 142
144 137 148
136 131 139
136 131 139
105 99 107
109 99 114
97 83 102
90 70 104
58 19 78
55 6 77
54 6 76
56 7 78
52 6 72
53 6 75
54 6 75
50 6 69
49 6 69
50 6 70
49 5 66
49 5 64
45 5 61
48 5 63
46 12 60
83 70 91
134 121 143
132 112 123
104 65 69
123 70 75
99 65 95
87 69 107
89 70 111
81 71 119
69 77 139
83 73 125
56 74 137
45 72 138
49 74 140
54 76 143
58 75 139
56 75 143
57 70 128
41 69 131
59 73 132
41 69 131
53 70 127
49 74 142
58 70 129
72 71 125
65 66 118
53 58 102
43 63 108
53 57 99
95 62 77
113 64 68
103 60 59
117 64 68
108 61 62
117 66 72
122 69 74
117 66 71
115 65 67
114 64 67
123 78 72
115 81 69
110 83 61
115 82 65
111 92 60
116 86 65
107 78 63
110 79 60
111 86 62
109 73 58
116 65 55
112 55 55
125 52 64
124 53 62
129 62 68
124 68 67
116 87 52
120 116 28
121 119 28
123 120 28
127 125 30
120 117 27
119 116 35
119 115 45
100 100 55
101 99 51
111 109 57
96 96 56
103 102 52
89 91 63
91 91 56
89 74 57
95 74 57
85 77 64
86 72 58
83 72 58
85 65 48
83 75 61
88 75 62
81 70 56
89 70 55
88 76 60
93 72 54
83 67 51
89 65 44
84 63 46
85 62 45
95 64 39
99 63 38
93 57 29
102 57 22
101 79 56
113 113 105
103 108 98
113 115 111
144 139 153
160 148 173
146 140 158
134 128 144
126 122 143
134 127 151
148 139 171
152 142 183
158 146 189
154 143 188
154 144 187
155 144 188
147 134 177
147 134 173
154 139 177
152 136 177
150 122 167
157 114 155
141 111 154
133 117 168
128 112 158
128 110 166
128 109 160
114 92 148
126 108 156
126 109 152
123 107 156
122 106 155
126 111 157
136 121 165
128 114 158
94 89 130
71 71 101
72 73 103
86 89 120
75 84 86
68 78 64
88 91 77
123 104 100
113 96 92
128 107 105
128 108 109
132 109 113
133 110 111
130 108 108
130 108 110
139 115 113
141 117 117
143 118 120
130 108 108
145 120 121
138 115 116
141 116 115
139 116 116
134 111 113
138 116 117
144 120 117
134 113 115
138 116 114
139 115 115
140 117 116
146 121 117
150 124 121
130 110 104
67 68 38
70 72 41
71 72 39
103 91 78
143 119 116
145 120 117
150 124 120
150 126 123
146 121 119
148 124 121
154 127 123
152 126 121
154 129 124
149 125 122
154 127 122
150 124 119
150 126 123
150 125 122
150 125 124
149 125 119
148 122 118
148 124 119
147 124 122
144 120 116
108 95 80
73 75 41
70 71 40
68 69 38
73 74 41
71 73 41
71 73 41
69 71 41
60 61 36
63 63 38
59 59 35
62 61 37
58 58 36
104 87 92
128 106 113
122 98 109
126 102 111
131 108 117
98 87 83
62 62 39
60 63 38
65 67 42
65 67 41
64 66 41
128 109 112
145 122 131
138 117 127
142 121 129
123 110 110
73 66 81
65 41 90
62 25 96
58 21 91
69 25 108
66 23 105
66 25 106
67 25 105
69 25 108
69 26 107
63 23 95
64 24 99
65 24 102
67 27 104
49 74 97
26 117 101
14 113 95
16 128 105
14 114 93
15 118 95
15 116 97
16 121 99
16 127 103
28 115 96
76 104 113
84 93 111
81 107 119
76 96 108
91 85 112
95 81 114
96 83 116
97 87 119
94 93 121
103 81 121
109 87 129
120 63 129
113 59 122
126 63 131
125 69 135
130 68 140
132 73 141
130 80 142
128 75 141
127 73 138
128 79 139
124 68 131
122 80 135
125 87 140
130 95 143
131 105 155
130 104 147
134 107 153
124 99 144
121 98 143
127 102 146
124 99 141
96 73 113
62 46 82
62 45 81
69 49 62
68 48 48
77 57 49
85 64 47
86 67 46
88 66 46
84 66 40
91 70 38
93 73 39
94 74 35
92 72 38
94 75 31
92 74 34
93 73 39
93 72 40
97 78 37
96 78 34
93 78 33
88 74 28
92 77 29
84 74 33
85 76 35
83 75 35
75 71 38
53 62 42
49 67 50
49 66 50
46 63 48
82 89 86
143 138 151
155 148 160
149 145 160
154 148 166
139 134 143
135 132 139
117 117 110
88 100 85
76 92 82
80 95 93
74 95 97
77 93 93
70 95 95
76 102 101
175 138 183
158 126 169
142 114 153
139 112 151
97 82 109
47 50 64
8 34 41
9 36 42
9 37 44
9 35 41
8 34 39
9 35 41
9 35 42
8 33 39
8 34 41
8 33 40
14 36 40
41 54 51
69 77 69
67 73 70
79 85 76
73 81 68
89 94 85
109 111 103
108 111 99
107 111 95
113 115 104
110 109 97
118 104 98
126 97 104
134 100 115
134 97 104
137 99 111
142 98 111
136 101 112
131 83 88
139 97 110
133 91 97
131 87 98
135 77 86
131 78 84
127 70 77
130 82 90
125 68 70
118 57 61
124 80 87
127 69 81
133 81 90
130 88 98
131 84 97
145 104 113
127 87 95
145 114 123
145 125 136
146 126 132
156 145 160
160 147 163
155 144 156
166 155 172
163 152 166
121 120 117
93 101 78
85 94 70
89 98 73
92 100 75
89 96 73
86 94 67
88 97 68
81 83 70
75 69 74
64 47 77
57 7 80
53 6 76
58 7 81
54 6 76
55 6 77
54 6 72
49 6 69
57 7 79
51 6 69
55 6 75
48 5 67
51 6 71
47 5 63
43 5 58
45 5 62
47 5 64
48 22 61
106 91 117
132 120 140
115 101 106
107 67 64
97 64 91
83 69 108
72 66 110
71 75 134
74 69 118
48 69 128
47 69 131
47 69 133
52 76 147
40 69 134
47 75 145
46 71 134
41 75 145
55 71 131
54 72 132
62 76 138
47 75 141
60 73 134
50 71 138
66 72 130
38 65 121
53 65 116
49 58 100
61 55 85
95 63 81
98 56 53
106 60 62
108 63 63
122 70 72
121 67 70
109 63 66
117 67 70
114 69 67
115 78 63
104 74 58
113 85 65
112 91 64
111 93 56
101 100 49
112 91 63
106 99 56
108 97 58
109 88 56
108 77 52
107 71 48
120 74 58
116 59 56
115 55 56
118 57 61
120 71 70
118 94 77
109 107 34
115 116 26
116 114 26
118 115 27
118 114 26
117 115 37
94 94 45
101 99 50
100 99 54
94 95 52
106 107 59
96 95 58
98 99 57
89 90 60
89 78 62
88 73 59
92 80 66
87 70 55
90 76 62
94 75 59
83 73 61
92 72 55
87 73 57
84 71 56
83 72 59
87 66 50
90 76 60
87 65 48
87 63 44
86 65 47
90 60 40
92 58 33
95 57 28
95 53 20
120 97 96
163 153 174
159 151 178
161 150 173
157 148 174
153 145 169
123 120 126
99 104 95
77 87 63
85 92 81
107 108 111
115 113 131
129 123 153
147 138 176
146 137 177
145 135 176
142 130 174
131 116 164
144 127 174
139 112 159
154 113 153
156 114 150
166 120 150
143 114 159
126 106 161
130 110 161
120 100 155
121 103 160
113 95 146
127 109 162
107 87 133
115 96 148
117 103 147
131 117 156
124 110 151
87 80 118
79 74 104
71 69 75
79 82 81
87 89 90
94 96 96
106 105 110
95 96 101
74 75 60
95 84 74
137 113 114
138 115 115
137 114 115
138 116 118
133 110 111
139 117 117
129 107 109
134 111 112
138 115 117
142 119 119
140 116 115
149 124 122
139 115 113
137 114 111
145 120 118
143 120 120
143 119 120
142 119 119
144 121 120
146 121 121
147 122 118
146 122 119
141 118 115
103 90 74
69 71 39
122 103 93
146 123 120
146 122 121
147 123 121
147 123 121
142 118 114
145 119 114
150 125 119
143 119 116
150 125 123
143 118 113
140 115 112
153 127 122
147 123 118
146 121 117
140 118 115
150 124 120
146 121 115
146 121 117
144 120 119
153 127 122
146 122 120
151 126 120
100 91 71
73 74 41
72 73 40
71 73 42
67 69 38
69 70 38
64 64 37
65 65 38
59 60 37
58 58 35
59 59 36
60 58 36
108 88 92
118 95 109
121 99 107
128 106 113
131 109 116
121 99 109
84 79 65
61 62 39
63 65 40
63 65 41
71 71 48
136 114 119
140 117 125
140 119 126
140 129 133
128 124 131
123 111 135
93 78 113
88 66 118
66 31 98
61 22 92
57 21 88
61 22 93
63 23 100
64 23 99
62 23 97
62 23 97
66 25 104
66 24 104
60 30 93
48 80 94
19 115 98
14 112 93
14 114 94
14 109 90
14 111 90
14 115 94
15 122 99
15 120 96
29 117 100
63 97 100
72 97 103
86 87 113
87 90 111
97 90 121
91 79 110
102 80 118
101 81 118
101 87 120
112 79 124
101 82 122
110 78 126
130 78 137
120 61 127
126 59 130
124 62 131
121 64 133
127 69 138
128 70 139
128 71 136
131 78 139
129 77 142
121 77 134
123 81 140
131 95 147
123 101 144
122 98 144
131 106 153
120 97 135
126 101 143
126 100 141
122 97 143
87 65 106
61 40 81
53 29 74
68 44 64
77 56 52
82 62 43
80 62 41
84 64 45
86 66 42
89 69 40
89 70 30
92 73 31
102 81 32
90 71 28
95 75 32
98 78 26
91 73 31
86 69 34
91 73 36
95 77 30
89 73 38
85 73 30
83 73 31
89 77 33
86 74 29
78 71 35
78 72 37
57 66 46
47 64 48
45 62 47
43 59 45
72 82 66
106 110 100
116 118 111
101 107 100
93 103 85
91 101 79
105 110 98
88 99 85
73 93 84
68 88 81
70 89 88
73 95 95
72 94 95
62 91 92
61 89 91
171 133 174
156 123 159
155 123 158
148 118 151
118 96 124
23 40 48
9 36 42
8 34 41
9 35 41
9 37 43
9 35 42
9 35 41
9 36 43
9 36 42
9 35 42
8 33 39
8 34 41
10 35 42
65 69 73
108 104 113
103 100 115
127 120 137
137 130 147
165 155 176
167 155 176
163 153 176
165 154 173
164 152 171
154 126 139
129 105 107
108 69 58
115 63 58
114 66 60
108 63 54
110 61 53
112 66 55
112 62 54
121 58 52
113 58 53
115 58 51
115 54 46
116 50 43
119 49 47
107 57 43
121 59 63
137 94 101
134 74 81
139 91 100
138 89 96
136 91 98
132 87 95
144 101 112
141 105 115
150 117 130
156 133 146
167 156 168
165 154 168
164 151 165
168 155 169
155 146 158
137 133 134
116 118 109
116 116 111
119 120 114
114 114 112
130 128 129
135 131 130
129 127 126
129 122 130
100 88 107
53 13 75
56 7 80
57 7 80
60 7 81
58 7 80
58 7 80
54 6 76
57 7 78
53 6 73
56 6 74
54 6 75
48 5 68
48 5 64
47 5 66
48 5 64
46 5 62
43 4 57
46 5 62
50 28 61
84 80 83
105 106 99
138 124 133
95 71 96
70 62 104
70 62 108
57 68 127
50 69 131
56 75 140
57 71 134
48 74 143
47 68 131
44 73 141
34 76 149
31 71 144
42 72 142
28 73 145
46 69 131
44 71 135
37 71 136
44 73 139
55 67 127
36 69 129
52 69 121
60 64 113
50 59 104
49 53 92
99 61 77
108 60 62
112 64 65
112 62 63
109 63 65
116 64 68
112 62 64
114 73 65
116 77 66
97 82 49
119 97 66
107 95 58
105 98 52
112 111 55
105 99 55
101 103 49
96 107 42
96 108 41
106 89 46
102 93 41
102 85 45
110 88 51
103 79 47
121 65 58
124 73 76
133 89 100
141 109 117
135 128 105
109 110 25
124 121 28
106 105 24
120 118 27
116 115 28
108 108 48
100 100 45
94 97 55
101 99 54
110 107 55
98 99 59
97 100 63
92 89 55
87 76 62
77 72 61
84 74 59
84 72 60
88 76 63
91 78 64
84 75 62
79 69 57
86 73 60
79 72 58
82 67 51
81 72 57
92 69 50
86 69 51
88 69 52
88 67 50
86 62 43
90 57 34
98 55 21
93 53 19
135 115 123
166 155 182
166 155 179
159 149 174
154 144 161
156 147 170
141 134 153
118 116 122
82 89 81
94 96 89
91 95 92
88 92 92
106 105 115
108 107 128
122 117 148
124 116 152
128 117 163
129 115 167
138 116 158
142 103 147
146 106 147
147 106 150
151 107 144
152 108 146
140 107 156
122 100 156
115 96 145
118 99 152
104 88 137
117 99 149
113 95 146
125 109 161
111 95 140
114 98 143
88 74 108
80 69 85
86 77 96
75 75 74
101 97 114
115 110 132
149 140 167
151 142 168
141 133 165
143 134 157
79 78 73
123 103 103
134 111 112
138 115 115
127 106 107
143 118 118
136 114 113
138 114 115
137 115 120
138 115 115
146 122 122
135 111 111
138 115 117
139 117 116
147 123 120
136 113 113
146 121 120
144 121 122
140 116 114
141 117 116
138 114 115
152 125 122
140 117 117
145 120 117
143 119 115
123 105 96
146 121 116
150 126 123
146 123 121
147 123 119
142 117 113
147 122 119
147 123 119
146 120 115
153 128 127
151 126 120
146 123 122
146 122 121
151 125 120
150 124 120
146 122 117
152 126 121
152 127 122
148 124 123
149 124 119
146 122 119
149 124 120
156 130 124
155 129 126
143 120 112
75 75 46
68 70 39
71 72 40
71 72 41
84 79 57
63 63 38
66 68 41
62 64 39
62 62 37
64 64 39
65 66 39
117 98 100
135 112 118
128 105 113
129 106 114
130 109 117
132 108 118
129 107 114
82 77 64
68 70 42
64 65 41
75 74 53
141 119 127
141 118 125
155 139 156
169 157 180
170 158 178
160 148 171
145 134 156
101 89 116
89 68 111
77 50 105
54 22 84
58 22 91
59 22 97
57 21 92
59 22 92
57 21 92
62 25 97
62 27 97
66 47 93
41 98 93
14 115 94
16 122 101
14 115 94
14 113 95
16 123 101
15 117 94
15 119 96
16 127 105
46 115 104
64 100 100
81 95 109
89 89 112
87 88 113
99 77 115
93 82 110
103 77 116
98 64 109
106 62 120
99 71 115
108 80 124
113 74 121
121 55 125
123 63 125
122 64 125
124 67 135
128 68 136
130 76 140
132 67 140
131 71 143
127 72 135
128 71 139
120 68 130
120 75 131
111 80 128
109 90 129
113 93 135
117 95 137
117 94 136
120 97 136
122 98 141
101 80 114
76 55 92
57 32 77
47 13 69
64 44 55
77 57 49
80 60 39
88 69 38
84 67 30
83 64 36
87 68 30
91 72 31
94 75 26
94 75 27
92 74 24
96 77 28
101 82 27
90 73 27
99 79 32
98 79 28
92 74 35
92 75 32
93 77 27
92 76 28
85 73 30
84 73 30
83 73 31
73 69 36
48 61 44
42 57 44
47 64 49
71 77 76
115 114 117
105 109 100
100 105 90
86 96 68
86 96 70
89 98 74
87 98 75
88 101 82
72 91 85
71 91 86
74 92 91
66 88 87
65 89 90
62 92 90
55 87 86
150 112 151
176 136 168
159 124 152
138 109 134
63 59 73
9 37 43
8 34 41
8 33 39
10 38 45
8 34 41
8 34 40
9 37 43
9 35 41
9 35 41
9 34 40
8 32 39
9 37 43
9 37 44
21 38 45
68 70 83
124 116 133
136 127 148
144 136 157
175 163 186
174 161 182
170 157 179
169 156 172
166 152 170
149 126 147
125 97 96
121 88 83
119 80 80
121 73 67
118 79 76
117 62 68
133 81 85
124 79 83
125 76 79
136 79 87
133 88 96
125 69 77
136 74 85
130 81 86
130 70 79
139 89 94
135 81 89
121 69 69
120 67 69
121 74 75
119 75 70
111 74 67
120 81 76
118 78 74
118 92 84
113 104 93
109 113 93
105 109 93
103 109 86
98 105 84
98 104 91
150 143 153
175 162 184
164 154 176
176 163 186
182 168 191
171 159 181
183 169 189
176 163 185
167 153 178
92 69 105
57 7 80
59 7 84
56 7 79
54 6 76
55 7 79
56 7 78
57 7 79
55 6 77
52 6 73
49 6 70
49 6 67
46 5 65
48 5 63
50 5 65
49 5 66
40 4 53
43 5 56
43 5 58
41 4 55
63 49 72
94 99 85
141 136 140
144 134 161
83 73 113
58 69 122
64 66 121
53 74 137
24 71 141
37 70 137
40 71 138
38 65 131
35 76 147
30 71 138
32 71 138
37 72 142
26 71 142
28 70 139
33 71 137
46 69 127
40 70 133
42 70 129
50 67 129
60 69 124
31 63 112
58 63 104
75 62 99
98 64 77
94 53 51
105 59 57
118 65 69
110 60 64
121 68 69
106 69 61
108 81 60
98 90 51
104 93 52
104 98 51
100 102 50
104 111 49
104 111 48
95 107 44
95 113 40
100 112 42
99 103 41
104 105 42
105 103 43
110 92 47
105 90 47
105 88 47
110 77 51
120 76 67
144 112 120
153 123 138
160 148 150
122 117 90
107 105 29
104 103 23
112 109 24
110 110 37
104 104 54
101 101 55
102 102 56
101 103 57
93 94 61
93 96 60
90 95 64
94 96 64
82 76 63
83 73 60
90 74 60
87 75 59
82 74 62
85 75 62
83 73 61
89 74 59
81 68 55
82 76 63
79 73 61
79 68 54
81 66 48
80 66 52
84 68 53
86 65 47
78 57 38
88 60 39
98 56 22
92 53 24
104 93 84
113 113 109
108 109 101
114 114 113
107 107 103
100 103 98
100 102 96
96 98 95
105 106 108
124 119 137
135 127 160
131 126 154
139 132 164
135 128 168
135 127 165
125 114 160
126 114 158
135 113 163
146 107 153
145 104 146
136 96 147
138 97 147
149 106 142
131 92 133
149 106 145
111 84 138
111 89 146
111 89 143
110 89 144
111 91 141
108 87 141
107 87 136
108 92 133
92 82 115
67 59 76
76 64 88
69 66 77
70 66 75
72 70 77
93 92 104
133 127 152
150 140 171
145 135 167
155 144 172
136 129 156
101 93 87
134 112 111
138 115 117
137 115 116
140 118 120
141 117 117
138 114 111
145 120 120
140 116 114
147 121 118
146 122 121
142 117 116
146 121 120
139 115 115
141 116 115
136 112 116
141 118 118
147 122 120
139 116 116
145 121 120
142 118 118
139 115 111
140 117 111
99 89 73
99 89 73
134 111 108
147 123 118
154 128 125
147 124 125
140 118 115
145 121 119
150 125 121
145 120 116
149 125 121
156 129 128
155 128 124
152 127 123
149 125 122
143 119 115
150 125 122
147 122 116
144 120 111
148 124 121
151 126 120
149 124 122
145 120 115
154 128 122
145 121 117
149 124 119
116 100 88
71 72 40
69 71 41
121 104 94
109 95 86
64 65 39
63 65 39
65 65 38
62 63 38
61 61 37
63 63 38
135 113 118
126 103 111
132 109 119
132 109 116
134 111 119
135 114 120
138 112 119
126 108 112
66 68 44
63 65 40
87 81 65
147 124 129
138 122 126
155 145 158
166 154 175
170 159 174
150 140 153
134 125 145
130 117 136
109 100 117
87 75 104
62 46 76
50 19 80
54 20 83
56 21 87
60 21 95
58 21 97
65 35 99
76 57 97
81 73 100
51 98 90
15 121 99
15 115 94
16 122 97
16 125 101
15 120 98
16 124 102
15 117 95
16 126 103
44 125 109
59 100 101
84 94 111
80 82 99
93 77 112
93 85 115
96 75 110
90 79 106
114 72 124
105 76 120
110 76 119
115 77 126
112 72 124
121 61 125
114 60 117
125 60 126
130 60 133
125 61 132
129 65 136
121 63 128
122 72 134
129 66 137
126 68 134
120 70 132
121 72 131
110 78 123
111 91 127
106 86 124
119 94 133
114 93 131
121 98 135
110 90 123
88 72 106
67 46 83
46 12 68
50 17 71
60 39 56
72 55 39
81 63 39
80 63 29
82 65 29
90 72 28
92 74 25
97 78 25
92 74 24
96 76 25
95 77 25
95 76 25
90 72 24
92 74 24
93 76 24
99 79 26
97 79 25
98 80 29
94 76 29
94 77 27
92 76 27
90 75 29
81 72 34
72 67 33
53 65 48
45 60 46
50 66 51
85 92 86
118 116 119
121 119 120
110 114 104
89 99 79
114 116 107
138 133 136
127 129 132
123 126 139
100 106 118
100 106 117
92 105 109
78 94 101
61 91 92
54 92 91
57 93 92
131 92 134
132 106 125
97 83 93
49 51 57
9 34 41
9 35 42
9 35 41
9 35 43
9 36 43
8 33 39
10 39 45
8 32 38
8 33 40
8 33 39
8 33 39
9 35 42
8 33 40
9 35 41
9 35 43
9 36 43
75 76 82
109 106 112
112 111 109
112 114 108
120 120 111
125 123 123
114 115 105
114 114 106
132 112 120
141 108 123
144 102 116
142 101 118
145 95 106
142 88 107
141 94 111
152 101 114
150 97 114
140 89 102
140 88 108
145 82 98
149 96 114
139 83 97
140 88 103
143 102 120
130 70 80
110 59 51
112 61 54
111 58 53
110 59 48
111 60 52
106 66 50
106 66 55
104 76 62
105 82 65
92 92 67
89 98 71
96 105 76
85 95 67
103 108 91
107 112 93
153 144 154
174 161 178
173 161 179
167 156 177
163 153 166
173 160 180
163 153 170
159 150 163
131 119 139
63 19 87
58 7 81
60 7 82
55 7 78
54 6 76
57 7 79
60 7 85
51 6 73
58 7 78
51 6 72
53 6 72
49 6 69
52 6 73
46 5 64
47 5 62
45 5 59
47 5 64
42 5 57
42 4 54
42 5 57
61 36 75
139 129 144
156 146 157
107 110 123
54 72 103
68 69 116
57 67 126
36 69 136
37 68 135
45 71 136
37 71 137
33 74 145
24 73 146
26 74 146
28 73 145
19 70 139
20 72 143
20 70 137
26 70 131
30 74 144
25 72 137
48 71 135
37 66 125
51 69 122
60 65 112
51 58 98
69 62 100
96 57 62
110 60 62
111 61 65
112 62 61
100 56 58
116 69 65
106 77 62
99 80 52
101 98 51
94 100 45
105 112 49
103 116 44
96 115 40
96 114 42
90 119 31
95 118 36
96 118 34
97 119 35
97 114 36
98 118 36
106 114 41
97 96 40
100 95 43
103 90 46
105 73 48
128 74 72
124 110 109
132 128 129
111 111 93
104 104 30
114 113 28
120 119 28
114 111 33
104 103 44
106 105 55
100 101 54
96 96 56
97 97 59
97 98 64
93 94 59
86 90 61
81 79 62
81 73 61
88 77 63
86 81 68
81 75 65
83 76 65
79 76 64
84 71 58
87 78 64
84 71 55
83 69 54
80 72 59
82 68 54
82 69 53
82 72 58
91 65 46
79 60 45
84 56 36
88 54 29
82 55 30
89 85 55
81 90 60
82 90 64
78 88 60
78 86 64
77 86 64
78 87 62
78 87 67
84 91 73
96 100 99
133 127 149
143 135 167
139 131 162
146 137 174
139 131 167
132 118 159
138 116 161
142 105 148
137 98 141
145 103 149
131 91 142
129 90 139
144 101 146
145 102 140
137 94 144
129 89 133
118 87 137
106 79 139
101 81 136
100 78 133
103 84 132
98 78 124
104 85 129
89 72 108
94 75 116
89 78 107
93 80 112
101 91 122
106 98 121
123 117 143
144 135 159
138 133 156
142 134 155
111 110 116
96 100 95
83 89 75
112 100 95
142 118 115
143 120 121
138 114 111
138 114 112
140 116 118
136 112 112
134 111 115
142 118 117
138 114 114
137 115 116
146 121 118
143 119 120
142 118 117
142 119 119
143 119 118
139 116 114
144 120 121
144 120 120
142 117 114
129 109 102
77 74 51
71 72 40
67 68 38
122 105 94
149 124 121
145 120 114
145 120 117
145 120 116
150 124 120
142 119 116
143 119 115
152 124 120
143 119 115
146 122 120
152 125 121
151 127 124
140 115 110
150 125 123
151 126 119
145 121 117
146 120 115
150 125 120
149 124 119
151 126 122
150 125 119
154 130 127
142 120 117
148 124 119
110 97 84
134 112 104
147 122 121
135 112 117
96 85 76
64 65 39
62 64 38
63 62 37
63 64 39
68 66 44
136 112 116
132 110 118
124 104 112
135 113 122
129 108 116
133 111 118
134 113 122
135 112 120
122 105 107
72 72 50
104 92 84
149 131 146
158 147 166
154 142 164
154 146 168
157 147 165
138 133 140
110 110 106
87 91 77
72 75 67
70 72 63
54 52 56
53 38 70
56 21 89
54 20 83
56 21 89
62 37 91
65 47 89
75 70 81
69 75 79
34 106 91
14 115 96
15 116 97
15 120 100
15 118 96
15 114 94
16 127 104
15 121 101
15 120 97
48 108 98
69 103 105
84 90 106
80 77 99
87 63 98
105 69 108
104 58 110
109 61 113
104 61 112
108 69 118
109 67 119
115 60 122
112 65 121
122 59 123
119 59 122
117 51 120
127 64 132
121 61 128
126 63 135
125 59 133
124 62 131
119 63 129
125 68 133
115 66 126
119 68 126
112 81 124
107 86 119
104 85 114
100 83 114
101 83 115
97 80 107
89 76 99
91 85 96
49 27 67
46 12 65
46 14 65
62 39 61
78 59 40
77 59 38
86 68 30
87 69 24
86 68 23
88 70 23
84 66 22
88 71 24
90 72 23
88 71 23
92 74 24
87 70 23
98 79 26
94 76 24
92 75 24
89 73 24
93 76 24
92 75 24
96 78 25
97 80 26
86 74 29
87 76 33
69 65 35
48 61 45
45 61 46
64 76 52
76 87 59
84 94 64
84 95 67
77 88 61
82 93 62
96 100 86
98 106 96
109 111 113
117 124 132
102 108 120
99 109 115
81 99 104
72 94 95
55 90 90
58 90 90
47 87 86
113 82 122
96 81 101
45 51 65
9 37 44
9 36 44
9 35 42
10 37 44
9 34 41
9 37 43
9 35 43
9 35 41
9 34 41
9 35 41
9 35 42
9 35 42
9 35 41
9 34 42
9 35 43
8 34 42
9 36 43
21 40 48
31 46 44
70 81 58
88 99 66
91 100 74
89 98 71
90 99 73
91 99 73
134 122 126
146 114 133
153 117 134
148 107 124
147 107 124
149 103 118
136 88 103
141 92 107
144 90 106
144 87 101
138 85 100
142 85 102
143 89 103
128 63 75
138 82 93
131 81 97
136 94 103
127 70 76
126 65 69
131 82 86
125 73 78
121 70 76
130 82 92
130 90 98
137 103 111
134 111 124
148 129 139
158 149 161
159 150 162
160 151 166
157 148 162
166 155 173
140 136 138
121 122 114
106 110 99
107 111 95
110 114 100
106 109 96
96 104 79
104 110 93
76 65 81
59 7 82
57 7 80
55 7 78
52 6 73
57 7 80
55 7 80
60 7 83
53 6 76
55 6 77
50 6 70
53 6 72
52 6 72
51 6 69
52 6 73
49 5 66
45 5 64
48 5 64
45 5 61
48 5 64
44 5 57
45 5 60
126 113 137
158 147 166
121 121 138
64 81 100
60 79 124
50 68 126
35 71 136
36 70 138
39 71 137
28 72 142
17 74 152
17 73 146
16 70 143
17 74 147
18 77 155
17 73 149
18 71 139
16 71 144
23 74 146
18 70 140
27 70 136
26 70 134
52 67 123
49 66 116
64 66 111
71 61 93
86 57 79
102 58 59
109 61 61
97 55 53
109 63 63
113 69 61
95 77 48
92 86 45
94 99 39
93 112 37
104 120 44
94 121 35
93 122 34
93 129 29
91 123 30
96 129 31
94 130 30
92 125 29
91 121 31
91 119 31
94 111 36
100 106 40
93 105 35
108 90 47
106 86 47
114 72 53
103 64 57
84 90 64
76 87 53
81 89 48
97 101 38
100 102 25
106 107 32
98 100 50
101 104 55
96 97 52
101 102 60
86 89 58
98 100 62
91 94 63
94 97 72
95 95 83
93 81 69
87 80 66
84 77 64
81 76 62
81 78 66
78 73 61
74 71 61
80 76 64
77 70 57
78 71 56
83 71 57
80 71 58
78 63 50
79 68 54
82 62 46
84 59 41
79 62 48
83 53 32
97 79 74
125 121 120
130 124 127
129 124 128
126 122 124
131 125 130
123 119 125
122 118 127
132 126 141
132 126 139
137 130 143
139 133 153
147 137 160
123 120 131
98 99 103
98 98 103
105 93 110
146 107 144
141 103 141
139 100 144
138 98 142
140 100 147
125 86 139
121 82 136
122 82 130
119 80 132
122 82 129
107 71 123
109 79 131
97 74 123
99 77 124
89 68 111
94 77 119
93 70 115
104 82 127
103 87 125
110 92 130
122 105 143
125 109 144
133 119 153
144 133 161
153 142 176
162 150 179
148 138 165
129 125 138
101 104 101
79 88 64
82 91 65
128 109 107
136 112 112
130 109 114
134 111 109
140 117 116
138 115 117
133 111 114
140 117 118
132 111 113
147 122 123
141 116 114
142 117 117
148 123 120
148 123 119
146 121 117
145 120 116
142 117 114
148 123 121
124 105 99
80 77 52
69 70 39
67 69 38
68 70 39
74 73 46
141 118 113
139 116 115
144 120 116
144 120 116
153 127 123
149 124 122
149 124 121
152 126 123
146 123 120
153 127 124
152 125 120
147 120 113
151 126 122
146 122 120
148 124 119
151 126 122
148 124 119
148 123 119
145 120 116
152 127 122
150 125 122
147 122 117
152 126 119
140 119 113
94 86 65
148 124 118
136 111 113
141 115 117
137 114 117
91 81 72
67 68 41
64 66 39
60 61 37
81 75 63
131 107 114
132 110 115
134 110 117
134 111 118
121 99 108
129 107 115
135 116 122
141 117 125
139 116 123
121 103 104
105 98 97
150 138 164
165 153 178
159 147 172
144 133 160
163 149 174
152 141 159
133 124 144
106 104 106
71 76 62
65 69 59
63 68 54
64 63 64
52 39 65
56 21 90
65 40 91
76 63 96
83 78 90
89 85 94
101 99 102
36 105 88
14 110 93
15 118 96
15 117 95
16 122 101
14 114 93
15 117 96
17 131 107
16 126 103
50 109 104
76 98 105
94 82 112
87 71 100
95 71 106
95 70 108
100 62 110
109 65 118
106 64 115
104 60 112
120 63 129
113 59 121
123 61 129
119 58 127
128 70 130
130 68 133
134 69 141
130 71 136
127 67 130
124 61 130
127 61 136
113 54 119
122 60 126
117 61 123
108 61 114
99 71 111
96 78 106
98 81 105
89 74 99
89 74 94
89 76 96
78 78 71
75 80 64
46 26 66
44 11 65
42 13 57
61 42 51
71 55 45
77 59 40
83 66 24
89 70 24
88 70 23
92 74 24
89 71 23
90 72 24
86 69 23
92 74 24
89 71 23
98 78 25
90 72 23
86 69 23
92 75 23
89 73 23
91 74 24
92 75 24
94 77 24
88 74 25
92 76 26
79 71 33
69 67 37
45 55 41
67 77 63
94 98 87
98 104 87
100 105 93
107 111 100
111 113 106
111 115 103
110 113 106
109 114 107
112 116 116
95 107 103
82 99 98
86 102 106
80 100 104
59 94 95
50 89 88
48 87 88
55 92 92
119 95 127
45 47 60
9 37 46
9 35 42
9 36 43
9 36 44
9 36 43
9 37 44
9 37 44
9 36 43
9 34 41
9 35 43
9 36 43
8 33 41
8 33 39
9 36 43
8 33 40
8 33 40
9 35 43
9 35 42
8 34 40
9 35 42
61 68 69
142 137 144
140 135 145
149 142 151
149 142 155
142 137 142
129 111 113
122 99 92
114 83 81
120 78 80
123 68 69
124 70 72
121 68 69
115 62 60
126 50 59
121 58 57
124 60 62
120 56 58
114 52 51
119 58 57
123 61 58
114 47 49
123 45 55
137 84 103
145 98 113
147 102 119
142 87 104
142 100 115
146 100 114
148 112 130
153 112 129
165 132 151
167 147 170
185 171 194
181 167 192
179 165 191
182 168 193
180 166 192
152 145 154
93 101 76
93 102 74
92 101 74
88 98 73
87 96 70
98 106 77
87 97 66
68 51 78
56 7 77
55 7 78
55 7 76
58 7 81
55 7 80
60 7 82
55 6 76
55 6 77
54 6 74
52 6 73
52 6 70
54 6 73
48 6 67
49 6 70
45 5 61
44 5 58
44 5 63
46 5 62
43 4 56
45 5 59
43 5 60
78 70 86
114 114 112
98 101 112
93 101 130
88 98 142
71 89 140
43 72 136
25 71 143
21 69 138
16 69 136
16 72 144
17 72 146
17 73 144
17 72 141
17 76 152
17 72 148
16 69 144
17 74 144
17 73 139
16 69 137
23 71 136
33 66 126
37 67 126
52 65 115
56 60 107
65 62 101
84 57 71
94 54 50
95 55 50
97 55 53
109 70 61
100 77 49
95 88 49
96 103 42
94 114 37
95 120 36
90 124 29
89 124 28
93 128 29
90 126 28
93 129 29
90 125 28
91 126 28
92 128 29
90 124 28
90 125 28
92 125 29
92 120 31
93 107 36
93 99 37
91 93 36
105 84 51
108 105 84
95 100 81
89 91 63
87 91 71
101 101 75
102 102 63
103 103 48
86 90 44
99 99 54
88 90 50
87 90 52
86 89 61
82 85 65
87 91 73
90 92 79
85 90 78
87 84 73
79 77 66
75 73 63
80 77 64
84 76 63
79 73 60
78 75 61
79 72 61
77 69 56
72 70 58
79 72 61
81 70 57
78 69 59
78 67 54
76 64 51
68 62 51
79 65 51
86 60 48
151 133 141
160 148 161
174 159 176
165 151 168
167 154 172
161 148 165
158 146 163
167 153 175
160 148 170
171 157 177
164 153 176
162 149 177
158 146 170
145 135 147
104 105 104
102 96 90
149 111 143
142 104 142
133 96 138
133 93 145
126 88 137
126 87 139
118 81 129
120 80 135
118 79 131
109 71 125
121 83 131
112 74 122
109 69 123
115 80 124
97 69 120
94 67 120
94 67 118
92 70 117
92 69 112
107 85 123
96 75 116
105 88 121
112 97 127
111 104 127
126 116 137
147 138 158
148 140 162
142 135 150
136 130 141
124 121 125
109 110 105
123 122 124
130 126 132
140 120 122
136 114 116
143 119 117
146 121 122
143 118 116
134 111 111
134 111 113
141 116 115
141 117 115
138 114 114
142 118 118
144 119 117
146 121 118
147 123 124
144 119 113
148 123 118
121 104 98
66 67 38
72 73 41
70 71 39
66 67 37
67 67 38
71 72 40
85 78 60
145 120 115
143 119 115
147 123 117
151 125 122
147 122 119
148 123 120
154 127 120
144 120 115
149 122 116
147 123 121
146 121 118
150 123 116
145 121 118
153 126 119
148 121 117
150 126 123
150 124 120
147 121 117
152 125 118
155 128 124
150 124 118
135 114 108
75 74 47
73 74 41
102 91 76
146 121 121
135 112 117
145 119 123
129 108 111
82 78 57
60 61 37
67 69 41
97 85 79
131 108 113
125 105 107
132 108 114
131 108 116
136 111 119
131 107 115
139 116 125
135 110 121
137 114 126
133 116 126
120 114 122
133 122 138
129 121 130
120 115 126
120 115 124
114 110 119
99 97 98
97 92 97
102 98 99
80 80 78
63 68 55
78 75 78
89 82 96
95 82 105
74 54 95
105 91 119
108 96 119
101 89 117
114 103 123
118 112 134
46 112 101
14 109 88
15 119 98
16 126 102
16 122 100
15 116 96
16 122 102
15 118 97
17 129 105
49 107 101
82 91 104
79 84 101
87 76 104
93 65 105
112 60 117
102 62 109
109 52 112
115 60 123
113 51 114
109 60 112
117 51 121
128 53 129
121 51 123
126 58 129
124 56 129
125 53 126
120 57 126
127 61 135
130 63 136
121 59 130
117 55 122
114 54 119
111 59 116
100 56 104
99 64 104
88 73 97
74 63 74
82 73 84
104 92 112
107 102 107
63 70 54
71 74 64
52 35 64
38 10 54
52 26 61
71 50 48
78 60 40
79 62 29
85 67 22
86 69 22
82 66 22
93 74 24
85 67 22
82 66 21
81 65 21
87 70 22
89 71 23
90 73 24
86 70 22
95 76 25
90 73 23
91 73 23
88 73 23
85 69 22
89 73 23
86 71 23
87 74 30
83 72 32
71 66 34
68 74 60
95 97 90
121 119 117
144 137 147
153 143 159
156 146 164
162 151 172
161 149 168
165 153 174
151 143 160
139 135 153
129 131 143
101 113 123
73 98 102
71 95 98
54 87 86
49 86 85
45 91 88
45 87 87
99 79 116
9 35 42
8 34 40
8 33 40
9 37 44
9 35 42
9 36 42
9 35 42
9 37 45
9 35 42
9 35 42
9 35 41
9 36 44
8 34 41
9 35 42
8 33 40
9 34 41
8 32 37
8 32 37
8 33 39
7 31 36
62 65 75
156 143 159
185 169 193
183 169 192
189 173 196
174 160 189
178 164 185
113 105 101
107 79 57
106 67 52
113 57 48
111 54 46
109 58 47
120 60 57
115 47 43
118 47 45
116 56 54
124 43 44
114 36 43
123 45 45
120 37 48
119 51 49
123 49 52
126 54 64
133 65 82
133 82 93
138 88 103
133 77 92
123 58 72
123 74 89
134 96 117
140 97 120
120 90 105
158 139 154
152 142 157
156 147 159
143 138 144
148 142 148
134 131 139
141 136 142
147 141 149
149 141 150
158 149 158
147 140 150
164 154 163
169 158 171
157 147 160
82 61 98
59 7 83
57 7 79
56 7 79
58 7 80
58 7 81
52 6 74
56 7 77
54 7 75
52 6 73
54 6 75
56 7 76
48 5 65
48 5 65
47 5 65
45 5 63
42 5 57
45 5 59
41 5 58
39 4 52
43 5 58
40 4 51
55 44 61
76 85 56
76 85 85
93 104 140
104 110 149
91 101 152
72 89 147
35 72 139
17 75 149
16 71 142
17 72 146
17 72 145
16 71 141
16 69 139
16 71 142
16 68 133
16 68 138
16 71 140
15 66 131
16 70 136
14 63 124
26 66 123
32 65 125
53 67 125
59 68 121
72 60 95
79 54 68
99 56 54
95 54 50
96 54 53
88 66 44
85 82 40
100 102 45
91 110 37
89 116 30
87 121 27
91 127 29
94 130 29
91 127 28
91 128 28
92 128 29
89 123 28
88 123 28
87 120 27
90 125 27
87 122 27
88 122 27
87 121 27
85 115 28
94 105 39
96 101 39
98 97 46
128 123 106
148 141 133
146 137 137
133 127 111
142 131 125
121 115 98
125 119 106
111 107 79
100 99 78
84 84 67
81 82 63
108 106 94
101 101 85
100 102 80
95 97 92
110 108 100
99 98 94
85 82 70
77 71 59
79 72 61
77 73 61
74 75 64
77 73 61
78 77 66
82 73 61
81 70 56
77 73 62
87 74 59
79 70 58
76 67 55
78 65 52
74 59 47
83 62 45
107 92 96
154 141 153
157 142 153
161 149 161
157 145 154
152 140 151
155 143 157
143 133 142
148 138 152
148 139 152
153 142 155
147 139 155
149 141 159
151 142 158
136 131 139
144 134 144
165 128 149
146 107 143
133 93 143
132 94 138
118 81 131
115 76 136
120 80 141
124 85 138
104 66 130
103 66 125
101 64 122
102 64 124
97 61 121
109 70 128
94 59 115
93 60 117
96 68 123
87 59 109
79 57 98
82 52 101
79 61 92
81 66 90
75 62 82
78 67 83
73 68 74
85 86 80
87 95 73
82 91 65
85 95 66
87 96 73
82 92 63
88 97 70
117 117 113
145 138 150
168 154 178
141 121 130
145 121 123
136 113 113
137 114 112
136 112 111
147 121 120
143 118 119
141 118 115
143 119 119
147 122 119
144 121 123
148 123 120
141 118 118
146 120 118
113 98 88
68 69 40
70 71 40
68 69 38
69 70 40
66 67 38
71 72 40
70 70 39
68 69 38
118 101 90
144 120 114
149 123 119
141 117 112
144 120 117
145 120 118
141 116 110
144 121 118
151 125 123
142 117 110
146 122 120
152 126 120
151 125 119
149 124 118
141 115 109
150 126 123
146 122 116
144 120 118
154 128 125
153 128 124
120 103 93
76 76 45
69 71 39
72 73 41
98 88 77
145 120 121
140 116 116
139 115 121
138 116 118
125 104 105
71 68 47
61 62 37
98 87 79
128 106 115
134 111 118
132 111 116
138 114 122
134 111 120
135 116 122
141 118 124
141 118 126
134 117 121
96 98 83
85 94 69
72 81 56
80 88 61
77 86 58
75 83 60
72 80 53
70 77 55
64 72 49
61 67 45
58 65 42
70 76 53
59 59 50
68 66 67
81 78 80
106 94 115
114 101 120
128 113 140
119 102 134
133 118 144
142 129 151
53 111 100
14 110 86
13 104 86
15 115 96
15 116 96
14 116 92
14 114 93
14 112 93
14 113 92
40 109 95
81 91 106
77 78 96
79 76 97
104 73 117
105 70 111
109 57 115
105 56 114
116 51 119
113 47 117
114 54 120
120 48 123
122 49 127
123 49 125
119 47 122
128 51 135
124 51 124
119 55 124
124 61 129
128 61 131
118 56 120
118 61 121
116 51 121
94 46 97
85 45 90
66 42 64
41 38 39
45 44 42
56 54 54
86 82 88
80 80 79
78 80 71
76 77 72
70 61 84
51 29 67
43 12 62
68 50 43
82 61 35
86 70 23
92 75 24
84 67 22
85 67 22
86 67 22
93 75 24
91 73 23
87 70 23
88 71 23
86 69 22
88 69 23
86 70 22
92 74 24
92 74 23
94 76 25
85 70 22
93 76 24
90 74 23
95 78 24
93 77 26
84 72 28
75 71 36
60 67 42
69 79 50
74 82 62
87 91 79
119 117 115
124 119 125
139 132 144
162 150 171
161 150 171
149 143 159
139 138 154
117 124 136
108 116 129
75 101 108
44 90 88
44 83 83
44 88 87
48 87 86
50 91 91
120 97 132
60 53 68
14 32 37
7 31 35
8 32 36
8 32 39
8 32 38
8 33 39
8 33 39
9 34 41
9 36 44
8 33 38
8 33 39
8 32 38
8 32 38
7 30 35
8 33 38
7 29 34
7 28 32
7 30 34
54 58 64
123 116 130
161 150 171
158 148 167
167 156 174
162 151 171
166 155 169
153 145 157
135 117 123
128 97 103
129 96 105
137 95 104
133 86 96
135 81 90
130 75 85
128 67 76
133 70 82
129 65 77
129 63 75
124 43 57
125 63 77
134 73 85
129 60 71
126 55 66
113 48 52
117 47 49
115 39 44
128 42 51
112 54 57
115 50 55
107 52 61
111 59 65
96 55 76
97 67 81
90 75 83
87 95 75
89 98 73
92 102 73
84 94 65
91 101 70
123 123 119
182 167 190
181 167 191
184 169 192
184 169 194
182 168 190
179 166 188
177 163 188
87 67 102
52 6 73
54 6 75
56 7 78
57 7 81
57 7 79
56 7 76
51 6 72
52 6 71
53 6 71
49 6 68
49 6 71
53 6 71
46 5 64
46 5 64
46 5 63
44 5 62
46 5 60
42 5 56
42 4 55
44 5 59
43 5 57
77 67 84
112 111 102
100 106 116
87 98 138
84 95 133
74 88 140
37 73 136
16 70 143
16 68 135
15 66 134
16 69 141
17 75 149
16 71 143
15 65 131
16 68 139
15 68 131
16 69 135
15 68 137
15 65 131
16 70 137
15 67 132
16 69 132
15 66 123
51 65 111
70 60 95
74 58 89
67 53 76
102 57 56
94 52 48
93 54 50
83 65 41
89 92 38
87 108 34
92 120 32
91 125 28
89 123 27
93 129 29
93 130 29
91 125 28
91 126 28
88 123 27
86 120 26
90 125 27
89 124 27
86 120 27
87 120 27
88 122 26
87 120 27
86 120 26
86 117 27
84 114 28
90 102 37
96 104 72
136 131 127
161 151 157
159 147 155
143 135 135
152 141 140
142 134 133
136 129 124
133 128 122
114 110 110
128 122 119
119 115 106
100 100 91
102 100 95
102 102 97
93 94 89
95 98 93
84 88 77
78 81 69
79 79 68
77 77 64
71 67 57
74 76 67
70 68 59
75 70 60
78 76 66
73 69 58
71 67 58
72 66 57
75 68 58
72 66 57
77 64 52
98 88 89
120 111 119
125 118 124
109 107 96
90 92 72
109 107 95
102 102 90
95 98 82
93 92 78
93 96 81
97 101 82
91 95 77
85 90 69
99 104 87
95 102 80
109 104 93
170 132 151
180 136 162
147 108 141
128 91 130
117 78 135
124 85 139
120 80 135
113 76 129
101 63 127
96 60 120
116 76 136
94 57 119
90 53 118
90 53 116
86 50 115
92 54 120
87 53 107
88 55 108
95 66 116
85 56 105
75 49 98
78 51 96
80 60 95
80 62 90
75 61 81
75 67 78
80 80 75
89 99 68
86 96 70
87 97 71
94 101 81
99 105 85
92 99 84
100 106 85
102 107 96
137 133 141
151 141 157
133 114 120
145 121 121
144 121 121
140 116 115
139 115 113
151 124 121
144 118 114
150 125 123
146 122 121
143 121 118
144 118 114
145 121 117
91 83 68
71 72 40
68 69 39
71 72 40
68 68 39
71 72 40
69 69 38
67 68 38
66 68 38
67 69 38
71 71 41
144 119 114
146 121 118
150 123 118
145 120 116
151 125 122
145 119 115
148 123 119
152 126 120
149 122 116
149 125 120
153 127 122
152 127 126
145 121 119
152 126 122
154 129 124
145 122 118
155 128 123
146 121 116
110 96 83
70 71 39
73 75 40
69 70 38
74 74 45
129 108 106
146 122 122
136 115 117
139 117 117
137 114 117
135 112 118
129 110 111
65 66 43
107 92 89
126 105 112
132 109 116
137 114 123
138 116 122
139 117 124
133 109 115
133 111 118
141 121 132
158 146 165
135 128 140
97 102 92
84 94 66
88 96 69
86 93 70
89 95 78
84 90 72
91 96 80
94 99 87
100 101 96
96 99 86
95 95 92
90 92 85
87 87 86
91 91 83
96 95 93
114 105 117
141 128 148
128 118 136
116 109 120
120 111 126
65 97 87
12 101 79
14 112 90
14 110 91
15 117 94
14 111 92
14 113 90
14 113 91
13 101 82
43 109 95
63 96 95
88 85 111
90 82 106
91 66 105
99 60 110
108 58 112
106 48 110
114 45 116
115 47 119
117 46 118
119 47 124
119 47 125
116 46 121
122 48 127
124 48 125
123 48 122
132 61 136
131 64 132
129 65 131
126 65 128
126 64 130
108 54 110
105 52 106
81 53 78
72 54 67
56 62 39
54 60 37
57 64 40
53 59 37
70 78 51
65 75 47
61 67 48
58 53 63
40 18 56
41 13 58
68 51 44
89 72 23
87 70 23
89 70 23
81 64 21
86 67 22
83 66 22
88 69 23
85 70 22
92 73 24
93 75 24
83 68 22
94 76 24
91 74 23
87 70 22
91 73 23
89 72 23
88 72 23
96 77 24
97 78 24
94 77 25
99 80 25
81 72 40
84 77 55
100 99 91
100 101 94
102 102 94
100 102 95
110 109 105
111 110 110
117 115 118
142 135 147
149 140 160
131 128 142
114 119 129
99 113 120
76 97 98
55 91 90
45 83 84
50 88 86
42 88 87
39 89 88
43 92 92
137 106 157
105 83 121
92 75 103
20 28 35
7 29 34
8 33 39
7 29 34
8 32 38
8 32 38
8 32 38
7 29 33
8 32 37
7 29 34
7 28 34
8 32 37
7 31 37
8 34 40
7 30 36
7 29 35
25 41 41
66 75 59
91 99 80
97 104 85
97 104 82
92 102 74
96 102 82
90 98 74
140 134 139
173 151 172
163 137 157
156 125 147
152 105 126
144 96 114
140 88 108
140 80 98
138 68 86
144 78 95
133 64 83
132 65 80
136 56 73
128 63 80
128 54 71
129 63 81
135 73 89
122 43 56
114 32 52
114 33 50
103 29 62
111 23 57
95 26 69
117 40 58
97 39 72
99 62 85
97 63 75
94 76 100
86 87 97
97 102 91
106 111 94
106 111 95
103 108 92
132 130 127
161 151 166
164 154 171
169 157 176
155 146 164
158 148 166
161 150 165
142 136 149
81 62 95
56 7 76
55 7 76
53 6 76
53 6 75
53 6 75
54 6 76
54 6 73
53 6 74
48 6 69
51 6 70
54 12 75
52 15 71
58 30 75
56 31 73
50 21 66
55 27 69
51 21 68
41 11 54
38 4 50
38 4 48
37 4 48
92 78 101
174 160 182
145 138 162
112 115 156
69 87 127
44 76 133
16 67 135
16 70 144
16 68 140
16 69 139
15 66 133
17 72 144
15 65 131
17 72 144
16 68 136
16 71 139
16 71 139
15 64 126
15 67 136
15 66 131
15 66 131
15 68 124
13 61 119
14 60 112
50 59 107
65 61 100
83 50 62
92 51 46
95 53 47
94 55 49
82 71 36
85 92 38
84 113 29
85 119 27
89 124 28
87 121 27
89 124 28
95 131 28
88 122 27
90 126 27
89 124 27
86 120 26
89 124 28
89 124 27
87 121 26
84 117 25
88 123 27
82 115 25
79 111 24
85 117 25
85 117 27
87 107 42
102 117 79
129 127 122
142 133 134
123 121 113
109 108 94
110 110 104
106 108 95
103 105 94
92 96 84
95 99 85
84 89 75
83 90 74
85 90 77
87 92 80
79 85 71
83 90 75
81 88 75
84 90 79
77 79 68
81 81 70
78 74 62
73 71 61
68 66 57
74 71 62
72 72 62
74 71 62
71 68 58
69 63 54
74 65 55
69 65 54
71 65 55
85 77 74
113 103 107
145 133 144
135 122 130
106 100 101
87 91 67
78 81 58
79 81 59
79 83 60
83 88 62
81 87 60
82 90 59
80 88 61
84 92 64
82 89 63
100 101 80
165 130 144
185 140 164
181 136 161
145 106 142
132 93 139
125 88 130
112 76 129
108 71 130
93 54 123
101 62 130
87 49 120
90 52 122
80 46 109
89 50 122
89 50 119
85 47 113
83 46 103
83 46 110
85 48 106
91 55 112
69 40 87
75 47 98
79 53 98
90 69 103
94 72 106
95 78 104
99 81 111
128 117 135
150 142 159
161 151 164
151 143 159
158 148 165
165 154 171
157 147 163
162 151 171
162 153 165
166 154 177
163 152 169
146 141 148
132 115 110
136 113 114
140 117 115
145 121 123
131 109 109
143 118 118
143 117 115
144 120 119
136 112 111
140 117 112
87 82 59
68 69 39
69 70 39
69 70 40
71 72 40
69 70 39
69 70 41
66 67 38
65 65 36
70 72 40
69 70 39
68 70 39
87 80 58
148 123 119
146 121 117
153 127 121
149 125 121
148 124 121
154 128 123
146 122 118
147 120 113
145 120 115
146 121 117
146 121 116
142 118 112
141 117 112
151 126 122
146 122 119
151 125 120
104 92 76
70 72 40
72 73 41
70 71 40
70 71 40
91 85 66
139 115 118
134 110 113
148 123 123
144 119 123
143 118 122
135 114 117
142 118 122
123 104 108
119 101 101
129 107 117
134 114 121
137 115 120
131 110 118
130 110 122
134 111 119
130 112 119
114 113 112
128 126 121
123 122 123
108 110 98
96 101 83
124 120 124
151 142 157
148 139 156
152 140 160
152 142 162
160 148 168
147 138 164
158 145 166
164 151 171
163 151 171
153 143 169
160 147 169
157 145 169
164 151 176
160 146 171
157 143 165
144 136 149
103 104 96
70 96 79
15 105 85
12 100 80
14 112 91
13 107 90
14 108 88
14 115 94
13 99 81
13 103 81
44 110 94
65 87 93
80 85 106
86 75 108
86 62 95
112 52 115
110 45 111
106 41 107
114 43 115
122 48 122
115 45 120
120 47 122
115 45 113
114 45 116
118 46 122
125 49 126
124 49 127
123 49 126
128 53 128
130 66 136
136 79 139
129 82 134
123 79 125
112 78 112
101 73 98
96 92 83
83 86 70
95 99 84
97 99 89
102 102 94
97 100 88
106 106 98
97 99 94
73 71 75
46 31 60
45 23 53
77 59 35
86 69 23
77 62 21
96 76 25
87 70 23
90 71 23
95 74 24
90 71 23
89 73 23
91 72 24
95 76 24
92 73 24
92 74 23
93 75 24
88 70 23
89 72 22
98 79 25
95 78 25
89 74 23
96 79 25
89 73 23
99 80 25
98 83 44
126 113 113
145 137 151
157 147 160
148 137 154
153 144 159
157 148 165
160 149 165
160 150 169
156 146 165
166 153 176
140 137 149
120 123 133
94 107 116
77 96 96
49 82 79
36 81 81
45 94 91
48 91 89
36 89 87
40 89 88
140 105 161
123 92 141
115 87 132
95 74 112
29 34 46
7 30 34
8 32 37
7 30 35
7 29 35
8 31 36
8 31 36
7 30 36
7 31 36
7 29 36
7 30 36
8 32 37
7 30 35
8 33 39
23 38 40
64 75 54
80 89 61
83 93 62
88 98 67
94 103 75
95 104 76
87 97 66
91 100 71
151 143 156
163 138 158
159 130 150
147 109 126
154 110 129
148 101 117
145 96 107
134 79 95
137 74 90
131 70 85
124 46 60
125 45 65
122 52 67
125 47 71
121 45 61
121 53 71
124 39 62
108 8 60
117 7 54
107 7 51
103 8 64
120 8 60
103 10 77
106 10 75
92 12 87
99 36 91
96 64 107
98 70 119
113 101 146
137 125 159
162 150 169
171 159 180
166 153 173
168 156 171
107 110 96
106 109 95
94 102 79
94 102 79
92 100 76
92 100 74
87 96 69
67 58 70
50 6 70
54 6 77
51 6 71
55 7 74
57 7 77
56 7 76
52 6 72
48 6 66
54 16 72
65 37 80
68 45 83
78 56 93
86 68 100
73 54 89
81 63 93
90 73 102
81 65 95
77 60 87
52 30 63
51 32 61
42 4 55
117 102 127
177 162 182
150 143 175
131 131 167
97 107 156
17 73 146
15 67 135
15 65 134
15 67 137
16 70 144
16 68 140
17 72 144
15 67 134
16 69 138
16 70 141
16 71 137
16 71 141
16 68 133
15 68 134
16 71 140
14 63 119
15 65 126
15 68 131
14 62 122
25 57 108
61 58 92
69 52 70
91 50 48
94 53 47
89 62 44
88 87 36
84 110 30
80 112 25
86 121 27
87 121 27
88 123 27
88 122 26
92 127 27
90 125 27
90 125 27
86 121 26
88 123 26
86 120 26
89 125 27
84 117 26
89 123 27
91 126 28
85 118 25
86 121 26
79 111 25
84 118 26
88 116 39
106 119 89
145 142 140
164 153 166
120 117 116
80 89 56
75 85 54
78 87 57
79 88 64
77 85 65
78 85 65
79 86 68
78 85 67
78 85 68
73 79 62
75 82 68
74 81 64
74 80 68
73 79 68
76 82 70
74 77 64
77 78 67
72 74 63
71 72 63
71 72 63
72 72 64
64 62 55
73 70 61
70 67 59
73 71 60
72 68 58
85 80 70
97 89 91
118 109 114
132 122 129
116 105 108
137 123 131
108 103 103
99 96 86
97 94 84
99 97 83
107 103 97
120 112 112
122 115 119
119 114 115
129 122 123
130 121 125
158 126 140
184 139 163
185 140 164
178 134 161
142 103 142
124 88 131
100 66 119
102 65 129
97 60 121
90 55 117
88 50 120
83 48 114
93 53 128
90 51 120
86 49 117
90 51 124
84 47 113
77 44 104
78 43 103
82 46 107
79 45 103
82 46 107
78 44 104
71 41 91
84 57 106
101 79 116
100 82 112
118 99 134
149 134 160
184 168 192
183 169 189
179 165 185
179 163 188
172 159 185
181 166 190
178 165 188
182 168 193
187 172 195
175 162 188
176 164 181
152 147 155
138 120 117
144 118 115
142 118 117
143 118 118
140 117 114
144 119 117
147 121 116
136 115 111
81 77 55
73 73 41
64 65 37
67 68 38
67 68 38
68 67 38
70 72 40
65 66 37
69 70 39
69 70 40
68 69 38
69 70 39
69 71 39
69 69 38
109 96 82
150 125 122
146 121 116
146 121 116
138 115 112
150 124 120
156 129 125
153 127 122
150 124 117
151 126 122
148 123 117
153 126 121
152 126 122
144 120 116
140 118 112
92 86 65
68 70 39
69 70 39
70 72 39
71 73 41
72 72 39
119 104 96
142 119 121
137 113 114
136 115 119
140 115 117
142 119 121
135 111 113
127 106 109
144 122 125
119 101 101
138 115 124
135 113 120
130 108 115
136 114 120
135 112 120
133 112 119
94 98 75
82 93 62
83 95 62
85 96 63
82 92 61
80 90 63
95 101 82
109 111 102
134 130 138
165 154 176
174 161 184
168 156 183
174 161 187
171 158 181
177 163 186
168 155 181
172 160 182
174 162 185
177 164 185
165 152 176
173 159 186
177 162 188
165 155 178
160 151 171
145 138 151
64 103 95
14 115 92
13 107 86
13 107 85
15 113 89
13 107 86
12 99 78
14 110 89
47 107 96
82 76 97
77 78 96
81 79 98
100 59 109
107 42 105
103 41 106
105 41 105
108 42 106
115 45 116
121 48 123
112 44 114
109 43 108
118 47 119
117 46 119
117 47 121
126 49 126
122 49 124
127 50 130
129 51 131
130 60 135
131 75 133
119 76 120
117 81 119
107 80 105
124 111 121
143 136 148
147 138 155
161 149 171
164 152 172
163 153 174
158 147 172
168 155 174
138 125 149
103 89 112
71 57 78
81 64 28
94 76 25
89 71 24
87 69 23
87 71 23
95 75 25
88 68 23
84 65 22
92 73 24
90 72 23
87 70 22
91 73 23
94 75 25
93 75 24
91 73 24
88 72 22
87 72 23
93 75 24
95 78 24
89 73 23
94 77 24
87 72 22
88 73 22
118 108 104
163 153 167
170 158 177
160 149 170
168 156 178
173 159 180
165 153 175
175 163 182
171 159 180
172 161 180
129 129 145
127 129 143
106 115 129
83 102 109
70 98 101
39 82 81
33 86 85
36 87 86
37 87 86
39 91 90
149 108 165
141 102 151
137 101 149
128 96 140
104 77 119
33 36 47
6 26 31
7 29 33
8 31 36
8 33 38
7 29 33
8 32 37
7 29 35
7 30 36
7 31 36
8 31 38
8 31 38
38 46 57
112 108 118
129 122 132
123 119 122
149 139 151
142 136 148
152 144 151
158 149 160
159 149 163
152 144 158
131 128 128
118 108 103
113 91 86
121 85 88
112 71 60
116 60 57
115 54 56
125 59 62
116 53 51
116 41 46
109 32 54
117 28 56
113 24 45
121 19 51
118 17 54
115 7 51
120 8 60
110 6 48
107 9 64
112 7 55
109 7 53
108 8 60
106 8 60
96 9 71
86 10 82
95 11 86
84 12 94
73 28 106
95 82 137
123 110 158
145 132 169
181 165 189
184 169 192
173 161 181
117 117 110
85 95 65
89 100 67
84 94 65
88 98 67
91 101 70
91 101 71
78 74 77
52 10 72
53 6 71
53 6 70
48 6 66
52 6 71
52 6 72
55 7 76
57 31 74
75 56 90
83 66 95
96 82 112
108 93 120
102 88 115
101 87 115
102 86 116
104 91 116
105 90 118
99 86 112
85 70 97
73 58 86
54 36 67
97 92 100
133 129 131
118 117 126
76 86 121
27 72 145
16 68 143
14 62 129
16 69 140
17 74 148
15 66 134
14 62 129
16 69 137
16 69 138
16 68 137
15 65 129
16 69 135
17 73 145
16 70 139
16 72 141
16 71 141
15 66 127
15 68 130
14 63 121
14 65 126
13 58 109
41 57 100
77 53 67
81 46 39
94 54 50
96 66 50
81 94 32
89 116 32
83 117 26
84 118 26
85 118 26
89 123 26
89 125 27
95 131 28
89 124 27
88 122 26
90 126 27
84 118 26
91 126 27
86 120 26
86 120 26
85 119 27
83 116 25
81 113 25
81 113 25
82 113 24
84 116 25
85 119 26
95 121 58
126 130 120
171 157 172
146 136 146
103 104 89
111 111 99
103 105 93
102 102 94
100 101 96
96 96 94
93 96 87
99 101 90
91 93 86
90 92 84
82 87 75
92 92 85
88 90 84
89 92 78
78 80 72
82 85 75
80 83 76
75 77 67
68 72 62
76 77 68
63 64 56
71 72 63
69 68 58
69 66 59
70 70 61
67 64 56
74 71 60
76 72 62
86 81 73
73 70 58
74 73 56
77 76 59
82 81 63
86 82 71
113 102 111
132 120 130
132 118 125
148 135 149
141 128 141
149 136 152
161 147 162
156 133 150
161 121 138
163 124 143
173 132 151
166 126 147
133 97 132
110 74 126
105 69 129
96 61 120
85 49 116
89 50 120
89 51 123
84 48 113
88 50 120
79 44 103
79 45 105
86 49 113
82 47 109
82 46 107
84 47 108
89 50 116
76 42 100
81 46 107
81 45 103
71 40 89
66 38 85
70 48 81
95 76 108
114 96 125
141 128 149
172 161 179
167 155 178
172 162 180
171 158 176
174 163 183
164 154 171
168 156 173
160 151 166
160 150 164
150 143 154
157 150 160
143 141 146
123 123 124
132 114 109
142 118 118
139 115 114
141 117 117
150 123 119
128 109 102
72 71 44
64 65 36
67 68 38
69 70 39
71 71 40
69 70 38
66 67 37
65 67 38
69 70 39
69 70 39
68 70 40
68 69 39
70 70 38
71 71 39
69 71 39
70 70 40
136 115 105
151 125 122
153 126 121
155 129 125
143 119 113
147 122 118
147 121 113
142 118 115
148 123 118
151 126 120
154 126 118
159 133 129
130 110 100
76 74 46
73 74 40
71 72 38
73 74 42
71 71 38
68 69 38
81 77 54
143 119 118
141 117 118
142 119 121
146 122 122
134 110 117
142 119 123
139 116 121
126 105 112
141 116 121
74 69 51
115 99 96
132 109 116
134 112 118
135 113 119
129 111 118
98 100 82
86 96 69
92 100 79
87 97 71
94 102 80
86 96 69
92 99 79
88 98 73
92 100 78
94 100 82
115 116 116
141 133 144
165 153 175
162 151 172
155 147 161
154 144 157
155 146 162
157 148 161
143 135 152
145 138 148
142 136 147
134 129 135
127 125 128
129 126 132
131 129 132
120 120 119
91 103 95
17 93 75
12 102 79
12 104 80
12 101 82
12 99 74
13 102 81
13 105 84
48 95 86
72 85 94
92 74 105
109 60 113
105 41 105
108 41 108
103 41 106
115 45 114
123 48 122
119 47 117
108 42 110
124 49 129
118 46 115
118 46 120
125 49 125
121 48 123
128 51 129
119 48 122
123 49 126
120 47 125
125 50 128
131 57 134
121 69 121
106 72 103
101 75 93
91 88 75
88 98 72
119 118 118
133 128 137
156 148 163
177 164 187
169 156 182
179 165 189
164 150 177
134 122 145
103 91 102
82 67 23
88 70 24
85 68 22
89 70 23
80 65 22
92 74 24
90 73 24
88 71 23
88 70 23
85 69 23
89 72 24
92 75 24
97 79 25
97 77 24
87 70 23
94 76 25
87 71 23
93 76 24
90 74 23
88 72 22
93 76 24
90 74 24
94 77 24
105 94 66
132 129 136
154 145 161
171 159 180
159 150 164
148 140 150
130 127 129
143 136 150
145 139 148
128 125 125
111 119 122
65 89 86
87 102 108
60 89 84
50 89 87
32 87 85
36 90 88
26 87 88
26 88 86
32 90 88
144 103 159
139 101 153
145 105 153
132 96 146
115 85 125
101 73 109
41 38 52
11 29 36
7 27 34
8 33 38
8 31 37
8 33 37
8 32 38
7 30 34
8 34 41
8 31 37
51 54 63
130 118 139
158 144 169
169 154 183
173 157 185
178 162 190
171 157 184
177 163 187
179 163 192
179 163 190
164 152 174
101 105 90
88 83 57
102 68 52
101 69 53
105 63 50
108 58 47
108 54 45
114 41 42
122 46 44
116 24 42
121 30 52
112 15 50
120 22 50
120 6 47
111 8 55
117 6 45
113 7 50
111 8 59
110 6 46
109 7 56
112 7 51
103 8 61
103 9 67
95 8 58
86 9 70
87 12 89
92 12 87
75 14 103
45 16 121
75 59 134
115 103 143
137 127 154
149 141 154
152 143 155
136 132 138
140 134 143
148 141 147
142 136 146
152 142 157
152 143 153
155 147 159
138 128 148
74 48 91
50 6 69
50 6 70
51 6 68
45 5 64
53 21 72
75 56 87
86 70 102
99 83 113
108 93 119
117 101 128
113 99 124
112 99 127
124 110 137
124 110 137
123 110 138
119 105 133
111 97 127
113 99 124
100 86 112
94 81 104
92 93 89
88 96 72
78 91 81
48 77 123
16 68 140
17 72 146
16 67 138
16 67 139
16 69 140
16 68 139
17 72 145
16 72 145
16 70 137
16 69 134
16 70 139
15 66 131
16 68 134
16 70 140
17 74 143
16 70 136
15 65 125
16 70 134
13 61 115
13 58 110
14 64 122
14 62 119
80 56 71
78 45 38
94 54 49
80 59 41
71 89 30
78 109 24
82 114 25
86 120 26
82 115 25
89 125 27
88 123 26
88 121 26
87 122 26
92 128 27
91 126 27
83 117 25
84 117 25
85 119 25
82 114 25
82 114 24
81 113 24
77 108 23
83 116 25
84 117 26
80 112 24
77 108 23
81 113 25
95 110 71
101 104 90
97 98 85
97 101 87
151 140 154
152 139 153
141 131 149
136 126 135
134 123 133
119 113 121
107 103 103
106 103 103
112 109 107
100 97 99
93 92 86
85 86 81
98 94 93
94 92 90
82 78 71
82 82 78
80 81 74
77 80 73
71 73 65
72 74 65
69 72 63
77 76 66
74 73 63
69 68 59
75 74 60
77 74 61
73 71 57
74 71 58
71 69 54
76 72 58
71 69 54
80 78 59
78 78 60
90 87 76
124 115 119
137 123 127
143 131 140
143 130 143
146 132 147
147 133 146
139 126 140
143 121 134
148 110 123
130 98 105
102 80 78
91 63 105
91 58 111
86 52 113
85 49 115
90 52 124
88 50 119
89 51 118
84 48 116
80 46 108
80 45 103
92 52 121
87 50 117
78 44 103
79 44 104
80 45 104
78 44 103
85 47 109
79 44 101
76 43 96
72 40 92
75 42 95
73 45 89
87 60 104
99 82 109
121 115 118
114 117 103
110 113 100
104 109 91
100 105 87
105 109 92
106 111 88
98 106 83
98 105 84
93 102 76
100 107 83
91 101 70
89 103 67
82 100 62
83 97 66
130 112 103
145 120 119
139 115 114
111 96 84
67 67 38
70 71 39
69 70 39
68 69 38
64 65 36
70 71 39
70 70 38
71 72 40
68 69 39
68 68 38
70 71 40
71 72 40
70 71 40
71 71 38
66 67 38
71 72 40
70 71 39
93 85 64
152 126 121
151 125 121
140 114 111
147 122 118
149 122 118
155 129 124
145 120 115
147 122 118
156 129 124
151 126 121
125 106 96
71 73 41
70 71 40
71 73 41
71 72 40
71 72 40
68 70 38
69 70 39
107 92 85
144 119 119
141 118 122
146 121 122
138 114 117
143 119 120
134 113 116
137 115 118
141 118 120
133 111 115
69 69 45
67 66 46
122 104 105
142 119 123
143 120 128
141 130 141
138 130 144
148 138 155
151 141 160
149 140 157
156 145 161
156 147 159
158 149 169
152 143 160
159 147 170
162 150 172
162 152 169
160 150 174
167 157 181
145 138 156
115 115 114
94 101 86
83 93 67
83 93 65
81 93 64
84 94 65
80 92 62
78 89 60
78 89 59
77 89 59
80 92 60
79 91 60
78 88 59
58 92 67
20 103 81
12 102 81
12 97 75
12 95 75
12 97 72
11 89 68
50 90 84
80 74 91
107 61 116
109 43 112
106 42 111
111 44 114
107 43 112
116 45 114
111 44 112
119 47 118
108 42 106
122 48 121
110 43 116
124 49 127
119 47 121
128 51 128
114 45 117
120 47 122
134 53 135
125 50 129
127 51 128
122 48 127
123 57 124
102 72 100
108 86 103
96 95 89
98 104 86
104 108 91
117 119 112
119 120 112
148 143 156
157 149 169
174 162 182
141 133 152
124 117 128
106 95 97
83 67 22
88 69 23
87 70 23
84 67 22
90 72 24
92 73 24
93 74 24
91 72 24
87 70 22
91 73 23
89 71 24
97 78 25
90 72 24
89 73 24
94 77 24
91 73 23
96 78 24
88 72 23
93 76 24
87 71 23
95 78 25
92 76 24
97 80 25
118 105 98
167 155 180
171 158 184
178 166 189
162 152 174
152 144 159
138 133 138
100 106 88
89 98 70
81 93 62
57 82 68
52 82 71
44 86 79
44 85 78
32 84 81
33 81 80
30 87 86
25 89 87
25 86 84
25 91 87
118 96 120
130 92 140
135 94 145
118 80 130
125 87 136
122 85 134
95 67 102
53 47 65
15 29 36
7 28 32
8 33 40
7 30 35
8 32 37
7 29 35
7 30 37
44 51 60
133 122 144
153 138 163
158 143 167
152 138 166
168 153 172
164 150 174
169 153 179
166 153 178
161 148 169
160 147 168
153 143 161
99 103 89
109 95 89
113 84 85
127 86 90
136 84 90
124 76 84
119 67 71
116 61 67
126 60 70
124 29 56
118 17 62
112 17 56
109 6 47
115 7 50
108 5 42
115 7 48
114 6 47
106 7 52
111 7 49
113 7 57
108 7 55
107 7 57
100 8 58
104 9 68
88 11 79
97 11 80
75 13 94
66 13 99
51 16 121
44 15 116
54 39 113
63 63 94
83 91 76
88 98 70
163 152 166
173 159 185
172 155 178
177 163 188
184 169 193
180 165 189
182 168 191
178 163 186
123 110 136
48 6 67
47 6 65
47 6 64
48 20 64
67 47 81
88 70 104
104 89 115
109 93 121
122 107 130
124 110 137
125 111 138
129 115 140
125 111 137
124 110 137
123 109 133
120 107 134
124 110 135
120 107 132
116 103 128
107 96 117
109 103 112
98 98 97
84 96 99
24 67 133
16 69 140
16 69 141
16 68 140
16 70 144
17 71 145
17 74 150
16 71 144
16 68 137
17 72 142
16 70 142
16 71 143
16 70 137
16 69 136
16 71 141
15 67 131
16 69 136
13 60 121
14 62 120
15 67 127
15 66 128
13 60 114
11 53 96
56 53 81
84 48 39
94 51 48
86 64 41
73 103 25
73 103 24
81 114 25
86 120 26
83 115 25
83 116 24
93 129 28
89 124 27
84 117 25
86 117 26
80 111 24
85 119 26
82 116 25
82 115 24
83 116 25
80 113 24
85 119 24
83 115 25
82 114 24
79 110 24
75 104 23
78 110 24
75 106 23
74 98 31
77 85 56
81 91 59
77 86 57
108 106 99
155 141 159
140 130 145
137 127 138
134 126 136
128 121 130
103 100 103
102 99 102
113 110 116
108 105 108
102 99 101
99 98 98
93 94 90
102 100 97
93 94 89
88 89 88
83 84 80
78 80 76
69 72 65
70 71 66
80 79 71
77 76 65
75 72 67
74 71 60
78 76 69
83 79 73
88 83 75
95 91 81
96 90 85
92 85 79
99 93 88
104 98 96
114 107 106
101 95 92
106 99 98
116 106 108
113 106 105
99 96 89
95 91 87
112 109 101
101 100 89
103 101 90
117 98 98
129 95 109
108 82 93
84 58 97
89 56 115
79 47 104
80 46 111
83 47 116
89 51 122
88 50 118
85 48 114
80 46 106
78 45 108
74 42 100
83 47 111
81 46 109
78 44 103
78 44 102
75 44 99
78 44 105
80 45 103
82 46 108
69 39 86
76 43 98
82 48 101
91 67 107
104 82 121
142 127 147
116 116 112
83 94 63
83 94 62
85 96 63
84 95 63
83 95 63
87 98 64
84 95 62
86 97 63
85 96 62
85 97 62
85 96 62
79 93 60
78 95 59
80 96 64
123 110 101
98 87 75
64 64 36
61 62 35
68 69 39
64 64 37
68 69 39
69 70 39
67 67 38
67 67 37
68 69 38
69 70 40
67 67 37
71 71 39
71 71 39
71 72 39
71 72 40
68 69 38
68 69 38
72 73 40
69 71 40
107 95 79
145 120 118
146 121 116
152 126 121
150 125 121
146 120 115
150 124 118
150 126 122
146 121 115
116 102 90
71 71 39
73 74 41
70 72 40
72 73 40
70 71 40
73 73 40
68 70 39
81 79 53
139 117 114
145 119 119
136 113 114
140 117 118
142 119 120
143 119 122
139 117 121
133 112 115
147 122 125
129 106 109
62 64 39
62 64 39
74 73 51
134 114 117
122 115 116
142 134 146
154 141 161
160 148 174
167 155 181
168 156 178
168 153 177
163 152 178
174 162 186
166 155 178
168 156 178
165 154 177
172 158 183
167 157 180
172 158 183
174 160 184
156 148 172
152 144 163
131 127 133
104 109 92
81 92 65
79 91 60
79 89 60
76 87 58
76 88 59
77 88 58
80 92 60
77 88 61
75 88 62
76 92 70
53 95 79
26 92 72
10 84 64
10 87 65
11 94 71
11 91 67
58 84 83
78 65 92
117 46 121
113 45 113
116 46 116
120 47 122
118 47 118
107 41 108
122 48 122
121 47 118
116 46 118
120 47 117
120 48 122
130 51 128
128 51 128
128 51 130
122 49 119
126 50 128
123 48 124
115 46 118
123 49 124
137 54 137
126 50 133
129 92 139
148 125 155
150 139 165
150 142 163
163 152 174
170 159 183
170 159 183
168 157 180
171 160 185
166 154 176
145 138 147
118 115 117
80 77 55
86 69 22
86 68 23
93 73 25
81 64 21
90 72 24
88 69 24
90 70 23
84 67 22
86 70 22
84 68 22
91 73 23
88 72 23
90 72 23
90 73 23
95 77 25
89 73 23
95 77 25
87 72 24
94 77 24
90 74 24
97 79 25
96 79 25
92 75 24
106 91 71
178 165 187
176 162 186
171 158 186
167 155 180
171 159 185
167 154 178
166 155 176
148 138 156
124 122 126
74 92 84
50 85 76
45 87 80
35 83 81
29 80 80
28 89 86
27 90 90
23 84 84
25 91 89
25 92 90
88 86 76
101 90 96
100 81 98
121 86 130
107 72 117
101 65 113
100 69 110
90 60 100
43 37 55
12 32 36
8 31 37
7 30 35
8 33 40
7 30 36
24 41 43
61 66 59
92 92 86
102 99 98
97 97 96
98 97 97
101 101 94
97 96 92
95 96 86
96 98 86
91 95 80
94 96 79
127 123 131
163 149 173
159 140 165
154 123 142
149 112 130
137 100 120
141 99 119
144 92 112
133 65 82
124 54 80
111 9 71
108 7 55
117 9 62
107 6 43
117 7 50
120 5 35
115 5 38
117 6 42
100 7 49
108 6 44
100 7 56
106 5 38
109 6 47
94 8 61
107 10 72
93 9 69
91 11 85
87 10 77
70 14 104
43 15 115
44 16 117
40 14 109
45 27 111
72 76 87
88 96 70
150 141 152
169 156 181
176 162 185
178 164 184
173 160 181
175 160 180
170 156 175
168 156 180
154 141 161
70 51 83
46 6 63
48 16 63
71 54 79
93 76 104
107 93 120
121 106 130
119 105 131
123 109 132
121 108 131
127 112 137
118 105 130
124 111 136
126 112 139
118 106 132
122 108 132
121 107 131
120 106 135
121 106 130
115 102 131
115 103 126
122 113 135
124 117 146
41 71 134
17 71 147
16 67 135
16 68 142
16 70 141
16 71 141
16 68 139
16 70 143
15 67 135
16 71 143
17 72 146
16 70 140
16 70 142
15 66 131
16 70 137
17 73 144
15 67 125
14 64 125
15 67 124
15 68 130
14 64 123
12 56 99
12 56 106
45 50 82
92 52 48
98 52 50
84 73 43
63 90 21
73 104 24
79 109 23
82 115 25
83 115 24
79 111 24
81 114 25
86 121 26
86 121 26
82 115 24
81 114 25
83 117 25
79 111 24
86 120 25
78 108 23
85 120 25
78 109 23
79 110 24
77 108 23
78 110 23
73 103 22
80 111 24
73 102 22
80 106 37
107 108 93
109 108 94
105 103 94
109 107 104
144 135 144
123 117 123
118 112 114
125 115 124
102 100 97
97 100 94
101 100 95
98 98 96
94 96 91
90 94 84
88 92 83
86 89 81
93 96 89
78 83 71
74 79 68
85 89 83
74 77 66
75 77 68
78 80 70
81 79 72
86 82 77
89 85 81
93 87 87
90 84 83
107 97 99
104 95 96
113 102 107
111 99 100
113 101 105
121 108 114
110 99 105
113 102 111
127 116 122
112 99 106
111 100 105
114 105 113
77 76 59
79 80 59
78 81 58
82 85 60
77 83 58
83 88 60
118 99 96
135 99 112
95 66 102
80 50 101
82 49 110
84 49 113
78 45 107
82 47 112
89 51 119
83 47 109
81 47 112
84 47 111
90 51 120
80 45 105
82 46 105
80 45 106
83 47 107
81 46 103
81 45 101
71 40 90
74 42 92
79 44 100
71 40 91
82 56 96
89 61 101
117 99 127
142 127 152
163 151 164
133 131 127
101 107 90
102 109 95
114 116 105
112 113 104
119 122 115
116 118 108
118 118 115
126 125 127
139 135 137
132 129 133
140 136 139
141 137 146
145 141 146
131 133 137
79 84 56
65 66 38
64 65 37
65 65 37
68 69 39
65 65 36
68 68 38
67 67 38
67 67 37
67 68 37
70 71 40
67 68 37
71 72 40
71 72 40
68 69 39
66 67 37
70 71 38
73 73 40
68 70 38
71 73 40
69 68 39
125 106 97
150 125 121
138 115 113
150 126 122
152 126 120
150 125 119
147 121 115
99 89 74
72 73 40
70 71 39
72 73 41
70 71 39
69 71 39
69 71 39
73 74 40
73 75 41
98 88 71
142 116 117
144 119 118
151 127 125
146 121 121
147 122 124
144 120 121
134 112 116
137 115 118
138 114 116
119 102 99
66 68 40
65 65 39
64 67 40
68 73 48
71 80 53
83 90 65
107 106 106
132 127 135
161 149 168
162 150 169
152 140 162
151 140 163
156 143 166
167 157 175
159 149 169
154 144 162
162 152 169
150 140 157
153 144 161
150 143 160
147 142 158
144 136 153
141 136 148
124 124 130
94 99 88
101 106 97
118 118 121
140 138 150
132 129 139
131 129 138
130 130 140
129 129 140
124 123 134
138 135 144
129 131 138
106 122 124
48 99 83
10 86 62
9 79 58
10 89 65
47 75 68
99 53 105
108 43 109
105 42 105
115 45 116
111 44 112
112 44 112
118 47 122
118 46 117
121 48 124
122 48 120
114 46 116
125 49 117
133 52 134
122 48 122
124 49 124
123 49 125
121 48 126
133 53 134
125 49 126
130 52 135
129 51 130
128 51 132
120 54 126
153 126 163
166 154 177
169 158 179
174 161 187
176 162 188
173 162 187
175 162 187
168 158 182
167 154 179
170 158 185
162 150 174
127 117 126
81 67 21
81 64 21
91 73 24
85 67 22
88 71 23
89 70 24
90 72 24
88 71 23
95 75 25
88 71 23
95 76 24
95 75 25
87 70 23
91 73 24
88 72 23
97 79 25
85 70 22
90 74 23
93 75 24
93 75 23
95 78 24
90 73 23
94 77 24
102 87 54
163 152 171
163 152 169
150 142 158
156 149 158
151 144 157
145 139 149
148 141 152
152 145 151
134 131 136
95 107 109
53 85 77
35 79 77
34 84 83
40 93 91
26 88 87
23 84 84
23 85 82
25 91 88
25 91 89
136 114 141
139 114 141
136 108 139
120 90 126
131 99 133
114 88 114
101 75 103
105 87 104
93 78 90
43 48 41
11 33 37
8 32 37
7 29 36
20 35 38
45 54 40
65 72 49
67 75 50
66 72 51
68 74 51
72 80 54
72 81 55
72 80 55
74 83 56
77 86 57
77 86 58
79 85 65
155 143 160
169 155 181
151 130 152
155 126 148
148 113 135
147 101 119
149 106 126
144 87 104
128 55 76
109 19 63
109 8 63
115 8 60
113 7 54
113 5 39
118 5 37
119 5 35
116 5 34
116 5 34
112 6 48
108 6 48
101 5 40
97 7 47
114 6 45
108 8 57
97 8 64
91 10 75
88 11 79
78 12 90
61 12 92
50 16 116
43 15 117
42 15 113
45 25 113
93 83 125
147 138 156
137 131 138
133 129 129
111 114 104
120 120 111
105 108 99
108 109 102
99 104 85
100 104 88
97 102 83
73 78 62
49 10 67
65 46 77
94 78 102
109 96 120
120 106 130
122 108 133
119 106 131
124 108 132
120 106 131
130 115 136
129 115 139
123 109 131
126 112 136
119 105 127
121 108 131
125 111 135
115 103 127
119 106 130
117 105 132
121 108 133
121 108 131
109 100 127
76 81 125
32 71 138
15 64 130
17 71 143
16 71 141
16 70 140
16 70 139
15 63 129
16 69 135
16 70 140
16 67 133
15 67 133
15 65 132
15 68 134
16 71 136
15 65 125
14 61 121
16 70 136
14 64 124
14 62 117
13 60 110
12 58 106
11 53 99
26 50 85
77 44 39
101 55 54
91 77 45
67 95 22
79 110 24
76 108 24
80 112 24
78 109 23
81 113 24
82 115 24
78 109 24
83 116 24
83 115 25
87 121 26
80 113 24
82 115 24
79 110 23
79 110 23
80 111 24
78 109 23
76 108 23
79 109 23
80 112 24
80 111 24
70 100 21
71 100 21
89 108 61
157 141 159
153 135 155
160 141 161
164 147 167
157 136 153
110 103 106
90 93 81
81 88 68
80 88 70
75 82 65
79 86 72
78 84 68
75 82 68
77 84 72
70 76 64
75 82 69
77 84 70
71 78 67
81 87 71
74 80 69
76 77 67
68 69 60
77 77 68
75 74 67
76 73 69
84 80 74
82 79 74
91 84 85
91 84 82
111 101 105
115 104 111
106 96 99
127 115 124
121 109 114
111 101 108
106 93 99
119 107 117
113 103 113
118 108 116
131 117 129
120 111 113
82 78 66
92 93 74
87 86 69
86 88 68
85 88 67
84 90 69
124 102 103
111 79 115
86 56 107
88 56 111
80 48 103
80 48 107
85 49 118
81 47 112
74 43 102
79 45 103
80 46 106
74 42 97
76 43 99
80 45 102
81 46 107
75 43 97
76 43 94
79 44 98
72 40 90
70 39 87
73 42 92
78 49 94
80 57 94
81 64 87
81 69 86
80 77 80
98 104 83
90 98 73
101 106 86
153 145 158
172 159 179
175 162 180
169 158 179
173 161 185
172 160 184
180 167 188
169 159 183
170 159 180
173 160 182
168 157 177
172 160 177
161 154 170
147 145 156
81 81 66
68 69 38
66 67 36
67 68 39
66 67 38
65 66 36
70 70 39
69 70 39
66 67 38
67 68 38
68 69 38
68 70 40
69 70 39
69 70 39
65 66 36
66 67 37
67 67 37
69 70 39
67 68 38
68 70 39
75 73 48
144 119 112
144 118 114
150 125 120
151 124 117
139 116 108
83 78 54
72 72 39
70 71 38
70 71 39
72 73 39
72 72 39
68 70 38
71 72 40
72 72 39
74 75 42
114 99 92
143 120 123
145 121 121
143 119 121
145 121 121
148 123 123
141 118 118
137 113 116
139 116 121
143 118 119
111 97 92
68 70 41
67 68 44
102 96 99
117 110 116
131 123 129
140 131 145
140 128 140
134 127 139
155 146 162
147 136 153
104 106 102
88 94 81
89 95 78
88 94 78
98 105 87
82 90 69
81 92 67
82 92 67
84 96 71
79 87 65
81 92 64
83 92 65
75 87 57
79 90 62
79 90 63
80 90 66
108 110 108
133 132 141
143 139 156
135 140 154
152 148 166
137 137 154
138 138 155
113 126 134
128 133 144
126 131 142
131 139 141
57 97 89
29 75 59
7 64 42
52 61 64
118 46 121
107 42 108
112 44 111
111 45 114
110 43 114
110 44 111
118 47 117
117 46 114
116 46 121
119 47 119
127 50 126
114 45 112
122 49 123
115 46 115
121 48 124
124 49 125
127 51 130
126 50 129
126 51 131
122 48 124
126 51 129
121 49 127
128 52 136
142 106 151
153 139 167
167 157 178
157 150 171
169 160 178
155 146 167
163 152 171
168 157 173
163 152 172
157 147 165
141 135 154
126 118 124
79 62 20
82 65 21
79 64 20
84 67 22
85 68 22
85 68 22
84 66 22
90 72 23
87 70 23
81 66 22
89 71 23
89 72 23
89 73 23
88 72 23
85 69 23
83 69 22
88 73 23
97 79 25
93 76 24
92 76 24
87 72 23
87 72 23
87 72 22
88 77 32
83 93 66
91 100 77
88 96 71
108 105 88
111 105 91
101 101 83
96 96 77
102 104 81
82 91 66
59 83 68
45 83 74
38 82 78
25 83 80
22 80 81
23 85 83
25 90 86
24 88 88
22 82 81
24 89 86
145 128 151
149 127 153
129 108 133
144 124 148
129 106 125
150 131 150
117 100 117
126 108 127
91 84 85
60 64 43
49 56 46
24 37 40
24 37 42
59 63 52
61 67 49
67 71 53
74 80 58
77 82 60
78 84 64
79 84 68
85 88 72
81 87 71
90 92 80
100 101 94
101 102 92
95 98 91
134 127 140
140 132 145
134 123 129
132 100 112
130 98 107
126 81 91
126 72 86
128 68 80
117 60 69
109 16 67
101 9 65
95 7 55
102 6 47
118 5 34
110 4 32
115 4 33
120 5 34
121 5 35
114 4 32
102 6 43
105 7 47
112 6 45
94 8 61
98 7 50
98 9 64
90 8 62
85 10 77
83 11 79
68 11 87
49 15 110
44 15 114
44 16 120
40 14 110
73 57 126
166 152 178
136 131 142
81 91 61
83 93 62
86 97 64
82 93 61
83 93 61
81 91 60
82 92 61
80 89 60
82 91 61
67 66 62
94 80 102
106 93 115
116 103 127
115 102 127
121 107 129
123 109 132
121 107 127
121 107 133
122 109 131
122 108 132
122 109 133
125 111 133
121 107 130
120 106 128
121 108 132
118 105 127
116 103 126
125 111 132
116 103 126
113 102 125
111 100 122
94 92 131
57 79 139
17 74 149
15 64 129
17 73 147
16 68 140
15 66 137
15 66 133
16 71 142
16 68 133
16 69 137
15 68 137
16 70 138
15 66 133
15 66 134
16 70 136
15 66 129
15 69 136
14 64 119
15 66 129
14 63 116
13 59 109
10 49 86
13 42 73
85 48 46
95 53 50
88 69 39
71 101 23
79 111 24
77 109 24
79 110 23
80 111 25
79 112 24
82 114 24
82 115 24
79 112 24
84 117 24
80 113 24
77 108 23
86 121 25
79 110 23
75 105 23
78 109 24
77 108 23
75 106 22
79 110 23
75 106 23
76 107 23
74 104 23
73 102 21
78 109 24
168 149 170
161 142 156
151 134 150
169 149 165
157 139 157
145 131 144
99 92 89
83 91 72
77 84 67
72 78 63
80 86 69
81 88 72
75 81 67
79 86 73
78 85 71
73 80 68
71 77 64
75 81 69
71 77 66
71 75 65
72 75 65
77 77 68
71 68 61
73 70 63
77 74 69
79 76 66
81 78 72
97 90 89
97 88 87
89 81 78
89 82 77
103 93 94
102 92 94
103 92 92
95 87 84
99 91 93
98 91 85
88 79 71
100 92 88
99 93 93
100 92 85
75 73 59
102 95 93
137 126 135
129 120 127
133 124 134
144 134 150
157 144 163
124 101 133
95 63 109
88 53 118
82 49 108
78 47 101
80 46 108
80 45 110
80 46 109
81 46 108
82 46 109
82 46 106
77 44 100
88 49 117
78 44 102
72 40 93
79 44 99
66 38 86
69 39 89
72 41 90
74 43 95
74 46 91
73 51 85
78 61 89
76 58 82
81 80 76
80 92 61
76 89 58
81 92 61
85 95 65
118 120 119
165 156 171
169 158 177
171 161 180
175 163 184
167 156 177
171 161 178
165 155 176
175 163 183
174 163 183
170 158 178
157 150 167
169 158 176
145 140 152
74 77 59
70 70 40
66 66 37
67 68 38
69 70 39
67 67 37
70 71 39
71 71 39
66 67 38
70 71 39
70 70 39
71 72 40
69 70 39
70 69 38
68 69 37
68 68 37
68 68 37
70 71 39
69 70 39
69 70 39
109 96 81
148 123 117
150 124 120
140 116 107
77 75 46
72 73 40
69 69 38
72 73 41
71 72 39
69 71 39
70 70 38
73 74 41
73 74 40
68 69 37
69 70 38
68 68 38
126 107 103
142 117 118
148 124 125
136 114 116
142 118 119
139 114 118
146 122 123
147 122 124
144 122 126
102 89 82
64 66 40
120 109 113
137 120 141
153 136 153
155 142 158
153 139 159
148 137 158
155 146 167
156 142 164
153 144 164
152 141 160
130 125 134
93 97 84
79 89 60
72 83 55
72 82 55
75 86 57
77 88 58
76 88 58
76 88 58
77 91 58
74 85 56
71 83 54
72 83 55
72 84 55
70 84 54
75 87 57
75 89 63
88 96 79
108 113 114
130 132 141
138 138 152
126 130 140
126 132 134
126 133 139
109 125 126
94 115 112
96 114 106
86 97 89
33 70 53
91 56 96
110 44 112
115 46 116
107 43 108
111 43 110
115 45 111
114 46 116
122 48 117
120 47 120
122 48 120
117 46 116
128 51 128
125 50 128
122 48 123
127 50 129
128 51 132
128 52 130
127 50 126
133 53 136
128 52 134
118 47 125
132 53 136
131 52 135
129 52 134
128 68 130
114 111 113
107 110 97
95 100 85
91 98 82
84 93 74
95 99 87
86 97 74
86 95 72
76 84 61
81 91 65
79 85 56
81 66 22
78 63 20
86 69 22
83 66 22
86 69 23
86 68 23
87 70 23
85 68 22
87 71 23
90 72 23
88 71 23
83 67 21
89 72 23
91 74 24
89 73 23
85 70 22
88 73 23
85 71 22
91 75 23
83 69 22
83 69 21
83 69 22
86 72 22
104 92 73
126 111 110
159 134 144
180 148 163
181 149 172
184 152 175
182 151 177
187 155 175
182 151 169
169 142 157
144 128 136
87 97 98
36 76 75
26 77 76
22 81 78
24 88 86
23 83 82
23 82 81
24 87 85
23 83 81
131 121 136
123 116 128
120 113 128
129 120 132
107 102 109
107 101 109
115 107 111
110 103 106
111 102 104
107 99 105
123 112 118
102 95 102
105 98 104
119 110 119
123 111 122
132 118 131
124 113 125
134 122 140
135 124 137
142 131 146
140 130 148
153 140 160
147 135 158
145 134 154
157 146 165
146 136 151
79 87 63
75 85 59
81 81 56
96 65 49
96 60 47
109 58 48
112 52 46
108 54 46
104 47 52
105 10 71
108 10 68
101 7 51
118 5 33
121 5 34
115 4 33
120 5 35
116 4 32
119 5 33
119 5 33
115 4 33
109 6 44
91 7 51
100 9 62
95 8 56
101 9 68
96 8 61
92 10 76
82 11 80
73 13 96
49 15 104
42 15 111
42 15 112
39 14 107
50 31 111
151 137 169
147 139 151
84 93 65
89 97 70
91 97 77
98 101 89
92 97 80
88 94 77
93 97 84
96 97 88
92 95 85
88 87 83
103 91 111
118 103 125
114 101 122
119 104 127
118 106 128
125 111 134
119 105 128
118 105 127
119 106 126
123 109 132
124 110 131
114 102 121
117 105 126
123 109 133
120 107 128
116 103 123
115 103 124
115 101 123
112 100 121
120 106 130
115 103 124
117 105 127
81 87 130
33 71 138
16 68 139
15 66 135
16 70 141
16 68 139
16 68 134
15 65 130
16 68 136
16 68 136
15 65 128
15 66 130
15 64 128
15 66 125
15 65 128
15 67 128
14 65 123
15 67 127
15 67 130
14 62 112
13 60 114
9 45 74
11 48 91
83 46 38
99 57 52
80 81 40
65 94 22
69 98 22
87 120 25
79 111 24
78 110 23
83 115 24
85 118 25
76 109 22
74 103 22
84 118 25
77 107 22
83 116 24
79 111 23
82 116 24
76 107 22
73 103 22
78 110 23
73 102 21
77 109 24
78 109 23
77 107 23
77 106 23
76 106 23
76 104 31
142 128 130
141 126 138
150 135 148
149 133 144
133 117 126
125 116 124
113 110 114
99 99 93
101 100 96
97 98 95
96 96 93
92 87 82
99 99 96
99 99 96
104 104 101
100 99 96
79 85 75
75 81 72
72 78 68
74 76 67
75 76 67
74 73 64
77 75 65
75 71 61
70 67 59
75 71 62
77 71 63
78 72 64
79 76 63
79 74 62
77 71 60
83 77 62
77 71 59
75 71 58
75 72 58
79 76 60
75 70 57
74 70 56
78 76 58
75 73 56
77 76 58
75 75 57
81 78 64
114 105 110
136 123 137
142 130 145
159 144 162
165 152 176
157 137 173
109 85 129
79 49 100
81 50 106
76 45 99
80 46 108
77 44 102
79 45 106
73 41 99
84 48 110
79 44 104
72 41 96
75 42 95
73 41 94
78 44 100
70 40 90
77 43 99
74 43 100
68 38 85
67 37 87
69 41 84
73 56 83
76 64 86
74 63 80
85 84 79
92 100 80
95 102 80
92 100 83
86 93 74
97 103 86
112 115 108
148 142 153
148 142 155
142 136 146
144 140 152
145 138 148
145 139 150
134 133 136
127 126 127
127 126 127
118 118 116
101 106 97
110 111 108
97 102 90
66 71 41
69 70 38
68 69 39
67 68 37
71 72 41
68 68 38
70 71 40
70 71 40
71 72 39
72 72 38
68 70 39
71 72 40
68 69 38
68 69 39
70 71 39
68 69 38
69 70 39
69 69 39
71 72 40
73 74 40
128 108 96
131 110 103
72 72 43
71 71 39
71 72 40
72 73 40
71 71 38
67 68 37
68 69 37
69 70 39
70 70 38
71 72 39
68 69 37
72 74 42
67 68 39
73 73 44
129 110 105
143 119 119
137 115 117
141 118 121
142 119 121
139 117 119
136 114 117
145 120 121
108 94 86
124 115 122
158 145 162
160 146 167
160 147 167
166 151 169
162 147 167
159 147 167
165 150 173
160 148 168
164 152 176
163 153 170
165 152 174
155 146 162
134 127 139
103 104 98
87 95 75
88 95 76
85 95 75
87 95 77
102 105 92
91 99 85
93 100 85
103 106 101
93 99 86
106 109 102
105 108 104
120 118 119
116 119 114
112 116 118
114 114 117
124 126 136
150 143 161
127 127 131
104 109 103
92 102 90
90 99 92
77 89 72
71 81 63
70 81 64
57 69 49
94 46 97
111 44 111
122 48 119
118 47 119
118 47 120
112 45 114
119 47 121
118 47 119
120 48 121
123 48 122
127 50 127
123 48 122
120 48 120
119 48 122
123 49 125
130 51 129
125 50 126
130 50 133
129 52 130
127 51 132
130 52 134
124 50 127
134 53 138
126 50 129
122 53 129
150 132 158
136 130 146
122 122 127
92 95 86
73 83 56
77 87 58
74 84 56
71 81 55
75 86 57
73 83 56
76 85 56
77 65 24
79 66 21
76 61 20
80 65 22
82 66 21
80 64 22
84 68 23
76 61 20
88 71 23
87 70 23
81 65 21
86 69 22
87 70 22
86 70 23
89 73 23
85 69 22
90 73 23
88 73 23
80 67 20
87 71 22
90 74 23
88 73 33
137 111 108
167 137 153
186 153 178
174 144 176
164 137 174
162 135 174
163 136 175
161 135 174
169 141 177
177 148 180
179 149 179
176 148 174
172 146 166
124 116 126
65 85 85
21 77 75
22 80 78
23 85 83
24 88 85
21 79 76
22 80 80
64 78 64
66 82 65
66 78 58
61 74 59
64 75 55
65 75 51
66 74 51
106 100 99
134 122 138
140 127 144
146 132 143
145 132 143
138 127 140
138 127 138
142 131 144
145 130 146
133 123 136
144 133 151
146 134 153
144 133 151
159 145 165
166 152 171
144 134 154
157 145 166
161 149 168
134 126 136
77 87 58
84 94 61
82 80 55
98 71 52
105 69 52
107 60 48
108 48 44
110 54 46
109 51 60
100 9 65
107 9 63
113 5 39
121 5 34
120 5 35
114 4 34
118 5 33
107 4 30
115 4 32
124 5 36
116 4 33
115 4 33
107 8 54
102 6 42
93 8 59
92 9 66
82 10 72
90 9 67
83 10 76
71 12 87
51 14 106
40 14 106
40 14 109
41 14 110
39 14 105
86 81 109
116 113 115
160 148 170
158 146 166
159 147 164
154 142 163
161 148 172
157 144 164
148 135 155
150 137 163
132 119 141
122 108 129
107 93 115
111 97 119
118 104 126
117 104 125
118 105 125
120 106 125
119 107 129
121 107 126
114 102 123
120 106 127
124 110 132
123 109 132
118 105 127
120 106 127
117 104 127
114 102 120
121 107 128
116 104 124
116 103 123
118 105 124
114 102 123
115 102 122
103 94 118
48 69 120
15 66 134
14 62 128
17 71 141
16 70 140
15 66 133
15 65 131
15 64 127
16 67 136
14 62 125
16 70 137
14 63 124
15 66 127
15 66 130
14 63 125
15 67 127
14 65 122
13 59 109
12 57 103
13 58 107
10 50 84
13 46 74
92 58 61
93 71 59
89 95 65
72 103 22
79 112 25
74 104 23
74 105 23
76 108 23
80 113 24
80 112 24
87 121 26
82 113 24
81 113 24
76 108 23
84 117 25
85 118 26
82 117 25
80 111 23
80 113 24
82 114 24
79 109 23
79 111 24
72 101 22
77 107 23
74 104 22
71 99 21
75 105 23
85 93 63
82 88 66
82 87 63
78 83 58
80 87 61
79 88 64
80 86 65
79 83 71
126 119 125
113 111 117
107 104 110
104 102 105
111 107 111
119 113 119
112 108 110
73 78 70
72 77 66
71 77 67
72 77 65
71 74 65
68 68 59
75 75 66
75 72 63
77 73 64
76 71 62
76 70 63
76 69 60
76 71 62
76 69 60
76 69 59
78 72 58
78 72 59
75 68 56
79 73 60
74 69 57
78 72 59
73 67 56
75 69 57
74 69 57
76 72 57
78 75 59
72 68 55
74 72 56
74 73 60
110 102 100
138 126 141
137 125 144
166 152 176
136 120 149
129 110 147
103 84 125
73 44 99
76 44 103
80 46 108
75 43 101
78 44 104
70 40 90
82 47 110
75 43 94
77 44 102
76 43 98
74 42 99
70 39 89
75 41 96
76 43 98
77 43 100
73 40 92
73 41 94
73 41 92
86 54 105
103 87 117
123 108 134
115 105 129
157 148 163
163 154 171
162 155 171
163 152 173
157 150 164
159 150 168
156 150 164
131 127 127
89 96 77
76 87 59
76 88 56
69 81 51
71 82 52
72 84 53
76 88 55
68 80 49
65 79 47
68 83 49
71 84 51
58 77 44
61 69 37
68 69 39
65 65 36
68 69 39
67 68 39
69 69 39
66 67 37
71 71 38
69 69 38
67 69 38
68 70 39
70 70 38
68 69 39
68 68 38
68 68 37
66 66 36
69 70 38
70 70 39
71 72 39
125 106 95
77 75 50
67 67 36
70 71 40
71 72 39
66 68 37
69 70 39
68 69 39
70 71 40
72 73 41
74 76 42
71 73 40
69 70 38
68 69 39
68 69 40
67 68 39
73 73 46
134 113 112
145 122 123
142 119 119
143 120 123
140 117 120
136 115 118
137 114 119
119 111 116
147 138 149
141 132 144
136 128 137
144 136 146
129 124 129
119 115 115
118 116 117
113 114 114
126 122 123
118 116 114
113 114 111
111 112 107
104 104 97
111 113 106
97 102 90
95 98 84
143 136 148
147 140 154
158 147 164
161 150 174
157 148 168
170 159 181
166 156 177
171 159 180
165 155 175
158 149 167
160 150 169
159 152 172
156 149 172
154 150 168
158 151 171
148 144 159
161 154 172
142 137 148
115 114 113
74 88 63
71 84 54
70 82 53
72 84 53
77 87 55
104 47 104
109 44 108
112 44 111
117 45 112
114 45 111
104 41 102
122 48 120
123 49 123
119 47 119
116 47 115
125 50 123
126 50 127
127 50 125
128 51 128
126 50 126
117 47 122
131 53 135
123 49 126
127 51 130
129 51 134
121 49 129
126 51 129
129 51 132
124 50 127
115 46 118
147 132 159
135 125 150
155 144 168
138 131 150
134 128 140
107 107 102
69 77 56
76 85 60
70 79 58
73 80 61
69 76 57
74 67 40
83 67 22
82 66 22
78 64 21
76 62 20
81 67 23
77 63 22
75 59 19
75 61 19
89 72 24
93 76 24
81 66 21
79 65 21
84 68 22
85 69 22
79 65 21
84 69 22
86 70 22
93 75 24
87 72 22
94 79 53
165 136 147
179 148 171
180 148 178
166 138 174
154 129 171
144 121 168
139 118 166
140 119 166
143 121 167
147 125 169
157 132 173
167 140 177
175 146 181
177 149 179
183 155 178
155 137 152
112 109 114
48 85 83
20 76 76
21 79 77
22 81 79
21 78 76
62 81 69
64 81 68
65 79 65
60 79 69
66 79 61
63 77 60
78 89 70
151 140 153
140 128 146
151 139 156
155 144 161
164 150 166
154 142 157
149 137 151
159 146 160
156 145 160
157 146 162
162 150 167
154 142 157
157 146 163
160 147 165
154 143 160
152 140 157
153 144 156
151 141 153
131 128 131
122 119 121
127 123 132
125 117 117
123 100 112
132 93 103
132 96 104
137 101 113
136 98 109
116 60 85
103 9 62
107 6 42
121 5 34
117 5 34
119 5 33
119 5 33
113 4 32
117 5 33
115 4 33
113 4 33
120 5 34
113 4 32
113 4 32
107 5 39
92 8 63
88 9 62
86 10 72
78 9 66
78 12 87
64 12 89
54 14 101
42 15 108
40 14 106
41 15 108
38 14 103
53 48 93
101 102 94
165 152 175
163 149 174
164 150 174
165 150 176
160 146 172
151 137 160
155 141 165
154 140 162
125 112 136
104 90 112
114 99 117
117 101 120
116 102 123
115 101 123
121 106 125
116 104 123
123 109 128
120 106 127
116 104 123
119 106 127
122 108 129
121 107 126
119 106 125
118 106 126
124 110 130
115 103 125
114 102 120
117 104 126
116 103 123
119 106 127
110 98 119
110 99 122
112 100 120
89 91 132
15 67 134
14 61 125
14 61 125
14 62 124
15 67 134
16 67 134
15 64 129
14 62 123
13 59 116
15 65 127
15 65 128
15 67 134
14 62 122
15 66 127
13 60 116
13 58 110
13 60 113
12 57 110
11 52 89
9 46 76
41 48 73
136 111 125
142 115 126
119 110 102
60 87 20
74 105 23
70 101 22
78 109 24
75 107 23
78 110 23
79 113 24
81 113 24
76 106 22
75 107 22
79 111 24
81 112 24
80 113 24
80 113 24
78 110 23
80 112 23
75 105 23
80 112 24
74 105 22
76 107 22
77 108 22
70 98 21
72 101 22
72 101 25
79 87 55
74 80 53
76 83 55
76 83 55
81 87 59
79 86 62
77 84 66
71 79 62
82 89 71
113 106 112
116 111 118
108 103 106
114 109 116
106 104 105
79 83 78
68 75 63
65 70 62
69 76 65
68 73 63
68 69 61
69 67 58
74 74 65
75 70 61
74 70 61
74 69 60
78 71 63
76 69 62
78 70 61
79 70 61
80 72 62
75 67 60
75 67 58
80 72 62
79 72 62
78 70 62
86 77 71
78 70 62
89 80 71
82 74 70
82 74 69
86 79 77
90 83 80
105 95 98
113 104 108
105 98 103
119 109 119
92 93 83
88 93 78
95 85 103
79 77 80
84 58 106
84 48 115
77 44 104
78 45 105
78 45 107
77 44 104
80 45 105
81 46 107
84 48 108
73 42 100
84 47 113
79 45 105
71 39 98
82 46 108
72 40 92
68 38 86
74 41 95
73 41 93
68 39 86
77 42 98
83 54 101
119 103 134
138 126 152
164 154 173
161 151 170
168 157 175
172 159 181
151 143 166
165 157 172
164 154 170
151 143 159
133 131 145
117 115 114
85 94 67
72 85 53
74 86 52
68 83 49
63 78 46
63 76 43
59 73 42
64 78 46
60 75 43
59 73 42
56 72 39
66 68 39
64 64 35
70 71 40
67 67 37
67 68 39
64 65 37
67 67 38
67 67 38
67 67 37
68 69 37
70 72 40
69 69 38
67 68 37
70 71 40
66 67 37
69 70 38
77 74 46
134 112 104
147 121 112
124 105 95
70 71 39
68 69 38
70 71 39
67 68 38
71 71 39
71 72 39
71 72 39
71 72 40
71 72 40
71 72 39
72 71 41
70 71 40
68 68 39
70 70 38
69 70 40
87 81 62
130 108 107
137 113 112
153 127 126
141 119 123
139 114 115
151 135 144
148 139 153
115 115 113
84 91 68
80 90 59
80 90 59
82 94 61
81 92 60
76 87 57
83 94 61
76 87 58
76 86 57
80 91 59
79 90 60
81 92 62
83 93 61
80 92 60
82 93 60
84 93 66
107 109 102
156 151 159
166 155 172
168 159 183
166 153 180
173 163 183
166 157 180
169 157 182
164 154 179
170 159 179
159 152 176
163 152 175
158 150 174
164 157 174
162 155 179
171 162 182
162 156 178
156 148 166
141 135 148
106 102 103
95 91 84
77 80 58
85 82 66
109 47 110
103 43 106
105 43 109
111 44 108
113 45 113
111 44 111
112 45 112
113 45 117
107 42 107
121 48 124
128 51 129
119 47 119
124 49 125
118 47 120
125 50 128
127 51 128
130 52 130
131 52 131
118 48 125
133 53 135
126 51 130
126 51 131
121 49 123
116 47 122
120 48 127
123 104 129
107 107 106
109 106 110
103 101 98
98 97 97
89 91 89
72 79 62
100 100 98
121 113 128
128 121 136
132 123 139
111 103 112
77 66 35
69 57 19
74 60 21
73 61 21
74 61 21
75 63 22
74 61 21
73 60 20
72 58 18
82 67 21
80 67 20
81 67 21
82 66 21
89 73 23
84 69 22
83 68 21
82 68 21
79 65 20
87 74 45
167 138 153
181 148 176
175 144 177
168 140 176
158 132 173
151 127 170
141 119 167
136 116 165
135 115 164
135 115 164
137 117 165
150 127 170
156 132 174
164 138 177
176 148 182
185 155 186
186 157 181
161 141 158
112 112 117
54 81 84
22 82 79
20 75 72
22 81 78
83 94 96
79 93 92
96 103 112
118 119 130
101 107 114
122 121 131
113 114 116
113 113 114
119 117 118
111 112 104
101 102 93
111 112 103
94 96 88
107 108 97
94 100 82
97 102 84
92 99 76
90 97 71
86 95 70
83 91 64
85 93 69
79 88 61
86 95 66
77 88 58
91 99 76
173 159 179
169 156 180
173 159 182
174 154 175
156 127 148
154 121 144
152 121 140
149 114 133
136 98 119
129 73 93
115 5 34
124 5 35
119 5 33
111 4 31
117 5 33
114 4 33
129 5 36
116 4 33
119 5 33
119 5 34
110 4 31
121 5 35
122 5 35
115 4 33
112 5 37
96 8 57
86 9 65
76 10 73
76 9 66
67 12 87
41 13 95
37 13 100
39 14 100
42 15 110
35 13 96
53 48 94
105 107 97
165 152 176
164 149 174
154 142 166
149 136 161
144 131 155
158 145 166
145 131 154
144 131 152
109 95 114
109 94 112
108 95 114
119 103 122
108 95 115
120 107 124
119 105 124
110 98 117
122 108 127
116 103 120
115 102 119
114 102 121
115 103 122
125 111 129
115 103 121
108 97 116
122 108 130
116 103 123
110 99 118
112 99 121
116 104 122
112 100 117
109 98 117
111 99 120
110 98 114
101 93 116
19 58 115
14 60 122
14 62 125
13 59 118
15 63 129
14 63 125
15 64 125
14 61 125
15 66 131
15 64 126
15 65 128
14 64 126
15 68 127
13 61 116
13 59 108
14 64 118
13 59 108
13 60 106
12 54 100
9 44 78
52 60 72
144 116 126
154 127 140
146 121 128
63 91 21
71 100 22
67 97 21
70 99 21
81 113 24
77 109 23
78 110 23
82 115 25
78 110 23
77 107 23
81 115 24
78 109 24
81 112 28
80 112 26
77 108 25
76 107 23
72 101 22
74 105 22
73 100 24
68 96 21
68 95 19
71 100 21
77 107 23
75 98 35
82 88 61
87 92 69
88 87 72
99 102 82
93 96 80
98 99 92
91 92 82
94 97 86
100 103 100
100 100 100
114 110 117
96 95 95
101 99 97
72 78 70
69 75 66
69 75 64
69 75 67
67 74 64
70 76 66
67 67 59
71 69 60
73 70 61
75 70 61
73 70 62
75 69 61
74 67 58
76 69 61
76 67 59
72 64 58
87 77 71
81 72 67
81 71 65
81 71 63
74 65 55
74 65 57
84 74 68
85 75 69
78 70 67
83 74 70
88 77 74
90 80 76
90 81 78
97 86 89
100 90 94
108 97 107
124 111 121
111 102 107
103 99 87
80 76 83
87 62 109
86 49 118
81 46 112
75 44 104
84 47 113
77 44 103
76 43 99
77 44 104
79 45 107
81 46 108
80 45 106
77 43 101
76 44 103
66 38 83
74 41 95
70 40 90
76 43 99
74 41 94
74 41 95
69 39 89
74 41 95
79 44 101
79 50 99
145 130 154
158 146 162
163 154 172
161 151 173
160 150 170
157 147 166
154 143 162
149 142 155
143 138 153
153 144 156
131 129 137
129 128 129
91 99 85
99 104 90
105 109 101
98 104 90
111 114 108
98 106 94
107 110 103
111 114 106
120 120 115
126 126 123
119 123 119
95 92 83
68 69 39
72 73 41
64 65 36
68 69 38
68 69 39
68 69 38
69 70 39
69 71 40
69 69 38
72 73 40
69 69 38
68 69 38
70 71 39
82 78 54
132 110 102
143 117 111
149 124 116
146 121 117
110 96 80
70 71 39
72 73 40
68 69 38
72 72 40
71 72 38
70 72 40
72 73 40
73 74 40
73 72 42
82 77 52
66 67 39
65 66 37
69 70 41
67 69 39
71 73 42
86 80 61
137 114 115
144 119 118
137 114 117
155 137 150
170 157 176
172 158 183
173 161 181
150 140 158
121 120 117
85 95 66
83 94 61
81 92 61
82 92 61
79 91 60
76 86 58
74 84 57
83 94 62
80 90 60
78 89 59
81 91 60
83 94 61
80 91 61
80 93 60
79 91 61
84 94 66
102 104 94
131 127 140
167 156 178
168 157 178
169 157 179
161 150 175
173 161 183
163 152 174
166 156 177
155 145 164
164 154 170
152 145 159
149 141 157
154 142 158
128 115 128
114 92 106
97 68 80
89 60 70
94 65 73
95 62 73
98 65 75
97 60 75
99 58 86
104 52 99
95 43 92
114 46 112
109 43 110
112 44 110
113 45 112
118 47 117
118 47 114
117 46 114
114 45 115
123 49 126
114 46 115
116 46 116
121 49 123
129 51 128
129 52 129
118 47 120
122 49 124
123 49 125
126 51 130
113 46 119
121 49 128
123 50 129
97 72 93
72 81 56
71 81 57
69 79 52
68 80 51
68 78 54
70 81 57
68 77 54
70 78 61
88 90 83
95 91 100
114 105 115
110 99 96
67 57 20
71 60 23
76 63 21
76 63 22
76 63 20
64 57 20
74 63 23
71 59 19
80 65 21
71 60 20
79 64 20
75 62 19
81 66 21
77 64 19
75 62 19
77 64 20
84 69 41
156 128 141
177 144 169
180 147 177
176 146 178
172 143 178
159 133 174
158 133 173
153 129 171
145 123 168
141 121 167
139 119 166
145 124 169
148 127 171
157 134 176
164 139 178
169 144 181
180 151 185
189 158 187
192 161 186
179 152 169
90 98 101
36 77 76
20 73 71
18 68 67
147 140 162
140 135 153
144 136 159
142 136 160
147 142 160
140 135 157
105 110 107
72 88 69
69 83 64
73 83 56
83 94 61
81 91 60
82 91 60
80 90 59
80 90 59
86 97 63
84 94 62
80 91 60
83 93 60
84 94 62
82 93 59
88 99 64
82 93 61
78 88 58
104 107 95
164 152 176
180 165 189
171 158 181
171 152 177
166 136 157
156 121 142
151 121 143
157 119 136
136 101 119
127 40 54
121 5 35
118 4 33
112 4 33
117 4 32
115 4 33
111 4 32
114 4 32
110 4 32
108 4 31
113 4 33
117 5 33
111 4 31
109 4 32
112 4 32
109 4 31
109 5 40
73 10 73
81 11 79
76 10 72
65 11 80
43 12 89
38 13 96
33 12 90
37 13 99
37 13 105
77 66 111
144 134 149
107 106 103
105 107 101
90 94 76
92 94 81
80 85 67
85 89 71
77 84 64
77 83 60
100 90 99
109 97 116
106 91 110
112 99 115
109 94 111
108 95 114
114 101 120
115 103 123
122 107 126
121 108 125
116 104 124
119 106 125
120 107 125
121 108 127
113 101 118
116 103 122
112 100 119
111 100 119
114 101 119
114 102 119
112 101 118
116 103 123
110 99 118
108 96 110
105 95 111
93 85 100
37 62 113
13 58 114
13 59 119
13 58 115
14 62 125
14 62 125
13 59 119
14 61 118
13 58 114
14 64 126
14 62 122
14 60 112
15 65 128
14 61 117
14 64 122
14 62 117
12 55 101
12 55 102
9 44 79
9 41 74
62 63 55
105 96 92
148 118 131
156 128 140
63 90 21
69 98 22
73 103 23
73 105 23
70 100 21
78 110 24
78 110 24
82 113 26
79 111 24
73 103 23
75 105 24
74 105 21
76 107 27
82 114 29
78 108 25
73 102 27
74 103 29
73 101 27
72 103 24
71 99 21
74 103 24
68 95 22
75 106 22
130 130 119
153 139 154
159 142 160
161 144 163
162 144 162
171 154 175
147 131 144
139 128 140
138 126 136
138 126 138
124 115 128
119 113 120
75 81 68
78 85 72
72 78 69
74 80 68
73 79 70
70 76 65
65 71 63
71 77 68
68 67 58
70 66 57
71 68 59
71 65 56
73 68 60
74 68 59
73 65 57
74 66 58
75 67 58
78 68 59
75 67 59
77 68 59
72 64 56
78 68 58
73 65 56
76 67 58
75 66 57
72 64 56
74 66 57
74 65 56
76 68 61
83 74 72
82 73 69
92 84 84
103 91 95
110 97 102
113 101 107
132 117 130
155 134 153
83 61 100
84 47 115
83 48 114
72 41 98
79 45 109
88 50 120
73 42 96
69 40 96
78 45 107
78 44 105
81 47 109
76 43 102
69 39 91
79 45 106
85 47 111
80 44 102
77 42 100
71 39 91
74 41 95
64 36 82
72 40 91
72 41 91
80 45 100
73 48 85
106 99 107
118 118 113
116 114 114
105 105 99
89 95 79
93 100 83
98 103 83
89 99 77
82 92 73
86 94 68
79 90 63
81 91 68
91 98 76
127 127 127
155 150 159
161 150 170
159 151 163
156 148 163
151 145 157
163 157 170
157 149 162
147 144 154
162 157 165
157 152 163
107 103 100
67 67 37
68 68 37
67 67 38
69 71 39
64 64 36
65 65 37
71 71 40
66 66 36
68 68 37
69 70 38
70 71 39
88 82 60
147 121 113
147 122 118
148 121 115
147 120 113
149 124 118
141 118 115
77 74 45
70 71 39
70 71 39
71 71 38
70 71 39
70 72 39
69 70 38
69 70 39
95 86 65
83 79 57
71 73 41
70 71 40
70 73 41
66 67 39
69 70 40
66 66 38
91 84 70
142 117 116
148 129 138
179 166 183
171 159 180
172 159 182
170 157 179
167 154 178
163 153 174
149 141 153
101 104 91
98 102 90
106 109 95
120 120 117
113 114 105
118 118 112
108 107 105
123 121 117
125 121 126
130 126 131
126 123 122
137 131 140
132 127 132
148 142 154
151 144 156
156 148 160
157 148 165
166 154 180
152 146 159
103 107 96
93 98 79
85 96 72
87 95 70
87 96 73
91 99 75
81 92 65
84 87 66
83 72 61
81 53 59
93 60 70
91 58 67
93 60 68
96 61 72
94 61 72
89 57 70
94 61 73
99 64 74
102 65 76
94 60 72
98 61 77
103 57 88
111 49 109
103 42 102
121 47 116
111 44 107
110 44 112
116 46 118
121 49 121
116 46 116
121 49 124
121 48 122
119 48 123
119 48 121
119 48 124
121 48 125
126 51 125
116 47 121
126 51 131
118 48 121
123 50 129
115 47 119
87 78 78
77 85 67
73 82 62
73 81 59
72 79 67
72 84 60
70 78 59
70 78 61
72 82 59
71 83 55
63 73 49
71 79 60
95 94 92
52 54 26
64 58 21
67 59 21
58 52 19
58 54 21
69 60 21
63 55 19
67 58 20
71 62 21
69 59 20
68 57 17
70 59 18
73 61 19
74 61 19
78 64 20
76 65 28
141 115 125
169 132 157
182 147 173
181 150 177
180 149 178
172 142 174
172 144 178
171 143 180
161 136 176
156 132 173
154 131 173
154 131 174
154 132 174
158 134 176
162 138 178
171 145 183
174 148 184
183 154 187
188 158 188
194 162 189
197 164 187
188 158 171
113 110 116
19 70 70
22 79 77
132 130 155
128 127 151
128 126 149
142 139 159
150 143 165
142 138 155
85 97 83
76 91 71
66 83 69
76 89 64
82 93 62
87 97 63
84 95 62
84 95 64
79 90 59
84 95 63
90 100 71
88 98 69
89 96 75
85 95 67
96 102 83
99 105 84
101 107 88
102 105 91
124 123 116
155 145 158
162 150 165
152 143 157
153 137 150
136 114 124
143 117 128
135 110 118
129 94 101
130 45 61
114 4 32
117 5 34
115 4 33
116 4 34
119 5 33
115 5 33
121 5 35
129 5 36
118 5 34
110 4 31
119 5 34
118 5 33
116 4 33
116 4 33
120 5 35
116 4 33
108 4 31
104 7 51
66 8 60
70 9 70
64 11 82
52 12 87
38 13 99
35 13 96
36 13 98
37 13 101
60 47 103
164 151 173
95 97 80
77 85 57
79 89 59
73 80 54
79 90 59
76 86 57
77 85 56
74 82 58
96 86 104
105 92 110
104 90 107
110 97 113
115 101 120
111 100 119
113 99 119
118 104 122
115 103 121
116 103 120
116 103 122
116 103 121
114 102 118
113 101 118
117 104 122
114 102 120
107 96 111
114 102 118
121 107 126
111 99 117
112 100 118
112 100 117
112 100 120
110 99 115
105 95 113
107 97 113
64 68 98
12 54 111
12 55 107
14 63 122
12 54 110
13 59 113
14 61 119
13 58 114
14 62 122
13 56 113
13 60 120
14 62 118
14 61 118
13 56 109
12 56 100
13 60 116
12 56 102
11 52 99
11 54 93
58 63 89
137 112 122
155 127 136
120 107 102
93 82 65
61 75 30
71 99 22
58 85 18
68 98 20
78 109 23
75 106 22
76 106 25
77 107 26
72 100 25
79 110 23
83 113 34
80 110 33
79 110 29
75 104 26
77 104 37
78 108 27
74 100 33
75 103 30
72 102 24
69 96 29
71 101 25
74 103 28
69 96 24
163 149 166
166 149 173
168 150 172
168 148 167
162 145 164
162 148 170
140 130 149
127 119 133
130 120 133
127 118 130
127 120 130
118 114 120
80 85 75
74 80 70
72 77 67
73 79 70
75 81 70
73 79 70
66 72 62
63 69 58
69 72 64
72 69 59
73 69 60
73 69 58
72 65 57
68 62 54
74 66 58
75 67 57
72 64 54
72 64 56
77 68 59
78 69 59
74 65 56
76 67 59
75 66 58
77 68 59
76 67 57
70 62 54
76 67 57
72 64 56
76 67 60
72 64 57
83 71 64
81 72 68
85 78 77
93 82 80
99 89 89
101 92 89
113 107 104
83 71 86
77 44 106
76 45 103
78 45 105
73 41 96
76 43 103
73 41 98
73 42 101
80 45 110
78 45 108
79 46 108
84 47 111
77 44 102
78 43 103
78 44 102
70 39 89
69 38 89
73 40 92
66 36 81
69 40 89
72 41 90
69 40 88
72 45 90
72 72 66
79 84 67
74 85 55
78 88 58
81 91 58
77 88 58
78 90 59
77 89 58
78 89 57
78 90 56
75 87 56
76 88 57
78 90 58
74 85 55
77 89 60
110 114 104
159 150 161
165 158 173
167 156 176
168 157 172
171 161 179
165 155 172
170 161 175
163 154 175
158 153 167
162 152 170
110 105 105
68 69 39
67 68 38
67 68 38
68 68 37
71 72 41
70 71 40
70 71 39
70 70 39
68 69 38
107 94 79
146 119 116
147 122 117
143 118 114
149 123 118
144 119 115
143 118 112
143 117 112
131 110 99
70 70 39
70 71 39
69 70 39
67 68 37
69 69 37
72 73 40
73 73 43
125 105 98
66 67 38
68 69 39
68 69 39
67 69 40
65 66 37
67 68 40
66 67 37
66 67 38
96 91 75
109 110 106
108 110 98
110 113 101
103 108 94
103 107 90
95 100 80
86 95 69
90 98 75
84 95 66
117 117 116
168 156 171
169 157 179
168 154 177
175 159 183
168 157 176
175 163 186
181 167 190
174 161 183
170 157 181
170 157 184
171 159 185
163 150 176
169 156 180
177 164 187
180 166 191
168 158 180
174 162 188
173 158 179
145 139 152
96 103 85
81 92 64
80 91 60
79 91 60
84 79 61
81 55 54
83 53 61
91 58 63
90 58 66
89 57 67
90 58 67
94 61 72
90 58 69
97 62 70
94 61 71
96 62 73
96 62 73
97 62 73
100 64 74
100 64 75
104 64 81
109 56 100
113 45 111
104 42 106
113 45 117
121 48 121
112 45 115
118 47 118
119 47 118
115 46 118
117 47 120
119 48 121
120 48 119
116 47 120
121 48 121
111 46 117
110 45 115
115 48 120
123 53 130
117 50 123
104 95 104
94 96 97
98 99 99
100 102 98
99 101 98
93 95 96
105 104 107
111 109 118
115 110 118
111 110 115
118 114 126
112 109 117
104 103 103
118 112 118
78 72 58
55 53 23
57 53 20
59 55 20
58 54 21
61 54 20
62 56 21
57 55 21
65 56 19
58 50 16
71 60 19
73 61 19
72 61 18
64 55 18
109 95 95
154 115 144
177 137 164
182 149 168
176 145 166
163 133 156
168 138 166
174 145 176
173 145 180
171 144 181
171 145 182
168 143 181
167 142 181
168 143 181
172 146 183
174 147 184
180 152 186
181 153 186
187 158 189
194 162 190
194 162 189
202 168 189
199 166 182
169 142 153
66 81 85
19 71 69
105 113 133
123 124 146
118 120 138
123 123 145
120 122 141
126 124 144
107 111 120
108 110 120
118 116 127
133 128 139
133 129 135
139 134 144
152 143 158
162 151 167
158 148 166
166 154 169
164 154 175
160 150 168
172 159 179
172 160 180
177 163 184
179 166 189
178 164 185
171 157 182
126 124 126
82 92 61
88 100 65
83 95 63
85 94 62
95 82 57
96 80 56
99 68 52
124 23 39
117 5 34
117 5 33
122 5 35
115 5 34
118 5 33
113 4 32
115 4 32
109 4 31
113 4 32
113 4 33
114 4 33
115 4 34
119 5 33
111 4 32
106 4 31
116 4 34
114 4 33
116 4 33
111 4 32
109 5 34
77 8 63
60 13 90
47 11 78
38 13 99
38 14 100
36 13 94
35 12 94
82 70 116
174 159 183
98 102 89
82 91 61
78 88 59
78 87 58
77 85 57
76 86 58
79 87 60
77 83 55
100 84 103
104 90 106
102 88 105
108 95 110
108 95 113
111 98 118
105 92 109
105 92 111
104 93 111
119 106 125
112 99 117
111 100 117
116 103 121
106 95 111
106 96 111
106 95 109
111 99 118
110 98 115
115 102 119
108 96 115
104 93 109
110 99 115
103 93 110
107 97 116
103 92 109
104 94 109
68 70 98
10 46 87
13 59 117
13 57 112
12 56 105
12 53 109
13 57 116
14 64 125
14 63 123
12 53 102
13 58 111
12 53 104
13 56 109
13 59 115
13 57 110
13 58 111
12 55 107
13 59 105
10 46 83
132 107 117
155 119 129
159 130 143
140 116 123
79 77 50
75 81 47
59 84 21
68 97 21
71 100 21
65 94 21
70 100 21
77 108 24
84 116 30
74 103 30
76 104 33
78 106 32
76 102 39
78 106 37
80 109 35
79 105 39
72 97 38
72 98 29
73 99 32
77 105 33
66 91 34
71 95 37
68 94 30
100 113 80
160 144 163
171 154 172
160 142 164
168 146 163
167 149 170
157 140 159
145 133 148
145 135 146
124 115 122
118 110 120
132 124 135
94 95 91
71 77 67
73 79 69
70 77 69
74 81 72
69 76 65
71 78 68
69 75 67
67 72 64
69 70 62
71 67 58
70 64 56
68 62 56
76 68 59
76 67 58
72 64 54
74 65 56
74 65 57
71 63 55
71 63 54
71 63 54
77 67 57
73 65 57
73 64 56
75 66 57
70 62 54
71 62 53
71 62 55
72 64 55
70 61 52
67 60 53
74 65 56
74 67 56
70 65 53
66 61 48
66 62 48
69 71 49
77 82 54
79 83 62
69 59 78
72 41 100
69 40 92
73 42 101
70 41 98
79 45 103
71 42 91
70 40 93
76 46 100
81 46 108
72 43 93
74 42 96
76 43 100
74 42 99
83 46 107
73 42 95
77 44 98
70 40 88
74 42 94
72 41 90
72 44 88
84 83 79
78 81 69
77 86 62
76 87 56
77 85 56
76 86 57
75 86 58
82 94 60
79 89 59
75 85 56
76 87 57
77 88 57
77 88 58
82 92 59
81 92 59
78 89 59
72 83 53
81 91 67
137 134 137
153 144 160
159 149 166
159 151 164
159 151 165
147 140 156
150 142 155
162 153 169
144 140 149
147 137 143
83 83 67
67 67 37
67 67 37
68 69 38
69 69 38
69 70 38
70 70 38
71 71 41
119 102 92
148 121 117
145 121 115
148 122 119
151 125 118
152 126 121
147 122 117
151 125 119
152 125 120
139 113 108
105 92 75
68 69 38
69 70 38
73 74 40
71 72 39
72 73 40
91 83 63
137 114 110
69 70 40
64 65 37
67 68 38
66 67 39
67 69 39
67 68 38
66 67 37
68 73 43
85 95 63
82 93 61
82 93 60
80 90 59
84 96 63
81 91 60
79 90 59
83 94 61
81 92 61
80 90 59
84 95 61
82 93 62
113 113 109
152 140 158
174 161 185
176 163 186
171 157 182
167 158 183
176 163 188
175 162 183
175 161 186
174 160 181
174 161 183
181 166 189
181 166 187
172 159 183
175 161 184
176 162 185
169 156 180
172 158 183
169 158 181
157 146 161
108 111 99
84 70 61
83 54 59
83 52 59
92 59 66
89 57 67
91 58 66
95 60 68
97 62 72
95 61 71
96 62 71
97 62 72
94 61 71
99 64 73
97 62 74
101 65 75
98 64 74
98 63 74
102 66 77
97 62 74
101 54 89
111 47 111
115 45 116
119 47 118
118 46 116
112 44 114
119 47 120
107 43 110
121 48 119
112 45 112
126 50 124
111 44 112
109 44 111
123 49 125
111 46 111
115 49 119
119 53 125
116 62 121
148 137 162
154 143 168
151 139 163
151 138 167
142 131 154
150 139 161
139 127 159
145 135 158
136 128 149
130 121 143
143 133 154
152 142 160
126 118 136
124 118 133
123 114 127
75 72 59
50 49 19
48 48 18
52 49 18
56 51 18
52 48 18
58 54 19
67 59 21
58 52 17
62 58 20
63 55 17
70 59 18
68 56 32
141 113 131
158 118 146
179 144 163
170 138 150
149 120 135
152 124 142
166 136 161
180 149 179
185 155 187
182 153 187
183 154 187
180 152 187
182 153 187
182 153 187
183 154 187
188 158 189
186 157 188
189 159 189
194 163 190
196 164 190
202 168 190
206 172 190
208 172 189
196 163 172
116 106 110
19 68 67
52 77 92
58 82 91
59 82 84
62 84 87
62 84 88
130 129 149
141 136 161
143 139 163
154 146 169
156 147 168
169 156 179
177 162 186
176 161 185
176 162 188
179 166 190
183 168 190
182 165 191
183 168 192
185 171 194
181 166 190
176 160 186
180 165 189
183 168 193
178 164 188
117 118 108
85 96 64
83 95 63
87 98 64
85 92 61
94 76 56
99 78 56
109 27 37
124 5 36
122 5 35
120 5 34
123 5 36
119 5 34
115 4 34
122 5 34
118 5 33
122 5 36
119 5 34
119 5 34
116 4 33
118 5 34
109 4 32
120 5 34
106 4 30
112 4 32
112 4 33
114 4 34
106 4 31
114 4 33
106 5 35
88 10 71
42 11 82
36 13 96
34 12 88
36 13 96
34 12 94
70 63 106
138 133 139
131 125 136
132 126 130
141 134 144
139 133 144
146 135 157
146 136 151
146 136 157
153 139 159
93 81 101
96 83 97
100 88 103
97 85 103
98 86 103
98 87 103
107 94 112
99 86 104
106 94 113
99 87 107
103 92 107
110 98 117
109 97 113
108 97 112
112 100 119
113 102 117
117 105 121
115 102 120
110 97 116
106 96 112
107 96 112
103 93 111
109 98 112
102 91 106
99 88 104
103 93 106
61 66 97
11 51 97
11 50 95
9 44 82
11 49 94
11 51 103
12 53 104
12 56 108
13 58 115
13 58 112
13 60 119
13 59 119
13 58 113
13 58 113
13 58 116
11 52 100
12 54 101
12 52 99
99 88 110
163 129 139
153 124 133
164 138 152
161 131 143
133 115 117
75 76 47
61 78 32
59 87 19
57 82 20
70 98 26
68 93 30
73 101 29
76 105 30
69 96 32
75 101 35
78 106 34
80 110 33
77 104 37
75 102 36
74 102 31
74 99 41
74 100 39
66 92 31
72 99 34
70 96 31
70 95 37
64 87 26
106 108 95
122 111 115
123 119 121
114 110 113
102 101 97
96 97 93
105 107 98
93 96 89
86 91 73
78 85 67
80 87 71
72 79 70
71 78 68
76 82 71
72 78 69
70 76 66
71 78 69
72 78 66
68 74 63
70 75 66
68 74 65
67 69 60
67 65 57
67 63 55
73 66 57
75 66 57
70 62 53
70 62 53
73 64 56
76 67 58
76 67 57
75 66 57
73 65 55
69 61 53
72 63 54
71 63 54
71 63 54
73 65 56
72 63 55
70 62 54
75 65 56
74 66 56
73 65 55
71 62 53
65 58 51
70 62 53
66 60 49
66 63 49
65 67 49
78 87 56
76 81 61
75 75 67
80 71 87
74 43 101
71 42 95
68 39 95
71 41 97
69 41 94
71 41 95
78 47 104
67 41 89
76 46 101
71 44 93
72 45 91
80 46 104
69 40 89
78 44 100
76 43 97
71 40 88
67 38 84
78 55 91
113 98 126
127 117 129
90 93 79
106 107 99
98 101 88
108 110 103
100 104 94
127 122 123
130 126 122
123 119 120
127 123 129
125 121 122
142 136 147
128 124 131
152 144 156
141 135 141
161 150 166
151 141 157
159 148 163
153 144 156
164 153 168
112 113 101
84 92 66
87 95 71
80 91 63
79 90 61
82 90 63
80 90 61
80 90 59
79 90 58
73 76 46
68 69 38
70 70 38
69 70 40
69 69 38
78 75 48
129 110 100
144 118 111
151 124 118
149 122 118
140 115 110
146 120 115
146 120 116
148 122 115
150 124 119
152 127 121
154 127 121
146 123 118
87 81 60
72 73 39
72 72 40
68 69 37
68 70 38
122 103 96
130 110 101
67 67 38
65 67 37
67 68 38
66 67 37
69 71 40
65 66 38
67 72 44
77 87 57
83 93 61
77 87 58
84 94 60
83 93 61
81 92 61
81 91 60
80 91 60
82 93 61
82 92 61
82 92 61
79 90 60
82 92 61
80 90 59
85 94 66
109 111 99
153 144 159
173 159 181
172 157 182
161 151 173
167 154 176
164 151 174
167 152 174
161 148 169
169 158 179
156 144 164
152 144 156
155 146 164
153 144 162
154 145 159
137 130 141
129 125 133
144 137 146
107 90 99
88 57 63
84 53 59
87 55 63
90 57 65
90 57 65
93 59 67
96 61 69
92 59 67
96 61 71
98 62 71
94 60 71
102 65 75
94 61 72
97 62 72
97 62 72
100 65 75
98 63 74
101 65 74
99 64 74
99 64 74
103 58 87
110 45 106
112 44 109
117 46 117
124 49 122
117 46 117
119 48 121
118 47 120
110 45 114
114 46 116
106 43 104
102 42 105
108 46 111
103 43 105
111 55 122
111 56 118
91 64 98
85 89 83
105 104 113
132 124 139
136 126 150
143 132 158
146 135 159
131 121 148
136 125 152
129 120 149
139 128 150
120 114 131
128 120 134
121 114 127
126 119 137
114 107 121
117 109 118
83 79 75
59 61 53
42 46 20
44 47 20
53 52 20
47 49 19
49 45 15
54 51 19
54 50 17
51 50 18
62 54 16
89 77 74
130 91 123
168 127 149
185 149 160
156 125 134
110 85 90
137 110 126
162 132 154
174 144 169
189 158 186
193 161 189
193 161 190
192 160 190
193 161 190
195 162 190
191 160 189
197 164 190
197 164 191
198 165 191
201 167 191
205 171 191
207 173 191
209 173 190
211 175 188
205 169 179
178 144 156
69 83 86
59 81 89
57 81 89
52 79 91
54 77 89
72 88 102
134 131 156
132 130 158
137 135 157
144 138 166
158 149 171
156 147 173
173 158 185
181 166 191
174 160 187
184 168 192
173 159 183
180 166 192
184 167 192
176 162 189
174 161 187
180 166 189
179 166 188
179 164 188
179 165 190
91 98 77
84 93 66
91 97 72
95 103 80
96 99 78
113 87 77
115 25 37
115 4 33
120 5 35
120 5 35
125 5 36
118 5 34
114 4 32
115 4 34
121 5 36
125 5 36
122 5 35
117 5 34
122 5 35
115 4 33
122 5 34
113 4 33
109 4 32
116 5 34
121 5 35
114 4 33
116 4 33
117 5 34
111 4 32
104 4 30
115 5 37
75 9 68
37 13 96
37 13 97
34 12 91
33 12 87
61 63 76
81 90 60
149 140 153
172 158 184
152 140 165
177 162 186
166 153 178
168 154 182
164 152 178
156 144 169
90 79 97
94 83 102
94 80 98
100 86 101
98 84 103
89 76 97
93 80 99
91 78 96
100 86 101
96 85 101
99 86 103
89 78 95
102 90 109
104 92 109
107 95 112
105 94 109
104 94 110
110 99 114
109 97 114
98 89 105
108 97 111
104 95 110
109 98 113
103 93 108
98 89 103
93 84 98
53 60 87
11 51 93
11 50 95
11 50 96
11 51 97
10 48 89
11 49 97
12 53 105
12 54 107
12 55 110
11 50 96
12 53 102
12 57 109
12 54 108
12 54 109
13 57 112
9 45 92
50 60 94
138 115 124
125 109 115
130 112 113
125 103 103
130 112 112
113 97 93
132 113 117
129 112 118
64 81 47
63 88 26
65 94 20
68 96 26
66 91 28
69 94 36
71 99 36
75 96 46
76 101 40
77 103 40
79 103 45
73 95 44
77 104 38
74 100 39
75 98 45
74 100 39
76 98 43
60 80 32
60 84 30
74 89 50
75 80 58
76 81 59
73 80 56
78 84 61
77 84 56
76 85 56
74 82 56
75 83 62
74 83 60
77 86 63
78 85 72
75 81 71
73 79 70
73 80 69
68 75 66
70 75 68
70 77 67
72 78 67
70 76 66
65 70 61
70 76 67
69 71 62
63 61 53
68 61 54
68 61 52
67 59 50
75 66 56
73 65 55
73 64 56
73 64 56
69 61 53
78 69 59
71 63 54
71 63 54
70 62 53
71 63 54
73 65 56
77 67 57
66 59 50
72 64 54
70 62 52
67 60 51
72 63 52
70 62 52
68 60 50
70 61 52
65 60 49
73 68 55
80 83 64
94 97 81
101 104 94
94 94 93
95 90 100
98 87 110
68 44 92
74 46 100
72 44 98
72 47 95
71 46 90
68 45 93
75 47 100
70 47 89
73 51 91
74 50 93
67 40 89
71 44 91
71 40 90
68 41 88
72 44 94
58 36 71
76 69 75
76 76 72
81 86 70
87 90 80
138 130 140
168 155 177
162 147 171
176 161 181
172 157 177
162 151 171
171 156 176
164 153 176
162 150 169
166 154 174
165 152 171
172 157 177
167 155 179
168 153 175
170 157 177
171 158 178
165 151 172
170 156 177
167 154 171
134 129 134
90 97 73
78 87 57
82 93 61
80 89 57
79 88 58
82 91 58
84 94 60
78 87 55
73 77 46
71 71 37
73 72 38
83 79 51
127 107 98
143 119 112
146 120 115
149 124 119
145 121 114
151 124 118
148 123 119
140 115 110
142 118 111
150 124 118
146 120 114
148 122 118
143 118 112
128 109 100
72 72 41
71 73 40
69 69 37
81 78 54
140 117 113
110 97 87
67 68 39
68 68 38
67 68 39
67 67 37
64 66 37
94 92 82
103 106 89
93 100 79
96 102 85
112 112 103
99 104 88
121 121 120
118 118 116
123 123 116
127 124 125
121 118 119
132 125 132
146 138 147
137 133 139
142 136 144
153 143 156
148 139 154
159 150 168
150 142 160
175 162 182
132 128 134
96 102 82
90 97 80
92 101 79
87 95 69
86 96 68
87 96 71
81 92 61
85 96 62
81 91 63
80 90 61
77 87 58
80 90 60
81 91 60
80 74 57
84 54 59
84 53 58
87 55 61
87 56 63
88 56 62
92 59 67
94 60 69
97 62 72
90 58 67
97 62 71
98 63 72
96 66 73
95 61 70
98 64 73
99 67 74
97 65 73
101 65 73
92 61 69
101 65 74
96 64 73
102 66 75
96 62 73
104 54 93
107 43 103
101 40 101
119 47 122
103 41 103
106 42 108
108 44 109
118 47 117
112 45 113
104 42 104
114 47 113
105 47 108
101 51 112
107 58 122
102 52 113
81 77 78
82 88 81
85 90 89
82 87 82
102 99 113
116 112 133
135 126 148
134 124 149
123 117 139
136 125 147
123 113 134
121 114 135
114 108 124
124 117 132
116 107 119
98 93 104
100 95 102
92 89 89
94 89 87
68 68 54
38 43 22
38 43 20
32 39 16
35 40 16
50 48 18
41 41 17
74 69 55
65 58 47
114 88 104
126 86 114
166 131 141
170 135 142
130 103 106
105 82 85
133 106 117
159 131 147
178 148 166
202 167 188
202 168 190
200 167 190
200 167 191
203 169 191
202 168 191
203 168 191
205 170 191
207 172 191
208 172 191
208 173 191
210 175 191
209 173 187
207 171 184
210 173 185
208 171 179
177 141 149
102 89 97
45 74 92
54 76 93
57 83 90
57 81 89
96 104 120
113 114 137
116 117 141
127 123 146
128 126 144
138 131 154
152 145 164
147 140 159
155 145 158
159 149 162
150 143 151
145 138 151
139 134 136
130 127 128
131 127 129
128 127 124
129 127 124
115 117 108
108 110 99
116 116 113
173 161 180
175 162 182
180 167 190
175 162 186
173 156 180
136 64 78
121 5 36
121 5 35
116 5 34
123 5 35
116 4 34
120 5 36
120 5 35
119 5 34
118 5 35
120 5 33
127 5 36
114 4 33
119 5 35
122 5 35
118 5 33
116 4 34
108 4 32
111 4 32
119 5 34
114 4 33
113 4 33
102 4 29
101 4 30
97 4 29
89 4 31
58 10 75
33 11 88
33 12 88
33 12 86
31 11 87
72 81 68
79 89 60
138 132 142
172 159 184
165 151 179
168 154 181
174 159 184
158 144 167
152 140 166
150 136 157
95 82 99
96 82 98
91 78 100
86 73 89
76 61 79
84 70 88
89 77 94
84 71 90
87 74 94
91 77 94
95 83 100
90 77 94
91 80 95
91 79 97
98 87 105
95 85 101
104 94 108
104 93 110
109 97 113
98 88 100
99 89 104
97 88 103
99 89 104
103 92 109
97 88 101
94 87 99
95 89 112
20 44 79
10 47 85
9 45 80
10 45 83
11 49 93
9 45 80
11 51 99
11 51 103
12 52 105
12 55 112
12 53 106
12 54 108
12 56 110
10 48 103
12 52 107
36 54 82
60 63 54
71 72 47
69 70 44
74 78 49
69 71 46
74 77 49
68 69 44
103 96 89
135 114 127
142 117 120
68 87 46
65 89 32
67 91 32
68 90 38
70 90 41
70 93 41
76 101 38
72 97 39
73 97 38
73 95 44
71 92 42
71 90 45
76 98 47
73 89 49
71 90 44
69 90 41
66 85 42
64 75 53
79 84 64
72 78 56
72 79 58
78 85 61
77 84 62
79 85 61
78 88 61
75 85 58
73 82 59
79 88 62
76 83 68
77 83 73
74 81 73
71 77 68
75 82 72
71 77 68
76 82 71
71 77 70
70 77 67
70 76 67
70 76 65
70 76 67
70 71 63
65 61 52
69 61 54
72 63 54
69 61 53
75 66 57
69 62 53
72 64 55
70 62 53
72 64 53
70 62 52
73 64 55
73 65 56
77 67 58
68 60 51
71 62 53
70 62 53
68 61 51
73 65 54
75 66 56
71 63 53
69 61 52
70 62 54
75 66 55
66 59 49
70 63 57
110 101 108
120 110 121
170 155 175
169 156 180
166 152 176
155 140 164
144 131 154
123 106 139
74 47 101
75 45 102
76 48 101
77 54 102
78 51 103
69 50 88
72 49 96
76 57 94
71 47 91
73 45 95
72 47 93
72 45 90
62 39 76
63 40 77
77 72 73
75 75 68
78 83 66
78 84 65
79 89 61
83 92 63
121 117 116
161 148 167
168 156 178
165 150 173
170 156 177
173 156 182
177 162 183
172 157 181
170 157 176
169 155 175
172 158 178
168 156 173
167 155 176
167 152 177
165 153 171
172 157 177
167 152 176
181 166 186
166 150 172
162 149 160
107 110 99
80 90 59
78 88 58
78 87 55
84 94 61
82 91 57
86 94 58
81 90 55
82 84 46
89 81 52
140 117 105
143 118 108
139 116 103
144 121 113
143 117 109
137 114 105
152 126 116
146 120 112
149 123 118
150 124 119
147 121 116
150 123 116
144 116 111
151 125 117
148 123 117
109 95 80
70 71 39
72 72 39
108 96 80
147 121 118
110 96 82
70 70 39
69 70 39
67 68 39
69 69 39
73 76 44
86 94 67
84 94 63
129 126 126
154 144 160
175 161 183
164 150 176
176 163 187
170 152 173
163 149 174
172 157 181
171 157 183
167 154 178
170 158 177
176 162 182
175 161 187
172 158 181
169 155 179
175 161 182
172 158 181
174 160 183
172 158 183
150 141 157
114 112 110
84 94 63
78 88 59
81 92 60
82 92 62
78 88 59
82 94 62
79 89 59
82 94 61
79 88 60
81 91 59
83 89 60
82 56 57
73 47 52
86 55 61
86 55 61
84 54 59
92 59 66
90 58 65
92 59 67
96 64 70
96 61 70
94 70 71
91 63 70
97 65 71
95 65 72
101 70 74
99 67 74
94 66 73
99 68 74
99 65 75
94 65 71
94 63 71
97 62 72
99 65 73
96 63 73
108 50 102
111 45 112
113 44 112
111 44 110
106 43 108
101 41 101
110 44 112
104 42 105
102 41 106
104 44 108
103 49 109
109 63 122
114 59 123
113 88 125
111 106 120
112 107 125
112 104 123
114 108 131
120 115 131
115 108 133
101 98 120
131 120 145
118 110 134
105 103 117
86 85 100
93 93 103
87 89 93
79 83 80
77 81 83
62 66 70
57 66 56
56 65 53
45 58 43
40 53 32
39 53 30
27 43 25
35 47 27
29 38 21
29 39 20
30 39 22
58 63 53
81 79 71
104 86 104
127 89 115
156 123 133
138 105 106
124 93 93
96 74 72
124 99 105
164 133 142
190 157 169
208 172 186
211 174 190
210 173 190
211 174 191
209 173 191
209 173 191
210 174 191
213 176 190
214 176 190
214 176 190
216 177 189
214 176 188
209 172 183
201 166 175
208 171 177
195 160 164
173 144 146
129 107 118
76 91 122
94 102 129
97 105 130
88 101 128
66 85 102
58 82 94
61 81 94
63 80 86
67 85 85
67 84 80
69 84 77
78 91 73
83 92 65
84 94 63
85 96 65
83 93 62
84 94 63
81 92 62
85 97 64
84 94 62
85 95 63
87 98 64
86 97 63
134 131 132
178 165 191
177 162 189
177 162 185
178 164 190
175 159 184
144 106 124
105 4 31
112 4 31
111 4 32
117 5 34
120 5 35
120 5 35
117 5 35
119 5 34
120 5 35
123 5 36
115 4 33
126 5 36
118 5 34
116 4 34
120 5 35
120 5 35
111 4 31
102 4 31
108 4 32
96 4 29
85 3 25
85 3 24
85 3 24
92 4 32
64 9 71
43 12 82
34 12 87
33 12 87
27 10 74
44 42 75
79 88 64
85 93 71
127 122 129
157 146 169
161 149 175
150 139 157
138 130 146
135 125 140
128 117 131
124 116 124
81 69 84
76 62 78
82 69 85
83 69 85
91 77 94
78 63 82
86 71 88
86 73 91
75 63 83
84 70 89
74 62 80
93 80 98
84 71 86
96 83 101
86 74 91
94 81 97
107 94 110
104 92 108
99 90 104
106 95 110
105 95 109
100 91 105
99 90 103
90 82 93
92 85 97
99 89 104
131 120 141
129 117 140
46 51 76
8 38 66
9 43 79
8 40 70
10 48 92
10 47 91
12 56 110
12 53 110
12 53 111
11 51 111
12 54 108
12 55 110
23 51 98
43 51 64
67 69 43
57 59 39
63 65 43
58 59 38
61 59 38
63 67 43
65 69 44
62 64 40
67 69 47
126 108 117
149 128 143
126 111 120
76 86 62
62 77 40
66 84 44
61 78 42
69 89 42
69 94 36
71 90 48
77 96 50
68 89 44
71 95 42
68 87 43
71 92 41
71 81 56
69 89 44
70 89 50
102 101 105
117 105 122
75 77 67
80 84 68
73 76 61
82 87 69
86 89 77
93 96 84
97 97 86
104 102 101
90 94 86
83 89 77
79 86 77
79 86 76
71 77 68
74 80 69
72 79 69
71 78 68
73 80 70
70 77 68
74 80 70
67 73 66
62 67 60
62 66 59
66 67 59
67 64 55
72 64 56
68 60 51
72 63 54
74 65 57
70 62 53
69 61 52
68 61 52
70 62 53
75 66 56
71 62 53
68 61 53
71 63 53
72 63 55
70 62 51
65 57 49
72 63 53
67 60 51
68 60 50
70 62 53
63 56 46
69 61 53
62 55 46
66 58 50
66 58 48
87 78 79
138 127 143
166 152 175
168 153 178
163 148 174
152 139 161
150 138 158
148 135 156
133 117 146
78 56 101
71 48 98
71 56 93
70 52 92
71 47 90
70 47 95
69 54 85
68 59 83
68 46 87
72 48 92
73 47 93
70 45 86
76 74 74
74 77 67
77 82 64
75 79 63
79 87 62
76 85 59
78 88 58
74 83 56
117 116 110
153 142 158
166 154 176
176 162 182
168 155 177
166 152 173
171 155 179
173 156 175
165 150 171
161 147 168
164 152 172
164 152 168
157 145 162
160 148 163
155 144 159
146 137 146
145 137 145
144 135 142
152 143 152
131 127 125
107 109 93
113 109 100
141 132 133
150 139 147
143 135 134
152 140 144
149 138 145
149 138 146
145 127 121
142 117 105
143 118 108
140 116 99
137 116 99
145 121 110
143 119 106
142 120 108
142 118 109
148 122 114
149 123 118
152 126 120
148 122 115
146 120 113
147 121 116
145 121 116
148 123 117
86 81 59
73 73 39
143 120 114
140 114 112
103 91 78
70 72 40
68 69 40
64 65 37
68 71 41
78 86 57
78 86 56
81 90 59
80 91 60
85 93 65
142 132 138
159 148 168
169 156 179
167 155 174
165 151 172
164 151 175
175 160 182
167 155 179
165 152 174
179 166 187
167 153 174
171 158 181
172 155 181
175 160 182
179 163 185
171 156 178
166 152 179
173 159 184
170 155 178
159 145 166
118 116 113
80 89 62
80 91 60
80 90 59
80 90 60
77 86 58
83 93 61
81 91 60
78 86 58
81 65 58
79 51 55
87 55 60
85 54 59
89 60 64
92 59 64
89 67 68
90 63 68
91 58 66
90 61 66
95 65 70
88 65 66
97 68 73
95 71 72
93 72 72
97 68 73
94 70 74
95 69 72
98 65 73
96 66 72
97 69 73
98 66 73
98 65 74
95 62 71
99 65 73
93 57 74
100 43 103
102 40 104
104 42 102
108 43 108
101 41 100
100 40 99
98 39 99
96 43 100
95 45 100
105 57 116
98 57 110
113 77 128
147 135 161
140 128 155
148 136 168
129 120 148
145 131 166
128 119 150
129 119 145
135 121 155
127 116 142
141 128 161
117 110 135
108 103 122
83 88 92
87 89 101
76 81 90
74 79 80
73 82 77
71 77 74
70 80 69
63 75 50
58 73 43
59 73 45
52 64 39
51 64 38
54 67 39
55 68 40
51 64 37
57 67 40
73 79 61
109 79 107
122 86 108
147 120 121
126 96 97
116 86 90
101 79 78
143 114 117
165 132 139
195 159 166
214 175 183
217 178 187
214 176 188
215 176 187
217 178 187
217 178 189
220 180 187
217 178 186
213 174 182
208 170 178
218 178 185
218 178 183
199 163 170
185 152 156
181 148 153
188 154 160
176 145 148
135 110 117
83 97 131
78 94 128
96 104 135
82 92 119
42 74 95
49 80 94
50 74 94
59 81 89
63 80 83
63 81 83
66 83 81
76 90 78
81 92 69
83 94 69
81 92 66
87 97 64
87 98 64
88 99 64
85 96 64
79 88 59
84 94 63
85 95 63
85 97 64
158 148 165
176 162 189
180 165 189
181 167 191
181 167 192
178 165 190
171 156 185
144 116 139
103 4 30
100 4 28
100 4 30
103 4 30
109 4 32
104 4 31
111 4 33
110 4 32
108 4 32
108 4 31
117 4 33
107 4 31
112 4 33
101 4 30
95 4 27
93 4 26
97 4 27
90 4 26
89 4 25
89 3 26
93 4 27
87 4 31
53 10 71
47 11 84
38 13 94
33 12 85
31 11 85
28 10 76
140 128 153
166 154 180
163 150 177
151 142 158
79 89 61
81 90 61
79 88 61
73 79 58
71 77 58
68 71 58
69 72 58
73 66 75
63 48 68
78 64 82
84 70 88
70 57 78
75 60 80
75 61 81
68 54 75
79 66 82
71 57 74
70 58 77
66 53 72
80 66 86
82 70 87
82 72 87
85 74 87
90 79 92
95 84 97
93 84 96
96 85 100
93 85 95
98 89 104
91 84 92
95 86 98
89 81 95
109 100 121
135 124 150
131 120 145
127 116 143
80 79 99
38 44 64
7 34 61
9 42 78
10 46 93
10 49 106
10 47 102
10 45 96
11 50 110
13 44 99
28 46 81
34 42 48
51 54 35
55 58 37
55 54 34
46 49 31
51 54 35
54 59 38
51 56 36
61 65 41
60 61 44
62 64 48
83 77 75
118 103 114
114 99 110
118 104 113
72 70 65
56 72 36
58 71 42
62 82 40
55 75 32
63 80 43
69 89 45
69 86 45
63 80 46
67 83 46
66 84 41
61 75 45
60 72 44
68 73 57
78 80 68
75 75 69
107 99 103
130 119 132
129 119 132
145 135 150
152 139 156
153 141 156
138 128 147
150 136 153
111 106 109
76 82 75
78 85 75
75 81 71
80 87 76
74 81 71
75 82 71
73 78 68
74 80 70
73 80 70
75 81 70
74 81 72
70 75 67
72 78 71
70 71 62
67 63 57
70 62 53
77 67 57
71 62 54
67 60 53
71 63 53
69 61 52
70 63 53
74 65 55
68 61 52
69 62 52
67 60 50
70 62 52
69 61 52
69 61 52
68 60 51
66 59 50
68 60 51
69 61 51
68 61 51
69 61 52
67 59 52
66 58 50
64 57 49
69 61 51
77 68 62
135 124 135
161 148 172
165 153 174
172 158 180
156 146 164
148 136 161
147 135 154
145 134 155
124 113 134
80 59 105
72 59 93
75 57 97
69 51 89
73 52 97
73 58 92
69 54 86
67 56 80
64 50 76
61 52 71
82 79 82
94 95 92
104 102 102
104 102 101
105 102 100
118 113 116
112 110 104
132 125 132
117 112 116
128 120 132
158 146 165
143 133 148
109 108 102
92 96 85
94 98 85
99 103 89
96 101 82
95 100 82
88 94 70
82 91 59
83 93 64
78 86 57
81 90 58
82 91 57
80 90 58
81 90 58
80 88 57
80 88 56
84 92 59
86 92 56
109 107 90
150 139 147
158 146 151
172 156 160
164 150 159
168 152 163
160 147 154
154 141 146
147 129 118
144 119 109
144 121 107
141 118 104
148 124 114
141 117 105
147 122 111
142 119 105
145 120 110
152 125 116
155 129 119
137 112 106
149 123 116
150 124 118
147 124 117
148 122 114
134 113 104
75 75 42
112 96 86
144 120 118
82 77 54
63 64 36
66 66 37
71 73 44
78 86 56
77 86 57
83 91 60
83 92 59
78 88 58
80 89 59
81 91 58
92 99 76
133 128 133
166 151 170
174 159 178
162 150 173
168 154 179
166 155 180
170 156 177
167 152 172
167 152 174
174 161 180
166 153 174
170 157 179
165 151 175
177 162 185
162 149 168
163 149 166
154 142 160
152 141 159
156 145 165
133 128 135
89 94 76
123 119 118
126 122 122
129 123 125
128 122 128
138 132 136
126 116 122
82 53 56
87 55 59
83 53 56
93 61 66
88 59 63
91 58 65
89 60 65
94 62 68
96 69 71
95 72 71
86 72 69
96 69 70
93 66 70
96 72 73
96 73 74
94 77 74
94 71 73
90 70 71
93 72 72
92 62 68
97 71 75
95 69 72
99 69 74
94 65 72
92 64 70
98 63 72
89 43 82
104 42 103
105 46 107
95 38 96
93 38 90
99 40 100
97 38 100
94 43 100
101 52 109
107 57 115
113 73 132
137 120 156
139 127 157
147 134 164
139 128 158
131 118 158
131 118 148
130 122 148
142 130 159
131 121 151
129 119 152
125 117 145
127 118 143
120 113 141
115 111 130
109 107 125
106 104 118
83 87 91
82 87 89
78 87 79
75 84 69
66 79 60
65 79 50
66 81 50
66 80 50
62 75 48
61 73 46
69 82 51
68 82 51
70 82 50
70 77 54
86 69 84
115 95 101
141 114 122
125 100 99
111 87 87
110 85 87
127 99 105
162 128 132
187 151 154
201 165 169
191 156 164
198 163 170
210 171 180
205 167 172
214 175 177
209 170 175
206 167 170
189 154 159
191 156 163
206 168 171
203 166 170
176 145 149
168 138 145
163 134 136
170 140 141
158 132 132
154 125 137
80 93 130
75 93 122
72 90 122
63 85 110
40 70 102
48 77 92
49 74 88
58 80 90
56 79 83
58 81 87
66 83 78
71 84 76
84 95 66
84 95 68
87 97 73
91 99 71
98 105 79
103 108 89
94 101 82
105 109 97
110 111 100
104 107 94
122 122 123
144 138 147
154 146 158
142 137 147
147 140 151
135 129 133
136 132 139
136 128 132
113 109 107
105 78 73
100 14 30
101 4 29
102 4 30
103 4 30
106 4 30
111 4 33
98 4 29
107 4 31
106 4 30
99 4 28
97 4 28
91 4 26
88 3 25
97 4 27
103 4 30
92 4 26
86 3 25
86 3 25
93 4 26
92 4 33
61 9 68
42 8 64
44 12 90
28 10 76
32 11 89
29 10 79
100 89 123
171 157 182
172 157 182
164 152 180
146 138 156
77 86 59
76 84 59
72 79 58
67 70 55
69 71 57
65 67 57
62 59 55
62 55 59
65 49 70
61 45 66
67 52 73
62 47 70
66 50 74
56 41 61
65 48 71
69 54 75
72 57 78
71 57 76
64 50 71
71 59 79
71 57 73
80 68 86
81 68 85
77 65 80
80 71 84
89 77 90
90 82 97
89 82 91
96 88 102
93 84 94
90 83 92
92 87 103
113 108 133
114 106 138
120 112 131
104 99 126
92 90 118
72 71 95
66 63 77
41 40 60
26 34 58
38 43 72
24 39 75
28 38 74
42 46 59
57 58 64
47 50 61
78 78 91
68 64 68
89 85 90
87 86 97
100 93 99
86 84 94
104 96 106
102 92 95
123 107 119
116 102 109
112 101 114
113 102 115
64 63 60
50 51 42
57 54 48
50 52 40
56 53 49
46 53 38
55 55 50
55 62 46
58 66 47
53 59 48
51 58 45
55 66 44
58 63 50
54 59 46
50 49 47
61 61 55
61 66 51
64 64 55
71 72 61
73 73 64
100 96 98
140 132 141
141 131 142
151 138 152
146 135 149
152 141 158
159 148 165
110 105 116
67 71 66
64 70 61
72 79 69
67 73 64
70 77 67
75 81 74
76 83 73
77 83 72
77 83 72
75 81 71
72 78 70
71 77 67
68 75 66
74 76 67
66 60 51
70 62 53
72 64 55
72 63 54
69 61 52
71 63 54
73 64 54
71 62 53
74 65 56
72 64 54
71 63 53
72 64 55
70 62 52
72 63 53
66 59 50
70 62 52
72 64 54
64 57 47
69 62 52
70 62 52
71 62 53
65 58 48
69 61 51
66 59 49
69 61 51
72 64 56
86 83 78
131 125 134
122 120 123
114 115 108
115 114 116
119 115 121
117 117 117
104 102 105
83 86 84
75 75 81
79 62 102
73 61 96
67 55 86
72 54 96
69 56 89
71 59 88
63 59 72
68 54 80
117 107 124
134 124 143
151 138 159
148 135 152
151 139 160
159 147 165
159 145 166
165 150 173
159 142 166
177 160 178
161 145 170
174 157 177
162 146 171
130 119 128
90 96 74
76 86 55
79 87 57
79 88 58
78 86 56
76 85 55
77 86 56
80 89 57
80 88 57
79 88 57
78 86 56
81 91 58
82 91 59
79 86 55
88 93 54
86 94 58
88 94 56
89 95 54
93 97 54
127 121 103
159 145 152
160 146 154
164 151 156
160 147 150
159 145 145
160 146 146
142 124 107
140 117 104
136 117 93
144 121 100
143 121 105
142 119 104
136 115 99
139 116 102
147 121 110
145 122 113
152 126 116
140 115 106
154 128 120
143 118 112
148 122 114
155 128 121
92 84 64
70 71 39
117 100 90
67 68 38
65 66 37
70 71 43
94 98 78
85 93 67
103 105 92
107 109 98
114 113 106
106 106 96
108 107 99
116 115 110
124 121 117
132 125 126
136 128 133
164 150 168
128 123 127
106 105 97
101 103 94
106 106 98
108 109 98
107 107 99
94 100 82
96 102 87
87 94 74
82 90 65
84 91 66
80 90 61
77 87 58
80 90 59
78 87 58
79 89 59
81 90 59
78 89 57
95 96 86
148 139 153
168 155 178
161 148 171
169 153 177
124 106 123
78 50 51
86 54 58
87 58 60
87 61 63
81 61 61
91 60 66
90 70 68
88 69 68
94 68 70
95 71 73
95 71 70
92 75 71
93 71 73
88 70 69
90 71 69
92 73 73
93 71 72
93 74 73
92 80 75
97 74 75
94 79 74
94 70 71
96 70 72
92 72 72
93 66 70
93 66 69
94 56 82
97 44 95
91 44 91
108 47 108
99 40 101
98 39 102
94 41 98
97 47 105
104 53 112
102 63 118
142 126 156
133 120 155
136 120 163
136 123 153
134 121 153
132 123 153
135 122 158
130 121 150
137 124 156
123 114 147
127 118 148
122 114 144
124 117 144
123 115 140
131 120 148
130 121 150
131 123 148
123 117 142
104 105 114
83 91 89
90 94 96
91 96 87
89 95 89
93 99 91
117 115 110
110 111 104
104 105 96
117 115 111
122 122 123
119 117 117
113 110 112
93 75 87
111 95 106
123 103 108
117 93 92
111 88 94
94 73 72
115 90 92
136 107 111
179 145 149
180 147 149
171 140 148
169 139 143
185 150 158
185 151 158
184 150 150
186 151 149
168 136 140
165 134 139
172 140 147
162 133 142
171 140 147
167 138 136
150 124 126
137 114 119
154 128 127
144 122 121
131 110 118
45 72 112
46 78 106
51 73 116
55 79 110
63 82 114
62 77 109
80 91 115
89 97 122
89 97 125
111 112 136
115 116 137
149 140 165
154 144 169
159 147 169
165 152 178
175 161 185
182 168 194
178 165 190
179 164 188
184 169 194
188 173 195
174 159 185
164 152 172
86 96 67
82 92 62
85 95 64
85 96 63
82 92 62
83 94 64
85 94 62
82 89 60
90 85 59
92 70 50
106 25 34
103 4 29
101 4 29
101 4 29
99 4 29
104 4 30
105 4 30
99 4 28
98 4 28
89 3 24
89 3 25
82 3 22
89 3 26
96 4 27
87 3 24
86 3 24
92 4 25
83 4 28
56 10 71
48 10 72
42 10 78
39 11 82
30 11 78
30 11 81
74 64 100
162 149 177
165 151 178
163 150 179
166 152 179
157 146 171
69 76 54
71 77 57
69 72 59
66 68 56
63 63 56
62 61 56
58 55 55
58 51 57
57 43 62
56 38 63
55 37 62
59 44 66
55 37 63
51 31 59
62 46 67
52 33 60
55 38 64
55 39 62
58 43 66
65 49 72
68 55 73
76 63 81
63 51 70
67 56 74
74 63 81
78 68 85
84 75 88
87 79 90
82 76 84
81 75 82
81 77 85
84 82 83
77 82 64
57 65 56
55 64 42
47 56 41
55 62 41
51 59 39
49 56 37
63 62 59
103 95 106
93 90 107
94 92 116
78 82 110
60 67 99
77 78 104
88 92 112
101 100 115
92 96 118
106 106 123
111 110 119
132 124 139
111 105 120
125 118 137
111 105 125
115 107 123
108 105 120
108 99 111
96 92 95
113 103 109
54 56 45
52 52 47
47 49 44
47 47 40
47 45 47
52 46 51
49 43 49
48 42 48
42 39 43
56 44 59
49 43 48
54 47 53
55 49 53
67 60 62
53 51 52
63 66 53
65 66 58
75 73 65
70 75 58
90 89 84
136 126 139
131 122 128
150 140 152
149 138 157
154 142 162
155 145 160
150 138 155
123 116 130
65 70 64
66 72 64
63 70 60
65 70 61
60 66 58
61 67 59
61 68 59
63 70 59
65 70 62
67 73 64
65 71 63
66 73 65
69 68 61
66 60 51
66 59 51
69 61 53
70 63 54
70 62 53
73 65 54
73 65 55
70 61 52
69 62 52
66 59 50
69 62 52
71 62 53
73 64 54
72 63 53
66 59 50
69 62 51
67 59 50
73 64 55
70 62 52
73 64 54
66 58 48
66 58 49
67 60 51
65 59 48
67 59 49
65 59 48
66 69 49
74 85 55
78 90 58
74 87 57
76 89 55
73 85 56
74 82 61
71 83 59
70 82 58
71 79 64
76 80 79
72 64 91
74 59 97
74 61 91
72 63 89
70 58 89
67 59 76
117 103 127
129 118 133
129 120 137
137 127 143
138 128 143
144 134 149
162 150 169
166 151 169
159 145 165
153 137 159
161 146 165
156 140 163
162 144 167
165 149 171
164 152 173
149 136 155
108 104 101
79 86 56
77 85 55
74 80 52
78 87 55
76 84 55
78 86 57
78 86 56
84 93 60
80 89 58
83 92 58
80 89 57
86 94 58
85 90 52
85 90 53
96 99 54
94 100 54
87 93 54
94 96 50
101 101 65
151 140 138
151 138 134
160 145 145
163 150 154
149 137 131
158 144 140
132 116 96
138 117 93
145 123 107
135 114 96
139 118 99
135 115 93
144 121 106
145 121 106
138 115 103
146 122 109
149 124 118
146 121 114
145 119 114
147 122 114
139 115 106
71 71 43
67 67 37
81 76 54
109 94 81
74 75 53
156 144 158
164 147 165
173 156 174
173 156 176
170 154 172
177 160 179
169 153 168
164 148 168
169 153 173
166 150 170
168 152 170
166 151 169
172 157 175
157 145 159
110 107 105
78 88 57
82 93 59
79 89 58
77 86 56
79 87 57
76 86 55
81 90 59
80 88 58
79 89 59
80 89 58
77 86 57
78 87 58
78 87 58
80 89 58
80 89 59
78 86 56
76 86 57
77 85 57
98 101 92
151 139 153
156 141 164
96 77 88
87 58 61
83 58 60
87 63 63
84 58 61
86 57 62
89 62 65
91 69 69
87 71 68
89 75 71
90 72 68
98 78 73
89 82 73
97 84 77
92 74 72
92 76 72
92 70 71
95 74 73
93 88 78
89 73 71
93 70 72
95 73 73
95 75 74
98 76 74
96 68 72
95 74 72
92 76 71
87 60 65
92 46 90
90 35 88
95 36 93
105 44 107
91 35 93
96 41 101
102 54 114
109 78 124
97 90 107
117 107 137
126 117 145
119 110 137
126 116 146
107 101 130
110 103 130
110 103 135
108 105 124
109 102 136
115 106 135
106 102 127
95 93 120
109 105 131
91 91 113
81 89 100
87 89 107
85 89 104
85 89 102
78 85 88
84 86 104
109 107 116
121 115 137
135 129 147
138 133 147
134 129 144
144 137 151
145 140 153
150 142 156
151 141 157
161 150 164
137 127 142
96 82 89
117 98 107
128 107 116
109 93 97
107 89 91
111 88 95
95 74 82
120 95 96
125 104 106
142 119 123
149 122 131
143 119 126
141 116 131
130 108 114
152 126 129
165 135 135
137 113 122
121 99 110
115 97 115
141 118 128
163 135 140
148 123 125
136 114 121
141 118 124
133 113 119
128 111 114
131 108 122
23 69 107
21 69 104
36 69 105
53 75 114
73 84 119
78 93 125
68 84 115
99 104 135
112 114 143
114 114 143
128 124 154
142 133 162
174 161 185
161 148 178
178 164 188
177 163 188
180 164 191
182 167 192
181 166 191
171 157 184
171 156 183
173 157 184
150 142 160
81 92 61
83 93 63
86 97 63
81 90 62
82 92 62
84 94 63
83 92 62
85 92 61
86 88 60
87 85 59
92 74 54
93 24 30
101 4 29
106 4 30
109 4 31
103 4 30
106 4 31
103 4 30
99 4 30
90 3 25
94 4 27
93 4 27
82 3 24
81 3 22
89 3 26
92 4 25
87 3 25
58 9 66
36 9 69
44 10 79
39 11 84
32 11 83
28 10 78
55 46 90
138 128 154
141 133 154
144 134 155
144 135 150
132 123 143
126 121 136
112 109 116
117 111 121
102 92 111
90 81 99
90 80 97
81 71 89
78 67 83
88 75 94
60 44 68
49 30 58
50 30 58
45 21 54
43 19 52
45 23 53
46 23 55
44 23 53
47 25 55
51 32 59
51 31 59
56 40 63
55 39 62
58 42 65
60 46 67
66 53 72
58 50 61
66 57 70
69 60 75
84 75 89
74 70 74
81 76 81
88 83 90
74 78 65
67 77 52
68 78 54
61 72 50
59 68 46
64 74 49
63 72 48
57 66 45
58 68 46
104 102 116
132 126 151
134 129 147
130 128 140
137 131 152
127 127 139
124 126 138
135 136 145
130 128 136
119 120 132
136 137 149
108 115 129
126 128 138
110 109 119
126 123 138
128 122 137
127 120 130
109 106 118
121 113 124
105 102 113
103 98 100
63 66 54
61 63 52
68 67 62
63 61 55
61 61 57
64 65 56
63 63 53
68 64 63
62 63 56
71 69 61
68 65 63
74 76 65
76 76 65
75 75 66
74 78 64
85 85 79
91 90 82
88 88 79
92 89 85
122 117 127
126 118 131
122 118 119
130 121 134
124 120 123
126 120 125
115 112 111
109 109 103
81 84 73
64 69 62
67 73 63
57 64 55
63 70 62
63 69 60
66 72 62
65 71 61
57 63 53
59 66 55
64 70 60
64 70 60
65 64 55
70 62 53
71 63 54
66 59 52
68 60 52
72 63 54
69 61 52
73 66 56
67 60 50
70 62 54
69 61 53
68 61 51
65 58 50
69 61 52
74 65 56
68 61 52
68 60 52
68 61 52
71 63 54
68 60 51
68 60 49
71 62 52
70 61 52
72 63 54
72 64 53
65 58 49
67 60 49
63 61 46
72 82 52
76 87 57
74 87 55
71 85 54
72 84 52
73 86 56
74 88 58
74 88 59
77 89 62
76 89 64
74 82 71
73 64 93
69 61 88
78 60 101
62 57 73
98 91 106
134 129 135
138 129 147
135 123 141
138 130 141
142 130 148
141 132 145
143 134 143
152 137 154
145 129 147
157 144 163
159 141 164
158 141 157
161 142 163
157 141 160
156 140 160
166 147 168
157 140 157
126 117 120
74 80 55
88 92 75
87 91 70
90 93 74
103 101 92
103 104 94
102 101 89
120 115 114
114 109 99
118 111 98
133 124 118
123 118 107
144 133 128
138 128 118
140 130 122
140 130 119
153 139 132
145 132 122
145 132 126
142 133 122
111 109 72
105 106 58
99 100 55
105 105 51
102 101 49
135 120 87
133 116 92
138 116 92
143 123 101
140 119 105
143 121 100
142 120 105
140 118 99
148 123 110
145 120 109
150 124 116
150 123 114
145 119 111
110 96 80
69 70 39
68 69 39
99 89 73
138 115 111
146 132 139
172 156 173
163 148 167
178 161 181
162 146 163
175 158 172
169 154 170
175 157 174
168 151 168
170 154 172
174 156 170
172 155 171
172 155 174
172 156 174
171 156 174
173 156 172
149 137 150
107 105 100
78 87 56
80 89 58
76 83 55
81 90 60
80 89 58
73 81 54
83 91 59
76 85 55
81 90 58
80 89 57
79 89 59
75 83 55
78 87 56
77 86 57
79 86 56
79 87 58
80 88 58
72 80 54
103 99 93
93 67 71
78 57 56
85 60 60
88 58 62
91 63 67
90 74 70
85 59 61
88 69 65
89 70 67
92 82 73
93 79 72
96 76 72
91 82 74
91 78 72
89 90 74
93 90 76
91 75 71
89 92 77
90 72 70
93 85 76
89 78 71
88 78 72
97 75 74
91 77 74
91 75 73
90 79 71
88 73 70
86 74 72
83 64 86
91 51 99
103 43 106
79 36 83
108 46 110
108 66 117
128 107 139
122 105 138
118 103 135
125 105 143
123 110 146
116 104 136
102 96 122
94 90 115
87 86 104
94 89 120
98 91 123
85 86 111
90 89 111
90 89 117
94 91 119
92 89 120
98 93 122
92 90 117
83 86 102
87 88 106
79 86 97
81 88 96
90 93 107
82 88 87
79 88 85
88 94 91
125 122 134
149 141 159
141 136 150
146 137 153
147 141 153
149 138 153
136 131 144
141 134 148
100 87 94
105 93 98
114 101 108
123 106 112
117 100 104
116 99 106
120 97 112
113 93 104
110 94 100
116 101 109
128 109 118
111 101 108
119 102 115
127 109 115
118 103 107
121 103 109
124 105 120
118 100 119
98 85 102
111 97 107
122 107 110
128 110 116
110 96 98
120 104 106
109 96 99
118 106 112
118 103 113
18 63 105
20 67 104
37 69 102
32 69 111
47 73 119
52 76 114
71 87 123
78 91 126
86 94 126
89 94 130
111 110 140
135 130 157
153 143 175
158 146 175
170 154 182
173 159 185
179 164 188
174 160 189
176 163 188
178 161 187
177 163 190
178 163 190
133 129 135
80 90 61
87 98 64
80 90 61
82 92 61
80 89 60
82 92 62
82 92 61
87 95 66
87 88 65
83 88 68
93 88 75
99 87 80
118 59 75
105 4 30
101 4 29
98 4 28
108 4 31
109 4 31
104 4 30
91 3 25
88 3 25
87 3 25
87 3 24
78 3 23
101 4 29
90 4 31
61 8 60
44 11 83
33 10 78
42 11 82
39 10 76
32 11 86
43 42 73
67 76 53
66 74 51
72 80 55
68 76 53
69 77 53
70 80 55
73 81 57
137 125 150
132 121 145
110 97 121
105 92 115
91 78 101
85 72 98
70 55 77
61 46 69
49 29 58
44 21 52
42 19 51
44 20 53
44 20 53
44 20 53
44 20 53
45 20 53
45 20 53
42 19 51
41 19 50
43 21 52
49 29 57
52 35 57
50 32 57
61 47 66
65 53 70
69 58 72
70 62 74
70 63 71
76 71 77
70 72 65
70 74 65
67 78 54
66 76 52
73 84 57
69 79 53
66 75 52
68 79 53
71 82 55
66 77 52
66 77 53
96 99 103
151 147 165
140 139 153
141 141 151
141 140 152
138 138 151
141 143 149
142 145 153
137 141 143
135 135 144
127 134 132
137 140 144
136 133 143
144 145 142
145 140 149
136 133 146
127 123 135
123 116 127
116 113 114
122 118 125
109 107 114
102 99 98
107 104 108
114 109 114
111 108 113
124 119 122
113 109 114
121 112 125
126 117 127
131 122 133
129 122 131
133 121 136
137 127 139
133 122 136
129 118 133
140 130 144
148 137 149
145 133 149
145 136 149
147 138 148
145 134 150
118 113 112
81 87 66
78 85 63
78 83 66
79 82 68
83 86 71
75 83 62
75 84 59
72 78 60
63 68 61
63 68 58
62 68 58
60 67 59
58 64 56
59 65 57
62 69 60
64 70 61
61 66 57
65 71 61
67 63 53
69 61 52
68 61 52
71 62 55
71 62 53
70 61 54
70 62 54
70 62 54
71 63 55
74 65 55
72 64 54
66 58 50
72 64 54
69 61 53
70 63 53
74 66 56
71 63 53
70 62 52
68 60 51
74 65 55
70 62 53
71 63 53
66 59 50
68 61 51
69 62 52
66 62 49
66 60 49
63 62 45
74 88 53
74 87 55
75 89 55
76 92 55
73 90 54
75 88 55
74 92 53
69 85 52
69 80 55
69 84 51
67 84 50
70 75 67
74 61 97
68 60 84
81 81 88
117 113 120
111 111 109
114 112 113
110 107 109
112 108 108
105 104 99
112 111 111
121 113 119
101 100 93
102 101 99
108 107 106
111 104 101
107 102 102
90 92 83
95 94 82
92 92 79
90 93 76
91 92 81
77 83 58
112 109 105
157 141 158
169 150 167
159 141 156
163 146 160
160 142 154
167 151 170
161 146 161
160 144 157
159 141 147
163 146 152
153 137 138
168 152 153
154 140 141
157 143 147
155 141 134
146 133 123
157 143 139
155 141 133
161 145 139
145 132 118
111 109 73
103 104 48
103 103 48
107 106 46
104 103 51
131 116 85
127 111 79
136 117 96
140 120 96
135 115 89
140 118 102
144 122 103
142 119 101
145 122 110
144 119 110
142 117 108
150 123 115
85 80 59
65 66 37
70 70 38
108 95 82
155 137 145
179 161 175
166 149 165
168 151 166
168 150 167
173 156 173
173 156 171
165 148 166
165 149 168
159 143 159
171 155 171
171 156 171
169 154 168
179 162 178
164 147 164
175 158 176
170 156 174
166 149 167
172 157 172
146 135 144
104 103 89
81 91 58
79 88 56
80 89 59
80 89 56
78 87 56
83 91 63
88 91 69
90 95 73
100 101 89
110 106 100
105 106 96
106 107 96
109 107 106
119 116 114
110 108 107
128 121 128
117 109 112
85 58 60
83 56 59
82 55 58
78 60 58
87 67 64
84 71 64
89 70 67
85 77 68
84 74 65
92 76 71
84 87 70
81 81 68
87 82 70
93 92 76
85 88 74
91 77 72
94 73 71
88 82 71
91 77 72
87 79 70
88 87 74
90 89 75
86 80 71
86 78 72
90 73 71
91 77 71
84 78 69
89 61 67
72 69 74
63 58 73
81 48 85
92 60 95
108 82 115
122 99 133
123 100 136
125 102 139
111 93 132
129 109 150
110 96 135
123 108 147
108 95 130
112 101 138
104 96 122
100 92 129
86 86 113
94 87 122
99 90 130
97 90 129
86 86 115
92 91 117
92 89 117
102 94 133
80 84 103
92 90 117
85 86 109
86 87 110
93 92 117
86 88 100
84 89 97
79 86 95
77 89 76
73 86 72
122 121 125
120 120 130
147 138 154
145 137 156
141 135 147
145 138 159
101 95 101
123 105 122
134 115 131
128 110 122
121 104 110
114 101 105
109 94 103
114 98 105
116 103 109
132 113 121
135 115 132
143 122 138
136 116 132
133 113 128
129 112 121
112 100 99
134 114 131
123 105 122
101 90 102
118 102 119
134 116 130
132 113 126
129 111 127
131 113 125
126 109 118
133 116 126
127 111 119
19 65 103
19 65 107
19 67 108
19 66 105
19 64 109
36 68 107
42 71 106
69 83 118
88 97 130
92 96 132
90 93 131
120 119 144
133 127 154
152 142 172
142 132 161
146 136 158
144 136 156
151 140 157
144 136 148
133 126 131
144 137 147
125 120 124
148 141 152
150 140 160
150 141 157
163 150 169
164 151 172
157 144 168
158 147 171
161 149 174
169 155 180
169 154 177
159 143 172
157 139 166
160 140 165
142 122 150
112 65 80
93 4 27
90 3 25
107 4 31
99 4 28
104 4 30
93 4 27
87 3 25
85 3 24
85 3 25
89 3 26
88 3 24
72 6 53
42 8 68
30 9 68
34 9 77
29 9 70
29 21 71
53 54 63
67 75 51
63 71 50
66 74 51
65 73 50
66 75 53
68 77 53
67 76 52
67 75 55
112 101 120
115 103 129
89 77 98
84 72 94
63 49 72
61 46 69
54 36 62
52 33 58
42 19 50
44 20 52
43 19 51
42 19 51
43 19 51
43 19 51
44 20 52
45 20 53
44 20 52
43 20 51
44 20 52
42 19 51
44 20 51
46 24 52
49 31 56
55 38 61
51 35 57
59 48 64
64 55 69
66 58 70
71 70 71
69 72 61
77 85 65
74 84 59
75 83 65
83 90 75
88 93 81
92 95 87
91 94 88
107 108 110
99 100 103
118 118 125
112 116 109
113 122 116
110 120 111
109 121 106
117 128 108
99 121 94
107 126 98
102 121 97
106 122 98
95 115 80
96 117 86
92 109 78
94 119 78
81 101 67
79 100 65
82 99 66
76 87 57
75 82 61
78 83 62
73 79 60
73 80 61
100 98 98
147 138 157
141 131 149
148 136 152
139 130 145
148 137 153
139 130 149
154 142 161
147 133 151
149 140 151
143 131 149
151 137 156
154 145 158
143 131 147
138 126 148
159 146 163
149 136 155
141 131 146
155 143 163
146 134 153
152 141 158
108 106 102
82 85 71
77 82 67
80 86 66
81 87 66
83 88 68
81 88 67
83 88 69
74 81 62
62 69 57
66 73 62
60 66 57
54 61 51
64 71 61
63 69 59
60 66 58
59 65 57
58 63 53
62 58 51
71 63 54
70 62 53
71 63 54
74 66 57
71 63 53
70 63 54
69 61 53
72 63 52
71 64 55
70 62 53
69 61 53
71 63 54
71 63 54
70 63 53
72 64 55
69 61 52
66 60 51
68 61 53
72 64 54
68 61 51
65 59 50
67 61 52
72 65 54
61 56 45
64 63 48
64 64 47
67 67 50
104 103 99
107 108 105
118 117 122
103 105 97
114 109 115
111 111 113
103 106 100
126 124 127
117 115 120
122 118 120
120 116 116
126 120 128
114 110 117
93 89 102
120 119 118
99 98 95
62 75 46
67 84 47
67 81 46
65 79 45
69 84 48
68 82 48
67 79 48
71 83 49
70 79 47
67 76 46
70 77 48
70 79 51
75 82 53
72 78 49
72 80 52
78 84 54
78 85 55
79 86 55
73 79 52
89 92 70
152 139 146
163 146 164
157 140 157
155 139 158
164 147 162
162 146 162
156 141 152
159 142 150
159 143 149
150 136 136
162 145 142
151 136 136
146 134 122
145 130 117
144 131 117
142 130 118
138 126 106
148 135 119
153 138 122
152 139 128
134 126 95
108 105 59
101 100 44
99 99 46
101 101 48
127 114 77
136 117 94
129 113 86
135 114 87
137 117 96
142 122 98
142 120 106
143 121 107
141 118 104
145 119 108
119 102 89
63 64 36
67 68 38
69 70 39
89 89 65
88 91 72
140 131 132
171 153 170
168 149 164
171 152 167
166 150 162
161 145 157
163 147 161
163 148 161
154 142 151
150 138 148
149 137 146
149 138 149
151 138 145
141 133 134
145 135 135
129 123 121
127 123 122
120 115 110
119 114 108
105 105 91
104 104 89
160 146 160
164 150 165
159 146 162
174 156 170
173 155 173
171 156 173
162 147 165
169 152 168
164 146 162
166 151 170
159 144 164
176 159 177
170 155 173
166 149 166
157 142 157
153 137 152
77 50 53
85 61 61
79 63 58
86 67 63
85 75 67
80 70 62
88 77 67
81 79 64
81 82 70
82 76 66
82 92 72
85 92 74
85 87 71
87 95 76
84 89 73
87 85 73
91 80 72
86 87 74
90 92 75
84 80 68
83 90 72
86 84 71
83 85 70
91 69 69
89 73 69
81 79 68
91 84 72
85 71 67
101 81 93
82 72 84
119 102 117
111 85 110
117 92 119
124 96 131
127 98 144
131 110 146
130 107 151
115 105 133
117 101 139
107 93 132
110 99 133
112 103 140
115 103 141
105 97 134
101 95 132
99 93 131
93 88 121
97 90 129
88 88 119
97 92 129
89 87 113
103 96 130
83 83 109
93 91 118
91 91 118
94 91 116
85 86 106
88 89 104
84 91 96
79 89 83
80 92 80
78 90 80
82 93 84
83 92 76
108 111 109
135 127 139
122 119 123
132 128 135
103 100 100
123 107 122
136 116 131
134 113 131
108 98 101
101 92 90
110 97 96
109 98 97
104 95 97
114 102 104
146 124 140
156 131 152
148 124 145
130 113 125
120 105 115
123 107 114
109 99 104
106 96 97
110 98 106
112 99 107
131 113 129
140 120 136
141 121 139
120 106 117
119 104 113
129 112 125
93 86 90
18 62 110
19 65 105
17 58 110
18 61 98
18 62 101
18 60 109
26 64 105
23 60 99
48 75 100
45 72 101
49 70 86
58 74 88
66 78 88
76 85 72
75 86 77
79 89 66
80 90 69
85 96 65
85 95 63
80 90 61
81 90 61
89 94 73
175 161 187
176 161 189
176 160 186
171 156 184
167 152 183
166 150 177
166 152 177
167 153 179
158 142 168
161 147 177
151 136 168
150 134 163
150 133 160
144 126 154
137 121 150
111 77 94
98 4 27
92 3 25
97 4 28
91 4 27
94 4 27
86 3 24
89 3 25
94 4 26
89 3 25
60 6 51
30 8 63
34 9 69
38 15 64
30 15 62
42 35 55
39 43 36
51 58 38
50 56 39
57 63 43
59 65 45
54 60 42
61 66 45
62 70 49
61 68 49
61 64 52
96 87 105
103 91 109
76 64 88
63 47 73
48 27 56
47 27 55
43 19 51
41 19 50
44 20 51
42 19 51
45 20 52
46 21 53
44 20 51
44 20 52
43 19 50
44 20 52
43 19 50
45 21 53
43 19 51
44 20 51
44 20 51
44 20 50
43 20 52
44 23 51
47 30 53
45 32 50
60 46 64
57 49 60
91 85 101
138 129 154
146 137 164
150 140 161
146 138 166
159 148 171
154 142 165
154 146 164
164 153 178
151 142 166
154 146 164
157 150 167
146 144 154
116 125 113
85 105 68
86 108 70
89 115 74
88 112 71
91 116 74
93 119 77
99 128 79
89 112 72
94 120 77
94 119 77
88 112 71
88 112 71
88 110 72
87 107 70
83 98 68
79 90 65
84 86 73
79 83 67
77 81 67
80 82 70
141 129 145
166 153 173
157 144 167
152 140 157
145 133 150
140 130 152
140 127 150
151 138 155
153 139 162
143 132 151
152 139 162
146 132 153
147 137 152
146 134 154
141 131 154
149 136 160
146 134 153
148 135 157
146 131 153
145 132 157
144 132 149
93 94 83
81 84 69
83 85 71
77 78 68
84 88 70
81 88 63
81 87 67
72 80 60
68 78 56
66 73 60
61 68 58
62 68 57
63 70 59
57 63 56
57 63 53
57 63 54
53 58 51
62 59 50
69 61 53
64 57 49
70 61 53
69 61 53
72 63 54
73 65 56
66 60 52
68 61 51
70 62 54
72 63 54
69 61 53
70 63 53
73 64 55
69 62 52
71 63 53
69 62 52
72 64 55
71 63 54
70 62 52
72 63 53
75 66 56
69 62 51
70 65 53
68 65 51
65 64 47
65 68 47
64 69 45
101 98 99
122 119 129
126 121 130
138 131 141
139 133 141
137 130 140
127 121 128
124 118 128
120 118 122
122 117 123
103 102 102
109 108 103
107 106 108
109 105 107
105 101 105
100 96 104
105 106 97
75 87 58
62 74 42
68 84 46
61 74 43
64 76 44
66 78 45
70 82 49
66 77 45
66 75 46
64 72 45
72 80 49
71 78 50
71 77 48
74 82 53
72 79 51
74 81 53
75 82 54
75 82 53
73 80 53
73 79 50
118 110 114
161 143 162
165 146 159
157 139 151
171 153 163
157 140 142
153 138 143
154 140 137
139 127 121
152 138 125
148 133 128
148 134 127
143 131 114
147 134 116
158 143 141
141 128 115
149 136 119
145 132 111
143 129 101
146 134 109
140 128 103
118 112 72
105 104 47
105 104 49
113 109 60
126 112 76
133 117 84
135 115 93
136 116 94
140 120 101
139 117 100
139 119 100
139 117 105
145 121 113
103 92 74
69 70 39
65 66 37
125 116 125
149 133 139
154 141 153
158 141 149
164 148 159
109 106 97
84 92 62
84 93 58
83 91 57
79 87 54
77 84 53
77 85 54
80 90 57
79 88 55
84 92 57
84 94 59
78 86 54
80 88 56
80 88 56
78 86 55
79 88 56
79 86 56
80 88 56
83 92 58
88 94 68
125 120 122
166 152 163
168 151 164
162 148 166
170 156 171
169 153 170
168 153 171
166 148 163
170 154 167
169 152 170
169 151 166
174 156 171
176 159 179
168 153 174
161 145 161
78 55 55
71 48 51
76 53 54
83 66 63
82 72 65
83 84 69
84 87 70
90 83 72
93 80 72
83 90 72
78 86 69
83 81 70
81 91 70
78 83 69
83 88 72
86 87 73
74 105 76
83 81 70
79 89 71
88 92 76
80 88 69
80 95 75
82 76 68
82 82 69
81 73 67
86 74 70
90 76 69
78 78 65
114 99 110
142 132 143
132 114 131
136 120 137
142 120 141
139 118 152
123 100 143
126 107 146
121 100 142
117 104 138
113 104 137
113 104 137
104 94 130
105 96 136
102 91 132
95 89 128
100 96 129
100 91 133
96 90 128
96 91 130
98 90 130
93 89 124
96 91 127
106 96 137
93 88 126
106 101 133
100 97 129
99 97 125
107 102 132
117 109 139
120 113 138
120 116 139
121 117 139
125 120 139
133 128 148
139 133 151
135 129 143
142 135 154
138 132 149
108 110 107
102 103 100
103 91 96
134 113 134
139 119 136
112 98 106
90 83 77
78 77 59
80 79 60
84 81 68
93 86 81
129 111 124
153 128 144
148 125 142
126 109 117
98 91 85
95 90 79
88 85 70
103 95 88
105 96 93
117 103 108
140 119 136
163 136 156
141 121 131
124 109 115
109 98 102
119 106 109
69 76 74
18 60 105
18 62 107
17 57 105
19 65 107
17 59 106
19 64 108
18 60 105
18 60 110
29 61 102
36 67 100
41 69 90
50 70 91
68 81 82
71 80 80
71 81 74
77 88 74
75 84 63
76 86 63
79 89 60
82 90 60
85 96 63
107 106 100
171 156 181
176 161 187
163 148 178
165 151 180
158 144 172
165 148 172
161 146 171
162 145 169
153 138 168
155 141 167
157 142 169
151 135 160
147 130 157
143 127 153
132 116 146
140 126 154
110 74 93
93 4 29
99 4 28
101 4 29
94 4 27
92 3 26
87 3 25
90 3 26
54 18 21
37 31 28
35 28 24
26 25 22
31 31 21
26 28 20
40 44 31
43 41 38
54 54 49
50 55 44
76 73 72
75 73 75
90 86 90
103 101 103
99 95 107
100 94 103
98 92 103
79 70 87
69 58 76
57 39 65
52 35 58
41 18 48
42 19 50
43 19 51
42 19 49
44 20 51
43 19 51
43 19 51
43 19 51
44 20 51
43 19 51
41 19 47
42 19 49
43 20 50
42 19 50
41 19 49
43 20 51
43 19 50
41 19 48
42 19 50
41 19 49
43 23 50
43 25 49
53 42 56
87 77 93
115 104 123
131 124 148
154 144 171
142 134 162
151 139 165
147 137 165
156 143 165
138 131 154
144 136 157
146 138 163
144 144 153
149 148 154
143 145 152
134 143 138
92 114 75
95 122 78
98 125 77
100 131 82
97 127 79
102 131 80
99 130 82
97 126 78
100 130 80
100 129 79
94 121 77
96 121 78
94 120 77
92 112 76
89 103 75
84 95 70
83 87 73
85 87 74
84 86 72
82 83 71
101 97 95
147 135 157
150 137 159
149 136 156
143 131 146
146 133 159
149 136 159
150 140 160
146 134 153
151 135 154
141 128 149
140 126 148
148 135 153
154 138 161
146 132 152
146 132 153
146 133 152
136 123 146
137 125 144
139 127 144
132 122 138
106 101 108
120 115 117
106 100 111
113 107 113
121 115 121
135 127 139
123 119 129
137 129 139
143 134 147
134 127 140
69 72 68
54 61 53
57 64 53
55 61 52
56 62 53
61 66 56
56 62 53
64 59 52
68 61 52
69 61 52
70 62 53
68 60 51
69 61 53
70 62 54
67 59 52
71 63 55
72 64 55
69 61 52
74 65 55
70 62 53
74 65 55
67 60 51
66 59 50
70 62 53
67 60 51
70 62 52
68 60 51
69 61 51
66 58 49
66 61 50
65 60 48
62 61 45
64 64 46
64 67 48
61 68 43
116 112 119
127 126 132
133 127 136
132 127 137
129 123 128
128 124 128
130 127 131
121 121 120
112 115 112
120 116 118
119 116 113
107 105 106
116 111 115
114 116 110
117 118 108
126 120 122
113 111 109
114 110 106
80 91 64
67 83 45
67 83 45
67 82 46
68 83 47
72 85 49
69 81 48
71 81 51
74 86 50
73 83 50
73 79 49
72 78 49
73 80 51
72 79 51
73 80 50
75 83 52
72 78 49
79 87 54
76 83 52
81 87 55
103 102 84
151 137 145
153 139 148
145 131 134
137 126 123
146 133 130
127 117 94
130 121 104
127 118 92
132 123 110
120 114 80
132 122 93
125 118 83
116 110 67
117 110 67
116 111 62
121 116 74
114 111 58
115 111 53
114 110 47
109 106 48
119 114 76
140 128 105
140 128 104
140 127 106
140 123 99
129 113 89
136 117 93
136 117 95
135 115 93
141 119 102
144 120 105
137 116 102
69 69 45
63 63 35
122 112 111
173 154 166
173 154 166
174 156 168
170 153 167
168 149 162
168 150 163
138 128 127
90 95 68
79 86 54
78 85 54
81 90 56
80 87 55
84 93 57
83 91 56
81 89 56
81 89 56
83 92 57
83 92 57
80 89 56
83 92 58
82 91 58
79 87 56
77 85 54
80 87 56
81 90 58
83 91 58
95 96 76
140 129 131
171 154 170
176 157 172
174 156 172
166 151 170
170 153 168
168 152 170
171 152 170
172 156 171
168 150 167
166 148 162
169 152 165
164 152 162
90 73 69
80 67 61
82 74 65
82 76 64
77 76 62
89 79 68
80 88 69
78 81 65
82 81 69
91 79 70
81 93 70
81 79 68
81 82 68
78 92 69
82 80 68
78 102 75
85 90 73
83 94 75
82 100 74
77 80 68
87 75 67
82 93 72
79 94 73
84 86 70
84 98 76
78 93 73
77 81 67
82 84 70
130 119 127
110 113 109
96 97 95
106 108 102
103 101 108
105 97 114
86 82 101
95 87 119
101 93 125
98 88 125
95 87 126
96 90 126
90 86 120
93 88 125
102 91 134
94 89 125
88 87 120
97 91 133
98 92 136
93 90 122
93 89 125
89 87 122
99 92 128
98 92 135
89 86 123
94 90 128
92 91 121
101 97 134
105 99 134
110 108 129
94 93 116
118 112 141
111 108 128
122 118 142
121 118 133
128 122 141
121 117 132
146 140 154
137 129 145
145 137 156
144 136 154
106 100 108
110 96 110
145 121 140
113 100 107
78 77 58
76 77 52
73 74 51
75 75 51
83 80 61
107 97 96
133 113 128
127 109 120
118 102 108
90 84 77
90 86 68
79 80 58
77 78 53
86 83 70
116 103 104
132 112 131
135 116 129
120 106 110
101 91 89
121 107 109
96 90 85
98 105 114
19 64 108
17 58 113
16 55 105
17 59 110
18 60 105
17 57 107
16 54 101
18 63 104
21 65 103
22 60 98
39 65 94
44 69 92
58 73 90
69 79 78
74 84 78
75 84 68
76 84 69
77 86 64
76 85 58
81 91 61
81 91 61
127 121 129
173 157 181
168 152 175
171 154 177
164 148 175
153 139 169
155 139 168
162 147 174
155 138 164
146 132 157
145 130 155
126 115 134
139 127 150
130 118 141
128 113 132
128 113 132
116 102 115
102 88 96
76 53 56
85 15 25
94 4 26
95 4 27
87 3 23
89 3 24
92 58 70
64 47 60
75 62 75
76 62 82
80 70 88
78 67 91
91 79 94
109 99 117
106 93 118
105 91 111
106 95 119
106 93 121
125 112 137
124 111 136
121 108 131
124 113 137
130 116 139
105 91 116
60 49 65
44 30 49
42 24 49
42 19 48
43 19 51
43 19 50
42 19 48
43 19 51
41 19 48
43 19 50
42 19 50
42 19 48
42 19 50
40 18 48
42 19 50
43 20 51
44 20 51
42 19 49
43 19 51
41 19 47
43 19 50
42 19 50
41 19 48
42 19 48
41 19 48
39 18 46
45 28 51
84 73 93
96 86 106
127 117 139
142 131 152
140 131 153
144 134 158
151 139 158
148 137 162
149 139 164
136 130 143
139 136 146
137 144 139
142 151 141
141 149 140
133 148 130
106 130 92
99 128 80
106 139 85
98 129 80
97 127 80
103 136 84
101 134 83
101 133 82
100 131 82
98 128 79
104 136 84
97 126 78
96 121 78
91 111 76
96 107 89
97 107 87
100 106 94
103 105 100
108 105 104
108 101 105
122 115 123
131 120 136
123 113 125
123 112 128
113 107 113
103 96 103
109 103 110
112 102 112
114 105 110
106 100 107
101 94 97
100 95 97
85 84 81
88 85 79
84 80 80
84 83 75
86 83 78
85 85 74
88 85 80
84 82 74
85 85 74
80 79 73
128 118 134
157 143 169
146 134 156
155 142 163
150 138 160
162 147 168
154 143 163
161 148 170
166 154 177
154 141 162
100 94 102
58 64 56
59 66 55
62 68 58
57 63 56
57 63 55
62 60 52
65 58 51
69 61 51
68 61 51
69 62 53
65 58 50
67 59 50
74 66 56
68 60 53
69 62 54
74 65 55
63 57 49
66 59 50
70 62 53
73 65 56
68 61 52
68 61 51
71 63 53
69 61 53
64 57 49
68 60 52
69 63 52
64 60 48
68 64 50
65 62 48
67 66 49
66 72 47
62 68 45
111 111 113
129 125 137
131 123 130
129 126 134
115 117 116
123 120 125
125 122 125
125 125 127
120 121 121
121 121 120
132 129 125
123 121 119
102 110 94
102 106 95
134 127 134
129 123 127
129 125 125
128 123 120
129 123 122
87 95 75
80 92 59
80 92 65
92 93 78
98 99 84
95 97 83
104 103 89
120 112 109
103 99 93
123 118 119
137 125 126
130 120 121
136 125 130
147 133 135
152 138 150
148 135 145
151 134 148
159 139 147
163 146 159
171 152 166
165 148 162
111 107 94
85 90 51
81 85 46
87 91 47
93 93 45
94 96 48
95 96 45
105 104 46
107 105 45
97 97 43
105 102 42
103 102 43
104 103 44
110 106 42
113 109 43
111 108 41
111 108 44
108 105 44
109 106 47
102 101 52
109 106 53
138 129 105
137 126 111
142 129 111
140 125 105
131 115 93
130 115 82
132 114 98
134 115 97
134 112 97
102 91 73
75 75 45
127 114 118
167 149 160
177 159 169
176 159 173
171 153 166
164 147 156
171 153 166
181 163 175
171 153 165
153 140 148
118 114 108
82 90 56
80 87 53
78 86 53
80 88 54
80 88 55
78 85 54
83 92 57
80 89 56
78 87 53
81 88 55
82 91 57
82 91 55
76 83 53
81 88 54
81 90 56
81 90 56
80 87 53
79 87 54
77 85 53
96 98 82
154 139 147
174 157 169
178 158 171
178 160 173
172 154 165
174 156 170
174 156 172
173 156 172
167 153 166
162 147 160
154 148 156
91 81 76
83 69 63
77 68 60
79 82 66
84 70 64
81 76 65
78 82 66
82 83 67
84 79 67
83 87 69
81 91 70
82 80 66
80 94 73
79 92 72
74 88 67
70 105 74
76 93 70
83 92 72
81 93 72
87 95 75
81 87 71
82 95 74
80 96 73
83 85 69
86 87 72
82 86 72
82 72 67
86 86 74
138 134 144
156 146 160
131 133 136
102 107 95
78 91 85
90 92 108
100 95 122
100 94 126
94 85 120
91 86 119
99 89 129
94 84 124
96 88 130
95 89 129
94 87 128
94 86 122
94 85 126
94 88 126
93 87 126
95 91 125
97 91 133
91 89 125
101 92 136
82 83 114
91 87 123
91 88 126
92 91 117
103 95 133
94 93 121
96 92 124
103 99 130
114 108 137
99 102 114
117 114 135
125 121 136
127 124 140
134 130 146
124 121 135
135 129 144
138 132 149
145 139 155
132 128 142
101 95 96
126 108 121
94 85 91
96 86 83
84 79 67
80 77 61
94 87 81
111 95 99
122 104 114
141 116 136
143 119 136
145 122 136
130 110 121
114 100 103
109 97 98
120 105 104
113 99 101
124 108 115
132 114 122
115 103 108
71 72 50
73 74 53
79 78 67
97 96 96
141 133 147
17 59 112
17 59 107
17 57 106
16 55 105
16 56 104
17 60 106
16 53 108
17 58 113
17 59 103
21 56 98
27 55 101
47 68 102
75 82 104
94 95 109
105 106 113
111 110 121
106 106 109
123 118 122
128 122 128
130 124 128
139 130 140
115 110 114
125 120 116
107 105 103
110 108 110
94 95 89
98 97 92
83 87 69
88 94 76
77 82 64
72 78 54
69 75 52
69 75 51
70 75 50
66 73 50
67 73 48
62 66 46
64 64 43
62 62 42
61 61 41
66 52 36
78 12 22
91 3 25
93 6 28
108 80 88
107 91 105
102 89 103
113 100 118
115 98 115
103 92 105
125 111 131
110 94 113
122 107 125
117 102 129
111 98 120
120 104 128
136 123 142
132 115 135
131 117 141
142 127 149
141 125 151
121 108 125
100 86 109
65 50 66
41 22 49
41 20 48
43 19 51
42 19 48
40 18 47
42 19 49
44 20 51
44 20 52
42 19 50
43 20 50
44 20 51
43 19 50
44 20 51
42 19 49
44 20 51
41 19 49
40 18 48
43 20 50
40 19 47
41 19 49
42 19 49
42 19 50
41 19 47
39 18 47
40 18 46
40 19 46
67 54 73
79 69 85
131 121 143
138 129 144
137 126 146
135 126 145
131 122 140
142 133 151
151 142 160
143 139 146
143 143 149
121 133 119
119 134 112
125 145 117
113 134 101
115 137 106
104 133 90
115 145 98
108 138 91
111 143 93
105 138 87
104 137 87
116 145 101
108 139 94
117 149 100
110 139 100
123 144 116
110 136 99
127 139 121
136 144 136
133 137 137
139 135 146
144 139 149
138 126 148
152 138 161
147 132 157
147 135 156
88 85 80
89 87 80
85 85 74
85 81 80
90 87 81
87 83 76
86 78 81
80 76 74
86 82 80
84 85 74
88 82 82
90 82 84
89 84 79
87 87 76
84 81 79
85 82 78
84 82 78
89 84 82
86 83 80
84 83 74
93 89 89
142 129 146
155 141 161
149 135 157
146 133 156
153 141 161
158 145 167
153 142 162
158 144 168
173 152 182
147 129 152
100 94 100
53 59 46
55 61 50
60 67 56
54 59 50
60 59 49
66 59 51
66 59 50
65 59 50
66 59 50
67 60 52
70 62 52
64 57 49
67 59 49
68 61 51
62 56 48
69 61 52
71 63 52
68 61 52
73 65 56
68 60 51
67 59 51
69 61 51
67 60 51
68 60 51
70 62 52
62 57 47
66 62 49
64 63 48
64 68 47
65 65 48
64 67 47
67 73 53
113 110 108
98 104 93
106 109 102
119 122 112
108 117 98
103 110 102
102 106 93
98 107 94
95 107 87
85 99 69
90 101 77
91 102 80
76 92 59
81 101 63
81 96 61
74 94 53
74 92 50
77 94 52
74 90 51
73 91 49
109 113 102
132 129 125
135 131 127
126 123 118
148 138 141
149 138 139
150 139 147
152 139 145
158 143 152
157 139 150
161 143 157
156 140 150
157 140 156
170 154 169
169 152 165
167 150 161
169 150 164
169 152 165
162 144 154
170 154 168
150 134 142
126 118 108
96 98 55
88 91 44
96 97 47
98 98 43
101 100 42
103 103 45
105 103 43
105 103 41
107 104 39
109 106 41
110 107 42
111 108 42
113 110 43
107 104 40
103 101 46
107 103 48
108 104 44
113 109 47
107 105 47
107 105 48
109 106 75
131 119 105
141 129 120
130 115 95
130 113 86
127 112 87
134 115 95
137 118 99
84 82 52
128 116 114
162 145 155
172 154 163
165 148 157
174 157 169
176 159 170
172 152 164
163 145 155
173 154 162
171 152 162
173 154 168
167 149 159
156 141 142
95 99 74
84 92 56
83 91 54
82 91 56
82 88 55
89 94 66
86 90 61
94 97 68
108 109 92
110 108 90
115 112 96
120 117 110
124 119 107
127 121 116
139 129 127
137 129 128
144 134 137
144 133 132
160 145 151
149 137 143
158 142 150
132 126 118
103 104 90
97 101 78
86 93 61
84 92 58
85 95 59
84 93 58
79 90 58
81 102 62
78 71 58
76 65 58
85 75 66
77 84 65
74 71 59
78 90 69
83 81 67
79 91 72
76 88 68
76 88 68
73 84 66
75 87 67
75 97 71
78 81 65
81 96 73
75 95 71
75 86 67
79 98 74
78 97 73
86 90 73
76 92 70
79 91 70
83 97 74
81 83 70
77 103 74
81 84 70
75 83 67
88 99 81
156 152 155
159 156 166
157 146 162
162 154 171
126 130 137
98 97 113
94 96 114
95 87 123
89 85 114
97 88 126
99 90 135
87 84 119
98 89 131
94 88 128
90 86 123
95 89 126
88 85 120
91 89 122
96 90 128
99 92 131
85 87 118
97 93 132
92 90 123
89 88 115
88 87 119
92 88 121
99 90 132
94 90 125
93 90 123
95 92 120
97 96 117
102 100 125
101 99 121
118 113 134
113 110 131
124 120 135
127 125 143
127 124 139
126 124 139
137 131 146
134 129 152
143 135 152
122 119 126
76 76 65
102 89 92
107 91 96
110 95 98
118 101 108
129 108 121
145 120 136
142 117 138
167 135 155
156 128 151
158 130 154
156 129 148
155 127 145
155 129 146
142 120 138
146 122 135
143 120 135
126 110 119
99 92 81
73 74 49
74 75 53
100 95 95
129 125 139
131 124 139
17 58 107
15 52 108
17 58 104
17 59 104
15 50 111
17 58 106
17 57 107
18 61 101
17 59 101
15 53 105
31 62 103
59 75 112
110 103 137
151 137 167
145 133 165
146 133 164
150 138 163
168 152 179
159 146 174
166 151 177
173 158 182
90 95 74
75 83 58
77 86 57
75 83 56
77 84 56
76 83 56
74 81 55
76 84 57
77 86 57
72 79 53
68 73 51
73 80 53
69 74 48
67 73 48
63 67 45
61 65 43
64 69 46
66 69 46
67 69 46
60 63 41
69 60 39
90 20 27
111 72 88
131 114 129
119 102 116
129 115 129
121 106 120
125 112 127
132 119 135
124 108 127
130 115 131
120 104 125
129 117 137
130 113 134
139 123 141
141 124 143
141 122 140
132 114 135
136 121 148
137 123 144
117 103 127
84 68 88
60 48 67
39 18 46
39 17 46
39 18 47
40 18 47
42 19 50
41 19 48
44 20 50
42 19 49
43 19 49
44 20 51
41 19 49
39 18 46
40 18 47
42 19 49
42 19 49
42 19 48
40 18 46
41 19 48
40 18 46
41 19 47
42 19 49
40 18 47
39 18 47
39 18 46
41 19 49
40 18 46
38 18 44
51 46 49
67 68 64
71 77 62
78 83 66
72 79 57
75 84 58
76 88 58
86 105 66
88 110 70
92 115 73
95 121 77
94 121 75
100 130 80
103 135 82
105 138 85
108 141 91
110 143 94
107 144 91
110 145 90
106 142 88
109 145 91
106 141 87
106 141 89
110 144 95
113 147 93
117 148 98
117 138 107
115 137 105
110 128 103
129 133 124
128 132 131
139 138 144
143 136 150
143 131 153
144 128 155
144 129 154
124 112 127
83 81 77
88 84 81
85 85 76
89 82 82
85 83 76
89 83 83
90 83 84
85 83 78
88 80 84
88 82 82
86 83 78
85 78 80
84 80 77
86 81 81
88 85 79
84 79 80
87 84 79
82 80 74
85 81 74
81 82 70
110 104 106
149 134 154
158 144 163
149 135 159
148 134 155
142 131 151
161 145 169
170 150 181
182 158 190
167 144 172
148 131 150
98 91 101
57 63 52
51 57 46
49 55 45
45 49 39
65 58 49
67 60 52
67 59 50
65 59 49
66 58 49
64 58 48
61 54 47
69 61 53
71 63 52
63 56 47
67 60 49
62 56 48
69 62 52
70 61 54
67 59 50
66 59 50
69 61 52
70 63 53
67 59 50
69 62 52
70 63 52
63 61 47
60 60 44
66 70 49
66 70 47
62 62 46
79 83 70
109 111 103
70 88 49
72 91 51
72 89 51
73 93 51
74 92 51
71 89 50
70 91 49
72 91 50
74 93 51
72 92 51
73 92 50
73 96 50
70 90 49
75 97 49
76 95 52
72 91 49
68 88 47
70 90 49
76 95 52
71 91 47
93 101 77
133 128 127
138 132 126
138 129 134
151 144 147
140 130 136
148 133 140
159 146 153
174 157 167
166 148 161
159 140 151
162 143 153
169 151 164
158 140 153
169 152 164
160 144 156
163 147 159
165 146 160
154 139 146
151 136 144
154 139 138
146 134 119
111 106 78
99 98 44
98 97 41
108 106 43
105 102 39
107 104 41
108 105 41
106 105 44
108 104 39
113 109 39
113 109 41
112 109 40
111 107 40
115 110 47
111 106 54
108 103 51
109 104 49
103 101 55
101 100 59
104 102 63
105 102 62
123 113 89
142 129 114
129 115 86
122 107 92
138 120 100
114 101 86
113 107 91
143 128 140
152 137 142
155 140 146
146 133 137
141 131 132
139 128 128
132 121 115
140 130 128
122 116 111
117 113 100
110 105 88
103 102 86
111 109 95
99 101 75
106 106 93
159 143 151
175 155 160
159 143 149
181 162 168
174 157 165
178 159 169
172 153 161
179 160 174
172 154 166
165 148 157
179 160 170
180 161 175
173 153 165
174 155 170
174 154 163
177 158 171
177 157 167
179 160 171
169 152 164
172 153 165
149 135 140
105 104 88
86 95 59
80 88 55
81 89 55
77 88 55
82 95 60
80 96 59
76 81 55
74 75 61
74 85 65
77 80 63
75 88 66
78 71 63
82 84 66
77 80 64
83 79 67
69 89 66
76 92 68
88 88 72
75 90 67
77 96 73
74 92 67
70 90 66
81 89 71
72 90 67
80 87 69
78 94 73
68 112 74
80 97 73
81 91 72
75 98 73
81 83 69
79 95 72
80 89 69
119 116 115
162 162 165
159 158 166
157 155 165
157 154 163
148 136 160
131 124 154
106 101 132
110 95 143
92 89 122
97 88 128
94 86 127
92 86 125
97 89 131
94 88 125
91 88 120
85 82 114
85 85 113
87 86 118
100 92 134
82 85 107
92 89 124
88 86 115
90 89 115
87 87 118
86 87 114
87 88 114
83 86 111
86 86 118
86 86 114
87 86 119
97 93 124
92 88 118
86 89 104
83 89 98
100 102 113
87 93 93
82 92 82
86 94 85
68 83 64
74 87 73
79 92 73
68 80 57
65 78 51
63 70 54
69 65 51
114 94 103
130 104 124
154 125 143
152 125 144
160 130 151
154 124 145
160 128 146
164 132 151
158 127 148
163 133 154
159 128 150
163 133 156
160 131 151
157 129 149
159 130 147
121 102 108
90 84 74
67 69 45
91 87 84
121 119 130
130 124 138
119 117 126
16 54 116
17 57 109
17 58 110
16 54 104
17 59 106
16 53 102
18 60 104
16 53 104
15 50 99
16 55 105
15 52 103
54 72 108
116 111 144
135 124 165
147 134 164
144 130 161
153 138 165
166 151 176
161 147 174
170 155 179
160 144 170
74 80 54
75 82 57
78 86 58
75 84 56
72 77 52
71 77 52
78 87 57
73 79 52
81 89 58
71 76 50
73 80 53
72 79 52
67 70 47
68 71 47
67 71 47
63 65 43
62 65 42
64 69 44
65 69 45
62 62 41
66 71 45
111 91 100
135 110 119
127 108 117
133 110 122
130 107 118
136 115 127
134 114 127
135 115 131
140 120 135
128 109 121
139 120 139
153 137 154
132 117 138
139 124 140
147 131 149
144 127 144
126 114 132
135 122 140
124 114 128
99 89 105
80 69 85
53 37 59
40 18 46
41 19 49
40 18 47
41 18 47
41 18 47
42 19 49
41 19 48
44 20 51
40 18 47
40 18 46
41 18 48
42 19 48
39 17 44
40 18 47
41 19 47
41 19 46
39 18 47
41 19 47
42 19 49
43 19 49
39 18 45
42 19 47
39 18 46
40 18 46
39 18 45
39 18 45
38 20 42
45 35 45
53 56 43
70 79 51
71 81 53
72 81 52
70 81 52
80 95 60
86 104 67
89 113 70
93 117 72
96 125 78
100 131 81
107 140 85
100 133 84
105 139 86
108 144 87
106 142 87
109 146 88
106 141 87
102 137 85
105 140 88
109 147 89
108 145 88
106 142 86
106 139 87
109 143 89
105 137 89
107 131 92
113 129 105
114 125 109
119 131 116
134 136 134
139 134 141
146 134 154
155 140 164
150 135 159
137 123 148
94 91 89
83 83 72
88 87 79
86 83 78
86 82 79
85 81 78
87 85 78
89 84 79
85 79 80
87 85 78
85 79 83
87 83 78
85 79 77
91 86 82
81 80 72
86 77 82
83 81 76
87 83 81
89 87 81
89 85 83
94 90 88
119 109 123
129 116 130
119 110 123
120 110 124
146 133 149
165 145 176
182 158 192
181 156 190
167 144 171
160 138 161
144 126 143
96 90 92
57 61 54
51 55 44
45 50 37
63 58 48
66 59 50
66 59 51
66 58 48
65 58 49
64 57 48
62 55 48
70 62 53
69 61 52
70 62 53
67 60 51
69 61 53
63 56 47
64 57 50
63 56 47
67 59 50
67 59 51
68 61 52
62 56 47
63 56 47
66 63 48
63 63 47
67 67 50
65 67 47
67 73 47
65 73 46
115 113 114
123 121 117
103 107 93
68 87 47
74 93 52
71 91 50
73 94 50
72 94 50
74 95 52
73 94 52
73 95 50
72 94 49
77 98 52
76 96 53
73 95 50
72 92 50
74 95 51
74 96 51
71 88 49
76 95 52
77 99 52
71 87 48
75 93 52
82 97 66
147 138 137
147 141 140
142 132 130
151 138 145
156 141 148
160 144 154
167 150 161
170 151 165
163 145 155
168 150 164
162 145 154
163 145 155
164 146 156
170 152 164
167 149 161
177 158 168
166 151 165
156 141 144
151 137 132
145 131 123
125 115 100
118 113 76
100 100 43
98 97 42
108 105 38
110 105 37
115 110 46
111 107 40
110 106 44
116 111 41
116 111 44
116 109 63
118 111 64
117 111 64
116 110 68
109 103 65
114 110 71
122 115 75
120 113 82
120 113 77
123 114 98
126 117 86
134 124 97
106 103 73
118 106 88
133 116 96
97 93 66
87 90 69
82 86 69
77 83 68
77 84 63
75 82 66
74 80 60
77 85 72
82 90 58
82 90 56
82 90 57
79 87 52
82 89 54
83 91 56
84 92 56
80 88 54
82 88 53
101 105 79
147 133 136
177 158 165
173 154 164
174 154 160
175 156 165
171 150 156
173 153 164
174 155 168
175 156 164
174 155 164
168 151 163
177 160 173
172 154 167
180 161 176
182 162 174
174 156 169
178 160 173
186 167 177
175 157 169
171 153 166
177 157 169
143 135 133
90 96 67
80 91 55
80 96 58
81 96 58
75 100 61
79 95 59
75 83 62
77 71 61
70 88 64
73 95 69
73 95 68
67 90 65
73 97 69
75 95 70
73 96 70
78 93 71
65 106 69
77 90 67
71 114 76
63 104 69
67 95 66
73 89 69
72 108 73
74 100 73
74 92 70
79 91 70
69 107 74
79 97 74
76 90 70
77 91 69
73 98 72
76 97 72
129 138 137
147 154 156
144 147 152
143 146 149
137 142 145
130 129 142
117 115 138
112 107 137
103 95 135
102 90 135
93 86 129
98 88 129
89 84 121
88 85 119
94 88 125
95 88 123
94 88 124
93 90 122
94 89 124
91 88 119
87 87 119
90 89 118
84 85 113
89 86 124
82 83 108
81 83 108
82 86 108
83 86 115
83 85 107
83 85 115
89 86 118
96 92 127
86 86 110
81 84 104
88 88 108
77 82 96
69 83 71
57 78 49
62 82 51
64 81 51
58 75 47
61 77 51
61 76 50
57 75 47
68 81 53
60 70 45
92 79 78
132 106 120
134 103 122
152 121 141
144 115 132
156 124 142
145 115 130
149 118 137
150 120 138
149 119 137
164 132 150
158 126 148
154 123 140
160 130 147
150 122 139
129 107 114
85 77 70
94 90 86
134 127 138
126 123 135
132 127 137
130 126 133
17 55 104
17 54 110
15 50 110
15 50 110
16 55 110
16 53 107
14 48 110
16 55 104
15 52 99
15 51 105
16 54 101
20 54 111
80 83 124
148 134 168
145 131 162
137 126 159
149 138 169
164 148 173
162 147 173
174 157 181
140 131 139
77 84 55
75 83 55
75 83 56
73 80 53
81 89 59
76 82 54
74 81 54
76 81 54
79 85 56
78 86 56
72 77 52
75 77 55
72 74 50
76 75 55
85 87 64
83 81 62
84 83 65
98 96 85
101 91 86
118 111 106
118 105 106
113 99 102
118 102 101
115 103 100
113 105 104
117 107 105
98 90 85
98 92 87
95 86 74
102 96 88
83 82 68
83 84 67
68 72 52
74 79 58
74 81 54
70 76 51
70 77 50
71 77 51
73 79 52
64 71 49
64 66 52
43 29 45
38 17 44
40 18 47
41 18 47
41 18 48
40 18 47
40 18 46
41 19 47
40 18 46
40 18 47
40 18 47
42 19 49
42 19 49
38 17 43
41 18 46
39 18 45
43 19 49
38 17 44
41 19 47
39 18 47
40 18 47
42 19 48
41 19 47
42 19 47
41 19 47
39 18 46
39 18 45
39 18 46
36 17 42
35 17 41
59 62 49
76 86 55
77 87 56
78 89 58
72 83 53
82 101 64
84 105 67
98 126 78
99 128 78
99 130 79
101 135 82
105 139 85
102 136 84
104 139 85
104 140 84
106 141 88
106 142 85
108 144 88
106 142 86
107 145 89
106 141 85
108 143 85
112 149 88
107 142 85
105 140 86
101 131 87
101 129 84
99 123 85
109 126 97
113 126 105
115 122 114
132 130 132
125 118 130
148 136 157
140 128 154
139 125 145
117 108 120
106 98 101
110 101 111
99 89 97
114 102 113
116 105 118
113 100 116
121 109 126
122 112 125
121 108 126
132 119 139
126 113 131
135 122 139
139 127 146
136 120 144
130 117 141
140 126 147
144 129 150
140 125 150
144 129 148
134 120 140
132 117 137
98 92 93
75 74 67
95 89 93
136 119 141
168 145 177
177 153 187
182 157 191
170 146 174
162 139 163
162 139 165
142 123 143
88 81 83
57 59 51
61 69 45
54 57 40
55 50 42
60 54 45
67 59 49
59 54 45
62 56 47
62 56 47
60 54 45
67 60 50
60 54 44
66 59 51
63 56 48
64 58 49
68 60 51
61 55 47
64 57 49
62 56 47
61 55 45
63 57 47
60 54 44
62 57 45
67 65 50
63 69 46
64 68 45
65 71 46
72 77 56
118 115 113
134 128 136
128 127 124
105 111 93
68 86 48
68 89 47
72 90 51
75 96 51
71 94 49
70 91 48
75 98 51
75 98 50
70 93 48
72 95 49
70 94 49
74 96 51
69 91 47
70 91 47
73 95 52
75 97 51
75 94 52
76 96 50
74 95 50
73 91 50
88 100 68
123 124 118
145 138 137
144 134 138
142 133 135
155 141 147
164 148 153
157 142 152
154 140 147
152 139 142
141 129 133
147 136 134
141 128 133
138 126 131
137 129 126
127 117 118
120 114 104
118 110 97
119 111 91
103 100 64
102 100 58
102 99 49
107 105 58
128 119 83
130 121 90
123 116 68
124 116 70
118 112 72
127 119 73
118 112 58
120 112 65
123 115 71
123 116 76
122 116 64
124 115 97
116 108 78
118 111 73
117 109 84
118 111 87
133 124 103
124 115 85
128 120 94
127 117 102
130 120 118
118 110 95
107 101 75
93 93 64
89 91 67
82 87 62
84 88 65
80 87 74
80 86 62
82 89 64
84 91 69
81 88 59
84 91 64
80 87 56
82 88 53
80 88 54
82 89 54
80 87 53
83 91 55
82 90 54
83 90 54
81 88 52
112 109 95
163 146 153
181 163 170
182 162 172
175 155 163
174 154 160
171 152 158
170 150 154
176 156 165
172 152 160
168 150 160
185 167 179
177 159 173
181 160 169
181 161 170
180 160 167
171 154 164
173 154 164
172 153 164
176 159 173
175 158 172
175 160 167
136 127 125
88 99 68
78 96 59
81 95 57
78 98 59
72 86 58
71 94 67
75 95 68
70 96 69
71 84 63
68 90 65
71 92 66
73 86 64
64 91 64
78 81 65
71 95 68
69 98 70
64 104 70
69 111 73
70 109 75
73 102 73
72 96 70
70 97 69
81 88 71
72 110 76
74 104 75
66 112 75
73 93 70
68 100 71
78 94 72
82 103 75
75 114 77
78 117 73
75 100 66
74 109 66
76 104 69
90 108 110
96 104 124
90 100 121
102 102 137
106 96 139
97 89 127
95 88 126
95 88 122
86 82 113
95 91 129
91 88 123
84 84 109
90 87 121
84 84 114
82 86 111
71 78 98
87 85 117
79 82 101
79 84 104
86 87 119
85 85 110
78 83 105
78 85 107
82 84 108
81 83 110
88 87 116
79 83 105
83 83 110
90 87 116
84 90 103
81 85 96
70 80 79
62 80 54
58 78 50
54 76 48
59 76 48
56 74 45
60 76 48
61 74 48
59 72 46
59 69 46
63 71 46
79 72 66
114 91 99
130 101 116
146 114 130
129 101 116
147 115 130
144 114 131
151 120 136
149 116 128
158 126 143
158 123 140
149 120 133
148 118 132
135 110 121
112 95 99
126 115 125
139 131 144
124 115 130
128 120 137
132 125 141
133 128 140
15 51 116
15 50 110
17 53 109
15 52 112
15 51 106
15 52 106
14 46 107
14 49 104
16 54 104
15 49 104
15 52 105
26 56 101
98 98 135
138 126 158
124 113 151
147 136 163
152 139 167
156 144 166
157 145 160
158 145 160
131 127 130
134 128 128
131 122 131
132 126 132
136 128 139
119 110 114
146 131 140
137 124 133
160 146 159
147 133 141
154 137 156
158 142 156
152 135 151
164 147 164
155 130 146
169 150 168
161 141 156
161 143 159
169 149 165
155 132 148
156 134 150
163 144 160
90 89 70
73 80 51
76 82 53
71 75 48
74 78 50
71 78 51
75 81 53
75 82 54
74 81 53
80 88 57
76 84 56
77 84 55
71 78 51
75 83 55
76 83 55
72 78 51
73 82 56
82 91 59
72 80 54
65 67 53
43 28 47
40 18 47
39 18 46
41 19 48
38 17 45
40 18 46
40 18 47
41 18 46
39 18 46
39 18 46
42 19 48
44 20 50
40 18 44
40 18 45
39 17 46
40 18 45
39 18 45
40 18 46
40 18 46
41 19 47
37 17 43
39 18 45
41 19 46
39 18 44
36 17 42
36 17 42
38 17 44
38 17 43
39 18 44
40 25 44
61 65 52
77 87 57
80 90 58
79 91 59
77 92 58
88 108 68
94 120 74
100 130 80
99 129 78
105 139 85
100 134 82
103 138 84
105 140 86
106 141 86
106 142 86
109 145 88
104 139 84
108 144 86
110 147 87
104 139 84
102 136 83
107 143 84
103 138 86
104 139 87
103 135 83
104 131 87
104 131 89
101 128 88
99 117 88
102 119 91
100 118 88
98 109 87
95 102 89
89 89 80
88 86 82
87 84 77
87 81 82
129 113 134
155 139 160
136 120 141
137 122 147
133 118 145
144 129 156
143 128 152
137 120 145
151 135 158
139 124 144
132 116 144
145 129 152
146 132 153
145 130 150
131 118 142
141 125 147
138 121 140
133 120 140
128 113 135
134 118 141
138 124 145
129 118 135
107 97 106
132 115 137
165 142 173
170 146 179
177 152 186
185 160 193
170 146 177
161 137 162
164 140 165
158 135 157
143 124 143
104 94 99
60 68 42
52 61 37
59 56 43
56 50 43
56 51 43
61 55 46
59 53 46
61 56 47
54 49 40
57 51 42
61 55 46
65 58 49
60 55 46
66 58 48
65 58 48
59 54 44
61 55 45
61 55 46
61 55 44
62 56 47
57 51 41
59 54 45
56 57 40
63 67 47
61 69 45
64 73 48
103 104 96
125 125 118
132 129 129
119 121 112
123 127 119
92 105 84
72 92 49
75 97 52
73 95 53
78 96 62
70 93 50
78 99 60
95 108 83
87 103 70
92 107 78
89 106 74
87 106 74
100 110 88
104 114 86
101 111 91
106 115 94
109 115 100
114 118 103
121 121 106
117 120 106
133 130 123
127 123 119
109 111 97
73 90 49
77 90 52
75 86 51
79 89 55
80 88 54
79 87 55
79 86 53
81 88 55
77 84 53
84 92 57
83 90 56
80 87 54
83 90 56
90 97 55
92 94 48
97 98 46
95 95 43
92 91 38
104 102 43
103 101 37
111 106 48
121 114 61
124 115 51
120 112 62
122 114 66
117 110 56
119 113 59
114 107 59
116 109 65
112 106 63
106 101 64
114 108 67
115 108 71
115 108 69
120 113 70
119 111 80
116 108 85
120 113 81
118 110 83
136 125 104
137 125 99
129 119 102
126 118 108
100 99 71
94 95 75
79 82 84
80 84 71
80 86 75
79 85 76
81 88 70
83 89 70
78 84 61
82 89 62
78 85 53
78 84 55
84 92 59
84 90 56
82 89 55
83 90 54
83 91 56
80 86 52
82 90 55
82 89 54
84 90 55
116 110 101
170 151 156
171 152 162
185 165 174
177 158 165
173 153 159
177 158 168
179 159 166
166 145 156
174 156 167
178 159 169
169 150 163
168 152 163
171 153 159
158 140 148
166 150 160
151 134 139
152 138 144
149 136 141
151 139 136
139 131 129
137 132 126
96 107 83
131 134 126
130 139 131
133 141 134
82 101 79
73 80 62
81 89 70
66 90 65
68 96 66
71 95 68
65 94 67
73 92 67
72 97 70
63 94 64
57 103 67
66 99 69
58 102 69
69 98 68
65 121 79
66 97 68
72 94 70
70 101 71
74 101 74
71 100 72
75 104 75
75 100 72
74 107 73
68 96 69
74 103 67
71 121 71
70 113 69
71 109 67
74 105 64
80 100 67
88 99 103
100 102 128
99 93 131
92 94 125
96 101 131
90 87 126
86 86 115
83 83 112
92 85 121
90 86 118
83 82 109
88 85 120
81 82 111
82 84 109
80 81 107
81 83 110
66 78 90
83 85 109
83 84 108
78 84 103
84 84 111
78 80 105
88 86 114
79 84 104
73 79 95
86 86 115
85 85 109
77 81 100
95 89 124
87 87 111
87 90 105
74 81 89
67 82 65
66 82 53
61 79 49
60 78 49
61 75 48
54 72 45
58 70 44
61 74 46
58 66 42
60 68 43
53 60 38
58 57 44
84 69 69
107 81 90
129 97 108
132 97 112
145 111 124
144 110 122
145 112 125
133 101 114
140 109 125
130 98 109
123 101 111
118 105 114
132 124 131
136 124 134
124 118 125
136 126 137
129 123 128
124 116 122
115 112 120
19 48 113
18 48 105
19 50 107
19 48 108
15 49 110
17 53 108
13 45 109
15 48 107
15 49 105
16 54 105
15 50 105
16 54 102
42 64 97
61 70 86
66 76 84
71 81 81
68 77 79
79 90 73
80 89 60
83 90 63
158 146 163
162 147 169
175 157 177
173 155 176
168 151 175
168 151 173
168 150 171
169 152 174
175 155 174
172 154 177
175 155 176
170 152 173
167 144 162
173 152 171
172 149 168
177 159 177
165 144 160
168 148 166
165 145 161
167 146 164
156 134 151
171 153 171
85 88 62
78 85 56
82 91 58
71 76 50
78 86 56
80 88 57
77 84 54
77 86 56
74 81 54
73 79 53
77 86 56
79 88 57
79 88 58
74 82 55
80 89 58
78 87 58
76 85 57
78 87 57
75 83 56
58 59 48
39 23 45
36 17 44
37 17 43
38 17 45
40 18 47
39 17 44
38 17 45
41 18 47
38 17 44
38 17 44
43 19 48
38 17 44
41 18 47
41 19 47
39 18 45
36 17 41
37 17 43
40 18 46
41 19 47
38 17 44
37 17 42
35 16 42
35 17 41
37 17 43
40 18 46
37 17 43
36 17 43
36 17 43
38 17 43
40 27 43
94 89 96
139 133 142
148 140 150
148 141 149
141 141 140
117 126 112
122 142 111
110 133 99
102 132 86
106 140 86
105 141 85
108 143 85
110 146 87
105 140 84
103 138 83
100 132 82
108 145 87
107 142 85
105 140 85
104 138 83
105 140 85
107 143 86
109 145 86
103 137 84
105 140 86
104 132 86
104 128 89
104 132 88
100 115 89
97 112 87
92 113 85
96 111 86
92 100 80
91 92 81
86 85 80
86 83 77
84 79 80
100 90 99
135 119 143
136 120 142
139 123 146
138 120 145
139 123 147
138 119 142
137 122 146
127 110 136
128 113 137
137 120 143
141 124 147
134 118 145
138 122 145
132 116 140
124 108 131
136 121 144
138 123 146
136 120 142
137 123 142
141 125 142
143 127 148
143 124 152
157 134 166
162 139 170
170 147 180
178 154 187
181 157 192
174 150 180
159 136 160
154 132 153
165 141 166
156 133 155
149 129 145
115 104 111
68 74 53
62 67 42
54 50 40
57 51 43
59 54 44
57 52 41
59 54 44
63 57 47
58 53 44
61 55 48
60 54 45
57 51 44
58 52 43
63 56 45
57 52 42
62 55 47
61 55 45
58 52 43
54 49 40
62 55 45
61 60 45
59 61 44
60 67 42
55 65 40
63 75 48
86 98 75
94 102 90
89 99 76
89 101 72
78 95 59
81 99 64
90 107 70
114 117 112
118 120 113
119 125 107
122 128 109
117 125 105
103 115 96
118 123 114
115 123 103
119 123 113
115 123 107
117 123 104
125 128 113
113 120 104
124 128 117
127 129 121
134 131 124
141 136 134
135 133 130
126 126 113
131 131 126
148 139 135
106 110 92
82 97 60
77 90 53
79 90 52
79 88 53
82 90 54
80 88 55
78 86 52
79 87 54
85 93 56
82 89 54
83 90 54
79 85 51
87 91 52
90 91 44
98 99 47
97 97 44
106 104 42
102 99 39
107 104 37
108 105 36
108 104 33
114 108 49
121 114 48
114 109 44
113 107 50
112 106 50
113 107 55
111 105 59
115 109 66
109 103 76
108 104 61
109 105 70
112 107 67
117 110 70
114 108 68
116 110 73
112 105 71
126 117 91
118 110 98
124 114 101
126 116 106
135 124 114
132 121 115
109 104 92
91 92 70
84 88 70
81 88 76
81 87 74
81 87 69
78 85 70
80 87 65
82 89 67
82 88 65
81 89 59
85 92 61
85 91 62
89 95 63
102 103 79
100 100 82
112 111 93
128 121 106
122 118 108
128 121 110
132 125 117
150 138 136
162 145 150
130 123 113
133 126 118
116 112 100
107 105 88
108 107 92
99 100 77
99 100 76
93 97 71
89 94 64
81 88 55
84 92 59
79 86 53
85 93 56
84 92 57
81 88 54
78 85 53
78 88 55
78 97 59
76 91 56
77 99 60
98 118 93
118 136 123
143 149 146
134 134 135
68 95 68
70 96 67
65 93 66
68 98 67
67 92 65
67 96 66
65 105 72
57 100 65
67 97 67
61 105 68
59 103 68
59 95 63
59 108 70
60 105 68
62 110 72
66 114 75
68 101 70
72 103 71
70 100 71
64 106 72
70 111 76
76 94 72
63 106 69
69 120 71
73 104 64
70 115 70
73 112 69
73 107 66
78 102 76
85 100 97
88 96 117
96 104 131
101 101 132
89 88 116
85 87 118
85 82 112
88 86 117
89 85 117
81 81 109
80 81 105
89 84 115
75 78 101
73 78 97
79 82 103
81 83 109
79 82 107
81 84 113
79 82 104
82 83 106
76 84 100
81 85 107
75 82 100
73 81 95
78 83 102
73 82 93
78 84 102
78 84 104
66 75 90
81 83 104
99 97 117
101 99 113
101 104 112
99 101 101
65 80 65
54 73 45
63 78 55
72 84 64
72 82 62
75 80 64
80 79 70
102 92 87
96 90 87
105 93 93
88 77 72
85 70 73
98 80 81
100 78 85
103 78 85
113 84 95
107 79 89
121 99 106
111 93 97
134 115 122
128 113 120
108 100 98
66 71 52
64 71 45
61 71 44
73 81 50
70 79 50
67 76 47
77 87 55
19 39 111
17 41 110
19 44 112
15 44 113
18 54 106
16 50 103
16 47 108
15 45 104
15 47 101
15 51 108
15 52 102
15 49 101
44 62 97
64 74 86
61 70 90
65 74 89
73 82 80
72 80 72
79 89 61
87 93 68
171 153 171
172 154 176
169 152 176
172 155 178
161 145 168
171 150 173
174 155 177
173 156 179
171 150 172
173 154 176
173 157 181
178 160 181
169 150 172
176 157 176
169 152 171
173 154 173
164 145 165
175 157 176
168 150 172
178 160 178
162 145 167
173 156 175
87 90 68
80 88 57
81 90 59
80 88 57
78 86 57
77 84 56
81 89 57
78 87 57
81 89 58
84 93 61
84 93 61
78 86 56
83 92 60
82 91 59
82 91 59
82 91 60
81 91 60
76 84 57
81 90 58
61 61 51
40 18 46
39 18 45
40 18 46
39 17 44
40 18 46
42 19 48
39 18 44
38 17 43
40 18 47
39 18 45
41 19 47
41 18 45
39 18 46
38 17 43
39 18 44
38 17 43
39 18 44
37 17 43
39 18 44
38 17 44
39 18 45
37 17 42
39 18 46
35 16 41
34 16 39
36 17 41
39 18 45
37 17 43
35 16 41
38 21 43
114 102 121
178 164 187
172 159 185
172 161 180
152 149 156
127 140 123
129 146 121
108 140 93
104 138 83
105 139 84
101 136 81
99 133 78
100 133 82
104 139 84
108 144 84
98 131 81
106 141 86
110 146 86
106 140 86
101 135 81
105 140 84
107 143 84
102 136 82
105 139 84
102 133 83
102 131 85
100 122 86
104 126 91
101 120 88
97 115 84
97 115 86
95 103 87
97 107 89
93 94 85
87 85 81
84 82 77
87 81 82
90 84 83
112 100 119
139 122 147
141 125 145
137 121 147
137 119 141
129 112 138
140 124 145
131 114 139
130 115 138
131 115 138
135 120 139
136 120 148
124 109 132
146 130 153
129 113 135
135 120 139
129 114 139
141 126 147
122 107 128
128 113 134
156 136 163
153 130 161
162 139 171
158 135 166
170 147 180
176 152 185
181 157 192
179 154 185
165 142 167
162 139 165
158 135 157
162 139 163
165 142 163
147 128 143
116 105 111
111 104 102
92 87 88
50 46 38
52 48 38
53 49 40
54 50 40
54 50 40
53 48 39
55 49 41
53 48 39
57 51 44
60 54 45
57 52 43
59 53 45
56 50 41
56 50 41
57 52 42
59 53 44
53 49 39
57 53 41
60 61 43
63 69 45
63 75 44
63 79 45
68 86 46
70 90 48
64 84 44
71 92 49
74 93 49
70 92 48
68 90 45
87 104 71
107 115 105
118 123 110
127 129 120
125 127 119
113 122 105
114 121 109
106 115 101
118 125 105
108 116 102
117 121 106
118 124 108
124 128 118
120 124 112
128 128 122
114 118 106
129 129 120
122 122 111
132 130 125
131 131 125
141 135 135
147 139 142
122 120 112
89 98 71
77 89 53
82 91 55
77 84 52
86 94 59
80 88 53
85 94 58
80 88 54
77 84 53
83 91 56
82 89 54
88 93 48
95 96 45
100 99 44
94 95 39
102 100 39
111 107 38
113 108 37
106 102 34
113 108 34
106 103 38
110 104 43
117 111 51
110 104 53
113 108 47
115 108 49
112 107 53
113 108 52
108 103 62
106 102 62
108 103 66
108 102 65
114 109 65
109 104 72
108 102 89
108 102 80
113 108 84
116 108 82
114 106 95
123 114 88
123 114 106
125 117 98
110 104 97
120 114 102
111 105 103
129 120 131
146 133 138
141 129 136
155 142 151
165 149 155
154 139 146
162 146 153
174 157 166
169 151 160
170 151 158
169 152 157
174 156 162
182 162 171
178 159 165
174 156 164
181 162 171
179 160 171
173 154 166
175 158 167
182 162 169
167 150 153
103 102 83
83 91 55
83 91 53
84 90 54
79 86 51
82 90 56
85 93 57
83 91 55
79 86 51
81 88 54
81 88 53
78 85 52
81 89 55
77 84 52
79 86 53
78 87 53
72 88 55
72 96 58
74 99 61
73 107 65
70 103 63
89 124 84
130 142 128
119 126 118
66 100 69
68 96 66
73 88 65
62 103 69
64 100 66
65 104 70
65 108 71
60 110 70
60 111 72
56 105 69
64 104 70
68 112 73
65 110 71
60 114 72
65 106 71
63 116 77
70 112 75
68 92 66
60 105 70
63 110 74
74 101 77
65 116 69
73 115 70
71 118 71
68 111 67
73 117 71
70 121 72
74 108 74
90 99 110
96 108 132
90 100 123
96 95 126
91 102 122
92 92 126
82 83 108
78 79 105
74 78 99
77 80 101
78 84 104
73 81 96
82 85 109
77 81 100
80 84 107
76 81 98
79 82 106
63 75 86
75 81 97
74 80 98
72 80 95
70 79 90
85 89 111
68 79 91
78 83 102
66 77 86
75 82 94
85 85 109
71 80 93
78 83 103
76 80 100
81 86 96
65 80 65
56 77 50
62 82 56
80 90 76
113 111 116
122 118 128
132 121 126
126 117 128
133 118 127
143 125 138
157 135 148
143 122 136
140 118 129
141 116 128
133 110 116
123 98 108
114 89 95
128 104 109
130 105 113
136 112 114
141 119 126
156 134 141
134 114 121
143 123 132
137 123 132
131 119 120
96 95 81
73 80 49
74 82 51
73 82 51
73 81 52
18 41 106
17 46 113
19 47 111
19 47 108
19 49 107
19 41 107
20 38 104
17 46 101
16 48 105
16 50 107
14 46 103
21 50 102
37 54 97
57 66 88
66 74 84
64 73 80
64 72 88
73 83 79
81 90 63
114 113 111
175 157 180
177 160 182
174 157 179
175 160 182
167 150 170
169 152 178
180 164 186
170 153 177
178 162 184
175 157 179
170 151 172
176 157 179
179 161 184
174 155 177
170 152 172
179 163 183
178 161 182
165 150 171
177 159 179
173 158 183
174 158 179
175 160 178
94 101 75
90 95 70
95 100 80
94 97 81
100 103 85
113 113 102
106 108 97
125 122 118
135 129 135
123 120 120
136 130 137
133 127 131
140 132 137
141 133 144
155 144 156
151 140 150
153 143 159
162 150 167
169 154 178
122 109 130
43 24 49
38 17 43
39 17 45
38 17 44
40 18 47
37 17 43
43 19 48
43 19 49
40 18 45
40 18 46
36 16 42
39 18 46
41 19 45
38 17 43
37 17 44
39 18 45
38 17 43
39 18 44
38 17 44
38 17 44
39 18 44
37 17 42
36 17 42
34 16 39
36 17 41
38 18 44
33 16 39
36 16 41
37 17 43
34 16 40
97 86 103
165 150 174
173 160 186
166 157 174
138 146 139
130 143 121
108 135 93
101 136 82
102 137 81
100 132 80
104 139 82
100 134 81
106 142 85
106 141 82
106 142 85
108 145 87
104 139 81
101 136 80
103 138 84
101 136 81
104 139 82
100 134 79
104 139 83
103 138 83
101 130 83
100 123 85
102 127 85
98 119 84
99 115 89
99 116 85
97 106 89
93 107 84
94 106 85
98 105 89
89 87 83
88 82 82
87 78 83
89 81 82
94 83 90
129 112 136
134 118 143
138 122 144
122 107 127
128 112 137
131 115 135
131 114 139
130 115 137
132 118 137
132 118 139
123 107 129
131 118 134
118 107 123
106 96 109
119 106 124
111 101 111
112 100 111
124 110 126
130 111 136
142 119 150
154 130 162
157 134 165
149 126 156
172 148 181
179 154 187
183 158 192
174 150 181
164 141 166
169 145 171
163 140 164
162 138 162
164 140 164
158 135 155
159 137 158
147 131 149
128 118 128
81 75 77
44 42 32
54 49 40
52 48 39
51 47 38
51 48 36
57 53 43
51 47 38
52 48 39
56 51 42
55 50 41
56 51 41
50 46 38
55 50 41
57 52 43
60 53 44
53 49 40
59 57 44
57 63 41
60 67 43
60 74 41
69 86 47
67 87 46
68 87 47
67 86 46
68 90 46
67 89 47
72 93 49
68 91 47
65 87 44
84 102 71
107 120 99
119 123 109
107 118 94
110 122 101
107 116 101
108 119 98
110 119 102
114 122 105
111 121 101
128 130 114
112 119 100
112 121 103
113 121 102
125 130 119
117 122 110
129 130 117
125 127 121
119 123 110
141 137 135
134 129 129
150 139 141
128 123 120
94 99 72
78 89 54
81 89 55
83 91 56
81 89 55
83 90 54
82 89 55
83 91 56
82 90 56
85 92 55
87 92 49
95 96 44
103 102 44
106 102 40
112 108 54
108 104 35
98 96 33
113 107 32
108 103 32
106 102 32
112 106 44
104 99 51
110 105 44
109 104 51
118 112 54
105 99 65
114 108 62
115 109 61
111 106 59
111 105 61
108 104 67
106 101 70
107 101 68
105 101 79
109 104 80
108 103 72
98 94 85
103 99 76
107 104 69
102 99 78
98 96 76
91 90 80
96 97 76
85 88 82
128 118 127
173 155 166
162 145 162
159 141 151
152 135 145
173 155 166
180 162 169
167 148 160
179 159 169
181 162 170
175 157 167
182 163 167
166 149 158
171 150 157
182 162 167
180 160 170
174 155 163
176 156 164
179 158 165
175 157 165
172 153 162
175 157 165
149 138 140
88 93 61
80 88 53
82 90 55
81 88 53
82 89 54
81 88 54
84 93 56
82 90 55
83 91 56
77 84 52
78 85 52
84 92 57
76 84 51
74 85 50
75 92 56
69 97 59
75 94 57
72 102 61
70 103 61
60 105 63
66 107 63
99 121 98
106 129 109
69 93 68
62 93 62
64 108 71
59 109 70
56 109 67
64 88 61
61 102 69
55 105 68
61 113 73
64 105 70
62 112 73
52 108 69
64 108 71
58 107 71
65 105 72
57 113 72
71 117 79
59 105 70
96 132 108
126 145 140
118 147 128
85 118 89
66 118 72
77 124 81
84 116 82
75 118 78
89 119 93
90 112 115
100 101 136
92 100 126
83 99 114
74 92 101
80 89 108
79 81 99
83 83 108
74 77 97
75 78 99
78 78 99
82 84 107
79 82 104
76 81 98
81 83 104
70 79 97
76 82 98
65 79 88
75 80 97
79 85 100
67 77 92
72 80 96
73 80 100
74 82 98
68 78 88
71 79 91
81 84 107
78 78 99
73 77 97
78 83 101
77 82 99
67 78 79
61 80 62
55 78 48
54 75 46
60 79 49
61 76 53
62 81 59
115 111 115
136 126 138
147 133 149
151 135 151
173 155 170
166 146 161
163 143 155
159 137 151
157 136 151
148 128 138
162 137 148
158 133 142
167 144 153
166 144 155
160 139 151
155 133 144
169 149 161
158 138 150
154 135 144
162 146 157
170 152 168
153 139 154
123 117 114
94 98 80
81 90 57
25 40 106
26 40 107
23 39 108
20 40 111
21 42 109
20 40 108
23 42 105
19 44 108
15 40 105
15 42 105
12 39 104
16 41 101
33 52 100
53 63 94
62 71 90
62 69 80
67 76 75
77 86 71
84 95 68
141 133 140
179 162 182
182 166 186
178 163 186
166 151 175
178 164 186
164 152 175
159 147 164
168 153 172
149 138 149
165 152 166
151 143 155
143 137 147
153 143 154
143 134 140
129 124 128
125 120 119
117 113 103
109 110 101
108 107 95
99 104 85
98 102 87
98 99 87
169 153 173
181 166 189
175 158 182
171 155 176
169 152 174
178 162 187
170 153 175
179 162 185
166 150 174
171 156 181
173 158 178
175 160 184
182 165 187
176 160 182
175 160 182
178 163 186
169 155 178
176 162 186
170 156 180
126 114 132
50 33 55
38 17 45
38 17 45
38 17 44
37 16 42
39 17 45
38 17 43
39 18 44
40 18 46
38 17 45
39 18 44
38 17 43
40 18 44
37 17 41
37 17 43
38 17 42
38 17 42
37 17 42
39 18 45
37 17 42
36 17 42
39 18 44
36 17 42
36 17 42
38 18 44
38 17 45
34 16 40
37 17 43
34 16 40
37 17 44
105 94 114
176 161 183
173 160 184
168 159 175
140 145 139
118 141 106
108 140 89
98 131 80
99 131 79
98 130 78
102 135 80
104 139 81
102 136 82
108 144 85
105 142 84
100 133 81
101 136 79
104 139 82
105 140 82
101 135 81
104 139 83
101 135 79
100 134 79
106 142 85
105 135 84
103 130 83
102 128 86
98 112 86
97 113 86
96 109 84
92 100 84
100 115 87
95 105 89
91 97 85
98 91 96
110 99 113
118 103 116
116 103 118
110 94 110
117 104 122
101 89 99
109 98 108
96 84 94
98 88 95
101 88 99
86 77 81
86 77 82
87 78 84
86 77 83
87 75 86
90 79 85
85 79 79
84 77 77
85 77 83
84 76 79
91 79 89
122 105 125
147 124 154
151 129 160
151 129 159
160 137 167
163 140 172
171 147 179
173 149 182
182 157 191
177 153 186
169 146 171
164 140 163
164 141 165
176 151 174
164 140 161
164 140 163
168 144 166
157 135 157
138 123 139
136 125 140
106 97 106
43 41 31
41 39 29
49 45 36
41 38 30
50 46 37
49 45 36
49 45 35
51 47 37
45 43 32
51 46 37
51 47 37
54 48 39
62 55 47
58 52 43
58 54 43
52 53 38
60 70 45
58 74 39
66 84 44
69 87 48
67 86 46
66 88 45
75 95 49
68 90 46
69 92 47
69 95 47
68 92 47
71 99 47
74 98 50
80 101 67
109 121 97
100 111 94
107 116 94
116 124 103
108 118 99
100 113 90
109 118 101
114 120 100
110 117 102
97 112 84
109 119 101
103 113 92
111 119 105
114 118 100
111 118 98
133 131 124
127 128 116
127 126 118
112 117 101
124 123 112
137 133 131
128 122 117
101 102 82
140 129 124
131 125 120
143 132 129
144 134 136
145 134 137
150 137 139
155 141 145
168 152 159
149 137 130
141 129 112
117 109 82
125 115 86
116 109 69
113 106 47
104 100 30
111 105 32
109 104 31
107 102 37
111 106 44
106 101 57
108 103 53
109 104 57
105 100 67
108 103 74
110 104 63
105 101 70
107 102 72
112 107 60
103 98 77
107 102 69
106 101 71
101 98 81
106 102 75
105 100 75
107 102 64
110 105 76
105 100 76
100 97 71
100 98 84
101 100 76
90 90 83
90 93 82
82 87 79
110 108 107
153 138 149
164 146 158
170 152 164
156 138 154
176 157 167
170 152 161
169 151 160
176 156 163
170 151 159
174 154 161
172 154 165
173 153 158
174 156 162
180 161 170
182 163 170
180 161 171
177 157 166
186 167 177
178 158 170
184 166 176
175 157 168
177 160 166
126 120 109
86 93 61
84 91 54
83 90 54
78 85 52
80 87 53
79 86 53
78 85 52
80 88 55
75 81 50
75 82 52
79 86 53
73 92 55
76 90 56
69 89 54
65 93 57
65 96 59
65 95 57
68 112 65
63 113 69
59 107 64
55 111 64
72 111 77
62 107 69
52 121 75
59 110 72
58 95 63
53 112 70
65 95 66
55 114 70
55 108 68
59 115 73
57 96 64
53 115 71
55 111 70
63 104 70
65 103 67
60 110 71
61 113 72
61 115 72
75 127 89
81 128 89
71 122 79
69 117 73
84 131 90
103 132 112
140 151 153
132 149 146
139 149 151
108 129 136
93 111 128
98 100 129
93 105 125
84 92 113
79 85 104
88 93 121
86 82 112
70 77 92
65 72 89
71 76 93
78 79 106
67 78 88
67 74 90
71 78 97
74 79 98
62 75 81
64 75 84
75 80 99
78 83 105
69 80 90
71 82 94
75 81 98
78 83 102
72 81 92
71 81 92
70 79 91
59 75 76
83 85 108
71 79 90
82 84 106
78 81 96
59 79 62
56 77 49
60 81 49
61 80 50
54 74 45
61 77 49
64 80 52
83 92 72
116 111 111
156 142 154
171 153 174
172 156 176
171 152 169
166 148 166
170 150 168
177 157 175
159 141 154
171 152 170
171 151 168
162 142 159
168 149 163
178 159 173
180 159 173
176 159 175
161 145 157
169 151 167
167 151 166
166 151 167
174 158 176
167 151 164
141 131 139
22 37 110
22 36 106
23 39 104
22 38 111
22 38 113
22 34 106
23 42 103
19 40 103
18 43 108
16 35 107
17 50 105
12 42 99
51 63 107
106 103 129
101 97 130
90 88 125
121 114 146
146 135 149
150 139 155
131 127 124
95 102 76
97 104 78
96 104 79
91 98 75
88 96 69
85 94 61
82 92 62
83 92 61
82 92 61
85 96 63
86 97 63
84 95 62
83 93 61
83 93 60
82 92 61
84 93 62
80 89 59
83 94 61
84 93 60
86 96 63
83 93 62
115 115 105
174 158 180
168 155 182
184 167 190
180 163 186
179 165 188
185 171 195
183 169 193
181 166 187
177 162 186
170 154 178
172 156 178
177 162 187
178 163 185
178 163 184
187 172 194
178 164 188
179 163 186
178 162 185
178 163 186
125 112 131
40 22 46
37 17 42
33 15 40
40 18 47
37 17 43
40 18 46
40 18 47
38 17 44
38 17 43
38 17 43
40 18 46
40 18 47
37 17 43
38 17 43
37 17 43
38 17 43
39 18 44
37 17 43
39 18 44
34 16 40
36 16 42
34 16 40
37 17 43
35 16 40
36 16 42
36 17 41
37 17 44
34 16 40
34 16 40
36 17 42
109 97 113
171 156 178
174 161 183
159 156 164
126 140 119
105 133 89
105 136 87
98 130 78
102 136 81
101 135 79
101 135 81
101 136 81
103 137 81
100 133 79
100 133 78
101 134 78
102 136 80
100 134 79
93 125 77
104 139 82
107 142 82
96 129 76
101 135 80
103 137 81
100 131 82
99 122 84
95 115 81
97 116 85
90 105 81
95 113 85
99 108 89
96 106 89
99 105 91
95 100 90
111 110 110
126 110 132
139 122 144
131 113 134
126 110 135
139 122 145
96 87 93
85 74 84
85 78 80
90 75 89
92 82 85
91 80 88
92 78 88
90 80 85
86 78 82
90 81 86
86 78 82
87 78 80
84 75 80
85 80 78
99 87 96
129 111 133
133 111 137
146 123 152
139 118 147
155 132 161
154 131 162
158 134 164
164 140 173
177 153 186
184 159 192
180 156 189
168 144 173
166 142 166
166 142 167
166 142 166
167 142 164
163 140 160
162 138 159
168 145 167
164 142 166
146 130 147
149 136 151
115 106 112
70 65 64
46 43 33
38 36 27
47 44 34
47 43 34
43 41 30
46 43 32
44 41 33
48 44 35
43 40 32
49 45 36
47 43 36
54 49 40
52 48 39
58 61 43
62 77 42
61 77 41
61 80 42
65 87 44
61 82 42
68 89 45
65 88 42
72 93 52
72 91 53
76 99 53
75 97 58
74 97 53
72 96 49
78 98 63
88 104 69
97 111 89
87 102 74
94 109 76
88 109 74
81 102 68
87 109 69
92 109 75
80 98 64
82 102 64
82 101 62
72 96 51
80 100 62
77 97 57
82 101 63
78 100 57
72 93 52
70 92 51
75 94 51
75 89 51
78 93 53
82 93 54
91 97 66
141 130 126
170 152 163
176 159 172
172 155 161
180 164 174
179 162 173
177 159 169
169 151 158
164 148 148
138 128 108
120 113 84
111 106 63
112 107 44
106 102 39
106 101 30
103 99 32
104 101 34
117 110 38
108 102 56
110 104 60
97 94 54
111 105 54
106 101 58
104 99 61
102 99 66
104 99 66
106 101 67
105 100 77
105 99 88
106 101 75
101 98 76
106 101 72
102 97 84
105 100 78
108 102 83
104 99 85
102 98 70
103 98 81
96 93 78
91 91 74
97 96 73
86 88 84
83 90 75
85 90 80
92 95 90
130 120 126
161 144 157
173 154 168
164 147 163
168 150 166
170 153 164
166 149 162
164 147 157
176 158 167
169 152 159
177 157 165
180 160 168
174 154 160
180 160 166
185 165 174
177 157 165
175 156 165
179 160 170
177 158 168
178 159 169
169 151 162
175 157 168
157 142 146
112 109 91
81 87 54
92 94 73
104 105 82
83 89 62
93 93 72
111 107 97
99 100 84
110 108 95
114 109 100
105 105 94
96 104 87
104 123 107
95 120 99
104 123 115
107 139 118
102 134 113
103 130 108
117 140 125
100 136 107
101 137 108
87 116 94
75 116 86
59 99 64
60 100 66
56 103 67
56 109 69
50 103 64
59 110 73
50 123 74
57 122 76
53 112 70
59 109 71
50 110 69
49 113 68
56 118 72
53 113 67
62 126 74
58 119 71
63 117 69
56 114 67
62 111 66
64 111 67
64 115 69
91 133 100
120 138 130
129 143 144
117 131 143
91 114 127
77 107 110
92 98 120
83 91 112
85 97 116
70 82 94
75 80 102
64 73 85
74 78 100
67 78 89
63 74 83
77 82 103
67 79 85
70 80 91
66 75 89
69 78 91
70 79 89
67 78 89
60 76 79
65 78 82
65 75 88
65 77 87
67 78 87
67 79 85
65 78 85
66 77 86
69 75 93
68 77 87
72 76 94
67 80 86
69 77 87
64 83 67
50 76 46
57 78 49
55 77 48
66 82 51
63 82 51
68 86 54
68 81 51
74 86 56
85 93 67
118 116 110
167 153 171
174 157 177
172 156 179
175 157 179
177 160 178
162 146 165
164 148 172
165 149 167
179 162 179
172 155 171
176 159 177
176 159 178
179 161 179
173 156 174
174 159 174
171 154 171
168 154 170
166 153 169
162 149 166
146 136 148
24 27 110
26 33 105
26 30 111
22 34 114
23 34 104
19 30 109
23 37 100
23 34 103
19 36 104
19 40 102
18 41 104
35 53 103
79 80 124
126 117 152
144 133 163
130 118 149
141 129 159
163 151 179
167 153 179
90 98 76
85 96 63
85 95 63
82 92 61
82 92 61
83 92 61
84 94 61
83 93 62
81 90 60
85 95 63
86 96 62
84 94 63
82 92 61
86 95 62
86 96 63
87 98 64
83 92 60
83 93 62
85 95 62
83 93 61
83 92 61
85 96 63
110 111 99
182 168 191
178 163 187
185 168 190
176 158 182
185 169 191
172 158 182
182 166 187
181 165 186
174 159 183
175 160 185
177 163 190
173 159 184
176 161 185
180 166 189
176 161 183
181 167 189
180 163 187
184 169 193
177 163 186
119 108 128
40 18 47
40 18 47
38 17 45
38 17 45
39 17 45
38 17 44
38 17 45
38 17 44
36 17 43
37 17 43
35 16 41
36 16 42
39 18 45
37 17 42
38 17 44
37 17 42
36 17 42
36 17 41
39 18 45
37 17 43
37 17 42
37 17 42
34 16 39
37 17 43
36 17 42
35 16 40
38 18 44
34 16 40
33 15 38
35 16 39
64 60 62
107 109 94
106 110 96
93 108 79
101 125 83
94 125 75
100 134 80
99 132 79
101 134 79
104 140 84
99 133 79
102 136 82
97 132 78
101 135 80
101 135 79
97 129 77
99 132 79
105 141 82
104 139 81
98 132 78
104 138 82
96 129 76
101 136 80
100 133 79
100 128 83
101 128 85
95 111 84
96 113 85
97 109 85
93 105 83
98 104 91
92 97 85
92 95 89
93 101 86
101 104 94
126 113 127
123 107 128
126 108 133
136 119 143
140 124 148
106 94 108
89 79 86
86 78 81
85 78 81
89 78 82
86 75 85
84 77 80
86 77 81
89 79 84
83 75 80
87 75 84
89 80 84
87 77 83
94 82 92
106 91 108
136 115 144
135 112 141
141 118 148
144 121 151
142 119 146
146 124 156
155 132 162
163 140 171
177 153 185
183 158 193
181 156 191
169 146 174
163 140 162
164 140 163
165 141 160
164 140 162
165 141 163
166 142 165
162 138 159
169 144 167
156 134 155
153 134 152
128 116 125
113 103 108
72 66 63
49 46 47
32 32 22
36 36 24
30 30 20
38 36 27
35 35 25
41 38 28
48 44 33
48 43 35
56 50 43
66 59 58
80 75 74
93 90 87
81 85 67
90 96 77
81 90 69
86 95 70
99 106 96
98 106 88
96 105 84
93 102 80
93 107 85
100 109 89
97 113 81
94 110 86
94 107 83
100 112 93
92 108 81
95 111 84
71 98 48
64 90 44
67 94 46
67 95 46
72 99 49
68 95 46
69 95 47
66 93 44
68 95 45
71 99 47
74 97 49
72 96 48
70 94 46
70 91 47
74 95 49
70 91 46
68 87 45
74 94 50
75 90 50
79 92 54
81 89 56
85 92 57
131 123 113
172 155 165
174 155 165
177 160 171
174 156 169
173 157 171
171 153 166
162 145 148
119 110 85
122 114 77
114 108 63
107 102 33
105 101 30
102 98 29
101 97 35
100 98 34
99 96 40
106 102 51
106 102 60
102 97 65
100 96 68
102 97 72
106 101 67
102 97 70
97 93 81
104 99 63
101 98 74
99 94 78
104 100 76
108 102 78
99 96 74
105 99 78
106 101 72
103 99 80
103 97 81
100 95 85
98 93 90
98 94 82
96 95 84
103 100 73
86 88 83
85 90 89
80 85 89
79 84 91
81 87 82
111 109 112
154 140 149
171 154 168
165 148 160
157 140 154
169 151 159
166 150 162
167 150 154
170 152 157
175 159 164
161 146 148
154 140 141
143 130 128
147 136 134
149 138 139
140 131 125
131 123 116
135 127 121
130 123 118
111 110 97
105 104 90
115 112 97
94 97 76
106 105 91
159 144 148
162 143 153
171 152 161
168 150 159
166 148 155
157 141 149
155 141 149
134 127 136
121 119 127
129 132 142
115 133 136
125 137 147
130 151 154
141 153 166
127 150 152
127 154 149
134 149 148
109 147 127
104 133 115
102 127 109
90 136 103
70 124 89
61 111 77
42 111 68
52 104 66
43 96 60
46 113 67
52 105 65
33 122 70
41 115 69
40 104 61
49 117 69
48 122 71
51 125 73
54 120 71
57 113 67
57 118 68
52 116 68
60 114 67
56 113 68
59 113 69
62 115 69
63 120 71
67 107 67
93 123 101
96 113 119
84 109 119
87 111 120
73 103 107
74 98 104
79 85 105
71 80 92
73 77 97
65 75 86
74 78 96
66 75 89
60 75 80
67 76 87
72 79 90
68 79 93
72 82 94
59 74 79
63 77 82
57 73 76
67 79 87
65 77 85
64 78 84
73 81 93
61 77 80
64 76 82
80 84 105
71 80 92
70 78 91
57 74 75
63 78 84
78 82 98
63 78 76
69 83 72
55 76 47
55 78 48
66 83 54
66 80 55
74 89 62
66 81 58
83 93 74
93 99 82
103 106 95
97 101 85
113 112 106
133 125 134
160 147 169
152 140 151
156 145 157
135 130 131
138 133 133
122 117 116
128 123 123
117 116 109
105 107 97
111 113 101
100 104 87
95 99 81
88 95 70
87 95 67
86 95 63
82 91 60
82 92 61
83 93 61
24 28 108
26 26 108
26 24 106
24 30 106
25 29 110
24 29 107
23 30 107
17 33 109
21 39 108
21 32 106
20 36 98
24 44 109
81 80 130
119 110 150
124 115 152
126 116 153
146 135 165
164 152 180
166 153 174
81 91 62
85 95 62
83 94 63
81 92 61
87 97 63
83 94 62
85 95 63
84 95 62
83 93 62
82 92 61
87 96 63
87 98 64
84 93 62
86 96 63
85 96 64
85 96 62
86 96 63
82 93 63
86 97 63
84 93 62
84 94 63
86 97 64
127 124 123
179 163 187
184 169 193
176 162 185
174 159 184
180 166 189
184 167 190
184 168 190
181 166 190
184 168 189
182 167 191
180 165 188
177 162 187
181 165 187
171 158 183
179 163 186
176 162 179
178 161 181
164 151 176
169 157 173
109 101 114
41 22 48
35 16 41
40 18 46
37 17 43
38 17 45
41 18 47
41 18 46
40 18 46
37 17 43
39 18 45
40 18 45
38 17 45
36 16 41
37 17 44
39 18 45
36 17 41
41 18 47
39 18 44
37 17 42
36 16 41
37 17 41
33 15 39
33 16 38
34 16 39
34 16 39
36 17 43
37 17 43
34 16 40
34 16 40
35 16 42
54 55 47
85 96 63
87 98 64
87 106 67
95 125 76
99 131 79
98 133 77
97 130 76
98 132 78
102 135 79
97 130 76
101 136 80
102 135 79
105 139 81
103 137 81
100 134 77
98 131 77
105 139 81
101 135 79
97 131 76
103 137 81
102 136 78
98 132 79
98 131 78
99 130 79
96 121 79
97 113 86
95 108 82
96 106 85
97 108 88
97 110 86
96 102 89
94 95 89
95 98 88
95 102 86
102 94 105
131 115 133
131 114 141
137 120 145
121 103 129
114 95 119
101 87 99
89 77 87
87 77 83
85 74 80
85 75 82
89 75 85
85 72 81
85 74 85
85 75 81
91 80 86
84 73 82
88 77 84
105 87 106
139 117 146
136 113 141
143 121 151
144 121 150
131 110 140
147 125 154
149 127 156
154 131 161
161 138 170
175 151 185
182 157 192
184 159 192
178 154 184
168 144 169
169 145 168
165 141 164
163 139 160
165 141 163
164 140 161
161 137 157
155 133 153
162 139 160
152 130 148
135 118 130
77 72 72
59 58 52
51 54 43
41 45 26
24 28 15
30 31 18
25 26 16
27 28 17
32 31 23
45 42 38
50 44 38
82 73 72
87 77 77
104 94 93
108 100 96
95 95 87
100 103 89
90 97 76
90 101 80
92 101 85
100 108 91
96 107 83
88 102 78
94 108 85
85 102 74
104 114 96
97 111 87
78 101 64
97 112 85
92 111 80
91 109 82
91 108 82
74 99 55
71 99 47
65 93 45
68 97 46
68 95 47
70 97 48
68 97 46
72 101 47
71 96 47
69 94 46
72 99 49
71 94 47
70 95 47
70 92 48
70 93 46
70 91 48
71 89 49
74 91 52
79 91 54
80 89 55
80 89 56
82 92 57
115 113 102
177 161 169
184 167 182
177 157 163
174 155 165
182 166 175
159 144 141
119 112 88
112 105 60
106 101 41
104 100 29
108 104 30
100 97 31
104 100 38
105 100 39
111 107 44
102 99 55
102 98 63
103 98 58
106 101 63
99 94 78
108 102 74
105 100 69
103 98 79
107 101 80
100 96 80
99 94 77
99 94 88
102 98 77
103 98 84
101 97 86
98 95 81
100 95 85
92 89 88
101 97 85
96 91 94
101 96 78
100 96 94
107 103 107
131 120 130
125 117 129
135 126 140
139 128 139
131 122 135
150 136 149
156 140 152
135 124 141
111 109 105
90 94 84
87 91 74
89 95 78
88 95 67
86 92 64
88 95 60
85 94 60
85 93 56
82 90 55
81 89 54
85 94 59
84 90 54
85 94 58
85 94 57
82 90 55
81 89 55
82 90 55
82 89 54
83 92 56
82 91 56
83 87 60
146 134 132
162 146 155
156 140 149
147 134 141
131 121 136
126 120 133
130 130 150
139 138 165
129 135 160
123 142 158
126 145 163
126 150 164
130 153 167
128 154 164
142 163 173
137 163 165
124 157 150
134 156 151
121 155 140
98 140 118
85 137 104
80 124 93
70 122 85
52 125 77
34 105 60
34 114 67
37 117 65
28 106 61
31 113 63
34 111 64
50 118 67
44 118 67
47 121 68
55 115 67
53 120 67
46 123 70
53 121 70
59 117 67
57 115 68
65 122 71
56 107 62
59 116 68
65 110 66
71 119 84
76 116 101
92 107 117
86 110 119
82 101 110
79 97 107
74 93 99
70 77 93
71 78 92
73 78 94
67 77 86
56 70 77
64 73 84
64 75 82
63 75 83
57 72 78
61 75 80
59 72 74
56 72 73
52 70 68
60 74 75
65 79 86
66 76 86
50 74 66
61 75 83
54 72 73
67 76 87
57 74 73
68 78 85
67 75 90
58 77 78
75 82 96
80 84 98
72 85 79
98 102 104
105 110 110
95 101 101
115 115 122
116 114 120
126 123 133
147 138 151
164 152 174
180 165 188
182 165 189
170 156 180
174 159 182
181 165 186
166 153 170
129 124 129
97 103 82
82 91 60
81 90 61
83 93 61
82 92 60
82 91 59
81 90 60
82 92 61
82 91 61
83 93 61
84 95 63
83 94 62
83 93 61
84 94 62
81 92 61
27 24 106
18 27 105
21 26 109
26 26 108
25 25 111
29 25 104
23 27 108
23 33 109
18 31 105
23 32 102
20 38 97
41 50 108
66 66 118
91 86 133
124 115 150
125 116 153
126 116 153
159 146 174
146 139 146
85 96 62
84 94 62
84 93 62
85 95 63
82 91 60
81 92 61
85 96 63
85 96 64
84 94 62
84 93 62
83 94 62
86 96 63
83 94 62
85 96 64
85 96 65
87 97 63
86 95 65
88 97 70
95 101 84
98 105 85
100 106 80
107 110 94
128 124 127
171 157 173
170 157 177
152 142 157
145 138 150
156 147 157
143 138 141
131 126 129
138 133 139
123 122 121
136 130 131
121 121 113
124 123 116
104 108 95
102 107 88
100 105 88
91 100 73
86 96 68
87 96 68
85 95 65
72 77 56
36 19 41
37 17 43
37 17 44
39 18 45
37 17 43
37 17 43
38 17 44
38 17 45
37 17 44
39 18 44
37 17 42
38 17 44
37 17 43
38 17 45
38 17 44
38 17 44
36 17 42
33 16 38
37 17 42
36 17 43
36 17 40
35 16 40
36 17 40
33 15 38
34 16 40
35 17 41
31 14 36
34 16 39
34 16 40
33 15 39
59 62 50
82 93 62
86 98 64
86 108 67
93 125 75
99 132 77
103 138 79
97 129 75
96 128 76
95 127 76
96 127 77
101 135 79
96 130 75
95 127 73
102 135 79
99 133 79
102 136 81
100 134 80
98 131 76
104 139 81
93 125 74
102 136 80
96 129 75
97 129 77
94 123 76
96 120 80
95 116 82
94 109 82
95 104 87
92 100 84
94 106 83
88 87 83
90 96 86
94 94 89
91 99 82
107 105 106
117 101 122
132 115 137
122 105 127
117 99 120
114 96 123
112 95 118
87 76 85
93 82 90
85 71 85
91 78 90
92 81 89
94 84 91
99 86 98
100 89 102
96 81 96
105 90 104
123 103 126
129 106 133
131 108 136
139 117 147
133 110 139
139 116 145
135 113 141
146 123 151
148 126 155
156 134 164
165 141 172
173 150 183
182 158 192
182 158 192
179 154 184
173 148 171
166 142 166
165 141 164
168 144 168
172 147 171
168 143 167
166 142 165
157 135 154
162 139 161
161 137 158
164 140 158
121 107 118
75 72 66
49 55 33
38 44 25
34 38 23
31 35 20
35 40 23
38 43 24
34 38 22
49 51 37
87 79 77
103 93 94
107 98 99
115 105 109
98 90 88
93 92 86
102 102 92
105 110 96
83 96 74
80 93 69
101 108 91
99 111 88
100 109 92
90 104 85
81 101 68
90 108 78
82 104 67
85 104 71
86 105 72
85 107 72
80 101 66
86 108 72
80 103 65
71 100 50
69 97 46
69 97 47
66 95 44
66 95 45
68 96 45
67 96 46
69 96 46
68 95 45
70 97 47
68 93 46
70 95 47
73 97 48
74 95 51
71 92 48
70 89 48
77 93 53
79 91 54
82 92 58
81 91 57
80 89 56
84 93 58
99 102 83
170 155 161
165 148 160
171 155 168
176 158 166
164 149 150
124 115 86
109 102 52
102 99 29
106 101 30
99 95 28
101 96 34
99 98 34
104 101 45
97 95 45
104 99 50
104 99 62
103 99 64
102 99 58
99 95 72
101 97 70
100 96 80
103 98 74
103 99 80
98 94 81
103 98 85
100 95 90
106 101 76
106 101 80
100 96 84
100 96 83
98 93 92
100 96 80
97 93 87
94 91 80
93 89 92
112 105 96
111 104 96
140 125 141
152 137 160
159 143 166
149 134 159
166 148 165
165 148 166
163 147 161
163 147 159
153 139 150
99 100 100
80 89 72
84 92 68
85 92 63
87 95 64
89 97 60
87 96 58
86 94 58
87 95 57
85 92 57
82 90 54
83 91 56
84 92 56
83 91 56
80 89 56
82 89 55
82 89 55
83 92 56
85 94 59
80 87 53
79 87 54
80 88 56
114 107 101
137 127 138
126 120 136
130 127 152
141 139 170
144 147 177
139 147 177
131 147 174
124 142 170
115 143 163
115 140 162
116 144 161
118 146 163
128 159 169
127 159 166
122 163 162
128 165 163
137 174 167
127 164 152
124 161 143
104 146 121
77 125 96
76 132 92
70 136 89
57 113 72
39 114 65
40 132 73
42 120 68
46 126 73
50 117 68
42 112 64
50 119 69
53 121 69
55 129 72
57 125 70
53 126 74
57 125 72
56 109 64
64 123 70
61 122 73
60 111 66
67 121 71
84 109 88
84 123 108
82 118 109
78 104 108
81 98 109
81 108 111
74 90 98
73 87 99
64 76 87
63 71 84
61 72 81
67 76 86
64 74 81
58 71 75
64 75 83
61 75 82
66 77 88
60 77 75
52 71 67
61 75 78
60 77 79
50 71 62
57 75 77
58 75 72
53 74 72
50 74 68
54 72 69
63 76 78
65 76 86
62 78 79
66 78 86
60 71 78
64 77 81
91 98 99
101 107 109
108 111 115
104 106 108
113 113 120
129 125 133
147 140 154
153 144 160
167 156 176
173 158 181
176 163 187
173 158 182
173 158 184
181 165 189
175 160 187
174 159 186
171 156 179
150 142 152
121 120 114
83 93 64
84 95 62
80 91 61
84 95 61
85 95 62
82 92 61
86 96 63
82 92 61
81 91 61
82 93 63
82 92 61
82 93 62
26 25 108
23 25 107
23 23 104
20 25 111
21 24 107
26 26 109
21 27 108
23 26 108
23 28 108
26 28 102
23 30 108
42 51 109
77 74 126
97 90 138
114 107 144
123 113 151
130 121 155
150 138 164
125 121 124
95 102 82
100 106 88
110 112 99
108 110 99
119 118 116
126 124 125
117 118 116
126 124 123
144 139 142
143 138 148
141 136 139
156 147 157
154 146 159
155 146 161
159 149 168
168 157 175
171 157 179
167 153 172
172 159 181
174 160 184
178 163 186
168 156 179
157 148 159
85 95 62
86 97 64
83 94 61
84 94 62
88 98 64
86 97 64
84 94 62
85 96 64
85 96 62
88 99 64
83 93 61
83 94 62
83 93 62
85 96 64
83 93 62
84 95 63
85 96 64
84 94 63
87 98 63
74 82 57
41 30 44
37 17 43
36 16 41
36 16 42
37 17 43
41 18 46
35 16 41
39 18 45
38 17 44
39 18 44
37 17 43
39 18 44
36 16 41
37 17 43
39 18 45
33 15 38
35 16 40
37 17 43
34 16 40
37 17 44
33 15 37
36 17 43
37 17 41
36 16 42
35 16 40
32 15 38
34 16 39
31 15 37
33 15 38
36 25 40
70 77 55
82 93 63
84 96 64
83 104 64
91 122 73
91 123 73
95 128 78
101 134 79
95 126 73
93 125 74
99 133 77
99 132 77
101 135 79
91 123 73
101 133 80
89 120 70
97 129 76
98 132 78
101 135 79
98 131 77
104 139 81
103 137 79
100 133 77
99 130 79
98 127 81
97 118 81
92 105 80
95 108 85
89 101 80
95 102 87
90 99 83
87 88 84
92 98 84
98 105 88
87 88 84
99 95 96
100 90 99
92 78 93
102 89 102
97 84 96
92 78 92
91 79 90
109 94 114
116 97 120
120 102 122
118 100 121
118 100 123
117 99 123
123 107 130
117 99 122
119 101 126
125 105 130
128 106 132
133 111 138
127 105 132
133 110 140
126 103 130
143 121 148
136 114 142
141 118 147
153 130 161
148 126 154
164 141 173
172 149 181
183 158 192
183 158 192
176 152 184
170 146 170
160 137 160
166 142 166
169 145 167
165 141 163
169 145 168
166 141 163
164 140 162
164 141 163
165 142 165
162 138 159
161 138 158
143 125 136
86 83 79
55 62 38
55 62 36
51 57 34
54 61 36
48 54 31
47 53 31
54 60 35
79 80 64
118 108 110
127 116 121
130 120 128
122 114 118
122 119 118
103 107 99
97 106 89
93 100 87
102 110 93
93 104 83
81 97 72
85 102 71
85 104 72
91 109 80
90 109 77
85 105 74
94 112 81
72 98 57
78 98 65
91 109 83
82 106 68
78 103 62
83 105 69
67 98 44
67 97 45
64 93 43
67 95 45
64 93 44
66 93 44
69 97 46
66 92 43
72 99 48
67 92 45
71 97 48
69 94 49
73 95 54
71 91 47
83 101 70
91 102 78
98 104 88
108 109 100
117 116 103
129 123 119
135 129 129
129 124 122
149 139 146
157 146 150
116 112 101
111 111 95
109 106 79
104 102 63
99 97 32
88 86 25
99 96 28
101 97 35
104 100 33
104 99 42
94 91 51
105 101 53
94 91 66
94 90 75
97 93 61
94 91 76
99 94 74
97 93 77
97 92 83
93 90 87
105 99 66
97 92 87
95 91 92
99 95 84
95 92 89
98 93 86
109 104 76
95 92 78
95 91 81
97 94 90
95 91 88
100 95 87
108 102 80
102 97 94
112 104 113
133 122 139
145 130 154
154 140 164
155 140 163
162 145 166
160 144 164
162 144 159
154 139 158
168 151 167
157 141 153
126 119 124
97 100 85
84 92 66
84 92 62
86 95 62
84 92 58
88 97 60
86 95 58
86 94 59
87 96 60
85 94 59
86 95 59
83 92 56
82 90 55
81 89 54
84 92 55
82 89 54
82 89 55
83 91 57
80 88 54
89 93 76
119 118 123
129 126 142
143 139 166
147 145 180
149 149 189
149 149 192
137 146 183
125 141 175
121 140 172
110 137 162
109 147 162
111 147 163
110 143 158
113 143 158
119 152 161
117 159 159
121 157 159
121 162 157
132 170 160
138 168 161
127 168 149
120 157 136
96 138 113
101 148 115
93 133 106
73 135 91
55 127 73
58 136 82
77 131 91
77 136 92
82 139 96
81 144 100
83 138 97
75 136 90
92 136 105
92 135 104
108 138 118
101 135 111
108 153 126
110 145 123
109 139 120
123 148 136
129 144 143
105 134 124
95 126 120
90 113 121
69 109 100
71 99 98
70 89 97
65 76 87
69 76 93
63 73 87
63 72 80
62 74 83
59 74 75
59 72 80
63 75 80
59 73 75
57 74 73
61 75 80
51 72 66
54 72 70
55 76 70
56 73 71
60 76 76
48 72 65
60 77 79
54 74 71
55 75 71
56 73 75
56 75 73
54 71 71
53 73 71
65 77 84
67 79 80
89 95 96
111 113 119
112 113 119
106 107 111
126 124 134
108 108 116
143 136 150
142 135 155
159 147 168
177 162 185
181 166 190
187 172 194
177 160 184
181 166 190
177 163 189
168 155 184
181 166 189
177 162 188
178 164 188
162 152 169
113 113 110
86 93 68
83 94 61
84 95 62
84 94 63
83 93 60
83 94 62
85 95 62
85 96 62
83 95 62
84 94 61
27 25 108
21 26 115
22 25 109
21 25 113
27 26 110
19 25 111
24 23 102
27 24 103
25 25 106
21 26 108
24 23 97
38 38 102
56 57 114
57 57 108
68 67 107
73 76 107
72 75 99
95 99 99
164 152 170
183 168 191
173 160 184
179 165 190
179 164 189
179 164 186
180 165 189
183 170 193
179 163 188
179 166 189
183 168 189
178 164 190
180 166 190
185 168 191
178 165 189
173 160 185
179 164 188
182 166 189
174 161 186
185 170 195
180 165 189
177 163 190
182 168 190
141 134 141
85 95 63
83 93 61
83 94 62
82 93 62
82 93 61
87 97 63
81 91 61
86 96 62
88 99 64
84 94 62
79 89 60
87 98 64
89 100 65
83 94 62
84 95 63
83 95 63
84 95 63
83 94 62
85 97 64
79 88 61
44 37 44
36 16 42
35 16 41
34 16 41
34 16 41
37 17 43
36 16 41
37 17 43
37 17 42
36 17 42
32 15 36
36 16 41
35 16 40
36 16 41
37 17 43
36 16 41
36 16 41
35 16 40
35 17 40
35 16 39
32 15 37
32 15 37
31 15 36
33 15 38
34 16 38
32 15 36
31 14 35
33 16 38
34 16 40
44 39 42
77 87 59
89 100 70
91 101 74
87 109 72
95 125 77
95 129 74
94 127 74
92 123 72
95 128 75
92 124 72
99 132 77
99 133 77
97 129 76
96 129 77
90 122 73
97 130 75
95 127 73
93 125 72
96 128 74
102 137 79
97 130 75
94 127 76
98 132 77
95 126 75
95 121 76
97 120 80
89 105 77
91 96 84
91 97 83
86 92 80
93 101 86
90 95 82
87 84 83
89 87 85
94 92 89
91 92 88
92 78 88
90 76 85
87 74 87
88 75 84
83 71 82
91 77 88
90 78 89
127 108 130
122 104 128
113 95 120
124 105 128
125 106 130
118 101 126
124 106 127
119 99 123
120 100 127
121 99 125
119 99 125
123 100 128
131 108 136
137 114 143
133 110 138
137 115 143
134 113 140
148 125 155
153 130 159
170 146 178
175 151 184
183 158 192
182 157 192
178 153 184
173 149 174
160 136 158
166 142 164
165 141 163
165 141 163
173 148 171
167 143 163
166 141 162
166 142 164
154 130 149
164 140 161
163 141 160
158 137 155
113 106 104
75 82 58
69 78 48
74 84 52
66 75 46
64 72 45
67 75 47
62 70 44
70 79 49
106 104 96
145 135 147
148 137 150
141 132 143
124 120 125
108 112 102
107 109 102
100 109 93
101 110 91
92 107 83
84 100 74
94 109 88
92 104 76
72 98 54
76 100 60
85 106 68
71 94 53
82 104 68
84 107 67
75 102 58
78 102 65
78 102 60
71 99 52
78 100 63
70 99 48
80 104 62
68 97 48
78 103 61
74 100 55
82 105 68
80 99 74
84 101 75
95 110 88
97 110 83
97 108 91
103 108 94
100 109 88
129 133 125
132 132 127
150 141 148
169 155 171
176 161 177
179 164 180
175 159 174
177 159 172
179 162 176
166 152 167
138 132 128
89 96 65
82 88 48
89 87 36
104 100 33
105 101 30
96 93 27
100 96 28
95 92 30
101 98 42
96 93 58
99 95 55
100 95 58
95 91 65
97 93 76
106 101 71
93 89 69
97 93 80
93 89 91
96 92 77
100 95 74
95 91 85
95 91 88
100 95 78
95 90 95
99 93 97
96 91 89
103 98 80
96 93 89
99 95 88
94 91 91
97 93 80
96 93 79
97 93 95
99 94 102
140 128 141
158 143 164
159 144 166
153 138 160
145 131 155
158 143 165
146 133 160
154 138 160
168 152 171
161 143 159
169 153 169
157 143 157
109 110 97
86 93 71
87 96 66
84 92 57
85 95 58
86 96 59
86 94 58
86 95 59
84 92 56
85 94 59
86 94 58
85 93 56
84 91 56
84 93 58
86 95 58
82 90 57
87 94 65
94 98 82
114 112 116
130 129 143
155 153 177
159 157 188
156 156 196
153 153 194
147 150 194
136 147 185
125 137 175
112 137 163
105 135 157
96 135 146
106 142 157
97 137 147
107 148 155
113 152 159
123 154 167
114 159 157
123 167 163
116 165 149
126 172 158
135 175 159
131 170 154
111 155 132
93 143 115
68 126 83
54 119 72
64 118 74
73 136 95
90 145 107
103 154 122
101 148 120
126 152 138
109 147 129
115 152 130
120 151 131
120 159 135
124 156 137
117 151 133
127 148 142
138 164 152
140 158 155
140 163 153
135 154 149
129 148 149
85 120 115
80 110 112
66 113 99
59 94 83
77 97 102
62 81 86
56 71 75
55 71 74
59 72 79
62 73 81
57 72 75
49 70 65
52 70 67
50 71 65
48 71 63
52 72 70
54 71 67
53 71 74
39 69 50
51 72 65
48 70 61
56 72 73
54 76 69
55 75 71
51 75 68
49 72 63
50 70 67
43 69 55
70 79 89
64 77 83
54 72 66
99 101 104
101 105 108
112 113 114
114 115 119
108 112 116
125 122 136
130 128 135
152 144 156
165 153 173
174 160 182
172 159 187
178 164 188
181 166 188
172 158 183
179 165 189
181 166 189
180 166 188
181 166 187
173 158 181
172 158 185
179 165 189
165 153 172
136 130 137
93 99 79
82 92 61
83 94 62
81 91 61
83 93 61
81 91 60
85 96 63
84 95 63
19 27 119
22 25 108
19 26 116
19 25 113
20 24 108
19 26 113
22 25 110
20 25 110
17 23 106
23 24 106
23 24 100
27 27 97
33 38 101
36 40 96
49 55 93
51 59 85
60 68 85
94 98 101
164 152 175
180 166 190
172 158 183
175 161 184
184 170 194
179 165 191
182 167 191
167 154 179
182 166 189
182 168 191
178 165 189
182 167 192
169 156 182
177 164 188
179 165 189
176 162 188
178 165 189
181 167 193
180 166 191
173 160 184
182 167 190
176 162 188
181 167 189
141 135 143
83 94 63
83 93 61
81 92 63
78 88 60
86 97 64
81 91 61
84 95 63
83 95 62
85 95 62
82 93 61
86 97 64
82 93 62
84 94 62
87 98 64
88 99 65
81 91 61
80 91 60
86 97 63
85 96 63
82 92 62
62 65 51
34 16 40
34 15 39
36 16 41
36 16 41
39 17 44
36 17 42
38 17 45
37 16 42
36 16 42
35 16 41
34 15 39
35 16 39
36 16 41
33 15 36
36 16 41
33 15 37
36 16 40
35 16 39
33 15 37
33 15 38
33 16 38
34 16 39
33 15 38
30 14 35
31 14 36
32 15 37
31 14 35
33 15 38
105 96 110
154 143 162
167 155 176
157 147 164
139 141 144
96 125 82
91 123 71
96 129 76
99 132 76
96 128 76
98 130 76
89 120 71
91 121 72
99 132 77
97 130 76
96 128 74
94 127 74
98 131 76
96 130 75
95 128 73
94 128 74
94 127 72
98 132 76
92 123 70
94 125 73
95 121 78
92 114 78
90 106 75
94 106 84
89 100 79
91 96 82
92 96 84
87 96 81
91 91 87
87 88 83
88 85 87
85 73 85
87 77 83
90 74 88
85 75 83
88 75 85
89 73 87
90 76 87
90 72 90
100 87 103
107 90 116
118 99 124
117 100 121
117 97 117
126 108 132
116 98 123
114 96 120
117 96 123
115 96 121
116 93 120
114 93 119
127 105 131
116 94 120
125 105 132
139 118 146
138 117 145
144 122 150
159 136 165
166 142 174
173 149 183
180 156 190
183 158 192
183 158 191
168 144 170
165 142 164
158 136 156
164 141 163
174 149 173
174 150 173
171 146 168
170 146 169
153 131 150
155 133 153
146 126 149
133 118 133
111 104 108
90 93 77
76 86 55
72 81 51
78 87 61
73 80 58
77 84 63
83 89 70
93 98 82
83 90 70
93 98 81
138 130 135
135 127 136
126 124 122
117 117 112
93 102 83
92 102 79
84 101 68
86 100 79
67 87 49
82 100 69
69 93 50
75 100 58
69 97 49
68 94 51
64 93 43
63 89 42
68 99 44
66 95 44
68 99 44
65 96 43
69 99 45
66 95 45
64 94 42
66 97 47
73 102 55
74 98 60
71 98 53
77 101 63
79 101 65
82 100 72
93 110 80
94 108 85
82 100 72
92 105 84
110 115 102
97 108 90
124 126 126
138 135 134
154 145 156
173 160 175
166 152 167
177 162 179
172 156 167
172 156 169
169 154 168
174 159 175
183 166 179
139 133 133
101 104 69
93 92 35
97 93 28
97 93 27
86 85 25
98 94 31
102 98 36
90 87 40
88 86 53
90 86 63
105 100 61
93 89 72
102 97 78
93 89 73
92 89 79
90 87 81
99 95 88
93 90 75
108 102 75
85 82 93
91 87 91
93 91 92
93 89 90
95 91 93
106 101 83
92 89 91
91 88 96
91 87 95
91 88 96
99 94 87
92 89 91
91 87 92
104 98 106
124 114 129
130 118 152
156 140 163
155 140 163
152 139 165
167 153 171
159 143 164
154 140 162
153 138 160
159 144 165
169 153 167
161 147 165
171 153 169
136 128 133
96 100 79
95 101 73
99 103 80
99 105 77
100 104 78
103 108 83
102 104 82
112 112 94
108 107 91
132 128 117
119 117 103
129 124 115
131 126 122
131 123 120
122 118 116
125 123 126
152 149 164
159 157 178
166 165 195
165 165 201
160 160 199
151 152 196
150 154 194
133 145 180
123 144 173
116 136 165
111 136 163
107 143 159
103 143 154
100 146 151
102 146 151
109 150 156
113 160 158
117 158 161
113 160 155
123 165 161
126 166 158
128 166 160
128 173 157
130 166 152
104 153 128
75 136 98
62 133 80
64 133 76
56 125 73
60 133 82
97 148 113
114 160 130
117 165 133
121 157 139
111 157 129
119 160 136
118 157 135
109 161 131
124 154 142
107 156 131
130 156 146
133 159 145
128 158 144
136 159 150
131 150 148
100 127 123
76 108 108
67 100 94
62 104 91
64 89 89
64 75 89
60 77 82
59 70 78
56 71 75
56 72 73
44 68 60
48 70 64
51 69 64
42 69 56
50 69 65
44 67 59
44 71 58
45 70 58
46 71 60
42 69 55
46 68 59
49 73 63
49 73 64
52 71 65
48 71 61
56 73 73
49 70 61
59 73 74
59 72 75
50 73 63
56 72 70
71 85 74
93 101 94
100 104 106
105 108 114
111 114 121
145 139 151
134 131 143
143 136 152
167 155 178
175 162 186
183 168 191
186 172 192
174 161 187
176 162 185
178 164 185
180 166 188
177 164 186
171 158 178
178 165 187
176 163 184
167 155 172
157 147 165
156 146 163
158 149 163
116 115 111
118 119 109
128 125 129
143 137 148
136 132 135
148 140 157
149 141 153
18 25 113
21 24 107
17 24 109
14 24 111
18 24 106
17 26 117
23 25 110
19 25 112
27 23 96
20 23 101
21 22 98
24 24 99
28 31 98
35 36 96
37 43 96
45 47 83
60 69 84
109 109 116
164 153 180
176 160 185
179 166 188
176 163 189
173 161 189
175 162 186
178 163 187
182 168 192
174 161 186
177 162 185
172 159 185
181 166 189
176 161 186
180 166 187
182 166 190
181 167 191
181 168 194
174 160 185
175 161 184
178 165 188
180 165 190
178 164 189
178 164 189
127 125 124
83 94 62
87 98 64
85 96 63
84 96 63
86 97 62
86 97 64
85 96 64
83 94 62
85 97 63
83 94 62
82 93 62
88 97 68
83 94 62
83 94 62
88 96 73
101 107 87
88 96 76
101 106 90
101 105 89
110 113 98
100 102 92
74 64 78
34 16 41
34 16 40
37 17 43
33 15 38
37 17 44
35 16 40
36 16 41
34 15 38
35 16 42
36 17 41
36 17 42
36 17 42
36 16 41
34 16 38
32 15 37
32 15 37
33 15 37
31 14 36
32 15 36
29 14 34
31 15 36
33 15 38
32 15 37
30 14 35
30 14 35
30 14 36
51 40 54
151 138 161
177 162 187
172 158 182
172 158 183
145 143 152
97 123 84
91 121 71
90 122 69
89 120 70
94 125 72
90 121 70
94 126 75
88 120 70
88 119 68
96 129 74
101 135 78
89 121 71
99 132 76
88 119 71
91 122 72
93 125 73
93 125 72
94 127 74
91 123 70
89 120 69
92 121 75
96 119 78
86 105 75
93 105 82
91 104 81
88 87 81
89 92 85
96 95 88
90 87 85
93 85 90
88 89 82
90 86 85
84 73 82
85 73 81
88 72 87
90 75 86
90 77 87
91 74 89
89 74 88
91 76 89
114 95 116
116 98 121
106 87 110
122 105 127
113 95 118
105 86 111
104 84 108
112 92 118
97 80 101
114 93 117
112 92 118
120 98 126
128 106 133
136 114 142
142 120 148
136 117 143
147 126 154
145 122 151
161 138 170
176 152 184
183 158 192
183 159 192
180 156 191
177 152 179
166 143 166
165 141 163
172 147 170
170 146 169
165 141 164
163 140 160
152 132 151
135 120 135
125 112 127
119 108 123
131 121 134
140 131 141
140 133 143
134 126 137
163 151 165
162 150 165
155 145 158
161 150 163
159 146 158
158 146 164
151 140 151
159 147 164
159 147 160
122 118 120
72 86 50
69 87 49
63 83 43
65 88 45
67 90 46
65 89 44
71 97 47
64 91 42
64 91 43
66 95 44
62 91 42
65 94 43
66 95 44
64 95 43
66 96 43
67 98 45
66 97 43
63 93 41
65 96 43
67 98 43
65 96 44
64 93 41
69 99 48
65 96 42
72 99 55
72 100 52
76 104 56
81 105 65
80 102 69
91 107 87
91 107 85
91 108 81
100 112 90
115 120 112
125 127 121
137 135 135
153 145 154
165 152 168
176 159 172
181 165 182
174 158 177
166 150 170
170 157 173
171 158 172
171 156 176
175 159 175
140 129 114
99 96 44
97 94 28
100 96 28
94 91 26
98 94 28
105 100 29
93 89 56
95 93 49
101 98 41
92 89 59
92 90 73
92 89 78
94 90 86
92 88 81
96 92 83
90 86 86
100 95 82
93 90 85
97 92 92
94 90 92
90 87 90
90 87 88
92 87 96
96 92 91
97 93 85
94 90 87
92 89 92
89 86 87
95 91 89
89 87 90
90 86 93
94 90 106
107 101 123
130 120 149
147 135 157
135 126 147
142 132 152
139 129 144
126 118 135
132 123 141
120 116 122
133 126 133
122 116 122
126 118 123
127 123 123
119 117 106
110 111 95
140 130 135
169 156 166
178 162 173
174 158 169
177 161 173
174 158 171
184 164 175
183 165 177
181 164 175
183 164 176
175 157 170
184 165 177
153 139 148
140 132 146
140 136 151
153 150 167
170 169 195
172 172 201
167 168 204
160 160 201
160 161 201
153 156 196
143 151 188
129 146 174
116 142 163
112 142 162
111 140 161
107 148 157
108 147 157
108 150 158
114 153 161
107 153 151
107 154 149
112 159 153
116 160 155
123 166 160
118 168 151
126 174 157
117 171 144
118 164 142
98 158 121
84 138 102
63 134 79
54 131 75
59 125 72
54 134 76
79 138 90
105 153 121
114 153 132
124 160 137
120 164 141
126 160 143
127 158 138
116 154 138
122 150 138
130 159 144
136 155 151
132 159 147
131 157 150
124 152 146
118 142 135
81 124 111
63 97 87
66 106 96
67 90 91
63 85 86
53 71 73
52 69 69
56 68 74
60 71 78
52 67 69
40 68 52
43 69 58
44 67 59
45 67 57
40 69 52
44 70 57
40 70 54
41 66 56
42 67 56
47 68 62
37 66 47
34 65 44
44 70 60
44 69 59
51 72 62
42 68 52
53 71 69
54 70 70
52 72 65
58 74 69
58 81 59
59 78 58
81 96 83
95 101 102
111 113 117
112 112 113
130 127 134
118 120 120
140 134 141
141 135 140
113 114 114
128 125 126
112 114 106
110 109 100
112 114 105
105 110 95
104 109 92
94 100 81
94 102 82
96 102 83
88 97 71
83 93 64
84 95 65
86 96 67
84 95 63
93 101 78
117 118 110
155 146 165
168 154 180
175 162 186
175 162 185
17 26 117
19 25 111
16 24 108
19 24 108
17 25 113
17 23 102
16 25 113
21 25 110
18 23 105
18 24 105
19 23 104
22 23 102
27 26 99
31 30 96
40 42 94
48 52 90
61 69 86
112 108 129
167 154 178
175 163 189
173 158 182
175 161 184
184 168 193
182 168 192
171 159 183
169 155 180
186 170 192
174 161 185
173 159 184
185 171 194
176 163 189
181 167 189
174 160 185
180 167 190
181 166 191
178 163 186
178 164 190
177 164 188
170 157 182
172 159 186
169 156 179
136 133 136
106 110 97
104 109 95
115 117 108
121 121 118
119 117 114
118 117 110
141 136 136
128 125 124
142 137 147
143 137 143
148 141 151
155 145 160
164 153 170
151 143 159
163 153 171
162 149 168
165 153 174
171 157 178
176 162 184
176 162 184
174 160 183
120 109 127
40 25 44
34 15 40
33 15 39
34 15 39
34 16 40
34 15 39
36 16 42
34 16 39
31 14 35
36 17 41
35 16 40
33 15 38
34 15 39
34 16 39
35 16 40
31 14 35
31 14 34
30 14 32
28 13 33
29 13 33
29 14 34
27 13 31
27 13 31
32 15 36
31 14 36
31 18 39
113 102 120
162 149 172
173 160 186
171 157 184
180 166 189
152 150 154
112 132 102
86 117 69
93 125 72
92 124 71
90 122 71
94 127 73
90 121 70
94 127 74
92 123 71
92 125 72
93 126 71
94 127 73
89 121 71
98 131 75
90 121 71
93 125 72
96 129 73
99 132 76
87 118 70
96 128 76
90 117 72
86 110 72
91 102 82
89 101 78
84 86 79
91 92 84
91 90 86
89 88 86
84 82 81
90 80 86
82 74 80
87 81 85
83 71 83
81 66 81
83 67 81
82 69 80
86 73 84
84 68 85
86 69 88
89 72 88
94 80 95
109 91 116
105 88 108
110 92 116
112 94 115
106 88 111
99 82 105
104 87 110
92 74 96
94 74 100
107 88 111
108 87 109
117 96 122
114 94 119
119 101 126
121 100 127
132 112 139
150 129 156
161 139 170
171 148 180
179 155 187
182 158 190
180 156 189
178 153 182
170 147 171
161 138 158
157 135 157
160 138 161
138 121 143
136 119 142
135 119 135
129 115 133
118 106 123
138 127 143
159 147 168
164 151 170
163 151 170
171 158 178
158 145 163
161 149 170
166 153 169
174 162 181
168 155 174
161 149 167
169 156 174
169 156 175
164 151 169
155 144 158
112 114 105
73 89 52
69 89 48
69 88 48
64 89 44
60 83 41
62 87 42
62 89 41
63 89 41
63 91 42
63 93 42
61 90 41
62 92 41
66 97 43
63 93 41
59 89 39
64 95 42
63 94 42
66 98 44
68 100 45
62 92 41
67 100 44
63 94 42
62 92 41
64 94 46
63 91 44
69 97 52
71 97 56
73 97 60
70 94 58
79 99 67
98 113 91
106 117 102
96 108 91
117 122 113
133 129 134
153 145 152
162 150 168
177 163 181
177 162 180
177 162 180
165 153 173
167 154 171
177 162 179
179 164 183
173 159 174
143 132 138
103 98 42
92 88 26
96 92 27
100 96 28
99 96 32
87 85 41
94 92 47
90 87 64
97 93 55
100 95 64
89 86 76
92 89 75
84 81 79
100 95 88
92 88 85
92 88 91
86 83 93
92 87 90
91 87 86
98 94 80
89 85 94
92 88 93
95 91 92
97 93 90
89 87 93
91 87 101
97 92 86
93 89 90
91 88 87
88 85 106
85 82 100
87 85 94
85 83 94
80 83 95
85 87 107
78 83 98
79 83 94
79 84 89
80 87 93
80 86 87
77 83 87
78 85 85
77 84 79
77 85 81
80 88 71
81 89 77
85 93 72
95 100 75
129 124 115
181 164 177
186 168 183
181 164 180
191 173 185
179 162 177
187 169 184
184 166 180
174 157 170
177 159 173
174 158 169
144 134 148
140 135 146
157 154 168
164 163 182
173 172 193
174 173 203
173 173 206
167 168 204
163 166 203
156 161 199
141 150 185
129 148 174
118 150 162
119 145 166
102 147 149
114 144 159
106 151 151
110 151 156
102 150 144
112 157 154
113 161 155
120 162 160
119 164 158
128 169 163
126 169 161
122 170 155
135 173 160
119 166 147
113 167 140
96 158 121
52 140 85
61 137 78
55 130 74
52 138 79
54 146 81
61 132 78
78 139 95
109 157 126
132 166 147
123 160 141
122 161 141
119 158 137
119 157 138
121 155 139
123 161 142
122 157 138
139 158 151
138 157 152
108 140 126
81 125 107
59 101 87
63 93 90
60 101 86
68 85 91
69 77 91
55 67 78
62 72 81
56 71 73
53 69 71
61 71 77
33 64 46
50 68 68
43 70 58
39 68 52
48 71 62
45 69 61
53 71 67
41 71 53
32 68 42
36 66 48
46 73 60
45 66 61
39 66 50
50 74 60
40 68 55
53 73 68
44 70 53
53 71 64
56 76 63
92 99 97
86 96 90
96 102 102
108 112 114
105 108 111
110 112 113
87 97 83
77 91 59
76 90 59
82 93 62
87 97 64
82 92 61
82 92 61
81 91 60
84 95 63
84 94 62
85 96 62
83 94 62
83 93 62
81 91 61
79 89 60
85 95 62
81 92 61
82 93 62
81 92 62
85 96 63
81 92 61
83 92 66
110 112 106
150 142 154
169 157 177
15 26 115
16 24 109
15 26 118
18 25 117
11 24 112
19 23 103
17 25 112
15 24 109
20 23 104
21 24 109
24 23 103
23 22 100
22 24 103
26 24 86
34 32 95
44 46 82
66 70 82
141 132 159
160 149 177
176 162 182
177 164 188
170 158 180
159 149 172
176 163 186
159 148 165
168 158 177
154 146 160
156 146 160
148 140 156
150 143 154
137 133 137
136 132 137
133 128 131
127 125 126
123 121 117
118 118 113
120 120 115
114 115 107
100 106 90
89 98 71
100 105 89
158 149 164
171 158 183
179 164 187
171 158 178
176 162 183
175 163 188
177 164 189
177 163 191
177 163 189
171 158 183
176 163 188
172 159 185
178 162 188
177 162 185
177 163 189
176 162 185
180 165 190
178 164 191
177 162 185
174 158 180
175 162 189
171 158 185
155 142 163
82 71 85
35 16 40
35 16 41
35 16 41
34 15 40
32 15 37
31 14 36
34 16 40
32 15 38
34 16 39
33 15 38
32 15 36
33 15 38
29 14 33
36 16 40
30 14 34
31 14 34
29 14 34
31 14 35
31 14 35
29 14 34
30 14 35
32 15 36
28 13 32
28 13 32
56 46 61
149 138 162
172 158 180
164 150 173
172 159 182
170 156 179
143 144 148
100 126 86
88 118 69
80 111 63
89 120 70
88 119 70
90 122 71
86 117 67
96 129 76
92 125 71
93 126 74
93 125 73
96 129 75
93 126 72
90 121 70
96 128 75
92 124 71
94 126 72
100 132 75
96 128 75
88 119 68
90 115 75
93 116 77
93 110 78
84 95 76
83 91 73
90 94 84
91 84 88
85 80 81
85 81 83
89 85 85
93 90 86
86 77 83
89 74 89
97 80 95
101 86 102
93 78 95
94 76 96
93 78 97
85 68 89
105 85 111
95 80 99
88 69 90
83 70 83
90 74 93
87 70 89
91 76 92
90 77 91
93 75 96
97 77 102
98 78 103
101 81 103
107 87 112
104 86 108
101 81 107
107 89 111
112 93 116
115 98 118
121 105 127
123 108 123
133 116 135
145 128 149
146 129 151
162 141 167
160 139 163
155 134 156
139 122 141
120 106 122
125 111 128
132 116 135
129 115 135
118 106 120
123 110 123
135 123 137
162 149 168
168 157 178
177 163 182
174 159 180
173 158 177
163 151 173
167 154 173
161 148 169
170 156 178
176 163 183
176 162 180
173 158 179
166 154 172
173 159 178
164 152 175
148 139 151
99 106 91
66 86 46
62 86 43
66 88 44
64 90 43
63 90 42
63 90 41
62 90 41
61 90 41
62 91 41
63 94 41
63 93 42
61 91 41
67 98 43
64 94 41
65 95 42
65 96 42
60 89 40
64 95 42
64 95 41
62 94 41
62 92 41
60 89 40
65 95 42
65 97 43
63 94 45
63 94 41
70 98 51
77 102 63
70 95 50
82 99 74
110 119 104
110 119 100
114 120 115
141 138 143
151 144 154
169 157 177
164 152 175
172 159 181
166 153 168
165 153 171
171 159 176
163 152 164
155 144 158
161 150 164
128 122 107
98 94 29
103 99 29
103 99 29
103 98 30
103 99 42
97 93 34
95 92 49
95 92 72
91 88 62
90 87 70
89 85 65
92 88 73
86 83 83
89 86 88
98 93 86
90 87 89
94 90 94
87 84 87
90 86 97
89 85 96
86 82 98
91 87 105
92 88 95
92 87 94
84 82 95
88 84 100
89 84 95
87 84 100
92 88 87
94 90 90
83 80 101
94 91 95
84 84 92
80 83 98
77 82 105
78 83 98
77 82 86
77 83 95
80 85 95
77 83 89
78 85 83
79 84 92
78 86 77
78 86 80
78 87 74
87 96 70
83 92 72
86 95 61
87 96 60
123 120 109
160 148 152
177 159 173
182 166 180
183 166 179
179 162 176
178 161 179
182 165 179
187 169 183
157 144 154
137 132 141
142 140 140
148 146 156
167 166 181
178 178 201
176 176 202
178 178 208
176 176 208
171 172 208
159 165 198
148 160 189
140 158 183
127 153 170
121 151 164
118 151 161
114 152 160
118 159 161
101 157 144
123 154 162
114 157 154
129 167 168
112 164 153
125 168 161
124 166 158
128 170 162
115 175 147
126 172 153
117 173 142
97 160 128
86 144 113
79 146 101
53 147 86
55 139 79
58 135 77
56 132 76
56 134 77
58 136 77
56 135 79
82 142 102
99 151 120
112 159 131
123 159 141
107 152 124
118 157 134
117 148 133
118 153 135
127 151 141
116 146 128
118 140 135
78 109 99
61 103 88
53 99 81
68 89 93
55 75 75
60 75 84
52 67 68
48 67 66
44 65 61
43 67 56
48 70 65
49 70 65
44 67 57
41 70 56
43 69 58
34 67 46
42 68 55
37 67 50
31 67 41
38 64 49
37 66 48
31 65 39
40 68 52
45 71 54
50 74 63
41 73 51
59 76 68
49 73 56
64 83 76
81 92 89
92 101 100
104 106 108
98 104 105
113 115 118
125 125 131
127 123 135
124 121 132
130 126 132
97 102 90
87 97 68
86 97 63
84 95 62
86 97 63
84 95 63
87 98 64
83 93 61
80 90 59
85 95 63
82 92 61
83 94 62
87 97 64
88 98 64
83 94 62
81 91 62
85 95 62
84 95 63
82 93 62
82 92 61
82 93 62
83 93 65
101 105 89
11 26 119
12 26 117
13 26 115
16 24 110
12 25 116
15 24 109
15 26 115
21 25 111
16 24 106
18 24 105
23 23 103
21 22 97
21 22 97
29 22 95
37 31 87
64 60 99
95 92 114
92 94 102
106 108 105
98 103 91
97 101 93
88 98 73
93 99 80
92 101 76
93 99 75
85 95 68
89 98 69
79 90 61
81 93 62
82 92 61
81 92 62
81 92 62
85 97 63
82 93 63
81 93 61
82 93 62
81 92 61
80 91 60
82 93 62
83 94 62
89 98 73
157 147 163
177 163 189
166 153 175
174 160 183
173 160 186
173 160 187
176 163 188
175 163 186
182 167 189
165 153 177
177 163 185
173 160 187
177 163 188
177 163 185
171 157 185
176 162 185
181 167 194
178 163 186
175 161 185
175 161 187
174 161 184
170 157 181
172 158 183
147 135 156
49 41 56
34 16 40
33 15 38
32 15 38
32 15 38
33 15 38
34 16 39
33 15 37
33 15 38
33 15 37
28 13 32
29 14 32
30 14 34
27 13 29
29 14 32
28 13 31
30 14 34
27 13 30
27 13 30
29 14 34
28 13 31
29 14 32
29 13 33
34 26 36
129 119 136
173 159 180
161 148 171
176 162 184
175 161 187
163 151 171
163 153 171
110 121 109
98 122 89
91 124 71
87 117 66
85 115 68
90 122 70
85 116 67
90 121 70
83 112 66
94 127 73
96 130 74
93 125 73
95 127 73
94 127 72
93 126 73
89 122 72
92 124 71
97 130 75
93 126 72
95 127 74
90 119 71
91 110 78
90 106 80
86 95 77
86 96 76
86 94 77
91 92 86
90 89 85
83 79 79
92 85 88
91 87 88
90 77 87
97 85 100
104 84 106
109 92 115
109 90 114
112 95 114
107 87 113
111 94 117
97 75 101
97 79 104
110 90 111
84 67 82
86 68 87
87 70 87
88 70 90
83 69 85
87 73 84
87 69 87
95 76 97
100 80 106
94 74 98
105 87 111
108 89 112
106 88 111
105 88 107
99 84 104
108 93 107
103 91 103
110 98 107
106 97 107
112 103 108
105 98 99
109 100 106
119 106 121
112 102 115
119 105 122
123 110 125
132 116 140
132 116 137
127 113 132
140 127 145
158 146 164
163 151 172
182 168 189
165 153 174
172 160 183
173 159 182
176 162 181
171 158 177
172 159 182
173 159 178
176 163 182
178 163 184
174 161 182
173 159 178
166 153 175
168 155 175
159 150 165
136 132 140
86 100 73
65 87 46
62 85 43
65 92 43
56 80 38
63 91 41
57 85 38
62 91 40
63 93 41
59 86 38
63 93 41
64 94 41
60 89 41
65 96 42
64 96 43
60 89 39
60 90 40
60 89 39
63 94 41
63 93 41
59 88 38
63 94 42
62 93 41
57 87 38
59 89 39
63 95 41
64 90 44
70 99 50
85 103 72
80 95 72
88 101 78
102 113 97
93 105 85
99 106 91
103 108 93
105 106 100
101 104 90
99 104 88
110 113 99
98 102 84
104 109 90
94 99 75
82 91 64
83 92 57
96 98 49
103 98 30
100 97 28
99 95 28
98 95 28
90 87 39
87 86 42
100 96 52
89 87 69
89 85 69
90 86 73
86 83 77
92 89 83
92 88 80
88 85 92
81 79 88
84 80 103
84 82 85
92 89 84
94 91 88
85 81 93
96 92 92
88 85 98
95 91 95
91 87 99
86 83 94
92 88 98
85 82 102
90 86 97
87 84 101
84 80 95
81 80 98
89 86 95
88 86 101
76 79 104
76 80 99
75 80 100
80 86 88
81 88 87
78 84 92
80 85 97
77 84 87
76 83 74
80 87 89
78 86 81
81 87 75
79 87 74
81 90 70
87 96 67
84 93 60
85 94 58
96 102 73
123 119 113
171 156 165
186 168 181
189 170 183
183 167 181
183 167 183
174 158 174
138 130 137
130 126 133
149 147 152
155 155 165
165 165 176
175 174 192
181 181 205
178 179 207
176 177 210
175 176 210
167 171 205
155 165 192
142 163 180
136 158 175
127 157 166
126 157 164
127 158 166
123 158 162
109 161 149
121 167 159
112 165 149
118 163 153
118 167 153
112 165 149
119 167 152
121 169 152
122 172 154
134 174 159
117 168 143
117 166 142
101 153 127
91 155 117
79 145 101
85 152 109
82 152 103
95 146 108
101 151 119
101 149 118
100 153 122
102 158 124
90 144 111
101 149 120
83 147 101
72 137 90
63 130 79
60 128 78
74 136 86
66 125 73
63 128 77
65 110 75
56 118 75
57 101 82
61 111 88
65 99 91
52 86 77
54 67 73
47 69 61
37 65 53
50 69 65
45 68 60
50 72 65
38 64 54
39 68 54
43 66 59
36 66 48
37 66 50
34 67 44
43 71 57
35 68 47
29 67 38
33 68 44
40 68 51
49 73 59
56 76 66
30 65 39
56 77 65
60 78 70
46 71 57
68 81 81
84 92 84
86 96 95
99 105 110
108 111 113
108 109 114
117 118 128
135 131 143
137 131 142
155 146 164
155 146 166
154 145 160
114 115 103
87 96 69
83 94 62
83 93 63
83 93 62
84 93 62
85 95 62
81 92 62
83 94 62
84 95 63
83 94 63
86 96 63
81 92 61
85 96 63
86 97 64
82 93 62
86 97 63
86 96 64
84 95 63
82 92 62
83 94 63
10 25 115
10 25 112
9 25 112
12 24 112
10 24 112
11 25 114
14 24 106
13 24 110
17 23 104
23 23 102
22 22 93
22 24 104
26 24 101
28 23 96
35 31 90
69 63 109
105 100 129
66 75 79
73 85 67
79 90 61
77 87 59
79 89 61
82 93 61
79 90 60
80 91 61
81 92 60
80 90 59
81 92 61
82 93 61
81 91 60
78 89 60
80 91 61
82 93 62
80 91 60
80 89 60
79 89 59
80 91 60
82 93 61
82 93 62
83 93 62
89 97 72
166 154 171
175 160 182
172 158 184
177 163 188
174 161 184
174 161 186
176 163 187
173 159 182
169 156 178
163 151 177
179 165 191
171 158 179
175 161 187
171 159 182
174 159 184
169 155 182
169 156 182
167 155 179
177 162 185
172 158 183
167 154 179
169 156 178
168 154 178
171 158 184
104 95 110
34 24 37
31 14 35
30 14 37
32 14 36
32 15 37
33 15 37
32 15 35
29 13 31
28 13 32
27 13 30
30 14 33
32 15 36
25 12 29
27 13 30
27 13 29
26 13 30
26 12 30
29 14 33
26 13 30
26 12 30
25 12 28
47 38 51
82 80 84
112 109 113
150 142 158
135 128 144
147 138 149
131 126 132
134 127 141
130 125 138
103 113 98
94 112 85
82 111 65
85 116 65
88 121 69
78 106 61
92 124 70
91 123 71
87 117 67
89 120 71
94 126 72
93 125 72
84 115 66
84 113 65
86 117 67
91 124 70
92 126 71
89 120 67
85 116 64
86 117 65
87 113 69
85 102 74
92 109 79
87 93 79
82 90 74
84 85 78
83 78 80
86 80 84
87 85 86
84 73 87
83 76 81
95 85 94
112 93 112
105 88 108
106 85 108
96 76 103
114 96 120
108 90 110
100 81 103
100 80 102
100 82 103
103 84 108
92 74 93
86 70 88
87 70 87
87 67 87
85 66 86
82 68 83
89 74 87
92 72 93
103 83 106
110 89 113
98 80 103
105 86 107
103 88 104
93 79 95
106 91 111
99 85 100
101 88 103
108 99 109
91 86 85
94 88 88
84 83 71
100 94 96
119 107 121
113 101 113
118 106 121
115 104 116
123 108 129
122 109 126
134 122 139
162 150 171
169 156 177
172 159 180
175 161 183
171 157 180
173 161 180
175 161 182
170 156 178
171 158 180
164 152 173
170 158 181
169 156 178
172 159 182
169 157 180
178 165 187
182 169 192
173 161 183
149 142 155
139 136 139
115 117 113
80 98 65
64 88 47
66 92 47
64 91 43
58 87 38
57 85 37
58 87 39
59 88 39
64 94 42
61 90 40
65 96 42
58 86 38
57 86 37
55 83 38
61 90 40
61 92 41
65 96 42
64 95 42
60 89 40
65 95 43
64 97 43
62 93 40
61 90 40
62 93 41
59 88 38
64 92 45
62 92 41
62 90 41
66 93 47
66 91 44
63 89 44
68 90 47
72 90 51
77 90 56
81 92 60
81 92 61
82 92 60
79 89 58
81 92 60
80 91 59
80 90 58
78 88 58
82 91 57
92 92 40
97 93 28
96 94 27
93 89 26
96 92 27
100 95 34
88 86 41
91 88 51
88 85 75
93 89 69
88 85 73
91 88 87
91 88 77
86 83 83
86 83 97
90 87 86
85 82 98
85 83 99
82 80 92
82 80 91
85 81 97
85 83 96
81 77 108
81 79 105
87 84 97
83 81 104
83 83 96
77 77 96
85 82 102
88 85 96
83 80 104
85 82 100
86 82 93
80 81 95
81 85 99
76 79 107
73 78 101
80 85 100
75 80 99
77 83 95
74 79 98
79 85 101
76 83 91
79 86 90
80 87 82
78 85 79
81 89 78
83 91 73
82 92 65
87 97 62
86 96 61
87 96 61
88 98 62
107 108 95
149 139 142
185 168 181
182 166 184
180 163 181
146 134 147
129 124 130
119 119 122
137 136 136
153 153 155
173 173 186
177 177 196
182 182 206
184 184 211
181 182 211
179 180 210
173 177 207
161 169 196
154 165 190
141 164 178
125 157 160
122 156 157
119 161 157
124 164 160
118 162 153
108 164 145
107 161 141
128 166 161
119 162 151
113 168 148
104 167 138
124 175 155
128 171 154
128 170 155
119 168 142
124 170 144
96 156 121
98 159 125
94 151 117
102 152 129
108 149 129
109 162 131
112 159 134
120 162 138
91 160 121
122 159 142
104 161 124
107 154 128
107 155 126
98 150 118
76 141 92
63 127 73
56 118 69
67 125 74
67 123 72
60 129 75
56 107 74
54 119 84
60 101 82
53 92 70
52 79 65
55 71 77
53 68 71
52 69 66
48 69 64
48 68 59
46 68 59
40 66 57
45 69 60
44 68 61
35 65 46
29 64 39
42 70 57
34 70 45
29 65 39
32 67 44
41 69 48
47 71 56
44 70 52
55 75 63
55 78 62
63 81 75
51 72 59
58 78 67
66 83 72
90 101 95
96 104 104
88 98 97
108 110 113
104 109 114
119 119 125
129 126 139
140 134 151
148 140 160
172 159 180
170 156 181
164 152 175
160 150 163
124 123 120
91 99 73
88 99 64
82 92 62
83 93 62
82 93 62
81 91 61
83 94 63
83 93 62
81 92 62
81 92 61
82 93 62
82 92 61
84 94 62
84 95 62
79 90 60
78 89 60
83 93 62
84 94 65
9 24 112
8 24 112
8 24 111
11 25 114
10 24 110
11 24 109
11 24 107
13 25 110
18 24 107
18 24 109
16 23 102
19 23 103
20 23 101
21 22 96
30 21 87
66 60 110
73 73 100
67 75 69
72 82 69
76 86 61
78 89 59
81 92 61
82 93 61
77 87 58
77 87 59
84 95 62
79 91 60
82 93 61
82 93 62
81 92 60
82 93 62
82 93 61
78 89 59
81 92 62
79 90 60
82 92 60
81 92 61
82 92 61
82 93 61
80 91 60
100 105 86
167 155 175
174 160 183
169 156 183
175 160 185
167 156 179
174 160 185
175 161 184
174 159 183
174 159 184
176 162 184
170 158 183
171 157 182
179 165 188
174 161 184
176 163 187
177 163 190
166 153 179
160 148 173
176 162 184
175 162 185
165 152 171
175 161 183
166 153 175
157 146 168
131 125 135
78 78 72
45 37 48
28 13 33
30 14 34
28 13 32
29 13 32
31 14 35
29 13 32
25 11 27
27 12 31
29 13 31
27 13 29
28 13 33
26 12 29
25 12 27
25 12 28
25 12 28
24 12 27
24 12 29
23 11 25
74 66 78
113 103 123
152 140 164
139 130 149
90 95 79
71 81 54
73 82 55
76 86 59
77 87 59
74 85 56
81 98 62
81 104 63
83 109 65
80 108 63
85 116 66
85 114 66
85 117 68
86 117 67
85 116 68
89 121 69
87 118 67
89 122 68
93 126 72
86 118 67
91 123 69
87 117 68
85 116 64
82 112 62
77 107 56
86 115 63
86 110 68
84 103 73
83 92 76
87 91 78
86 94 82
79 85 75
86 87 80
94 87 91
90 83 90
91 80 94
100 90 99
107 91 108
116 98 119
106 88 111
99 79 102
101 80 105
92 72 93
100 81 105
102 82 107
97 77 100
89 68 95
95 75 100
96 77 101
83 66 84
81 65 84
88 68 91
85 66 86
85 69 85
86 72 84
84 71 82
87 72 88
95 76 98
99 80 103
102 83 105
101 84 103
97 81 97
105 89 105
84 73 85
100 88 98
92 86 87
99 90 94
90 87 81
81 78 75
103 94 101
113 102 109
111 101 109
106 97 108
118 106 120
124 111 132
144 129 148
159 147 167
171 158 178
172 158 178
174 161 181
163 151 171
163 151 167
161 150 171
159 149 168
160 150 166
159 148 165
150 141 158
143 135 152
143 137 143
140 135 141
144 138 142
137 132 135
124 122 122
124 123 124
112 113 111
100 107 92
87 99 76
88 103 72
85 101 77
70 92 61
67 92 51
60 88 40
61 90 39
60 88 39
60 90 40
57 86 38
58 86 38
60 91 40
57 85 37
56 82 37
62 93 41
61 92 39
61 91 39
59 88 39
64 96 42
60 90 40
60 90 39
59 89 38
60 90 39
57 85 37
61 90 39
59 89 39
63 94 41
59 90 40
62 93 42
59 88 40
62 85 43
66 88 46
67 88 47
73 89 53
79 93 57
83 94 60
86 97 62
82 91 59
84 95 62
83 93 61
83 94 61
84 95 62
82 91 58
82 91 56
91 92 41
98 94 28
90 87 26
100 97 29
103 99 33
91 88 38
99 97 43
97 93 62
85 82 77
87 84 68
90 86 73
83 80 89
81 78 83
91 87 83
86 83 99
91 86 87
91 87 91
90 85 99
87 84 93
89 85 84
83 79 98
88 83 102
80 77 95
84 81 99
80 78 110
86 82 101
89 85 102
85 81 93
81 78 107
84 81 106
87 84 94
85 82 101
84 81 98
78 77 103
75 78 109
71 76 95
77 82 103
75 79 101
77 82 96
78 83 105
73 79 91
76 81 94
81 88 93
79 85 86
74 80 81
81 87 88
86 92 89
96 100 84
89 95 81
105 108 101
95 100 78
104 106 93
119 118 109
122 120 113
130 125 119
159 147 154
155 143 154
142 134 135
132 126 131
124 122 130
125 125 119
135 136 127
147 148 143
180 179 192
177 177 190
184 184 205
184 184 209
186 187 212
181 183 211
176 180 206
168 176 199
150 171 180
145 164 176
136 160 168
140 166 173
129 164 163
105 161 137
108 162 142
114 164 146
122 162 152
103 158 135
107 162 137
118 164 146
117 167 145
118 169 146
120 165 146
112 173 140
98 169 125
111 165 131
112 162 133
85 152 114
100 158 126
113 157 131
110 157 131
106 159 129
97 159 120
100 156 118
106 163 128
103 158 126
121 160 142
107 153 129
110 155 132
117 159 134
123 152 139
88 138 104
81 129 90
67 128 74
62 130 75
57 127 72
57 114 69
60 105 81
56 96 78
51 87 65
54 80 66
65 78 85
47 68 60
57 72 78
52 71 69
46 66 63
47 65 64
42 66 58
37 65 52
35 61 47
41 65 54
32 62 42
34 69 45
29 68 40
30 65 40
30 68 41
51 77 59
42 74 49
63 81 67
57 78 65
49 74 60
59 80 66
62 79 70
76 89 85
65 84 71
83 93 92
70 86 76
114 116 121
101 104 108
98 104 107
113 114 120
125 123 136
140 134 150
136 130 148
167 155 180
170 157 184
184 169 192
176 162 187
172 160 187
154 145 160
124 123 119
96 102 86
87 96 75
91 99 77
96 103 84
105 109 95
98 102 88
111 112 103
109 111 103
112 114 107
119 119 115
117 116 113
138 131 141
132 129 135
137 131 140
143 137 145
145 138 148
9 26 118
8 23 108
9 26 117
8 23 107
9 25 114
10 25 113
9 25 117
13 25 114
11 23 108
14 24 108
18 22 102
24 23 100
26 22 96
26 21 92
28 21 90
30 22 91
52 53 84
61 70 78
63 74 64
72 83 60
78 89 59
79 90 59
73 83 56
80 91 61
77 88 59
77 88 59
80 91 61
80 90 60
77 88 59
79 89 59
82 93 61
79 89 59
79 90 60
81 92 61
78 88 59
80 91 61
79 90 60
84 96 64
84 94 62
77 88 59
103 108 93
173 160 182
181 167 189
170 157 181
164 151 174
179 165 187
178 165 185
172 159 183
158 147 169
162 152 171
161 151 169
150 141 159
158 147 164
155 146 162
148 140 153
146 138 147
131 125 132
129 124 128
125 121 126
127 124 129
115 113 114
105 104 103
119 116 117
113 112 112
106 107 99
118 115 119
140 129 149
120 109 129
73 64 75
37 26 42
25 12 29
26 12 30
25 11 28
24 11 26
26 13 27
24 12 25
26 12 28
19 9 20
20 10 21
23 11 26
24 11 27
23 11 25
23 11 24
21 10 23
21 10 24
71 64 72
129 118 136
147 136 158
149 138 158
152 140 161
95 96 91
69 78 52
70 79 53
71 80 54
78 88 57
75 85 57
77 91 57
84 103 65
82 105 62
86 114 66
85 114 66
86 116 68
87 119 68
91 124 72
86 117 66
85 115 65
86 117 66
87 117 68
87 118 67
87 118 67
81 110 64
86 117 64
86 116 66
89 121 66
86 117 65
84 114 61
85 112 66
84 104 70
88 104 73
85 98 74
85 93 76
85 85 80
86 80 83
89 81 87
89 84 86
92 83 91
86 74 89
98 82 103
99 84 107
98 80 103
94 75 98
101 83 107
95 75 99
108 89 109
94 73 97
90 70 93
98 79 102
92 72 95
86 65 88
85 68 86
83 65 85
88 67 90
85 67 86
85 70 85
88 70 88
86 69 84
83 70 80
89 74 86
89 74 89
94 76 96
99 86 98
100 83 97
98 82 97
90 80 88
83 76 79
95 87 87
82 78 72
80 81 66
83 81 75
105 94 102
99 92 96
107 98 105
102 95 104
114 103 118
112 104 111
108 105 102
115 115 113
113 114 107
111 112 104
108 111 97
109 111 99
101 106 90
98 103 86
90 97 76
83 92 67
85 93 66
85 94 70
85 95 66
79 90 60
84 95 60
87 96 64
82 93 61
81 91 60
81 92 60
77 89 56
74 90 55
72 90 52
67 88 46
73 94 58
56 82 41
61 87 43
59 88 38
56 84 37
61 91 40
54 81 36
60 89 39
61 90 39
61 91 40
63 93 40
64 95 41
57 86 37
59 88 39
63 95 41
56 83 37
61 90 40
61 92 39
60 89 39
63 94 40
64 96 41
60 90 39
57 85 38
57 87 38
60 90 39
59 90 40
61 91 40
62 92 41
63 90 44
65 89 45
76 99 51
74 91 54
80 93 59
82 94 60
86 97 62
80 91 60
83 93 60
81 92 60
83 94 61
79 89 58
83 94 62
84 93 58
90 91 41
105 99 30
95 92 27
101 97 29
95 92 27
98 94 33
94 91 54
88 86 67
90 87 77
87 85 69
89 85 91
86 84 78
84 82 90
84 81 92
86 83 82
87 84 91
84 82 95
80 76 102
88 85 96
79 76 102
90 86 92
82 79 106
87 83 98
78 77 93
79 77 108
82 79 103
84 82 101
84 81 106
85 81 105
84 81 103
82 79 94
81 78 98
78 75 103
81 79 100
93 93 116
90 89 117
90 87 121
102 99 123
106 102 132
109 104 128
114 110 127
113 108 129
114 108 130
109 105 124
126 121 141
145 134 156
148 135 155
143 133 144
156 145 158
172 157 172
180 165 178
168 153 170
174 160 176
175 159 179
175 160 177
178 162 182
170 158 173
123 119 120
102 104 105
112 111 104
121 122 100
125 126 108
164 164 169
167 168 176
177 177 188
186 186 202
182 182 202
184 184 205
186 187 209
184 186 208
172 180 194
162 172 186
142 173 169
131 166 160
133 165 162
133 168 162
133 173 162
121 164 149
117 163 146
104 161 134
117 168 145
109 166 138
107 165 137
125 169 149
101 165 130
108 168 133
114 171 139
106 165 131
122 164 142
98 165 124
80 153 114
77 150 110
106 160 129
98 162 126
113 162 134
115 156 133
97 159 122
99 156 123
108 157 130
91 149 120
104 152 124
110 158 131
102 159 128
113 160 135
115 156 134
117 149 131
88 138 102
65 119 75
58 125 71
60 111 68
42 99 60
45 102 67
49 95 65
52 78 62
54 72 59
54 74 61
52 71 69
44 65 58
51 69 67
47 69 64
42 69 55
42 66 59
39 66 54
44 67 57
40 68 53
42 65 56
35 64 47
27 63 35
36 65 45
35 65 44
38 69 44
67 85 70
62 80 70
73 88 82
66 84 72
69 84 75
73 87 79
71 85 80
75 88 79
88 96 95
93 102 96
114 116 121
103 105 106
110 110 118
115 115 123
112 113 117
137 131 137
133 128 136
146 140 147
136 131 142
144 138 145
117 117 112
134 131 134
113 114 110
88 97 71
118 117 118
152 143 156
157 146 164
174 161 182
169 158 181
170 158 183
172 159 184
174 160 183
175 162 186
170 156 181
171 158 181
171 157 183
177 163 191
180 165 189
167 154 181
8 23 109
9 25 112
9 25 111
9 25 112
8 24 109
8 25 112
8 24 110
8 24 109
10 24 106
13 24 109
18 24 108
16 24 108
24 22 97
31 22 93
25 22 90
29 20 81
46 45 77
58 65 78
72 82 72
79 90 61
78 89 59
77 88 58
73 84 57
81 92 62
79 90 62
78 87 60
90 98 73
93 100 76
86 94 70
96 102 83
97 102 86
108 110 104
97 103 86
103 106 98
110 109 101
117 116 116
116 115 110
115 115 112
129 125 131
133 129 133
136 131 137
135 129 135
125 122 126
131 127 132
109 110 105
118 118 115
108 110 103
96 101 87
107 111 99
97 101 84
89 94 76
96 101 82
80 89 66
88 98 72
89 96 74
83 93 63
81 91 63
74 84 57
75 85 56
76 86 58
77 86 57
72 82 55
73 82 55
75 85 56
74 83 54
106 105 105
140 128 148
143 130 150
134 122 144
105 95 108
65 57 67
33 24 39
23 11 26
24 11 26
24 11 26
24 12 26
22 11 25
21 10 22
21 10 23
21 10 20
21 10 22
22 11 25
29 24 29
55 51 62
99 89 104
128 116 133
139 127 141
136 125 144
133 122 138
146 134 155
103 100 103
72 82 53
68 77 50
74 84 55
72 81 54
75 84 55
78 92 59
80 99 62
82 103 63
83 107 63
83 111 65
82 112 63
81 110 63
81 112 62
79 108 62
86 118 69
84 114 65
90 121 67
89 121 67
90 121 67
85 116 65
83 113 61
84 113 63
81 110 59
76 104 58
81 110 61
87 113 66
81 100 65
84 99 70
80 88 70
81 79 73
74 75 70
89 82 87
90 82 90
91 83 88
85 80 84
93 81 93
86 72 91
94 77 97
101 82 106
83 66 86
91 71 97
95 75 98
101 82 106
96 76 96
85 66 90
91 70 93
86 68 90
97 77 101
87 67 92
93 75 96
92 72 94
85 66 86
87 68 88
87 68 93
87 71 88
96 79 100
105 88 109
112 96 116
112 94 116
94 78 96
91 75 93
91 79 89
94 82 91
82 77 73
73 72 60
74 75 57
71 75 51
74 76 59
94 89 85
92 87 90
101 93 95
106 97 105
117 107 119
149 139 153
90 97 79
82 92 62
81 92 60
79 89 58
80 90 60
83 94 62
85 96 63
82 93 60
79 89 58
80 91 60
84 94 62
82 93 61
80 91 60
87 98 63
80 91 59
83 93 61
78 88 58
82 92 61
83 94 62
74 87 54
69 85 51
71 90 49
63 85 45
62 88 42
62 88 45
57 86 39
59 87 38
56 83 37
59 88 38
64 94 40
57 85 37
60 89 39
59 87 38
59 88 38
58 89 39
63 94 41
60 89 38
64 95 41
62 93 40
57 86 36
55 84 36
59 88 38
57 85 38
59 88 37
61 91 39
61 91 40
63 93 41
59 88 37
61 91 40
54 82 36
62 95 41
62 92 42
70 96 47
70 90 50
72 91 52
79 91 58
82 93 61
84 94 62
82 92 61
84 94 61
82 93 59
82 92 60
84 94 62
81 92 60
85 94 59
90 92 45
97 94 28
86 84 25
95 91 27
98 96 28
94 90 43
90 87 45
86 83 67
92 89 73
80 78 72
79 77 82
85 81 85
80 78 80
86 83 81
88 84 81
77 75 97
84 81 84
83 80 84
79 77 100
81 79 101
85 82 97
83 81 102
81 78 101
79 76 101
78 78 101
83 79 105
85 81 102
76 74 100
75 73 103
82 79 103
80 78 104
81 78 109
77 74 107
84 82 116
115 108 140
125 115 149
120 113 149
140 129 159
130 120 155
125 115 154
137 125 155
124 115 148
135 124 154
135 124 154
136 126 152
142 131 156
146 133 155
159 145 163
176 160 180
177 162 185
179 164 183
188 171 190
181 165 183
175 161 180
181 166 186
186 168 186
176 162 182
171 156 171
134 130 138
119 119 115
113 114 90
123 125 104
135 139 130
168 169 174
168 169 178
170 172 182
180 180 196
183 184 198
194 194 212
188 189 207
177 183 197
162 177 185
149 171 173
145 167 168
130 164 155
140 169 163
132 169 156
119 167 145
102 161 130
129 173 153
120 165 146
111 161 137
100 156 125
106 162 131
116 171 141
114 166 137
105 166 131
114 173 138
108 163 129
92 150 114
76 155 108
76 142 104
90 154 111
101 159 122
96 154 123
84 156 116
104 157 123
106 161 130
114 165 139
106 156 126
106 160 126
100 157 126
106 154 130
126 155 140
111 153 129
117 155 137
114 145 130
108 148 122
73 130 89
51 115 68
44 100 61
51 101 68
48 80 56
53 79 50
57 78 59
48 72 47
47 71 54
46 68 62
39 66 56
43 63 62
42 67 58
51 70 70
38 67 50
46 69 61
37 66 50
37 64 48
28 61 37
31 65 40
26 61 35
28 64 36
38 68 43
59 79 63
60 80 67
60 79 63
47 76 51
49 71 54
54 77 55
48 72 49
56 78 58
54 77 52
59 77 59
72 88 71
72 87 67
64 81 61
61 78 50
68 84 55
71 85 55
80 91 61
80 90 59
83 94 63
84 94 62
81 92 61
81 91 61
82 92 62
79 90 59
81 91 63
105 108 99
142 136 151
163 152 174
172 159 186
178 164 190
173 158 186
183 169 194
168 154 178
180 165 187
176 162 188
180 166 190
182 166 190
180 166 189
177 163 186
8 23 106
8 24 106
8 23 108
8 24 109
8 22 105
9 25 111
8 23 100
8 24 110
8 24 108
8 24 111
12 23 104
15 22 101
22 21 93
23 22 97
27 22 93
29 22 92
44 41 80
71 73 84
100 102 103
114 114 117
123 120 121
127 125 127
134 130 136
134 130 139
135 130 141
152 144 159
151 143 159
145 137 156
155 146 168
164 154 174
165 154 172
160 149 169
162 151 172
177 164 188
171 159 182
165 153 175
179 165 186
166 154 180
167 154 178
173 160 184
159 149 165
85 94 69
82 93 61
78 88 58
83 93 62
80 90 60
79 90 60
78 89 60
81 91 60
80 89 59
82 93 60
77 87 57
79 89 59
78 88 60
78 88 58
80 90 60
78 89 60
75 85 56
71 79 53
72 81 54
81 91 59
74 83 55
70 79 54
73 82 55
70 78 51
101 99 97
143 131 151
136 124 146
144 132 149
116 104 115
109 99 116
82 73 86
64 56 66
35 27 37
17 11 20
27 20 29
20 10 21
20 10 21
18 9 19
17 8 16
40 34 38
72 63 72
96 87 98
90 80 88
114 103 117
113 104 119
125 114 127
120 110 126
130 119 138
127 115 133
123 118 126
69 74 57
65 74 48
69 79 52
70 79 53
71 80 54
69 78 53
75 88 57
80 98 60
82 106 63
74 97 57
78 103 62
76 103 60
85 115 66
79 109 62
79 109 61
78 107 60
85 115 63
90 122 70
89 119 65
80 110 60
84 114 63
85 115 62
83 112 60
87 117 62
82 111 61
77 103 57
81 102 63
84 94 70
82 94 68
74 76 68
86 84 78
84 77 80
89 82 89
85 75 82
80 68 77
87 76 85
93 78 92
87 70 88
91 73 94
89 71 90
88 67 91
85 64 85
91 72 93
83 65 86
82 61 83
89 68 93
85 66 86
86 68 86
89 68 92
85 66 89
98 79 103
97 79 101
97 78 101
94 74 98
107 89 113
110 94 119
113 94 119
113 96 116
113 95 122
108 92 113
87 74 86
81 71 77
83 72 76
70 67 58
72 73 57
69 72 50
69 72 49
82 80 70
85 82 76
89 85 81
91 87 85
119 109 119
155 143 162
169 156 177
144 136 149
89 98 70
82 92 60
79 89 59
81 92 61
83 94 62
79 90 59
86 97 64
81 92 60
80 91 61
80 91 61
83 94 61
79 90 59
77 88 58
82 93 61
85 96 63
82 93 62
81 91 60
81 92 61
77 90 56
76 94 55
68 89 47
60 84 42
61 90 41
57 84 37
58 85 38
57 85 37
59 88 38
58 85 37
57 86 38
57 86 38
59 88 38
61 90 39
58 85 37
57 86 37
56 84 36
63 93 39
64 96 42
60 90 40
60 89 38
60 90 39
59 90 39
58 87 37
62 92 40
62 92 40
59 88 38
62 94 40
59 89 39
60 90 40
61 92 40
60 90 39
64 94 42
62 90 42
72 94 54
78 94 57
82 95 63
91 101 75
87 95 66
104 108 94
98 104 84
102 106 90
120 120 109
102 106 93
107 110 101
116 115 109
119 116 97
91 89 33
89 88 26
93 90 26
84 82 24
95 91 42
89 87 50
93 90 56
83 80 80
88 85 84
83 80 79
86 83 87
81 78 95
87 85 88
83 79 94
81 78 102
79 75 98
82 79 100
84 81 103
77 75 103
76 72 101
77 75 106
83 79 99
82 79 106
84 82 101
78 77 101
79 76 103
87 83 93
83 79 111
80 77 105
80 77 104
79 75 109
80 77 103
77 76 106
93 90 124
109 103 136
109 102 144
120 109 146
135 125 159
121 113 144
122 114 150
127 117 153
134 125 154
135 124 153
149 138 161
148 136 159
150 138 158
159 147 168
166 152 173
170 156 179
178 163 182
172 157 179
173 159 178
175 160 178
182 167 186
182 165 185
190 174 193
166 153 172
127 121 125
103 102 84
96 98 61
119 121 103
137 139 130
132 137 134
157 159 162
162 164 172
165 168 176
181 181 193
189 187 200
186 187 199
178 182 193
168 178 184
160 177 178
139 164 161
142 169 161
133 171 156
131 170 153
133 169 152
125 162 144
101 160 128
124 167 145
98 164 126
97 165 126
91 160 122
77 149 106
81 155 112
96 163 123
107 165 128
102 161 126
101 161 125
79 148 108
66 143 101
71 151 103
86 144 113
97 152 122
114 159 130
98 148 121
106 159 131
93 155 121
102 154 125
104 154 127
105 157 132
102 154 122
97 148 120
95 155 115
99 147 122
98 140 115
95 141 114
103 144 121
64 130 89
42 117 66
42 106 63
69 92 78
75 99 85
81 92 89
73 85 75
87 95 91
76 86 87
52 71 66
48 67 66
50 69 70
45 62 60
39 63 55
42 62 61
38 61 49
33 65 44
28 62 38
26 62 34
27 63 34
34 67 41
49 76 56
57 76 64
69 84 76
61 80 69
68 84 72
67 83 68
54 79 51
46 71 43
46 73 44
54 77 47
49 72 45
57 77 48
58 81 49
54 76 47
64 82 51
67 81 54
71 85 55
73 83 55
80 91 61
82 93 62
82 92 61
82 92 61
83 94 62
76 86 58
84 95 64
81 92 61
78 88 59
82 92 62
106 109 98
132 129 127
163 153 171
169 157 179
183 169 194
171 158 184
173 159 183
177 163 185
172 160 185
171 157 181
174 160 185
166 153 180
8 25 111
9 25 113
8 24 108
8 23 104
9 26 117
8 23 105
7 22 103
8 23 108
9 25 114
8 24 110
8 25 111
10 23 103
17 23 104
21 22 97
27 21 92
31 20 80
65 59 106
108 100 128
142 133 158
164 153 176
166 155 177
170 156 176
169 157 181
172 159 182
164 153 177
167 155 180
169 156 180
169 156 180
169 157 179
176 162 183
175 161 184
171 157 181
174 161 184
172 160 182
164 152 180
171 158 182
171 158 183
173 159 184
170 157 182
173 160 185
159 149 163
86 95 73
80 90 60
80 91 61
79 90 59
79 90 60
80 91 61
76 87 58
80 90 60
78 89 59
77 87 57
77 87 58
79 90 59
76 87 59
73 82 55
73 82 55
77 87 58
68 77 53
75 84 56
69 77 52
71 79 52
73 82 55
70 79 52
74 83 54
66 74 50
87 88 79
130 119 135
125 113 126
146 133 148
123 111 121
112 100 111
100 90 101
91 81 89
89 79 85
81 72 77
62 56 58
69 62 64
56 49 53
59 51 52
70 62 68
84 76 80
78 67 75
102 93 99
90 83 88
88 84 88
95 86 95
122 112 124
131 120 134
117 107 120
133 122 136
131 123 133
66 70 58
71 79 54
76 84 59
71 80 55
79 85 65
68 76 54
75 86 60
86 97 75
86 99 75
92 109 77
91 111 79
83 107 69
80 102 69
84 115 64
77 106 56
76 105 58
85 117 60
86 117 63
85 116 62
80 110 60
80 109 56
77 105 54
78 106 57
74 102 52
85 114 60
83 106 62
72 92 52
80 89 66
84 90 74
82 84 70
83 81 73
84 87 73
75 73 67
81 76 74
80 74 76
82 68 79
78 68 77
79 62 81
81 64 82
83 65 85
80 61 82
82 63 84
82 62 86
82 61 85
78 59 83
81 60 83
76 56 79
81 61 82
86 64 88
80 61 81
80 61 84
100 81 103
97 80 103
100 83 105
109 91 115
103 86 105
112 95 116
110 95 118
124 106 127
114 97 119
99 86 105
82 71 78
72 67 61
72 71 59
70 71 54
68 71 49
68 72 49
74 76 56
79 77 66
76 76 67
97 92 96
143 134 149
174 161 186
175 162 186
165 153 170
128 124 127
83 94 64
81 91 60
83 94 61
82 93 61
84 94 62
80 91 60
83 94 61
81 92 61
81 91 61
81 92 60
81 92 61
84 95 62
81 91 60
82 93 62
83 94 62
80 91 60
77 88 59
77 91 57
74 91 53
68 89 47
58 84 40
57 85 38
56 84 37
53 80 34
56 84 37
55 82 36
56 84 36
59 88 38
60 89 40
61 89 39
64 94 41
60 89 39
60 90 39
59 88 38
60 90 39
57 85 38
60 90 39
64 94 41
58 89 38
66 98 42
62 92 40
56 87 37
57 86 37
57 85 37
60 90 38
60 89 39
58 88 38
60 90 39
64 95 42
58 87 39
70 93 55
82 99 75
105 114 102
137 135 136
155 147 161
161 149 162
166 155 175
161 150 170
161 150 171
169 156 174
178 164 180
171 158 180
177 163 184
139 130 130
98 94 50
95 92 27
102 98 29
88 85 25
89 87 37
84 83 50
80 78 66
84 82 73
82 80 71
81 77 80
72 70 92
77 77 77
83 81 94
83 81 96
81 79 97
78 76 100
86 82 93
82 78 105
80 77 101
79 76 102
76 73 103
74 70 109
75 72 107
76 73 104
82 79 104
73 71 106
81 79 98
83 79 106
77 74 109
83 80 106
80 77 106
77 75 108
75 78 100
71 74 108
76 80 104
102 97 132
119 110 142
117 109 150
128 118 153
137 127 158
119 111 146
143 133 165
135 126 156
133 123 150
150 139 162
145 134 164
163 149 171
175 161 181
178 162 184
180 166 187
184 168 186
183 167 187
176 161 180
184 169 187
171 157 179
188 172 192
166 154 173
119 116 122
92 95 81
92 97 62
102 106 88
132 134 130
135 138 140
154 157 160
145 148 150
149 152 155
165 167 173
185 183 188
173 177 184
166 174 178
153 170 171
145 171 164
146 167 162
135 169 154
145 178 161
122 159 138
112 163 134
123 160 139
110 161 130
96 149 116
83 150 108
85 147 109
71 147 102
87 153 113
87 157 116
97 157 120
89 156 117
91 153 116
78 154 108
72 146 102
61 142 98
75 143 99
89 153 114
72 150 100
93 152 114
79 150 102
74 147 97
76 141 101
73 147 100
76 142 99
72 139 93
70 129 89
58 131 80
73 125 84
56 132 79
63 134 83
57 123 72
50 118 69
54 109 64
46 111 67
52 96 64
73 97 84
87 102 98
109 110 116
85 91 91
93 98 101
76 88 80
66 80 77
60 74 72
45 67 61
46 68 62
45 63 61
34 64 46
26 61 36
26 62 35
25 61 34
27 65 36
27 64 36
26 62 34
27 65 36
44 74 52
65 81 72
76 86 79
93 100 98
77 90 85
64 83 66
66 82 71
53 77 52
45 71 43
50 75 44
52 78 47
55 76 48
55 76 48
58 78 49
70 84 55
72 85 56
77 89 60
82 92 61
77 88 59
84 95 63
82 93 62
84 95 63
85 95 62
84 94 62
79 90 61
77 86 58
82 93 62
81 91 62
86 97 63
89 96 75
122 120 122
154 145 159
167 155 177
170 157 184
167 154 181
177 163 188
171 158 185
176 162 186
176 162 185
9 24 109
8 25 110
8 23 105
8 24 110
9 25 115
8 24 110
8 22 102
8 23 105
9 26 117
8 23 108
8 25 112
8 22 105
13 23 105
14 22 102
19 22 96
28 21 90
46 37 87
130 119 145
152 142 164
159 147 169
166 154 177
160 150 171
156 145 164
167 155 179
164 150 175
169 156 177
169 157 182
170 158 181
164 153 178
165 152 178
172 159 184
177 164 186
174 160 182
169 157 177
176 163 185
175 163 187
169 157 179
169 157 182
169 156 179
173 160 183
144 137 152
81 91 63
80 91 59
80 91 60
80 91 60
79 89 59
77 88 59
80 89 58
78 88 58
78 88 58
78 88 58
77 87 58
80 91 61
76 86 57
76 86 56
76 85 56
71 80 55
71 80 54
75 84 55
71 80 53
73 82 53
67 75 50
66 74 50
68 76 50
69 78 50
82 85 72
127 118 130
139 126 143
131 119 130
119 108 116
111 100 110
109 99 106
106 95 101
90 82 86
77 71 74
84 75 76
71 65 68
41 37 37
68 61 59
65 61 60
76 71 70
76 71 69
92 82 85
104 97 102
100 94 98
100 92 98
100 94 95
101 97 99
95 90 91
103 98 103
112 108 112
118 115 118
103 100 103
133 124 134
128 122 127
140 131 144
136 127 143
143 137 151
135 127 143
131 129 138
119 122 120
108 117 108
101 116 96
95 111 88
83 106 68
81 108 60
71 98 51
80 109 57
77 105 55
76 104 52
77 107 49
78 107 54
73 100 45
75 103 48
80 109 54
74 101 48
80 108 53
81 103 56
80 93 61
77 82 70
83 87 70
77 76 69
80 81 70
83 78 74
81 76 73
78 66 73
82 75 75
80 67 77
77 64 76
83 66 83
78 61 80
82 62 82
78 58 82
81 61 84
82 60 85
75 57 79
75 57 77
74 55 78
83 61 86
82 61 85
83 61 87
81 61 85
81 62 85
89 70 92
99 80 103
100 82 107
114 95 119
113 95 116
114 97 116
117 100 124
125 110 135
119 104 127
105 93 106
83 76 76
74 70 63
71 72 54
68 70 48
70 74 50
64 67 46
71 73 55
91 90 80
146 135 147
165 154 178
165 153 174
164 151 176
166 154 177
157 147 164
92 98 82
82 92 60
81 92 60
83 94 62
83 94 61
82 93 62
81 92 60
83 93 60
80 91 60
77 88 57
81 91 62
81 91 59
81 92 60
83 94 61
81 91 60
85 94 68
83 92 65
91 101 73
73 89 52
63 85 43
60 88 40
58 85 38
55 82 36
55 83 37
55 82 36
62 92 40
59 87 38
57 86 38
63 93 40
61 90 40
60 89 39
57 86 37
60 90 39
58 88 39
59 87 37
61 90 39
60 91 40
61 93 40
63 93 40
58 87 38
61 93 40
62 94 40
62 93 40
58 87 38
62 92 41
56 84 37
62 94 40
58 88 38
63 94 41
65 97 42
63 92 44
86 104 79
136 133 137
166 154 173
174 161 181
173 160 180
179 164 187
177 163 187
173 159 183
173 159 181
178 163 186
169 155 177
174 161 182
151 140 145
101 98 73
87 85 32
80 80 23
88 85 28
91 88 40
83 82 50
89 88 67
89 86 74
85 82 81
77 76 76
77 75 98
82 78 97
79 76 99
75 73 95
73 71 98
76 73 103
80 77 100
74 72 99
76 74 98
72 70 105
76 74 115
75 74 105
80 76 112
77 74 105
79 76 105
75 73 111
81 78 105
76 73 105
73 72 105
76 74 99
72 70 110
75 75 106
74 74 111
71 75 107
72 76 106
71 72 110
76 77 111
100 95 131
129 120 152
128 119 150
123 115 154
122 114 144
124 116 145
126 117 145
139 128 156
146 135 158
163 150 171
171 157 179
173 159 177
176 161 182
177 163 184
176 160 179
177 161 180
173 159 182
173 159 182
181 165 184
152 143 161
91 93 90
82 87 65
95 100 63
111 115 100
131 134 132
129 135 132
126 134 132
144 147 150
147 149 152
149 152 152
164 168 171
158 163 167
152 164 160
144 160 159
139 162 153
128 159 145
107 148 126
108 153 123
115 165 135
94 149 113
98 155 117
100 153 116
92 153 115
74 146 99
79 147 105
70 154 103
49 143 88
60 142 93
76 156 110
78 158 109
91 154 116
90 148 110
91 162 119
66 148 104
69 145 101
38 136 75
51 143 86
48 143 81
44 136 77
47 136 75
49 135 76
52 131 75
47 140 78
43 134 77
48 134 77
56 123 72
52 136 78
58 121 71
54 131 74
55 133 76
50 126 71
45 117 66
43 118 66
48 86 51
66 89 72
81 95 86
89 94 94
98 101 107
88 93 96
80 92 86
94 96 107
79 85 92
53 70 68
45 64 57
39 63 50
35 64 47
29 62 38
27 64 35
28 67 37
27 66 36
25 58 32
27 65 35
27 65 35
28 65 37
45 72 50
61 76 70
69 86 80
88 97 93
70 87 80
82 92 90
75 89 80
74 89 73
53 76 49
53 76 46
52 76 46
58 75 49
61 79 50
70 85 55
75 87 58
80 90 60
83 93 62
80 91 61
83 93 62
79 89 60
84 95 63
84 94 62
80 90 60
82 92 61
82 92 61
83 94 62
81 92 62
80 91 60
81 92 60
84 95 63
92 97 82
121 118 120
162 152 168
163 152 172
173 159 187
173 160 183
172 159 186
170 157 183
9 24 110
8 23 107
8 22 100
8 24 110
8 23 108
8 24 113
8 23 102
8 24 112
8 24 108
8 24 113
8 23 109
8 24 111
8 23 107
11 24 107
15 23 103
26 22 96
35 28 91
97 90 123
148 136 164
164 151 174
172 160 183
168 156 180
163 152 176
172 160 186
168 156 181
163 152 174
170 157 178
170 158 183
174 162 183
170 157 180
168 155 179
166 154 178
172 159 184
163 150 173
171 157 181
174 161 184
170 158 183
175 163 183
170 157 178
163 151 179
136 130 141
84 94 64
81 92 61
81 91 61
81 92 60
80 90 59
82 92 61
76 86 57
83 93 62
82 92 59
78 88 58
78 88 57
78 89 59
78 89 60
74 84 55
72 81 53
80 88 62
86 92 72
75 83 59
75 83 62
80 87 68
79 84 66
84 87 72
76 81 65
80 83 68
90 89 86
108 102 108
116 109 115
124 115 122
100 95 97
107 101 104
99 91 96
83 78 76
92 89 87
85 82 73
67 67 55
69 69 55
67 67 59
78 77 64
49 53 35
65 68 54
59 65 46
60 65 48
61 66 49
63 68 48
64 69 52
68 73 55
66 72 50
66 74 50
69 77 53
72 81 53
109 106 109
143 133 150
151 140 155
153 142 159
149 139 159
163 151 170
144 134 152
147 137 155
149 140 158
136 135 144
135 134 138
123 128 123
109 116 105
97 114 89
89 109 75
86 113 69
73 103 52
77 105 49
74 102 45
83 113 57
79 108 51
78 107 52
78 107 48
78 107 49
78 106 53
77 98 53
75 94 56
78 88 58
78 85 63
80 84 65
80 82 68
78 78 67
83 73 77
76 72 70
82 74 75
82 70 77
81 71 76
79 67 75
82 64 83
79 60 78
77 59 78
73 55 76
86 63 87
79 59 81
85 62 86
76 56 79
81 60 84
77 57 79
74 55 77
78 58 82
85 64 88
78 58 82
80 60 83
89 68 92
95 75 98
97 77 102
111 94 117
106 91 111
124 107 128
116 100 121
128 113 133
137 123 139
119 105 120
87 81 79
68 70 50
63 66 46
70 73 49
67 70 48
83 83 73
128 122 132
159 146 166
165 153 175
162 150 171
172 158 179
168 155 174
161 148 168
139 132 139
88 94 78
91 98 76
89 97 73
100 103 90
99 104 89
99 103 88
101 105 94
106 108 102
107 109 101
122 121 115
127 125 123
123 121 118
127 124 126
134 130 138
141 136 140
136 131 136
133 131 133
97 105 97
68 92 51
57 85 38
60 88 39
57 84 37
60 89 39
56 84 37
61 91 41
60 89 39
57 85 37
59 88 38
62 92 40
64 94 42
58 87 38
60 89 38
62 91 40
62 92 41
66 98 41
56 84 38
59 89 39
60 90 39
63 94 41
64 96 41
59 87 38
61 92 39
60 88 39
57 87 38
63 94 40
62 93 41
57 87 38
60 90 39
60 90 39
59 89 39
79 98 68
124 128 125
155 149 160
169 156 180
172 159 183
170 157 179
182 168 189
179 164 182
179 165 189
172 159 182
173 158 178
177 164 188
169 157 173
119 111 96
92 90 47
85 84 24
92 89 29
82 80 38
87 85 44
74 75 61
73 71 79
82 80 83
75 73 90
85 81 90
79 76 94
71 69 106
75 73 94
72 72 99
78 75 100
76 73 98
71 69 95
73 73 108
74 71 111
81 78 104
67 65 113
78 74 111
75 72 105
73 71 114
74 72 112
76 74 108
72 68 108
72 70 110
75 73 109
72 70 98
72 72 112
73 74 111
70 71 111
70 73 101
71 74 109
71 73 114
77 80 109
107 102 135
114 107 139
133 124 158
126 118 153
121 112 143
129 120 153
136 126 151
153 140 165
163 150 173
166 154 178
170 158 180
179 165 185
172 159 175
174 161 182
167 154 173
170 157 172
168 156 172
169 157 169
134 129 140
107 108 114
88 93 82
92 97 86
104 110 96
121 125 120
118 125 118
112 119 117
114 121 116
118 124 123
142 143 146
157 158 159
142 144 155
138 150 152
124 148 140
113 145 132
107 148 126
102 147 120
96 147 117
89 149 111
99 149 114
94 151 112
94 155 115
81 149 106
88 152 111
59 145 94
51 141 87
49 136 82
71 157 103
62 149 95
72 153 103
68 152 99
56 144 94
60 152 99
58 148 97
56 146 90
47 140 81
47 144 81
41 148 82
48 134 74
44 136 76
49 130 74
54 143 82
43 140 78
47 130 73
44 129 74
57 124 72
50 127 71
49 130 73
46 132 72
53 127 71
49 112 66
46 125 69
39 101 58
42 95 54
41 87 50
54 78 52
67 81 68
74 85 77
79 89 84
97 99 104
88 93 97
85 91 99
57 76 66
38 66 49
32 64 42
27 61 37
25 61 33
24 60 34
25 61 32
23 58 31
26 59 33
26 62 33
27 64 36
26 61 33
31 65 39
53 72 58
78 88 81
77 88 84
86 94 94
82 90 91
89 95 94
100 105 108
86 95 90
60 78 62
58 77 52
59 78 51
62 79 50
64 81 52
67 82 53
78 90 58
81 91 60
80 90 61
80 89 59
83 94 63
78 88 60
79 90 61
83 94 62
83 93 62
83 94 61
81 92 61
85 96 63
86 97 67
86 95 71
90 98 74
89 97 72
92 100 74
98 103 89
137 133 137
156 146 168
167 155 178
155 145 169
156 146 166
8 23 103
9 26 117
8 25 112
8 24 108
8 24 109
8 23 106
8 23 108
9 25 112
8 24 108
8 24 110
8 24 107
8 24 111
8 25 110
8 24 111
13 24 110
23 22 96
39 33 95
96 90 125
147 136 161
163 152 177
176 163 183
163 150 173
181 168 187
160 149 172
171 158 179
160 149 175
166 154 176
165 154 179
168 155 176
176 162 185
170 158 185
181 167 189
175 161 184
169 157 182
171 158 185
169 156 181
163 152 175
169 156 181
165 153 178
168 154 173
143 137 144
81 90 65
83 91 69
87 96 69
93 100 80
89 97 77
94 100 82
98 103 91
104 107 96
107 108 103
116 117 109
109 109 102
126 123 124
116 114 116
128 123 129
135 129 133
128 122 133
127 122 132
139 131 145
137 129 140
134 126 138
130 123 135
137 128 140
138 127 140
132 123 136
125 116 129
97 97 89
76 82 60
72 79 56
73 79 58
62 71 45
62 70 45
62 68 46
70 79 49
60 67 42
61 70 44
57 64 39
58 65 41
57 64 41
59 67 42
66 75 46
61 69 43
72 81 51
61 69 43
67 76 49
73 83 53
70 80 51
64 72 47
68 77 49
67 76 49
73 82 54
94 96 86
160 149 165
161 150 170
156 144 165
154 144 166
152 141 161
144 135 154
158 145 166
152 142 159
146 139 153
134 133 137
128 127 132
114 119 112
108 116 108
99 110 94
81 103 62
77 104 55
67 94 44
75 102 47
78 106 52
71 100 42
74 102 48
77 107 48
69 96 44
71 100 43
77 101 53
76 92 55
79 91 62
78 88 60
82 90 60
79 81 69
79 79 72
80 77 70
80 78 66
79 74 70
83 72 79
81 73 74
75 65 71
77 63 76
76 63 74
78 60 78
76 59 77
85 65 86
78 58 82
77 57 80
80 59 81
79 58 84
75 56 80
75 56 78
80 59 83
81 60 84
80 59 83
81 60 83
78 58 81
81 62 83
90 70 94
104 83 104
105 89 107
123 105 126
116 99 122
110 94 116
133 116 136
136 125 141
104 96 103
77 79 63
72 75 52
70 74 50
64 67 45
90 89 81
142 134 143
136 128 135
129 123 133
134 127 136
127 122 120
119 115 121
114 114 114
123 119 120
106 106 104
151 140 154
159 147 159
155 143 164
157 147 165
154 143 161
169 158 176
164 151 169
163 151 173
170 156 178
168 155 173
170 157 180
169 155 177
177 163 186
168 156 178
168 155 177
156 147 163
120 120 121
70 94 56
59 88 39
59 87 38
60 88 40
55 82 36
63 92 40
57 85 37
54 80 35
55 82 37
63 94 41
64 95 41
60 89 38
59 88 38
63 93 41
54 82 35
55 83 36
62 92 39
61 91 40
60 90 38
62 92 40
63 94 40
60 90 40
58 88 38
58 86 38
63 94 40
61 92 39
63 93 40
56 85 37
59 91 40
60 89 39
63 96 41
55 84 37
70 94 55
110 116 108
149 143 155
172 159 178
181 166 188
165 153 176
176 163 187
170 157 180
178 164 184
176 162 185
174 161 183
168 154 175
166 154 177
150 139 145
100 97 50
81 80 22
77 77 22
85 83 29
74 75 45
75 76 70
73 72 74
79 76 88
77 74 90
76 74 98
75 73 86
73 71 102
75 73 96
67 65 100
80 77 106
77 74 103
76 73 104
72 69 101
74 71 106
80 76 107
75 72 110
77 74 111
70 67 107
72 69 113
72 70 112
72 70 111
70 68 106
75 72 107
70 67 107
70 69 109
73 73 115
72 74 112
74 75 117
81 82 112
77 79 109
79 80 115
78 78 114
85 85 118
103 97 129
103 97 130
107 103 127
111 105 131
105 101 130
109 107 123
116 112 125
115 113 118
120 117 121
116 115 108
117 119 108
113 114 104
112 113 102
102 106 92
108 110 94
102 105 89
100 105 87
90 98 77
85 91 83
94 99 87
88 93 85
97 103 85
103 108 104
94 105 92
101 110 108
105 113 110
111 120 116
115 122 118
135 137 144
146 147 155
124 129 135
116 135 132
114 140 131
91 140 118
84 143 111
81 141 103
84 149 107
89 141 106
89 148 109
99 152 116
79 143 101
64 143 93
49 144 86
29 124 68
35 148 84
43 137 80
52 138 89
67 151 102
74 148 103
58 143 99
57 152 97
54 146 93
58 151 95
47 143 83
45 143 78
41 145 82
41 135 75
43 138 78
43 143 80
40 129 73
48 129 74
47 138 79
47 135 76
51 124 70
46 134 74
47 130 73
49 134 75
51 124 71
47 119 66
44 112 61
42 104 59
43 99 57
46 89 51
44 68 41
49 69 42
56 74 50
63 78 61
75 85 79
87 94 95
65 74 74
70 81 74
44 67 54
26 63 35
25 61 34
27 65 35
25 59 32
26 62 35
26 61 34
27 65 35
27 65 35
26 62 34
25 60 32
26 62 34
26 63 35
52 74 58
74 86 80
84 94 94
96 101 107
98 102 105
95 103 105
97 101 103
80 92 87
93 100 99
69 82 69
63 79 57
66 81 60
79 91 66
92 98 76
97 102 84
95 100 88
92 98 81
96 100 86
116 116 108
101 105 94
120 120 111
118 118 114
116 114 116
123 121 120
131 126 132
138 133 143
139 133 143
139 133 142
144 137 146
156 147 161
156 147 161
160 148 166
162 151 171
162 150 172
136 131 139
111 111 108
8 24 113
8 23 106
9 27 119
8 23 107
8 24 106
8 24 110
9 25 114
9 25 114
9 26 118
8 24 111
8 23 105
8 24 106
8 25 109
8 24 111
8 25 113
16 23 107
39 36 109
109 100 133
150 140 166
160 149 175
171 158 180
171 158 178
159 149 171
166 155 178
163 152 175
160 149 169
163 153 177
166 155 175
158 147 165
167 156 174
161 151 171
161 151 169
149 141 154
147 139 155
140 134 143
157 148 159
139 133 143
129 126 132
127 124 127
123 121 124
143 136 145
141 135 146
149 141 154
151 142 154
147 139 153
158 148 163
165 153 172
159 147 170
153 143 163
163 152 174
167 155 176
159 148 165
165 151 172
164 152 173
167 153 179
160 148 170
169 156 182
158 145 167
164 151 173
160 148 170
167 153 176
160 146 166
156 144 162
154 143 161
153 140 160
154 141 156
92 93 84
71 80 51
78 88 57
72 81 53
75 84 54
77 86 54
64 72 47
69 78 50
71 80 51
64 73 46
68 77 49
64 72 47
65 74 47
71 81 52
64 73 47
73 83 53
72 82 52
65 73 48
75 85 55
67 77 50
70 79 51
70 80 52
74 85 55
71 81 53
70 80 51
91 94 85
151 141 159
154 146 166
157 146 166
153 143 164
161 150 170
157 148 166
152 143 161
151 143 162
144 138 150
136 134 138
121 123 121
128 128 133
104 112 100
93 108 83
107 116 99
80 101 59
76 103 51
72 100 47
74 104 46
76 105 49
74 103 39
72 98 39
72 98 42
70 93 36
74 94 50
74 88 54
77 90 55
76 83 60
74 81 57
79 81 64
82 83 67
78 75 67
76 79 62
86 79 76
77 72 68
74 71 65
83 71 76
79 71 72
77 64 74
76 63 74
79 63 77
80 60 80
83 62 86
75 56 76
79 58 79
77 57 79
80 59 83
79 59 82
83 61 86
81 60 84
80 59 85
83 60 85
82 60 84
81 60 84
83 61 85
87 66 90
98 79 102
90 75 92
90 78 89
101 91 101
94 84 94
91 84 91
91 90 87
75 79 56
67 70 49
69 73 50
73 79 52
80 86 64
90 95 75
86 92 68
75 84 55
80 88 60
76 86 57
78 87 58
77 87 57
78 88 58
94 100 81
138 131 136
160 146 166
169 156 176
152 141 164
167 154 174
168 154 176
171 157 179
169 156 175
171 157 183
178 164 187
171 158 180
171 158 183
171 158 183
171 158 183
167 155 176
153 143 161
119 120 119
71 95 58
53 79 36
58 85 39
60 90 40
60 88 39
58 87 38
60 89 38
58 86 37
59 88 39
56 83 35
60 89 39
62 92 40
56 84 36
62 93 40
59 88 39
60 90 38
62 92 39
59 88 39
61 90 39
63 96 40
62 93 41
64 95 42
58 88 38
60 90 39
60 91 39
61 90 40
60 91 39
57 87 38
63 94 41
61 92 40
60 89 40
59 89 39
61 92 40
73 94 56
126 126 123
160 149 162
173 159 180
173 160 183
173 159 183
177 164 183
170 157 180
172 158 175
180 166 184
170 157 178
173 159 182
165 152 165
119 112 102
78 78 23
77 77 21
81 80 36
83 82 58
80 77 73
71 71 77
81 78 76
73 73 88
70 68 88
77 75 95
78 74 110
69 68 101
74 70 106
75 72 110
75 74 101
68 66 114
72 70 115
71 69 101
72 69 98
71 70 110
71 69 106
75 71 109
77 74 114
70 67 115
71 69 111
70 67 108
68 66 114
74 72 112
75 71 115
73 70 121
82 78 127
104 98 137
98 92 131
98 93 136
101 95 138
103 98 132
97 92 130
98 93 132
110 104 141
92 90 116
69 74 96
71 79 85
72 79 88
75 84 83
73 83 69
79 89 62
81 91 59
84 94 62
84 95 61
85 95 61
80 90 58
82 93 61
80 89 58
85 95 63
81 91 68
80 88 75
90 96 87
91 96 92
91 99 87
103 111 106
96 108 102
80 93 84
90 100 104
109 115 116
112 119 120
115 120 126
118 123 127
113 128 126
105 136 122
82 124 103
94 130 115
74 125 94
73 141 97
82 142 101
62 133 87
81 145 105
75 138 97
63 134 90
61 138 91
45 137 84
35 138 79
36 136 80
43 136 85
61 146 96
65 149 98
63 152 98
58 156 99
63 150 99
53 139 93
47 150 87
53 154 95
40 143 79
41 140 80
42 146 82
50 140 78
42 135 77
42 143 80
49 132 75
50 134 75
49 130 72
48 125 70
47 134 75
51 129 72
56 115 66
57 116 67
53 112 66
43 111 62
41 101 55
38 87 50
47 82 48
49 76 46
45 72 43
57 74 46
54 72 46
58 77 55
52 73 52
73 86 76
70 84 75
31 61 38
28 60 36
26 63 35
24 58 32
27 65 35
27 63 35
26 62 34
26 63 35
27 64 34
24 59 31
26 63 35
27 63 35
27 62 34
47 70 51
59 76 66
73 87 82
79 88 90
90 97 97
79 91 84
79 89 85
77 89 79
96 100 98
74 83 75
80 91 75
104 108 105
119 116 129
141 133 147
150 140 160
159 148 166
158 146 168
150 140 161
155 143 160
162 151 171
166 153 175
159 148 171
169 156 181
168 156 178
177 163 189
177 163 186
171 158 184
172 157 181
179 165 190
178 164 188
172 158 184
166 153 180
171 157 184
175 161 186
168 154 177
154 146 163
8 24 108
9 25 113
8 25 113
9 25 113
8 23 109
9 25 112
8 24 110
8 24 110
8 24 110
8 24 111
8 25 111
8 25 110
9 26 115
8 25 114
8 25 111
8 24 109
32 33 104
81 80 113
115 112 125
136 132 138
121 119 123
126 122 129
135 131 137
123 121 123
117 116 114
120 119 121
123 121 118
108 110 103
109 112 98
98 103 89
97 102 85
93 100 79
93 100 76
95 101 80
87 95 69
81 91 63
85 95 67
86 96 68
83 95 62
86 95 69
126 124 129
177 163 185
170 157 182
170 157 178
164 152 177
172 159 185
176 162 185
170 156 179
169 156 181
174 160 185
160 147 172
170 156 179
177 163 187
165 152 176
172 158 184
165 151 174
159 146 168
165 152 174
162 150 172
165 153 176
152 140 161
175 161 180
146 135 156
167 153 172
157 145 170
162 150 166
114 113 110
72 82 54
73 83 54
76 86 55
70 79 53
73 82 53
78 89 58
74 83 54
67 76 49
71 80 51
72 81 53
72 82 53
73 83 54
75 86 55
69 78 51
75 85 55
75 85 55
71 80 50
72 82 53
74 84 55
68 78 51
74 86 55
71 82 54
67 78 50
72 82 54
82 90 68
135 130 143
151 139 160
156 145 167
158 147 169
146 136 158
155 145 164
154 144 164
139 133 144
147 139 153
130 127 135
112 114 116
114 115 121
119 122 115
108 115 105
103 115 94
95 111 81
75 98 51
71 95 38
75 98 45
69 96 37
73 100 39
75 102 36
74 101 44
76 99 46
84 103 58
88 103 71
74 90 55
73 89 44
76 84 54
79 78 68
78 77 66
78 85 59
77 79 62
76 75 63
83 76 72
77 73 65
80 73 70
80 73 71
82 73 74
84 68 81
75 59 75
78 59 80
82 61 85
75 55 77
76 56 79
79 58 79
85 62 88
77 57 79
83 61 85
84 62 87
80 58 81
79 58 82
75 56 79
82 60 84
88 65 90
83 61 87
84 66 86
75 60 77
80 70 77
75 70 68
75 70 66
76 74 66
79 79 69
80 82 62
77 83 55
70 77 50
74 81 52
74 83 53
79 89 55
80 89 56
75 84 54
84 94 60
75 83 54
80 90 57
76 85 55
82 92 58
73 81 53
114 112 111
148 135 150
169 155 172
167 154 172
168 155 176
175 160 182
155 144 170
172 158 180
168 156 176
166 154 174
167 153 175
167 155 179
168 155 179
168 156 183
159 149 169
142 136 150
107 111 101
61 88 43
58 85 38
56 83 37
57 85 37
59 88 39
61 91 40
62 91 40
57 85 37
59 87 37
59 87 39
56 83 37
58 87 36
58 86 38
62 92 41
62 92 40
58 87 37
62 92 41
58 87 39
60 91 39
57 87 38
58 88 39
60 90 39
59 88 38
58 88 38
60 90 39
64 95 41
61 91 40
57 87 38
60 90 39
57 87 38
57 86 38
57 88 38
61 92 40
66 91 45
79 94 59
129 128 124
161 150 171
179 165 187
173 160 185
167 155 174
169 157 179
171 158 178
171 158 176
162 151 167
151 142 159
159 148 165
127 120 124
100 96 59
84 83 23
86 84 35
82 79 62
80 78 51
75 74 80
71 69 98
71 69 94
73 71 92
68 66 102
65 64 95
72 70 97
75 73 95
74 71 103
77 74 106
72 71 110
70 69 108
69 68 108
73 70 106
75 72 115
70 67 107
71 69 110
70 68 110
70 67 110
69 67 122
67 64 116
71 69 118
73 70 114
80 78 125
94 88 137
98 91 137
99 93 133
90 85 131
92 86 131
103 97 136
115 107 147
106 99 135
110 103 141
105 99 134
113 106 137
92 91 116
73 77 97
68 74 81
70 79 79
78 86 76
77 87 63
86 96 61
84 95 62
83 94 63
81 92 60
87 98 64
82 92 59
82 92 60
83 93 62
79 90 66
85 94 81
83 91 81
88 94 82
103 110 108
94 102 105
88 99 94
96 106 102
99 107 115
113 120 130
127 132 143
114 119 134
119 128 133
96 117 113
86 123 111
83 117 103
79 118 103
65 129 96
51 134 90
66 139 96
55 138 93
56 133 90
53 134 92
54 140 86
53 135 83
42 145 86
44 137 84
35 140 83
46 136 86
51 146 94
51 145 91
48 145 89
66 149 97
50 149 89
40 147 87
61 154 97
72 154 102
70 154 103
45 141 84
45 141 79
46 143 79
46 137 76
40 131 73
49 144 79
44 145 79
51 129 75
47 127 73
51 129 73
51 127 74
47 126 70
48 116 66
49 108 61
47 108 62
46 96 58
38 98 55
56 90 62
57 82 55
59 75 56
52 68 46
53 71 54
59 77 57
52 72 51
43 67 50
30 64 35
25 61 33
23 55 31
22 55 31
24 59 31
26 62 34
27 62 34
26 61 33
27 65 36
27 64 35
26 62 35
26 61 34
26 62 34
25 59 33
27 64 36
36 64 43
48 71 51
49 73 50
59 77 56
49 72 46
54 76 51
55 74 46
59 79 50
57 77 49
62 79 52
81 92 74
129 124 131
147 138 159
165 152 173
170 157 183
165 151 178
170 157 182
169 155 182
169 155 178
164 152 178
174 159 183
172 159 182
177 163 186
176 162 186
167 154 179
168 155 181
173 159 185
169 156 182
172 159 186
175 161 184
169 156 181
174 160 186
169 156 180
169 156 182
173 159 186
9 25 115
8 23 108
9 25 114
8 24 110
9 25 113
9 25 113
9 25 114
9 27 119
9 25 115
9 25 113
8 24 111
8 24 110
8 24 111
9 25 114
9 25 113
9 25 114
21 31 108
44 50 104
67 76 82
88 97 79
80 91 63
80 91 60
84 94 64
82 93 61
81 92 62
80 90 60
82 92 61
80 91 60
81 92 61
81 92 60
82 93 62
82 94 61
78 89 59
81 92 61
77 87 58
78 88 58
79 91 61
82 93 60
78 88 59
89 98 72
140 134 145
168 155 179
170 157 183
175 162 185
175 161 186
170 157 182
172 159 181
159 148 172
167 155 181
165 153 179
164 153 177
166 153 176
162 150 174
170 157 181
168 155 180
166 153 177
166 153 178
163 151 173
166 153 173
158 146 167
165 153 173
159 147 170
166 154 175
159 146 167
155 145 168
162 151 173
124 119 124
76 85 59
75 85 56
75 84 55
78 89 58
75 85 55
78 88 55
78 88 57
73 84 54
74 84 55
73 84 55
76 86 57
73 83 54
77 87 56
72 82 53
77 88 55
74 84 55
73 84 53
72 83 54
74 85 54
69 80 52
74 85 56
73 84 54
72 82 53
73 85 55
74 85 57
120 116 122
157 148 167
135 129 145
144 136 154
150 140 160
146 139 152
143 137 147
137 131 143
127 125 132
138 135 141
114 115 113
112 115 108
112 114 111
103 112 88
104 114 93
91 105 72
87 104 66
80 101 57
68 93 36
63 87 20
66 92 28
71 96 41
73 98 38
74 96 44
76 93 53
73 90 42
76 90 49
77 85 57
77 86 55
82 85 66
80 87 58
80 83 64
80 83 63
78 75 68
80 84 63
78 76 65
80 74 71
75 76 63
79 73 70
73 66 67
71 61 67
72 59 69
79 61 76
76 57 76
81 60 82
85 62 87
79 58 79
85 62 86
88 64 88
79 59 81
86 63 89
84 61 84
83 61 85
82 60 84
80 58 82
88 64 92
74 55 79
83 62 84
76 61 77
75 64 75
78 73 70
78 75 69
77 79 64
74 80 54
79 87 56
76 85 53
76 84 54
77 86 54
74 83 52
78 87 54
80 89 55
79 88 55
77 85 53
80 90 58
76 86 54
79 88 56
76 85 55
89 97 68
134 128 132
163 150 161
178 164 182
170 157 175
172 157 175
167 154 172
174 160 184
164 151 175
163 151 173
168 154 180
169 155 176
174 160 183
178 164 185
175 161 180
141 136 149
83 99 76
56 83 37
55 82 37
62 92 40
60 89 39
61 89 40
56 84 37
58 87 39
57 85 37
60 89 40
61 90 39
56 85 37
58 85 37
59 89 39
59 88 39
63 92 41
58 88 38
62 92 41
56 86 37
62 93 42
61 91 40
57 88 39
56 85 37
57 86 38
61 91 39
58 87 38
65 97 43
58 87 38
61 91 39
61 90 40
62 92 40
59 89 39
60 90 40
61 92 41
67 93 50
95 106 89
128 126 127
149 141 156
134 128 133
125 123 126
130 126 129
126 123 125
131 127 129
121 120 115
123 121 120
112 112 105
112 112 109
86 90 67
76 81 38
78 78 27
66 66 26
74 74 60
66 66 66
62 63 72
66 66 78
71 69 93
64 61 94
74 72 98
71 69 101
70 68 97
69 67 98
70 69 110
70 68 109
69 68 112
74 70 105
67 65 105
70 68 106
70 68 115
67 65 106
64 62 114
67 65 115
62 60 108
68 66 116
74 71 107
72 69 116
72 68 120
93 86 133
87 82 135
90 85 134
95 90 135
99 93 137
88 84 131
96 90 130
107 100 140
95 90 132
108 101 139
104 97 137
116 109 144
105 99 132
100 97 125
85 88 103
75 83 85
75 83 73
80 91 63
82 93 63
84 95 61
84 94 62
82 92 60
83 94 62
82 93 61
81 92 61
86 97 63
80 90 61
82 91 75
85 93 91
88 96 88
97 105 104
106 112 116
106 112 118
100 111 113
104 113 116
103 111 118
113 121 130
106 116 125
113 126 129
99 115 118
91 125 112
82 123 105
78 121 104
63 124 92
71 132 106
52 126 86
58 140 93
58 140 92
49 140 87
57 140 93
44 139 84
50 132 84
50 139 86
35 143 80
33 132 76
48 143 87
51 151 90
46 145 87
53 145 94
53 145 93
61 146 99
62 145 97
85 155 113
86 157 113
57 158 97
65 151 100
55 138 84
48 136 78
44 144 80
55 132 81
66 136 91
52 131 81
67 134 87
76 134 95
89 144 108
80 131 95
90 143 107
85 126 101
87 133 103
71 110 87
68 107 79
95 107 98
84 94 91
98 99 105
93 95 98
88 91 94
70 84 74
66 80 70
27 60 36
27 65 35
26 61 35
27 64 34
25 61 34
27 65 35
26 62 35
26 63 36
26 63 34
25 59 32
27 63 35
24 59 31
25 60 32
25 59 33
27 62 35
24 57 33
27 62 34
29 63 35
38 66 39
48 73 43
43 67 41
50 72 44
57 75 48
54 75 46
58 78 49
64 80 51
70 86 54
75 88 61
89 95 80
127 121 131
156 146 163
169 156 178
174 160 183
174 160 185
170 156 181
168 155 181
177 163 186
173 160 184
176 161 187
175 160 181
171 157 183
179 164 190
183 168 191
171 158 183
166 153 175
170 157 181
179 164 188
173 160 186
174 159 186
179 164 188
165 152 179
8 24 108
9 25 113
8 24 109
9 26 117
9 25 112
8 24 109
8 24 111
9 26 120
8 23 104
9 25 115
9 25 112
8 25 110
9 26 118
8 24 109
8 24 112
8 24 110
16 28 110
37 46 102
64 74 85
79 89 66
76 87 60
80 90 59
81 92 61
82 94 63
81 91 60
76 86 58
78 89 59
81 93 62
81 92 62
84 95 62
84 95 63
79 90 60
84 95 62
82 92 62
80 91 60
79 90 60
82 92 60
81 92 61
81 92 61
85 94 65
148 141 153
172 160 182
169 157 180
170 158 182
167 155 177
164 152 173
172 159 180
177 163 189
173 159 182
172 160 182
177 163 185
173 159 182
167 154 178
175 160 183
169 155 180
159 147 172
171 158 180
169 156 179
174 161 184
167 154 178
171 157 178
161 150 170
170 156 180
164 152 176
163 150 170
165 152 171
124 120 127
83 94 65
79 90 58
77 88 57
77 87 56
74 85 56
73 83 54
76 86 56
77 88 57
80 91 58
79 87 63
79 90 60
79 90 61
81 89 65
85 93 72
79 89 64
80 89 67
91 96 80
90 94 83
90 96 79
97 100 91
96 99 89
89 95 82
103 104 101
106 106 104
104 104 101
128 123 131
130 126 131
125 122 125
121 118 124
103 103 103
109 111 112
94 98 90
90 94 84
85 94 75
96 101 84
84 93 71
77 91 55
75 90 54
78 92 60
68 88 37
71 90 40
72 89 42
64 88 26
67 90 29
67 91 26
67 93 29
65 88 25
69 91 26
65 86 26
67 87 31
71 84 44
75 85 50
79 89 57
78 87 55
78 86 57
78 84 58
77 80 59
77 87 52
74 84 49
83 77 72
78 78 64
78 81 60
80 81 64
78 71 72
74 73 61
79 66 74
77 65 73
76 62 73
78 58 81
81 60 83
83 62 85
80 59 84
78 58 79
83 60 85
83 61 85
87 64 89
83 61 85
78 58 83
84 61 87
83 61 86
84 62 87
80 60 86
83 61 84
85 65 89
75 63 74
83 74 78
81 80 68
76 78 61
80 86 60
88 97 63
80 89 56
78 87 54
80 88 55
82 92 58
79 88 56
79 88 55
79 88 56
79 90 57
81 91 57
77 87 55
77 87 55
78 89 57
79 88 56
89 95 78
135 129 139
167 154 170
160 149 169
169 156 174
162 150 170
176 163 181
157 145 166
173 160 182
173 159 182
169 156 180
166 154 175
182 168 190
166 154 175
135 133 142
75 91 67
58 86 38
57 84 38
55 82 37
57 84 37
60 89 39
59 87 39
58 86 38
59 88 38
57 85 38
57 85 36
61 90 40
61 90 39
62 92 41
62 91 40
59 88 39
62 92 40
59 87 38
61 91 41
62 92 40
64 95 42
64 94 42
61 92 41
62 92 40
63 94 41
62 92 40
60 90 39
58 89 38
60 91 40
65 97 42
60 90 38
60 90 40
62 93 40
62 93 41
75 98 62
124 123 121
159 149 170
161 150 167
142 134 147
92 98 80
85 94 63
82 91 62
80 91 60
79 89 59
82 93 60
79 89 57
80 90 58
77 86 56
75 84 51
76 79 38
73 73 36
73 73 48
74 73 59
61 62 68
74 72 88
68 67 104
72 70 101
71 69 107
65 63 99
65 63 109
69 67 106
70 68 105
73 70 101
61 60 106
70 68 107
69 66 109
74 71 119
70 67 116
73 70 114
64 63 111
70 68 117
68 66 114
66 64 114
70 68 121
68 66 113
79 75 128
93 87 131
76 71 124
88 83 134
85 80 129
93 87 131
91 85 129
93 87 131
96 90 135
101 94 133
104 98 136
105 98 138
102 98 136
107 102 137
125 116 147
116 110 139
106 105 117
79 86 80
81 92 63
83 94 64
82 93 60
84 95 61
82 93 60
80 91 61
82 92 60
84 95 62
81 92 59
83 93 61
89 97 85
99 105 109
101 109 110
114 119 131
116 121 129
113 119 129
102 109 116
118 124 133
118 124 137
104 113 117
109 116 124
95 108 104
95 117 110
87 112 108
73 110 92
80 119 106
89 131 114
79 132 106
64 123 92
66 142 98
62 132 93
53 130 83
59 145 93
75 139 103
46 134 84
49 140 90
40 147 84
47 141 86
50 145 92
45 147 83
53 150 90
54 152 92
48 140 88
63 154 99
61 150 96
60 148 95
55 142 90
44 149 87
59 147 91
39 139 78
56 143 86
75 151 103
70 150 103
73 147 104
78 154 107
90 146 111
100 144 121
99 148 119
96 144 121
107 141 124
93 136 111
100 129 112
102 125 117
107 129 117
94 109 104
116 117 126
111 110 118
105 106 112
99 101 107
66 77 74
38 64 46
26 62 34
26 63 35
27 65 36
26 63 34
25 60 33
24 58 31
26 62 34
27 64 35
26 62 33
26 61 33
26 63 34
26 61 34
25 60 33
26 62 34
27 65 35
27 63 35
28 66 37
28 65 37
34 65 37
35 65 38
45 71 42
53 73 44
60 80 49
59 77 49
63 81 50
60 77 49
67 81 53
76 88 57
78 88 58
83 92 65
98 102 89
126 123 127
150 140 158
175 161 183
173 158 182
180 165 190
175 161 188
174 161 184
179 165 187
179 165 188
174 159 184
174 160 185
177 162 185
181 166 192
179 164 187
168 155 184
171 157 181
171 157 183
172 159 184
174 160 181
173 160 185
9 26 118
9 26 117
9 26 117
8 24 109
9 25 113
9 25 113
8 23 108
9 26 116
9 26 115
8 24 108
8 24 111
8 25 113
9 25 118
9 25 110
8 24 111
8 24 111
8 23 106
38 48 105
62 72 86
75 86 70
80 91 62
83 94 62
84 95 62
80 91 60
83 94 62
80 90 60
81 92 61
81 92 61
81 92 61
84 94 62
82 93 62
81 92 61
79 89 59
82 93 61
79 89 59
81 91 61
82 92 61
82 93 61
79 89 59
92 99 81
147 139 152
169 157 182
178 165 190
176 164 186
177 164 188
167 155 180
168 156 182
178 164 186
169 157 181
169 158 182
173 160 183
168 156 179
167 154 175
171 158 181
165 153 178
175 163 187
168 155 183
165 152 174
171 158 182
170 158 182
162 151 174
167 154 178
163 152 173
163 151 173
159 148 170
165 153 173
140 134 145
90 96 79
96 101 88
98 104 87
100 105 93
102 105 95
107 109 97
117 117 119
122 120 118
116 114 117
123 122 118
127 125 130
128 123 129
139 133 141
125 122 128
136 131 141
138 133 138
134 129 137
147 139 152
145 137 153
143 135 152
163 153 168
149 143 151
147 139 155
152 143 159
151 143 155
141 135 145
84 90 73
75 85 57
70 81 51
71 83 53
70 82 51
68 81 44
70 87 42
69 84 41
62 78 36
68 84 38
65 82 34
66 84 31
66 85 27
62 80 25
69 89 26
64 84 22
67 88 23
61 81 18
65 87 21
60 82 19
64 85 17
64 85 19
67 88 24
69 90 26
72 88 39
82 91 59
78 89 55
76 86 51
77 84 60
74 82 54
76 88 48
76 83 56
75 85 50
77 81 58
75 83 51
72 78 53
73 75 57
75 70 66
75 73 64
79 73 72
77 66 74
78 63 78
82 62 83
78 58 80
79 59 79
79 59 82
78 58 83
82 60 84
84 62 85
83 61 85
83 61 87
77 57 80
83 61 87
82 61 85
82 60 85
85 62 87
87 64 90
79 59 82
78 63 80
81 70 78
76 71 69
80 84 62
82 88 61
82 90 58
82 92 57
86 96 60
75 84 52
82 92 57
74 84 51
79 90 56
78 88 54
76 86 53
78 88 56
83 93 59
79 89 57
79 89 56
80 90 57
77 86 56
101 103 91
158 146 160
159 147 166
167 155 176
172 158 177
162 150 172
160 149 168
170 157 177
162 150 169
158 147 167
153 144 163
172 159 177
155 147 162
136 132 142
65 85 50
59 88 40
57 84 37
57 84 37
60 89 40
57 85 36
57 85 37
61 90 39
60 89 39
62 92 40
63 93 42
57 86 39
60 89 39
60 88 39
59 89 39
58 87 38
67 99 43
61 91 39
60 88 39
60 91 40
59 88 38
58 87 38
59 89 39
62 93 40
63 94 40
62 93 40
60 90 40
56 86 37
57 84 37
61 91 40
56 85 37
58 88 38
59 90 39
57 86 37
75 96 70
133 132 135
154 145 160
166 153 171
168 155 174
139 132 140
96 100 86
77 87 56
80 90 59
81 91 58
81 91 59
73 84 54
74 84 55
72 83 53
78 88 58
79 86 52
73 76 46
72 72 44
69 69 64
75 73 74
68 66 87
70 68 87
68 67 92
65 63 94
67 65 97
67 65 112
71 69 106
68 66 103
64 64 116
66 63 114
69 66 114
66 65 109
63 61 113
61 59 109
66 64 118
68 65 118
66 64 115
66 63 113
64 63 111
77 73 119
77 73 118
84 79 127
83 78 130
86 81 133
83 79 124
86 81 127
81 78 126
85 80 125
92 86 130
91 86 126
98 92 134
92 87 132
107 100 137
109 103 134
111 104 136
111 104 137
128 119 147
131 123 146
113 111 119
95 101 86
80 90 66
83 93 60
81 92 59
83 94 62
83 94 61
79 90 60
80 92 60
82 92 60
79 90 59
83 93 72
91 98 92
97 105 105
106 113 128
120 124 145
113 120 134
128 133 148
114 120 133
113 121 136
112 119 132
100 110 117
93 111 105
84 111 99
80 109 94
67 120 88
79 123 104
92 132 117
79 131 109
77 137 107
70 135 100
68 149 105
74 139 105
74 142 105
57 146 95
42 147 89
60 140 94
50 144 89
49 141 86
42 150 88
55 141 90
59 141 95
59 148 99
55 146 93
45 149 87
48 140 82
42 146 81
41 141 79
45 141 78
41 140 77
48 134 73
47 141 77
46 137 80
62 144 95
86 151 112
95 149 118
91 136 108
89 156 116
104 152 125
105 144 126
113 144 130
106 151 125
94 137 115
84 125 104
112 125 120
113 121 124
106 108 117
128 124 132
104 105 109
80 88 86
54 72 60
38 67 45
26 61 34
25 60 33
26 62 34
26 62 34
26 63 34
24 58 32
26 63 34
24 59 31
26 63 34
26 63 35
25 60 34
26 62 34
25 60 33
27 63 35
27 63 35
26 61 33
25 60 33
27 63 35
27 64 36
31 65 37
40 68 41
52 74 46
59 78 50
65 82 52
61 80 51
61 78 50
65 80 51
71 83 54
79 89 60
79 89 59
82 92 61
85 94 66
100 104 88
127 123 131
156 145 160
168 156 179
177 163 187
173 159 187
176 162 185
169 156 182
174 160 188
173 159 184
174 159 186
182 167 191
175 161 184
175 161 187
169 155 181
174 160 185
176 162 184
181 166 191
175 162 185
9 26 115
9 25 113
8 25 111
9 26 114
8 24 109
8 24 105
9 26 115
8 24 108
9 25 116
9 25 113
9 26 116
8 24 110
9 25 114
8 23 106
8 25 111
8 24 110
8 24 111
23 34 109
53 63 90
73 83 72
78 89 60
79 90 60
83 94 62
77 87 58
79 89 60
81 92 61
82 93 61
82 93 62
80 91 61
82 93 61
82 93 61
79 89 59
86 97 63
86 97 64
82 92 61
82 93 62
79 89 59
79 90 61
83 94 62
88 96 75
147 139 152
173 159 183
169 157 181
169 157 183
169 156 179
173 162 186
175 161 184
161 149 169
168 155 175
165 153 179
157 147 167
156 145 163
158 147 166
168 156 176
158 148 165
142 136 151
152 144 161
144 136 148
141 134 148
137 131 141
138 132 140
128 125 129
124 122 123
121 120 122
118 118 115
125 124 120
130 125 131
146 139 150
153 144 159
153 143 161
155 146 163
164 153 171
152 144 162
160 148 169
163 152 169
167 157 174
170 159 180
156 146 168
163 152 173
162 150 172
170 159 180
159 149 170
161 150 170
164 155 174
166 156 177
164 154 174
162 153 170
160 151 168
152 144 162
158 149 169
163 152 171
159 149 166
144 136 150
98 101 96
71 83 51
69 81 50
70 81 50
67 80 46
64 79 38
66 81 39
65 80 36
70 87 40
64 81 34
65 82 34
66 85 27
69 86 31
66 87 21
64 84 21
61 81 16
64 85 21
64 84 19
64 84 18
63 84 16
63 84 15
69 90 22
66 87 20
69 90 24
69 88 30
73 86 43
75 88 47
71 83 44
76 88 49
79 87 56
78 90 49
77 88 50
76 88 47
74 82 52
77 84 55
80 80 64
71 72 57
75 76 58
73 71 60
76 69 68
78 67 73
75 64 70
79 61 79
78 59 78
83 61 83
84 61 86
81 59 83
85 63 86
81 59 83
83 61 85
75 56 80
79 58 82
80 59 84
82 60 85
79 58 80
84 62 88
82 60 86
80 60 82
81 61 84
78 65 79
81 75 71
81 81 69
84 91 64
86 92 64
82 90 60
87 94 69
93 99 72
89 96 73
88 95 72
89 96 74
92 98 80
96 99 84
102 106 90
99 103 89
118 119 113
110 110 100
110 111 96
121 119 117
115 114 111
142 137 142
143 135 140
120 119 124
134 131 131
126 122 127
120 119 117
116 116 111
118 118 112
110 112 100
120 120 117
98 103 88
93 98 84
80 94 67
60 83 47
53 79 35
58 85 38
59 87 38
59 87 39
57 86 37
57 85 38
57 84 38
59 88 38
56 84 37
54 80 35
61 90 39
59 88 39
57 85 37
57 85 36
56 85 37
59 90 39
63 94 41
57 87 39
59 88 39
60 89 39
58 88 38
62 91 40
55 84 37
58 88 38
57 87 37
58 86 39
60 91 40
57 89 38
62 94 41
61 92 40
60 90 40
59 88 39
57 86 38
68 93 54
118 122 120
144 136 150
171 158 177
158 146 166
165 152 175
142 134 141
100 101 96
79 88 63
75 84 54
78 88 57
78 88 57
75 85 55
71 80 52
73 83 53
71 79 55
74 79 55
73 75 53
68 68 66
70 69 85
69 68 86
69 68 84
68 66 95
65 64 101
66 64 103
70 67 110
72 68 110
58 56 103
65 63 107
64 63 110
62 61 109
62 60 119
67 65 117
65 63 118
65 63 116
65 62 110
65 63 120
67 64 110
69 67 124
74 71 128
72 70 123
76 72 123
69 66 119
73 69 121
72 68 121
80 76 125
73 69 119
83 78 126
85 80 124
81 76 118
91 86 130
103 97 139
108 102 135
102 97 126
109 103 139
120 113 142
118 110 136
131 123 145
132 125 146
135 130 139
96 102 89
100 105 89
109 111 103
103 106 98
108 110 101
114 114 107
117 117 111
118 117 117
128 126 132
134 129 134
132 129 134
112 115 121
109 117 125
119 125 141
131 135 154
132 138 160
133 137 156
122 127 144
106 116 126
101 112 117
90 110 100
74 107 83
70 113 83
66 114 79
73 127 97
70 126 93
78 138 107
70 137 102
78 139 110
57 138 94
62 132 96
65 139 99
63 136 95
51 144 91
55 149 93
53 137 90
48 157 95
50 134 85
55 149 94
41 149 88
57 153 99
55 152 95
38 156 84
40 138 76
46 140 78
38 142 79
42 143 79
44 139 75
43 136 76
42 143 80
42 139 78
49 136 77
61 148 91
79 146 105
83 145 114
96 153 124
114 151 132
107 154 132
117 141 132
113 151 129
100 132 119
112 133 125
112 128 128
121 125 131
120 121 132
110 109 116
73 85 82
57 76 62
39 66 47
24 58 33
25 60 34
24 60 33
26 63 34
27 64 35
25 61 34
27 63 35
24 57 30
26 63 34
26 62 34
26 62 34
23 57 31
25 61 33
26 62 34
25 61 33
26 61 34
26 62 34
26 61 35
24 57 32
26 61 33
26 63 35
31 66 38
50 73 43
53 76 47
63 79 51
61 77 50
66 83 53
69 83 54
74 87 56
77 88 59
82 93 61
79 90 61
82 92 61
81 91 61
86 96 70
104 107 95
138 132 141
158 148 165
173 160 183
170 157 182
170 157 183
175 161 186
181 168 191
167 154 180
179 166 190
168 155 181
166 155 179
170 157 178
165 153 175
161 150 172
171 159 181
163 152 174
9 25 111
9 25 113
9 25 114
9 26 117
9 25 112
9 27 118
9 25 113
8 24 112
8 25 112
8 24 110
9 26 115
9 25 112
8 24 109
8 24 107
8 23 105
8 24 109
9 25 112
16 29 106
49 57 90
74 85 75
82 93 62
79 90 60
82 92 61
80 90 63
79 89 61
85 96 63
82 92 65
88 96 74
86 95 69
89 97 74
90 98 72
86 95 69
96 101 81
109 113 99
97 102 87
108 110 103
107 109 101
112 114 105
107 108 103
125 123 121
133 130 132
143 137 148
145 139 151
145 138 148
132 127 135
127 124 128
125 123 123
122 121 114
126 122 123
112 112 110
105 108 97
110 111 105
110 111 102
106 109 99
105 109 94
104 108 93
93 100 80
96 102 83
92 99 78
93 100 82
89 96 75
80 90 62
82 93 60
79 89 59
81 91 61
81 92 61
123 122 121
163 152 171
168 155 180
174 161 183
173 162 184
173 160 184
170 158 180
154 144 166
173 161 181
166 155 175
174 161 182
172 159 183
165 154 176
170 159 181
171 160 178
161 151 171
163 152 173
172 160 180
166 155 170
158 147 169
170 158 177
152 145 161
164 154 170
160 150 168
140 136 151
160 151 165
155 147 165
134 130 133
75 87 56
74 86 53
64 77 44
71 84 48
71 85 45
64 82 32
65 82 36
71 89 37
71 90 32
63 81 26
68 88 29
67 89 21
67 88 21
66 87 20
62 82 20
71 92 22
63 85 13
70 92 19
67 88 19
68 91 17
68 90 17
67 88 16
66 88 12
72 93 24
74 92 37
75 89 44
80 92 50
77 90 47
76 89 45
79 85 59
75 83 53
72 82 49
74 79 55
75 82 53
74 80 56
74 78 57
73 74 57
78 78 63
76 70 69
77 71 69
80 70 73
84 67 81
78 61 79
77 59 79
81 60 84
79 58 82
78 58 81
77 57 82
81 60 86
88 64 90
82 61 86
84 61 89
84 62 87
83 61 85
86 63 86
80 60 86
81 60 85
80 59 84
83 68 85
82 71 84
114 107 110
117 112 113
142 135 139
124 121 121
139 133 136
140 135 139
149 141 146
146 137 144
147 138 146
149 140 151
152 142 153
154 144 156
159 149 160
156 146 161
154 145 160
169 157 175
156 145 167
163 152 170
160 148 170
131 128 132
98 103 86
80 91 60
86 96 65
79 90 59
80 91 60
82 93 61
80 91 60
77 88 59
83 94 62
78 90 59
65 82 46
59 82 39
55 81 36
53 79 35
58 86 38
57 85 38
55 82 36
60 88 39
57 84 37
57 84 37
56 83 36
62 91 39
57 84 37
60 89 39
60 90 39
61 90 40
58 87 38
61 91 40
58 87 37
56 85 37
64 94 41
61 90 40
59 88 38
59 88 38
59 89 39
54 83 35
60 90 39
61 92 40
57 87 38
59 89 39
60 91 39
56 86 37
57 87 37
57 86 38
62 93 41
71 96 56
109 113 107
147 138 150
167 154 171
163 151 171
168 154 172
155 143 157
131 125 133
97 102 89
79 89 59
74 84 54
76 86 54
71 80 50
73 82 53
73 83 53
71 80 49
65 74 50
65 71 62
69 70 73
68 66 79
63 62 90
75 72 91
67 64 107
62 61 100
66 65 105
65 62 107
60 58 109
67 65 108
63 61 112
67 64 115
63 61 115
69 66 119
66 63 116
65 62 118
64 62 116
63 61 119
66 63 117
64 62 117
67 64 123
77 72 128
69 65 121
73 69 124
64 63 119
74 70 122
68 65 114
76 72 120
87 81 129
74 71 125
81 78 128
83 80 123
94 89 129
84 81 123
78 76 117
86 83 116
85 83 114
89 87 115
92 92 106
92 93 102
115 113 119
105 107 105
105 107 99
119 118 110
154 146 161
163 152 167
168 157 174
165 154 173
170 158 178
164 154 175
168 156 174
176 163 184
165 155 176
123 122 139
121 124 140
121 125 146
130 135 158
136 140 165
129 136 157
124 128 149
124 129 149
105 114 120
87 102 93
72 105 79
64 99 69
58 102 68
66 116 88
67 131 95
79 133 106
80 139 109
82 143 115
76 149 114
74 143 111
56 145 95
64 141 103
60 146 100
60 147 98
53 138 91
51 153 94
48 140 86
51 138 86
51 144 91
59 147 97
44 153 89
45 141 79
38 148 79
41 143 79
46 146 82
39 140 78
35 142 79
43 143 78
45 137 77
44 142 79
45 144 79
46 136 78
70 144 93
73 132 94
76 140 101
110 151 131
101 152 125
113 150 132
108 135 123
113 137 129
105 133 120
104 122 117
122 128 134
118 120 125
100 103 107
76 86 83
25 62 34
26 61 35
27 64 35
27 65 36
25 59 33
25 60 32
23 58 31
25 60 33
26 63 34
25 61 33
26 63 35
28 66 36
26 62 35
24 58 33
27 64 35
26 63 34
24 58 31
25 60 33
29 67 36
27 63 35
28 65 36
26 62 34
26 60 34
28 62 35
34 63 37
48 73 44
50 71 45
66 81 52
77 91 61
72 83 60
75 87 57
91 98 77
90 98 75
95 103 78
88 96 76
96 103 80
95 100 83
108 110 102
106 109 99
134 130 138
155 145 161
166 154 176
152 143 158
140 133 145
148 140 150
132 127 136
130 126 131
143 137 142
135 131 133
121 120 116
124 122 122
116 116 114
101 104 92
116 117 115
9 25 115
9 25 113
9 25 112
8 25 114
9 25 113
8 24 112
8 24 107
8 24 109
8 24 108
9 25 112
9 26 116
8 24 108
9 25 114
9 26 116
8 25 112
8 23 103
8 24 111
8 23 105
61 66 108
82 85 110
105 106 102
117 118 112
108 110 110
117 117 118
138 133 138
134 130 137
136 131 138
141 135 142
133 129 137
139 133 138
142 135 150
138 131 143
151 143 156
144 138 150
150 141 159
159 148 165
160 149 168
154 144 163
163 152 173
153 144 163
109 111 102
94 101 79
88 97 73
89 97 74
87 95 69
84 94 65
81 91 64
78 90 61
78 89 59
80 91 61
81 93 61
80 91 61
82 93 62
81 91 60
82 93 61
84 95 62
82 93 61
80 91 60
77 87 57
82 93 60
85 96 62
78 89 58
79 90 60
81 91 61
84 95 63
83 94 61
119 118 112
162 151 169
173 161 184
166 154 175
172 160 182
170 158 179
174 162 184
161 151 172
170 158 178
172 161 180
168 155 180
165 154 176
165 153 177
169 158 180
169 158 178
171 159 179
164 155 177
172 159 178
172 160 178
167 156 177
150 143 162
162 153 172
166 156 174
164 154 173
160 152 166
160 152 170
153 147 162
131 129 132
92 100 79
73 85 52
73 87 50
70 83 45
72 89 44
67 84 37
68 87 35
69 89 30
66 85 27
70 90 29
73 94 29
67 87 25
68 91 21
70 91 23
68 89 21
70 92 22
69 92 12
73 95 21
64 85 15
71 94 16
72 96 16
72 96 13
72 94 24
72 93 25
75 92 39
74 92 34
73 87 43
72 90 32
71 89 34
75 96 29
73 89 36
74 88 44
76 84 54
73 83 46
75 83 50
77 82 55
74 79 55
74 78 56
72 77 54
76 73 64
81 76 69
77 66 71
83 65 81
81 61 84
74 55 77
87 64 89
82 60 85
82 60 85
80 59 83
79 59 83
81 59 84
84 61 88
84 62 88
87 65 92
82 61 85
86 63 89
86 64 90
80 60 85
84 66 87
105 88 108
136 123 139
164 150 168
168 157 174
165 152 169
170 157 176
159 148 164
166 154 171
171 159 179
169 157 176
171 158 176
174 161 180
173 161 177
170 157 175
166 154 174
173 160 176
172 160 179
169 156 178
172 158 178
180 166 189
158 149 166
137 133 137
85 95 67
82 94 61
81 92 61
80 91 60
84 95 62
79 90 58
79 90 60
80 91 59
77 89 56
72 89 52
59 81 40
55 82 37
56 83 36
57 84 36
53 80 35
53 80 35
59 87 38
54 80 36
55 82 35
58 87 37
59 87 39
62 92 40
58 86 37
62 92 40
60 91 40
56 86 37
57 87 37
62 93 40
58 86 38
58 86 38
61 90 40
56 84 36
59 88 39
60 91 40
59 88 39
56 85 36
60 91 40
65 97 42
62 93 39
58 86 38
59 89 40
54 83 36
56 84 36
56 86 36
71 94 55
119 122 123
156 146 163
158 147 162
158 146 161
165 152 170
163 150 170
152 141 158
137 130 137
100 101 93
81 88 62
73 82 51
73 83 52
70 79 51
68 77 48
63 72 47
64 73 48
69 75 64
61 68 67
62 64 85
68 67 90
68 67 92
69 67 95
69 67 93
67 65 96
66 64 107
60 58 108
61 59 109
62 60 112
60 58 106
63 60 114
62 59 116
62 61 118
64 62 121
62 60 119
63 60 115
62 59 116
70 66 121
66 63 121
63 60 118
67 64 122
62 59 117
69 67 124
68 66 118
63 63 115
70 68 122
63 63 115
60 60 107
72 70 117
59 60 107
66 68 110
67 68 106
62 63 103
69 72 101
68 73 94
67 74 89
65 72 81
76 83 84
76 86 68
78 88 64
80 89 63
100 105 89
127 125 123
157 146 166
168 156 178
165 153 178
168 156 182
172 159 177
169 156 181
168 155 174
163 152 175
142 136 155
128 128 138
121 126 141
122 126 145
140 143 171
147 149 174
131 136 159
131 136 158
116 124 137
107 115 125
67 97 76
65 104 79
56 111 75
79 127 102
78 138 108
75 135 103
82 142 116
79 142 113
82 138 114
77 153 116
79 146 114
77 150 112
63 141 101
57 153 96
60 149 100
53 143 94
44 143 87
53 137 93
49 144 89
50 144 91
45 144 85
38 144 81
43 143 80
40 147 82
39 143 79
37 146 80
36 145 82
44 142 80
46 140 78
46 132 74
43 140 78
50 139 78
53 128 72
70 136 88
70 139 91
93 149 113
95 144 119
95 144 116
107 149 123
87 122 104
109 136 123
101 122 116
109 119 121
99 107 110
68 83 76
35 62 41
25 61 35
28 65 36
27 64 36
27 66 36
24 60 33
27 64 34
25 61 33
23 56 30
26 62 35
26 63 35
26 63 35
27 63 35
26 62 35
25 58 32
26 63 35
26 62 34
26 64 34
26 62 34
26 60 34
28 64 35
25 59 33
27 62 36
27 63 35
27 63 36
26 61 35
40 67 42
53 74 50
88 95 86
98 105 99
103 104 105
128 124 129
140 133 141
144 137 149
147 140 150
145 137 154
157 147 162
159 149 170
158 148 164
166 154 172
165 154 172
169 157 177
169 156 175
141 135 146
132 129 127
104 110 89
87 95 71
90 98 74
85 95 65
82 92 61
83 93 64
81 92 61
86 97 64
84 95 62
83 94 62
9 25 113
9 26 116
9 26 117
9 25 113
9 25 114
8 25 112
9 25 117
9 26 115
9 26 116
9 25 109
9 25 115
8 25 111
8 24 109
9 25 113
9 25 114
8 23 106
9 26 116
26 33 109
70 71 123
131 123 147
149 140 158
165 153 173
159 148 170
158 148 170
162 151 171
154 142 161
163 150 171
171 159 185
162 150 174
175 161 183
175 161 187
173 161 185
172 158 184
170 158 184
172 158 185
165 153 182
165 153 175
171 158 183
172 159 186
157 149 167
105 108 98
83 94 62
79 90 60
85 96 63
85 95 63
80 91 61
81 92 62
80 91 60
81 92 61
81 92 61
81 92 61
83 94 61
79 90 59
78 88 58
80 91 60
79 90 60
85 96 63
83 94 61
78 89 59
77 87 58
82 93 62
80 91 60
80 91 60
80 92 61
80 92 60
81 92 60
110 112 104
163 152 171
172 160 182
173 160 181
168 157 181
171 158 180
172 160 183
164 153 176
163 152 170
179 166 189
161 152 172
169 159 178
172 161 181
176 163 186
168 155 178
180 167 188
171 160 181
160 150 170
165 155 177
166 155 176
173 161 179
165 156 171
163 154 172
159 151 165
153 143 160
156 149 168
161 153 167
149 144 152
87 95 73
76 88 55
76 91 52
73 89 48
68 85 38
73 90 41
64 84 30
74 93 35
72 92 33
69 90 23
71 92 26
74 95 28
71 93 25
70 91 28
68 90 20
70 94 15
67 89 18
73 95 26
67 90 16
68 91 10
71 95 16
71 94 15
70 94 16
75 96 31
74 94 29
70 90 31
74 96 29
73 93 29
71 91 28
71 89 34
74 92 33
74 89 42
72 84 42
73 87 39
72 88 37
71 81 49
72 78 53
73 81 49
75 75 61
73 74 59
72 65 62
72 62 66
75 61 72
75 58 77
81 60 84
80 59 82
80 59 83
83 61 85
81 59 82
81 60 83
84 62 87
82 61 85
82 61 85
82 61 86
78 57 83
81 60 85
83 61 87
85 62 87
85 63 89
94 79 98
138 121 142
150 138 153
171 158 179
166 155 172
169 155 173
174 160 181
167 155 176
173 161 180
178 164 188
166 155 174
165 153 173
172 160 181
170 159 181
178 165 186
168 158 179
168 156 179
172 160 181
165 153 178
164 153 175
170 157 180
152 144 157
107 109 101
83 93 64
80 91 61
79 89 59
80 91 59
78 89 59
80 91 61
80 91 60
83 94 61
72 88 52
56 78 38
54 80 36
53 80 36
57 84 37
55 81 36
57 84 37
58 86 37
54 80 35
57 85 36
56 83 36
57 86 38
56 84 37
59 88 40
58 86 37
61 91 39
60 88 40
54 83 36
56 84 37
57 85 37
62 92 40
59 89 39
52 80 36
59 89 38
60 90 39
60 90 40
60 90 38
57 87 37
57 85 36
58 88 38
51 79 34
56 84 37
58 87 39
56 86 37
54 82 36
78 97 71
118 119 115
159 148 165
156 144 162
154 144 164
147 136 151
157 145 158
155 143 157
146 136 145
120 115 117
95 96 85
89 92 76
91 93 80
93 96 84
84 87 72
99 99 88
83 85 73
85 86 90
85 83 100
78 77 100
73 71 90
71 70 100
62 60 103
65 64 101
71 67 107
69 66 113
61 59 112
61 58 106
60 58 104
66 63 114
60 58 111
64 61 119
63 61 117
60 58 114
60 58 114
61 58 114
62 60 118
62 60 116
60 58 115
63 60 119
59 57 111
65 63 121
60 58 114
62 60 117
64 62 120
61 59 114
63 62 116
55 57 103
60 61 106
63 65 108
64 64 111
61 62 103
62 65 100
64 67 96
67 73 88
64 71 89
66 74 81
69 77 81
75 86 68
72 82 60
78 89 59
80 91 60
83 92 67
124 122 124
145 137 150
161 151 175
163 152 173
166 156 177
167 155 180
167 156 178
162 151 174
162 152 171
134 129 148
129 130 148
130 135 157
133 136 157
137 140 164
134 138 165
143 147 171
128 136 153
115 130 134
95 114 109
71 110 88
81 124 105
61 113 84
84 140 114
86 142 118
87 143 122
89 145 122
86 143 118
74 146 113
63 146 103
73 144 108
75 149 113
57 143 98
54 146 94
47 143 90
54 148 94
46 147 87
43 145 88
41 148 86
37 144 81
34 138 76
41 147 81
40 142 78
39 140 79
40 143 78
40 135 75
42 143 80
41 145 81
44 131 74
44 137 77
49 129 73
45 131 72
50 132 74
50 132 76
63 137 86
96 138 111
108 144 125
113 145 132
111 138 129
107 134 124
108 129 123
94 106 107
72 84 81
46 69 52
26 63 36
25 61 33
26 63 35
26 63 34
26 62 34
26 61 34
25 59 34
26 61 34
23 59 32
25 61 33
25 62 34
24 60 33
26 62 34
26 63 35
27 64 34
26 64 35
26 62 34
26 63 35
28 65 35
26 62 34
26 60 34
26 61 34
25 59 32
27 63 36
27 62 35
26 62 34
28 62 37
63 78 66
96 102 105
130 125 138
153 143 162
159 149 169
177 163 185
171 157 182
170 156 180
169 156 180
169 156 179
181 167 192
171 158 183
172 159 186
171 158 184
169 156 185
170 156 182
179 166 187
160 152 162
137 133 139
109 111 103
90 98 71
84 94 62
82 93 61
82 93 63
82 93 62
84 95 63
81 92 61
84 94 62
9 25 114
8 24 109
9 27 122
9 25 116
9 26 116
9 25 114
8 24 109
9 25 112
9 26 117
8 25 111
8 23 106
8 25 110
8 25 110
8 25 112
9 25 112
8 24 110
8 23 103
11 25 105
73 70 124
131 122 153
165 151 173
163 152 178
167 154 176
171 159 183
177 164 189
170 157 182
164 152 175
167 153 179
168 155 180
168 156 178
167 155 181
175 161 184
172 159 186
168 157 180
168 154 178
168 156 180
169 156 181
165 153 176
179 166 188
154 145 160
113 115 109
79 89 60
80 90 60
83 95 62
81 92 61
79 90 60
82 93 61
83 93 62
80 90 60
80 90 60
81 92 62
82 93 61
82 93 61
78 89 60
83 95 63
85 95 62
84 96 62
84 95 63
82 93 62
84 94 63
81 92 60
79 89 60
85 96 62
78 89 59
82 93 61
78 90 59
101 105 98
148 141 153
177 164 185
171 159 182
177 163 185
175 162 186
176 163 188
176 164 185
174 162 189
168 157 176
167 157 179
165 155 172
175 161 183
179 166 186
177 164 188
166 155 178
168 158 176
172 160 181
174 164 180
161 150 174
168 158 176
162 153 169
164 154 172
166 156 171
168 159 176
163 154 170
164 154 167
162 153 167
112 114 107
87 96 69
88 96 70
85 99 64
92 102 71
87 100 69
74 89 42
84 99 52
80 95 54
85 103 51
83 100 55
76 97 40
88 105 53
80 100 45
79 101 39
81 99 45
72 94 25
71 94 22
70 95 9
71 95 13
69 94 9
73 96 22
75 99 20
74 96 28
71 92 22
69 92 16
71 92 24
70 91 22
75 94 28
71 91 27
73 92 32
72 90 34
72 88 37
76 94 36
71 86 39
74 84 48
71 82 46
74 80 53
65 74 42
76 77 63
76 73 66
77 65 74
75 63 72
83 63 83
76 57 76
78 58 79
82 60 83
80 59 80
87 64 89
83 61 86
81 59 84
81 60 85
84 62 88
84 63 85
81 60 86
86 64 90
85 63 90
84 62 86
82 61 87
87 68 94
130 116 133
164 150 172
157 145 167
172 160 182
173 160 179
163 151 167
165 153 175
171 159 174
173 160 181
174 161 182
169 157 178
168 154 177
166 154 176
176 162 183
171 159 184
175 162 184
174 161 183
167 155 178
174 161 182
175 162 186
174 162 184
144 137 146
92 98 81
80 90 60
79 91 60
79 90 59
82 94 61
81 92 61
83 94 61
84 97 62
73 87 52
61 82 43
56 81 36
49 74 32
54 81 35
58 87 39
54 81 35
55 82 35
55 83 36
57 85 37
61 90 38
56 84 37
52 79 35
54 82 36
61 90 39
56 86 37
58 87 38
55 82 36
58 87 38
62 92 41
58 87 37
56 83 37
58 87 38
59 88 40
60 89 39
57 87 38
55 83 36
57 86 38
59 89 39
55 84 37
57 87 37
53 81 36
57 86 38
54 84 36
59 89 39
85 97 77
108 113 106
134 129 137
130 125 131
127 122 127
123 117 122
117 114 108
109 107 107
100 99 89
99 100 89
85 90 73
96 96 85
130 123 124
133 124 136
126 119 125
140 130 137
126 119 125
116 110 121
97 92 103
91 86 110
86 83 104
75 72 101
72 68 108
64 61 108
66 63 104
61 58 111
61 60 107
57 55 109
61 58 113
64 62 114
66 63 114
62 60 117
63 60 117
60 58 116
58 55 107
62 59 115
59 56 112
62 60 122
60 58 116
62 59 116
61 59 115
63 61 120
62 60 118
60 57 113
61 60 114
59 58 106
62 61 116
65 65 116
64 64 113
62 64 110
63 65 108
58 62 96
62 66 98
63 67 90
68 73 95
70 75 99
69 76 82
71 80 75
77 86 65
73 84 67
75 86 57
72 84 55
73 85 56
81 91 65
102 106 95
129 125 137
157 147 170
170 157 177
161 150 168
165 154 180
155 146 167
164 153 174
154 145 165
135 131 149
126 128 147
124 130 151
129 136 161
133 137 159
129 134 154
127 136 153
121 126 145
109 126 131
87 123 105
83 121 105
93 125 114
73 133 102
86 146 120
78 138 108
77 140 113
80 152 118
77 148 113
75 144 114
57 140 96
62 150 102
47 146 92
59 143 96
44 147 86
41 136 83
43 151 90
32 144 79
39 151 85
36 152 83
32 138 77
34 145 79
31 142 75
37 143 79
43 137 76
32 136 76
42 140 80
44 143 81
42 134 75
56 134 82
44 138 78
56 145 86
64 130 84
63 129 78
64 132 85
81 141 102
98 141 115
97 143 114
111 141 129
105 125 117
87 114 101
74 92 82
44 73 53
27 66 37
26 63 35
27 65 36
25 59 33
27 65 36
26 63 34
24 59 32
26 62 35
25 60 33
26 63 34
27 63 36
26 62 35
27 64 35
27 63 35
24 58 32
26 63 35
25 60 34
26 60 33
24 59 33
27 64 35
25 59 33
28 65 35
25 59 33
25 59 33
26 61 34
25 59 34
26 62 35
26 62 34
62 78 69
97 101 104
129 124 140
154 145 165
170 158 180
178 164 188
174 160 185
172 159 187
179 165 190
168 156 181
171 157 182
168 155 181
176 163 189
182 167 191
171 157 182
174 161 187
180 166 190
181 167 193
173 160 182
153 143 160
129 126 133
99 102 91
87 95 72
83 94 63
83 94 62
85 96 63
84 95 63
82 93 62
8 24 111
8 24 108
9 25 113
9 25 109
9 25 113
9 26 116
9 24 112
8 24 110
9 26 116
8 24 110
8 24 109
8 24 110
8 24 108
9 25 113
8 24 106
8 23 102
8 24 104
17 27 105
84 79 126
133 122 151
167 154 178
168 155 178
170 158 183
166 152 176
162 150 175
176 162 186
173 160 187
160 148 171
170 157 181
167 154 178
172 160 184
166 154 177
165 153 184
166 154 179
176 163 187
170 157 182
184 169 193
173 160 187
178 165 189
155 145 161
95 102 83
81 91 60
81 92 61
78 89 59
82 92 61
81 92 62
83 94 63
80 90 60
81 91 61
84 94 62
78 89 59
81 92 62
83 95 63
80 90 60
81 91 60
82 94 61
76 87 58
79 90 60
84 95 63
83 94 62
82 94 61
83 94 63
81 92 61
82 93 61
83 94 62
86 97 63
105 110 92
159 150 165
164 154 173
170 158 182
174 161 180
169 157 178
180 168 192
168 156 179
170 159 184
172 159 180
171 159 178
168 157 178
160 151 170
165 156 171
157 149 168
163 154 169
164 153 170
159 151 166
148 142 154
147 141 155
141 136 143
136 132 135
139 134 141
143 138 142
137 133 134
139 135 142
128 126 127
121 120 118
122 122 121
131 129 131
123 126 118
120 121 112
107 113 99
108 113 98
107 116 91
96 108 80
96 106 80
83 102 53
92 107 63
89 106 61
96 110 71
82 101 46
82 101 47
79 100 37
75 97 30
76 97 31
74 97 24
76 100 24
77 99 32
73 96 23
80 101 38
70 94 6
73 97 21
68 90 12
75 96 26
69 92 12
73 96 9
70 91 22
68 90 19
72 93 27
75 94 31
72 91 29
73 88 40
70 85 41
71 87 36
71 84 41
74 86 46
77 79 60
73 71 62
76 69 73
76 66 72
74 59 75
82 62 83
77 58 83
80 60 83
80 59 80
87 65 90
79 59 82
84 62 87
86 64 88
82 61 85
81 60 85
82 60 86
87 64 90
82 60 84
87 64 91
83 62 87
87 70 92
107 91 113
150 137 156
176 163 187
168 156 176
168 156 178
172 159 181
176 162 186
169 157 178
169 157 179
174 161 184
176 162 188
171 158 180
174 160 182
169 157 186
181 168 188
171 159 180
167 155 178
169 158 183
169 158 179
170 157 181
167 156 175
171 160 179
115 114 113
89 98 74
79 90 61
81 93 61
81 92 60
80 91 60
80 91 60
81 93 60
73 87 54
64 83 47
53 79 35
56 84 37
49 74 33
52 77 34
56 84 36
56 83 36
51 77 33
54 81 36
59 88 37
59 88 38
55 82 35
55 82 36
58 87 38
59 89 38
57 84 37
55 84 36
58 86 38
58 87 38
56 85 37
56 85 38
62 91 40
56 85 38
60 90 39
58 88 38
56 84 36
57 87 37
54 81 35
58 86 37
53 80 35
56 84 37
58 87 38
55 84 36
54 82 36
64 86 45
88 96 78
85 92 69
89 94 77
84 91 63
73 82 57
77 87 58
76 85 57
75 85 56
76 86 57
71 80 51
98 99 86
130 123 128
145 135 140
147 136 146
138 127 132
136 126 136
126 118 128
104 96 107
106 99 123
88 83 99
81 76 104
70 67 109
64 62 103
68 66 114
66 62 106
68 64 115
66 63 112
58 55 111
66 63 113
65 63 125
53 52 106
63 60 122
64 61 122
62 59 119
59 57 114
64 61 120
60 58 115
61 58 117
59 57 112
62 59 116
62 59 117
59 56 110
60 58 114
60 58 114
60 58 112
55 55 106
63 62 118
59 57 112
62 63 113
64 64 109
67 68 110
68 70 108
64 68 95
64 68 97
67 72 95
68 76 77
70 78 76
70 79 70
73 84 56
72 82 53
74 85 56
78 89 59
75 87 58
79 89 59
97 102 89
116 114 114
143 135 152
160 151 170
166 155 173
164 153 174
161 149 168
167 156 175
153 146 166
134 131 142
117 120 137
119 126 143
122 129 149
127 132 152
117 124 136
119 134 141
91 113 105
76 119 97
85 124 107
76 130 104
84 139 114
86 134 117
84 137 114
75 145 109
62 139 98
58 138 94
60 142 98
65 147 103
41 149 89
37 141 82
44 142 87
32 143 77
30 147 82
35 141 81
32 152 81
29 144 78
28 140 73
32 139 76
33 155 84
29 149 80
33 145 81
31 148 81
38 140 75
54 139 84
58 140 88
59 150 90
70 150 101
69 138 96
75 145 101
93 148 117
86 146 112
94 151 119
102 144 120
115 151 135
111 149 133
104 134 118
83 116 94
59 98 70
39 78 49
23 61 34
27 65 36
27 64 36
26 63 35
26 62 34
23 56 31
25 61 34
22 57 30
24 60 33
25 60 33
25 61 35
23 59 32
23 58 32
25 61 33
26 64 35
27 65 36
26 61 34
25 61 34
27 62 34
24 61 33
28 65 35
28 65 36
26 61 34
27 62 35
25 59 33
25 59 34
27 62 35
25 58 33
40 68 49
85 91 95
130 125 138
144 136 156
158 147 170
162 151 174
167 154 181
169 156 181
179 165 191
179 165 191
183 169 193
175 161 188
176 163 187
174 161 187
178 165 189
172 159 186
181 167 191
175 161 189
178 164 190
177 164 188
173 161 187
163 151 176
161 152 168
132 127 134
115 115 109
92 99 79
80 92 62
83 94 63
83 94 62
9 25 114
9 26 115
8 25 109
9 25 111
9 25 111
8 23 102
8 24 111
8 24 108
8 24 110
8 24 110
9 25 114
8 24 110
8 23 106
8 24 110
8 24 109
8 22 101
8 23 105
39 42 106
76 72 119
139 129 155
166 152 177
159 147 172
170 157 180
165 153 178
162 148 171
176 163 186
161 148 174
170 157 181
163 150 176
159 147 173
165 152 175
175 161 184
169 157 180
168 155 177
175 161 187
169 156 181
168 154 181
170 158 185
172 159 185
146 139 153
88 96 72
79 90 59
79 90 60
80 91 61
79 90 60
81 92 61
83 94 62
80 90 59
82 93 62
82 93 62
80 91 61
79 90 61
84 95 62
83 94 62
88 98 71
84 96 62
93 102 76
84 94 62
83 94 61
90 99 74
92 99 79
93 100 82
91 98 81
107 111 98
94 100 81
107 111 97
106 110 97
136 131 141
152 144 159
148 142 156
148 142 157
147 142 150
143 136 148
137 132 139
142 138 140
126 123 127
130 127 129
124 122 121
125 124 122
117 118 112
120 120 113
118 117 111
119 120 111
104 108 98
100 104 93
97 104 84
87 95 74
102 108 89
89 98 73
82 93 66
90 98 77
90 100 72
78 89 60
85 96 68
118 119 114
143 138 145
144 140 146
130 131 124
132 131 127
122 126 117
113 120 100
113 119 99
103 114 84
104 116 84
87 104 58
88 107 56
80 98 49
79 99 41
83 103 46
71 94 22
71 96 7
74 97 21
75 99 21
69 94 6
71 95 6
70 95 6
72 97 6
69 93 6
73 98 6
71 96 12
72 97 12
73 98 6
73 97 17
72 96 6
70 94 6
67 89 16
72 91 30
72 92 27
68 89 24
69 86 32
68 84 31
71 84 39
69 82 41
71 80 46
70 75 52
79 72 71
70 63 64
79 64 79
77 57 79
83 61 86
77 57 79
71 53 76
83 61 87
83 61 87
82 61 84
84 62 86
88 65 91
85 63 88
88 65 93
84 62 88
85 63 88
86 64 90
82 61 85
83 66 89
113 96 117
148 134 157
162 149 165
168 156 177
171 158 180
178 164 188
171 159 183
176 163 187
171 159 178
174 162 183
175 162 186
165 154 173
170 159 182
172 160 183
168 156 178
175 162 187
175 162 185
175 163 183
172 160 185
178 165 187
166 155 176
175 162 184
155 147 162
113 114 111
94 101 80
89 97 76
92 99 82
93 100 80
97 103 88
98 103 87
102 106 98
98 103 92
61 82 50
50 77 33
47 72 31
51 76 33
49 74 32
51 77 33
54 82 36
55 83 35
51 77 33
54 81 35
56 83 35
54 81 36
57 85 38
58 87 37
55 82 36
54 82 35
57 84 37
57 86 37
54 83 35
62 92 40
59 88 37
56 84 38
54 81 35
55 83 36
51 80 34
55 83 36
58 87 39
53 80 34
58 87 38
58 87 38
56 84 36
53 80 35
57 85 38
60 81 42
71 83 53
75 85 55
77 88 57
75 86 53
73 83 53
73 84 54
76 87 56
73 83 52
77 86 55
70 79 49
75 84 57
109 108 98
133 126 127
139 130 133
137 129 135
139 128 136
129 121 127
104 96 109
105 98 118
97 91 119
76 72 106
82 79 108
76 73 111
73 69 109
68 65 113
67 63 113
63 61 117
59 57 114
60 58 115
59 57 112
63 60 120
58 56 110
58 55 111
60 58 117
63 60 119
61 58 115
60 57 117
60 58 114
58 55 110
59 57 113
59 56 110
59 56 109
59 56 112
59 57 111
59 58 114
57 55 105
63 62 117
60 59 110
59 59 104
62 63 107
61 62 103
59 62 101
68 73 99
64 68 96
64 71 87
65 73 83
67 76 70
73 82 66
76 86 63
72 83 54
77 88 57
69 80 51
69 80 53
76 87 58
81 91 62
88 95 80
122 119 117
131 126 135
153 144 164
160 150 175
152 143 162
145 136 160
156 146 167
151 141 161
128 124 137
116 117 129
101 106 114
100 107 115
102 110 114
110 126 128
81 105 98
84 114 101
60 114 78
63 115 82
56 130 87
63 126 91
63 139 94
71 144 104
66 149 105
52 147 94
53 146 97
47 134 88
45 148 86
34 150 85
28 144 80
25 133 73
29 147 78
27 141 73
29 149 78
27 143 76
28 144 78
26 139 75
29 151 81
29 147 79
29 151 80
30 151 80
38 142 83
39 150 84
65 154 100
70 150 99
74 149 108
66 149 101
83 149 115
90 148 118
102 148 127
108 151 130
111 143 128
114 154 133
115 144 132
105 133 125
97 128 110
55 99 71
26 74 41
23 62 33
23 60 33
27 65 36
25 60 33
26 63 35
23 56 31
26 62 34
25 61 34
26 65 36
24 58 32
28 65 37
24 60 33
25 61 33
26 62 34
27 65 36
26 63 34
26 62 34
27 64 35
26 64 35
26 61 35
28 65 37
25 60 33
28 66 37
27 62 35
26 61 35
26 62 35
25 59 33
48 70 55
74 83 82
115 116 123
137 129 145
161 150 170
159 148 171
174 161 184
166 154 176
176 164 189
177 163 188
171 158 184
175 162 186
176 162 186
179 164 191
172 158 185
179 165 190
177 164 191
177 164 190
179 164 190
181 167 190
175 162 187
184 169 189
182 168 192
177 164 191
177 164 184
162 152 168
137 132 138
117 119 109
88 96 72
84 95 64
9 25 114
9 26 113
9 25 114
9 25 112
9 26 117
8 24 108
8 25 113
8 24 109
8 24 111
8 24 109
8 24 107
8 23 104
8 24 106
8 23 105
8 24 110
8 23 103
8 24 106
24 31 109
82 78 125
133 124 158
161 149 169
168 154 177
163 150 176
161 148 173
166 154 176
157 145 168
163 150 173
162 150 177
165 152 178
174 160 184
166 153 176
163 151 174
166 155 179
175 161 186
176 163 186
161 150 173
177 163 187
174 161 184
163 151 174
146 139 150
92 98 82
79 89 64
85 93 71
86 95 71
95 101 80
87 94 74
101 106 89
98 102 90
96 100 88
93 100 87
99 104 92
113 113 109
115 115 113
122 120 119
123 122 123
114 116 112
127 125 128
127 125 127
137 133 138
135 131 137
133 129 131
137 132 142
133 129 140
132 127 138
148 141 154
157 149 168
151 143 157
144 138 143
93 99 81
103 107 91
98 103 86
101 106 89
94 102 79
97 104 82
81 91 65
86 96 68
86 96 67
83 94 64
86 97 66
83 95 64
82 94 61
82 94 61
78 90 58
80 92 60
79 91 59
82 93 60
82 93 61
80 91 61
79 91 57
81 93 60
83 96 63
85 97 62
78 90 58
81 93 60
112 116 102
140 137 139
141 137 141
124 126 120
128 130 122
114 119 103
111 118 99
93 105 71
105 115 88
81 100 45
83 101 51
75 96 38
76 97 32
70 93 20
68 93 6
73 98 6
71 95 6
72 97 6
71 95 6
74 99 6
70 95 6
70 95 6
69 93 6
71 96 6
68 92 6
71 95 6
70 94 6
71 95 6
71 95 6
67 91 6
69 92 6
69 91 12
66 89 12
72 96 13
68 86 24
70 88 29
68 87 25
72 84 43
68 80 44
76 84 53
71 75 55
71 74 55
79 68 71
75 62 74
80 61 82
80 59 80
80 59 81
79 59 82
82 61 84
81 60 82
84 62 88
82 61 86
79 59 84
82 60 86
83 61 86
79 58 80
82 61 87
82 61 86
79 59 82
85 65 89
113 98 118
132 120 141
162 149 174
167 156 176
173 161 183
174 161 181
175 163 184
163 151 172
159 149 172
173 161 178
167 156 177
165 155 174
160 149 168
159 149 166
156 147 162
145 138 150
136 131 143
151 144 157
147 140 152
133 129 139
139 134 137
130 126 130
131 127 134
128 125 125
125 123 127
146 139 153
149 142 156
150 143 156
153 144 161
148 141 153
156 147 160
125 123 128
87 98 81
51 75 37
49 74 32
51 77 32
52 77 33
49 74 32
57 84 36
50 75 33
55 82 36
52 79 33
55 82 36
53 80 35
55 83 35
55 82 36
56 83 35
57 87 37
56 85 36
58 87 37
57 85 37
54 81 35
51 78 34
61 91 39
53 81 35
58 86 37
52 80 35
56 85 36
57 86 37
52 80 34
54 83 35
55 84 37
50 78 32
56 84 36
52 76 37
64 79 47
72 83 53
74 84 54
77 87 56
73 85 54
67 77 51
74 84 53
69 79 50
72 82 52
76 87 55
75 85 54
72 81 52
70 79 52
99 101 89
114 110 106
144 133 142
139 130 143
130 121 133
131 123 135
116 109 124
118 110 135
101 93 123
80 77 114
66 62 110
66 63 106
77 72 117
61 59 113
64 61 117
61 58 113
60 58 117
56 54 108
59 57 114
61 59 116
60 58 117
62 59 115
57 54 109
62 60 119
58 56 110
59 57 114
61 58 116
58 56 112
61 59 116
64 61 119
57 54 108
62 60 120
60 58 114
58 56 110
57 55 106
53 52 101
61 61 109
61 61 110
58 60 102
63 66 96
65 70 93
59 64 86
70 76 94
64 71 86
70 78 79
68 77 65
77 87 63
79 89 63
77 87 62
78 87 64
82 89 71
84 93 74
84 91 73
92 100 81
92 99 79
115 115 116
131 127 138
149 141 160
133 128 139
126 124 131
127 123 129
117 114 123
117 116 124
94 95 96
82 89 87
79 88 86
87 96 93
67 92 74
65 91 73
44 99 58
50 112 65
52 113 68
52 119 77
54 123 82
44 125 76
48 132 81
41 134 78
43 139 84
39 151 86
26 135 74
28 144 81
27 145 77
27 146 76
29 150 80
28 148 80
29 148 80
29 149 81
27 149 77
28 147 79
26 138 73
28 147 78
28 144 76
27 143 74
28 149 79
27 139 76
38 147 82
40 147 82
54 152 92
52 149 91
67 152 100
70 148 101
88 147 112
109 151 129
104 151 126
115 160 137
123 151 145
117 144 133
127 145 144
95 127 112
85 111 102
48 78 57
24 58 35
22 56 30
23 56 30
24 60 32
23 58 32
23 57 31
23 56 30
24 58 32
25 60 32
23 55 30
25 61 34
26 64 35
26 62 35
26 61 34
26 63 36
25 60 33
25 61 33
27 66 37
24 59 32
29 68 38
27 63 36
27 65 37
29 68 39
25 59 34
24 58 33
25 59 34
30 62 34
48 69 50
108 108 117
120 115 127
161 151 171
163 151 174
166 154 175
174 161 184
175 162 188
167 155 179
169 156 179
174 161 185
177 164 188
177 164 189
173 160 188
173 160 185
177 163 186
180 166 189
179 165 191
177 164 186
172 159 185
171 159 185
178 165 190
182 168 192
173 160 184
182 169 194
179 166 189
178 165 189
156 146 164
135 131 132
121 121 117
9 25 112
8 24 108
8 24 107
9 25 115
9 25 114
8 24 108
8 23 103
8 25 110
8 24 110
8 24 109
8 24 106
8 24 103
8 23 104
8 22 102
8 23 102
8 24 106
8 23 105
33 37 103
97 90 127
132 122 152
167 154 176
167 154 177
152 140 161
167 154 178
155 143 169
164 152 172
156 146 168
160 148 170
151 140 166
156 146 167
163 151 171
151 140 160
159 148 169
147 138 160
151 141 160
157 146 165
151 141 160
137 130 142
149 140 157
133 127 138
131 128 131
127 123 129
132 128 136
133 128 135
134 128 143
141 134 143
146 139 156
142 134 149
150 141 158
149 141 156
157 148 165
155 144 165
160 150 173
153 145 166
163 151 178
168 156 174
169 157 179
165 154 178
172 161 186
177 165 181
170 157 182
166 154 179
178 164 189
174 162 190
170 157 180
169 156 182
171 160 183
129 125 133
82 92 64
83 95 61
83 94 61
80 91 60
79 90 58
82 94 62
78 89 59
81 92 61
83 95 62
80 91 60
85 97 63
85 97 63
82 93 61
83 95 61
81 92 60
77 89 59
82 93 62
82 93 61
77 89 59
79 91 59
83 95 62
82 94 62
83 95 62
80 91 60
84 95 61
74 85 56
102 108 93
125 125 123
146 141 148
128 128 124
127 129 117
111 117 100
102 112 83
92 105 68
99 113 76
85 101 59
77 99 42
74 94 36
72 96 20
70 94 6
70 95 6
69 93 6
70 94 6
73 98 6
71 95 6
71 96 6
72 96 6
72 96 6
69 93 6
73 98 6
69 94 6
71 96 6
71 95 6
68 92 6
72 96 6
74 98 6
72 96 6
69 93 6
68 92 6
67 91 6
70 94 12
68 88 23
68 87 25
68 86 30
69 83 40
64 75 41
73 78 54
70 75 51
70 66 61
74 57 76
78 59 78
80 60 82
79 58 82
82 61 85
80 59 82
78 59 79
82 61 86
81 60 85
78 58 82
88 65 90
84 62 85
83 61 84
82 61 86
82 61 85
80 59 83
84 62 88
99 82 104
131 119 135
143 136 150
146 140 154
137 132 139
137 131 138
134 131 134
137 133 141
127 125 127
124 123 119
123 123 119
119 118 121
117 116 112
113 114 110
114 116 109
92 99 83
105 107 99
102 106 97
103 108 93
91 97 82
88 96 76
96 102 85
91 100 74
91 99 80
133 129 136
156 147 166
167 156 179
160 150 175
166 154 178
165 155 177
172 159 184
139 133 152
116 118 116
67 83 60
49 75 31
51 76 34
47 71 30
50 76 32
53 80 34
54 81 35
58 86 37
51 77 34
57 84 36
56 84 37
55 83 35
57 85 36
57 86 37
51 78 34
56 84 36
55 83 36
56 83 37
57 85 37
55 84 37
62 92 40
53 79 35
56 85 37
52 80 34
57 86 37
56 84 37
54 81 35
51 78 35
50 78 33
53 81 34
53 77 35
65 83 46
66 81 49
75 86 56
68 78 50
76 86 55
76 87 57
75 85 55
77 87 56
74 85 54
74 84 54
75 86 53
72 82 52
73 83 54
72 83 52
71 80 53
109 109 98
140 134 141
140 132 141
137 127 136
130 123 140
119 111 128
108 101 127
101 94 129
89 84 122
86 81 120
70 66 115
65 62 111
65 62 114
58 57 115
54 53 106
59 56 112
58 56 109
59 56 111
58 56 110
62 60 119
58 55 112
58 56 111
55 53 103
61 58 116
60 58 114
59 56 113
57 54 108
59 57 111
59 57 111
61 58 115
60 57 111
58 57 111
58 57 112
57 56 112
61 60 115
56 56 107
60 60 108
56 58 98
64 66 105
66 69 100
75 77 104
76 79 100
95 95 112
98 99 106
108 108 111
117 113 122
118 116 121
105 107 102
128 124 130
122 120 127
117 116 120
126 124 133
128 124 130
124 122 132
141 136 150
140 134 145
118 117 124
108 109 106
91 94 85
84 92 76
84 88 79
73 80 61
66 75 55
70 79 58
60 72 48
64 77 54
53 79 53
48 90 52
44 84 50
42 104 60
43 110 64
41 110 61
38 126 71
35 127 72
30 135 76
34 138 77
27 138 79
26 137 75
27 141 77
28 145 78
26 140 76
28 149 81
27 140 74
26 142 73
28 144 77
27 143 76
28 148 79
29 150 79
26 138 75
28 148 78
28 147 77
29 151 81
28 146 80
27 145 80
31 158 83
28 143 77
30 138 76
37 143 79
52 145 90
72 150 101
81 153 108
89 145 113
108 152 127
109 151 132
124 149 142
138 161 156
130 148 149
108 132 125
120 128 134
84 100 96
55 70 63
28 56 34
22 53 29
20 49 26
21 54 29
23 57 32
22 56 30
24 59 33
22 56 30
22 53 29
22 55 30
24 58 32
24 59 32
25 62 34
25 60 33
23 58 32
25 61 34
26 62 34
25 60 33
26 63 35
26 63 35
28 67 38
25 62 34
27 64 36
27 62 35
33 63 36
42 66 40
63 81 54
85 92 78
121 121 120
145 138 150
163 152 169
165 154 176
170 158 182
172 158 186
179 166 190
179 165 189
184 170 194
171 158 184
168 156 183
179 165 190
178 165 190
180 167 191
180 166 189
176 162 184
179 166 187
173 160 181
171 159 182
167 155 177
169 156 178
162 151 173
173 161 181
165 154 175
162 152 173
161 150 171
138 133 141
127 126 127
9 24 111
9 25 111
9 25 117
9 25 111
9 25 113
9 25 115
9 25 112
8 23 104
8 24 107
8 23 101
8 22 101
8 24 106
8 23 100
7 22 100
8 24 105
8 22 98
8 22 100
53 52 108
92 89 122
136 127 143
134 127 140
139 132 141
141 133 145
134 127 141
139 132 139
128 123 127
108 106 112
132 127 131
115 113 114
119 117 120
109 109 107
120 119 115
114 113 112
105 106 101
105 105 102
98 101 92
106 108 99
90 97 79
99 103 95
124 120 126
164 152 172
166 153 177
166 154 179
170 156 179
172 158 182
165 152 176
160 147 174
175 161 184
176 162 186
177 164 186
175 162 186
170 156 182
175 162 188
170 157 182
170 158 184
174 160 185
172 160 186
175 162 185
169 157 183
179 166 193
176 163 187
181 168 192
170 157 181
182 167 188
177 164 190
170 158 182
174 161 180
143 138 146
95 103 79
81 91 61
82 93 61
84 95 62
81 93 61
82 93 62
78 89 59
82 93 60
77 88 58
82 94 62
84 95 63
81 92 60
80 92 61
82 94 62
85 97 63
81 93 61
85 97 63
82 95 62
79 91 59
86 98 63
82 93 61
84 95 63
85 96 63
79 90 59
80 92 60
81 94 60
84 97 61
114 119 107
135 133 131
125 128 112
114 120 101
108 114 99
102 113 80
84 101 55
82 100 53
75 96 34
74 96 31
72 96 6
73 96 19
68 92 6
67 91 6
70 94 6
68 91 6
71 95 6
71 96 6
71 95 6
70 94 6
73 97 6
71 95 6
71 95 6
71 96 6
70 95 6
69 93 6
68 92 6
70 94 6
69 92 6
70 94 6
72 96 6
69 92 6
71 95 12
69 92 6
69 92 12
68 90 12
67 86 24
70 87 32
68 82 38
65 76 39
70 76 49
74 67 68
80 66 78
77 59 78
77 57 80
76 56 78
82 61 84
78 58 81
83 61 84
78 58 83
79 59 84
82 62 86
77 57 80
87 64 90
78 59 84
87 64 89
81 61 87
78 58 80
78 58 83
81 67 82
91 86 87
93 96 87
101 105 90
94 102 78
80 90 61
93 101 81
84 94 67
86 95 70
81 93 61
86 95 69
83 94 63
84 94 64
78 89 62
83 94 62
83 94 61
78 89 59
83 94 62
80 90 59
77 88 59
83 95 62
80 91 59
78 89 59
82 93 61
94 99 85
138 132 143
154 146 165
168 158 182
169 157 176
178 164 189
172 159 182
174 162 182
130 127 136
88 96 87
47 68 32
47 70 31
48 72 31
51 77 33
50 76 33
49 74 31
49 74 32
52 78 33
49 75 32
56 84 37
56 84 36
51 78 34
54 81 36
61 90 39
55 83 36
58 87 38
55 84 36
51 78 34
55 84 36
56 85 37
54 82 35
50 76 32
54 82 35
52 82 35
52 79 34
49 76 32
52 80 33
52 79 33
50 77 33
53 76 35
62 80 46
75 87 56
72 83 54
74 84 55
73 84 54
73 83 54
68 79 50
78 89 57
74 84 55
77 88 57
77 88 55
79 90 57
75 85 54
74 85 54
70 81 50
75 84 55
88 94 76
121 117 121
128 122 134
134 127 145
118 110 134
108 102 131
106 100 128
89 85 120
71 68 119
70 68 119
61 59 117
55 54 104
62 59 115
58 56 111
60 58 115
54 53 108
57 55 110
55 53 107
63 60 117
57 56 111
58 56 112
58 57 114
59 56 112
63 60 117
59 57 110
59 56 111
62 59 116
58 56 112
58 56 109
59 56 108
55 54 105
57 55 107
59 57 110
57 56 109
59 58 112
53 54 101
70 68 115
71 72 108
102 97 128
102 97 125
112 106 129
101 98 125
112 109 134
133 127 148
152 142 163
152 144 158
152 143 161
169 158 178
147 139 157
157 148 168
160 150 168
149 140 156
161 152 167
144 137 153
147 140 158
137 130 146
120 118 121
100 103 94
79 87 71
67 78 49
64 76 47
61 72 44
55 66 41
58 68 40
56 68 41
49 83 49
42 77 45
36 84 49
32 97 55
34 111 64
35 114 67
33 128 74
30 130 74
27 140 77
29 132 72
25 136 74
28 142 77
25 136 75
29 149 79
29 148 80
28 147 77
28 148 80
28 150 80
27 143 74
27 147 77
28 146 79
28 146 78
26 141 76
28 146 80
27 146 77
29 153 81
28 146 78
27 145 75
30 154 81
28 150 79
29 149 80
40 146 83
40 148 82
52 141 90
71 149 104
62 147 94
85 145 112
101 146 123
99 142 125
119 151 137
114 137 136
127 140 146
134 147 146
122 123 130
103 105 113
40 59 46
22 54 30
19 49 27
21 51 28
20 52 27
20 50 26
22 55 29
22 54 29
21 52 28
23 54 30
23 57 30
23 55 29
23 55 29
21 51 28
22 54 31
25 60 34
24 57 31
25 61 33
24 59 33
24 59 33
22 55 30
28 65 36
25 58 33
27 59 33
39 62 37
58 74 50
71 83 61
86 96 71
87 96 75
94 99 88
142 134 148
152 145 160
165 153 177
169 157 176
160 149 170
156 147 169
165 153 174
152 143 161
170 158 176
159 150 167
153 144 160
148 141 154
156 147 163
146 138 151
146 139 149
130 125 135
135 131 141
137 131 139
136 130 140
121 121 117
131 128 127
116 117 114
118 118 114
115 117 105
111 113 104
106 110 98
8 24 108
8 24 109
8 23 104
8 23 106
8 24 106
8 22 102
8 23 100
8 22 98
7 22 97
8 23 103
8 22 97
8 23 105
8 22 99
8 23 101
8 24 105
7 22 95
12 26 100
33 38 85
72 75 92
87 89 94
90 93 79
83 87 74
99 101 94
85 91 75
84 90 71
84 89 75
81 89 67
84 92 69
78 86 62
78 88 59
79 88 61
77 87 60
73 81 57
78 88 59
73 83 59
74 84 56
78 89 59
78 88 59
87 95 72
131 126 135
160 150 171
172 159 183
166 152 176
172 159 183
176 162 184
177 164 188
167 155 182
161 150 177
167 155 182
164 152 175
170 158 182
174 163 185
168 156 180
171 157 181
164 152 177
175 162 186
167 155 178
175 162 185
176 163 187
177 164 186
173 160 183
168 155 178
178 165 189
174 163 187
177 164 185
176 162 187
173 160 181
138 132 140
99 106 84
83 94 61
85 97 63
82 94 62
84 96 63
81 92 61
84 96 63
80 91 61
79 90 60
84 96 63
85 97 64
84 95 61
82 93 63
84 95 62
78 89 59
83 95 62
81 93 61
84 96 62
85 96 63
82 94 61
86 97 63
84 96 61
82 93 62
83 94 62
83 95 62
79 91 57
81 93 58
98 105 88
121 124 111
115 119 104
101 110 88
97 109 82
98 108 80
79 97 54
80 98 44
75 95 35
68 91 6
70 94 6
71 95 6
69 93 6
69 93 6
68 93 6
67 91 6
68 92 6
71 94 6
72 96 6
70 94 6
69 93 6
69 94 6
71 95 6
69 93 6
68 92 6
71 95 6
70 94 6
69 92 6
69 92 6
70 94 6
71 95 6
68 92 6
71 95 6
67 90 6
69 92 6
70 92 16
64 84 22
67 90 11
69 85 34
73 80 51
68 76 48
69 64 63
76 60 76
72 55 72
79 59 83
76 57 77
77 58 79
79 59 81
75 56 80
79 59 84
79 59 82
84 61 86
81 60 86
77 57 78
80 59 83
87 64 89
82 61 87
78 58 82
79 59 82
77 63 78
81 81 72
79 87 64
83 94 61
82 94 62
81 91 60
76 86 57
81 92 60
81 91 61
81 92 62
81 93 62
81 92 60
79 89 59
83 94 62
80 91 61
80 91 60
78 90 58
79 91 59
82 93 61
79 89 60
77 88 59
78 90 60
79 90 60
77 89 58
77 88 58
109 112 106
148 140 155
172 159 177
173 160 185
162 151 178
166 154 174
158 148 170
145 137 154
123 121 125
77 86 74
52 76 38
49 74 31
47 71 31
45 69 29
48 72 30
49 75 32
49 74 31
51 77 33
51 78 33
55 81 35
52 79 35
56 83 36
55 83 37
52 80 34
54 81 35
55 82 35
56 85 36
54 81 36
53 81 35
52 79 34
55 81 35
49 75 32
55 86 37
50 77 32
52 81 34
45 71 30
55 84 36
46 71 31
62 78 45
68 83 50
78 89 58
80 90 59
73 84 55
72 82 52
72 82 52
76 88 57
74 84 55
76 87 56
74 86 55
73 83 54
75 85 56
77 86 60
77 86 58
77 86 62
80 88 64
88 95 77
98 101 93
100 98 108
132 123 138
127 119 138
114 108 140
91 86 125
77 74 120
75 71 119
56 55 111
60 57 117
61 59 120
62 59 117
56 54 106
60 58 116
58 56 113
62 59 115
59 57 113
61 58 116
56 54 109
61 58 117
59 57 111
58 56 110
61 59 116
64 61 120
60 57 113
59 56 113
59 56 113
63 60 116
56 54 107
59 58 114
55 54 107
53 53 105
61 59 115
56 55 108
54 54 104
61 60 105
80 76 119
83 80 117
105 99 128
118 111 139
124 117 146
132 125 151
145 137 156
149 142 162
166 156 179
158 149 166
164 154 173
161 150 170
162 151 171
157 148 167
156 147 166
155 146 166
144 138 160
159 150 165
147 139 154
158 151 164
132 127 139
113 114 114
93 98 85
62 71 50
61 72 44
53 64 38
58 70 42
49 63 37
50 70 39
47 88 52
37 91 52
31 99 56
32 110 63
31 111 63
31 127 72
28 138 77
28 143 80
27 140 78
27 142 79
27 139 78
28 148 80
26 139 75
28 149 80
25 137 72
27 144 78
30 156 84
28 150 81
27 142 74
29 146 80
27 142 77
28 148 80
29 154 82
30 154 82
28 147 77
28 143 77
29 152 80
29 151 81
29 150 79
27 139 72
30 155 84
27 144 79
35 146 82
47 146 87
70 146 98
91 155 116
99 148 118
111 156 133
133 150 145
132 149 150
136 147 153
139 144 154
146 142 158
118 120 130
101 102 105
59 70 67
29 54 35
20 52 27
20 51 27
22 56 29
19 47 26
20 51 27
23 56 29
20 51 28
18 50 25
22 53 29
21 53 28
20 50 26
22 54 28
20 51 26
21 52 27
22 55 29
23 55 30
22 53 29
22 54 30
25 60 32
24 57 31
75 82 77
96 101 94
96 100 92
101 104 103
114 113 116
110 112 107
123 122 126
127 123 131
141 136 150
163 152 174
149 141 157
134 130 136
121 120 114
115 115 114
116 117 110
107 110 98
114 115 109
106 109 98
101 106 92
92 99 77
91 100 77
91 98 75
97 104 83
90 99 72
85 96 65
88 98 68
85 95 66
83 94 65
85 96 63
84 95 63
81 92 62
80 91 61
82 93 62
8 24 108
8 23 104
8 23 103
8 23 102
8 23 105
8 24 104
8 24 102
8 24 107
8 23 104
8 22 101
8 23 100
7 21 93
8 24 102
7 22 99
7 21 94
7 22 96
14 24 88
42 50 82
57 66 65
75 84 58
73 82 54
73 83 55
70 80 54
71 80 53
71 80 53
73 82 55
72 82 56
73 83 56
78 87 57
71 80 54
71 81 55
78 88 58
74 83 56
76 85 57
77 88 59
76 86 58
77 87 58
79 89 58
87 96 71
138 133 143
158 146 169
170 157 182
170 157 181
172 158 184
180 166 189
172 159 186
169 157 182
169 156 177
168 156 183
174 161 184
175 163 185
173 159 182
161 150 176
169 157 180
166 154 180
170 156 184
165 153 176
174 160 185
183 169 192
180 167 190
173 160 182
175 162 187
176 163 185
172 159 183
171 158 183
173 161 186
172 160 184
151 143 159
99 105 89
81 92 61
83 95 62
83 95 62
84 95 63
80 91 60
80 91 61
82 93 61
79 91 60
82 94 62
84 95 63
83 94 62
78 91 59
80 91 60
83 94 62
85 97 63
83 94 62
82 94 60
86 97 64
84 96 63
81 92 61
81 91 65
80 91 60
84 95 62
84 95 63
88 99 68
83 94 65
94 103 78
104 110 89
110 114 105
112 117 98
88 100 71
87 104 58
70 92 27
68 90 19
70 93 6
68 92 6
66 90 6
67 90 6
66 90 6
69 93 6
70 95 6
69 93 6
72 97 6
65 88 5
70 93 6
69 93 6
72 96 6
68 92 6
72 96 6
69 93 6
69 93 6
72 97 6
69 92 6
70 94 6
71 95 6
69 93 6
69 92 6
69 92 6
68 90 6
69 93 6
69 92 6
66 89 6
67 89 16
68 90 16
65 81 28
72 85 39
71 76 55
71 71 57
73 61 71
75 57 73
76 57 79
76 57 79
84 62 87
86 63 89
79 59 82
79 59 81
80 59 82
79 59 81
78 58 79
79 59 81
81 60 83
82 61 84
87 64 90
75 55 76
75 57 79
77 64 78
79 75 72
79 86 64
80 91 60
80 91 59
83 95 62
82 93 62
81 92 60
80 91 61
81 92 61
80 91 60
78 90 59
84 95 62
78 90 59
80 92 59
78 90 58
80 92 61
78 89 59
78 89 59
79 89 59
81 91 60
80 91 61
77 88 59
79 91 59
74 85 56
89 95 75
131 127 133
152 143 156
166 155 176
160 149 172
165 153 176
167 156 177
156 147 166
145 138 149
114 116 113
63 78 56
46 71 30
46 69 30
49 73 32
44 67 29
50 75 32
48 72 30
54 82 36
53 80 35
50 76 32
52 79 34
49 76 32
54 82 34
54 80 35
52 79 35
55 83 37
54 81 36
54 83 35
58 87 38
56 85 36
54 83 37
49 76 33
53 80 34
51 77 34
52 80 34
48 74 32
55 78 42
62 79 45
72 85 55
74 86 57
78 85 61
90 95 82
79 89 68
90 95 81
97 101 88
94 99 86
98 103 87
100 104 92
109 110 103
110 111 107
114 113 104
105 106 104
121 119 122
120 118 114
108 108 105
120 117 119
127 122 126
136 128 140
124 119 136
100 96 127
81 80 115
70 69 109
64 62 118
66 64 121
58 56 113
59 57 116
60 58 116
58 56 111
58 56 110
62 59 118
59 57 114
59 56 112
57 55 109
61 58 114
64 61 118
61 58 112
58 55 110
58 56 109
59 57 112
58 55 109
63 60 117
56 54 105
60 57 112
57 55 107
56 53 104
60 59 116
57 55 111
58 57 109
59 58 111
56 54 104
58 57 108
62 61 114
60 60 108
77 75 123
95 93 126
110 106 138
130 123 152
135 129 154
151 142 165
153 144 164
152 143 161
159 149 171
158 148 171
161 152 174
151 144 164
161 152 171
154 146 168
155 146 164
153 145 165
152 144 158
149 140 156
149 142 158
151 146 158
136 131 138
116 117 116
90 93 84
78 85 63
65 77 46
54 65 38
54 68 40
54 71 42
47 83 47
33 77 46
32 112 64
27 94 53
24 118 68
29 137 76
27 132 76
29 151 82
29 149 82
27 143 79
29 148 83
28 145 78
28 148 78
28 145 76
29 147 80
27 145 75
28 146 78
29 148 80
29 147 78
28 147 78
27 142 74
28 145 77
29 149 80
29 150 78
27 144 76
27 141 74
26 138 73
28 146 79
29 147 81
28 147 78
27 142 75
27 140 73
29 148 81
34 145 80
57 152 93
74 148 106
109 156 130
112 148 133
127 145 142
129 145 143
127 140 145
143 145 158
145 143 159
143 138 154
132 128 140
91 95 95
51 67 56
21 52 28
20 49 26
21 53 28
19 49 25
20 51 26
19 51 25
23 56 31
19 47 24
21 52 28
21 53 28
24 57 31
21 53 28
19 48 25
21 55 28
21 54 27
20 50 27
22 53 29
20 49 26
28 54 34
71 81 79
118 114 125
130 126 138
141 135 148
149 141 157
160 150 170
154 144 162
157 147 167
163 154 171
166 154 176
161 151 169
147 140 152
121 120 120
101 106 92
87 97 70
79 90 61
82 93 62
81 92 61
86 97 63
80 91 60
87 98 63
85 96 63
82 93 63
76 87 60
82 93 63
80 92 61
80 91 61
82 92 62
86 98 64
84 95 62
84 95 62
82 92 62
83 94 62
83 93 62
8 23 104
8 24 108
8 24 107
8 24 107
8 22 100
8 22 102
8 24 110
8 24 105
8 23 103
7 22 97
8 24 103
8 22 97
7 20 90
7 22 99
7 21 94
7 21 91
20 29 88
52 61 75
68 77 58
71 80 52
64 72 49
65 74 50
68 77 52
70 79 52
68 77 51
74 84 56
70 79 53
75 84 55
72 81 54
71 81 55
76 85 56
82 92 60
73 83 57
70 79 55
72 81 55
75 85 57
79 90 60
79 89 59
87 95 73
121 117 126
171 156 181
170 157 183
167 153 176
166 154 179
174 161 185
167 155 177
165 151 179
178 164 186
164 151 177
165 152 176
166 153 179
169 157 180
173 161 185
176 163 184
175 162 185
179 166 194
176 162 189
172 159 183
177 163 186
180 166 189
178 165 190
175 162 188
176 164 187
176 163 190
178 165 187
172 159 184
177 163 187
150 142 161
99 105 92
81 92 62
81 93 61
80 91 61
80 91 61
84 95 63
85 96 65
84 92 68
83 95 62
91 101 73
83 93 64
94 101 79
88 96 70
93 100 83
90 100 73
98 104 85
103 108 91
100 105 87
102 108 90
106 110 100
116 117 112
115 117 107
116 118 114
113 116 106
123 122 117
131 128 131
119 120 116
108 113 103
112 117 103
87 98 69
82 97 55
82 98 51
70 92 23
68 92 6
69 92 5
71 95 6
65 91 6
68 92 6
67 92 6
73 97 6
67 91 5
71 95 6
71 94 6
71 95 6
68 93 6
70 94 6
68 92 6
70 95 6
70 95 6
69 93 6
71 95 6
72 96 6
67 91 6
71 94 6
70 94 6
67 90 5
66 89 5
70 93 6
68 91 6
68 91 6
67 89 5
71 95 6
70 94 12
63 85 12
66 88 16
67 88 16
64 82 23
68 76 45
72 73 58
69 59 66
78 59 78
81 60 80
77 57 79
78 58 81
73 55 76
83 61 84
81 59 84
80 60 81
76 56 79
81 60 84
76 57 79
79 59 82
78 58 81
80 59 84
74 55 78
76 57 79
80 68 79
76 78 68
83 90 66
84 95 62
80 91 60
80 91 60
74 85 58
83 94 62
82 93 61
78 89 59
76 87 59
80 91 60
83 94 62
82 93 61
80 91 60
80 91 59
81 92 59
81 92 60
82 93 60
77 88 58
80 91 61
79 90 60
76 87 58
78 89 58
81 92 60
80 90 60
91 98 80
115 114 117
148 140 158
165 154 174
162 151 174
158 148 169
167 156 178
151 143 162
133 129 139
90 96 93
55 75 46
47 73 31
48 73 31
43 67 27
43 66 27
48 73 31
53 80 35
51 76 34
48 72 32
53 81 35
49 75 32
51 77 33
54 82 35
51 78 33
53 80 36
52 78 33
46 71 30
50 77 34
58 87 37
47 73 31
52 79 34
51 78 34
54 82 35
52 80 33
60 84 45
82 92 78
94 99 94
117 116 122
121 120 121
128 125 128
128 126 130
138 134 140
123 120 123
137 132 143
142 136 147
137 131 140
141 135 143
147 138 153
162 153 168
147 138 156
152 143 155
166 155 173
162 153 166
157 147 159
155 145 162
157 148 166
143 135 152
132 124 145
95 92 122
70 70 108
60 59 109
60 60 113
57 55 112
58 56 110
59 57 112
60 58 119
55 53 106
59 57 116
60 58 117
56 53 105
59 57 115
59 57 112
59 57 115
61 58 117
56 53 105
61 58 113
61 58 116
57 55 105
58 55 107
58 56 110
58 56 110
57 55 109
61 58 112
59 57 113
59 58 113
56 55 109
55 54 104
56 55 107
60 59 112
54 55 105
56 56 108
53 54 100
79 77 122
87 84 120
93 90 124
121 114 141
135 126 154
146 137 157
158 148 169
164 155 175
163 154 170
158 150 166
151 144 160
167 157 178
156 147 164
159 150 167
163 153 173
148 140 154
162 151 168
161 154 167
155 146 163
144 139 151
153 148 158
136 132 141
121 120 123
90 94 90
83 90 75
60 73 45
59 70 41
64 82 50
51 79 46
48 93 54
40 106 61
29 119 70
30 144 81
25 132 76
25 131 75
25 132 75
26 138 75
27 143 78
27 144 79
28 143 79
28 146 81
30 152 82
29 150 81
29 148 81
29 151 81
27 148 77
28 145 78
29 152 81
29 148 79
27 141 76
28 147 78
27 143 76
29 149 81
28 150 79
31 160 87
27 137 74
27 141 73
27 144 76
30 154 84
29 152 81
29 148 80
28 145 79
37 134 78
45 147 88
85 152 111
85 146 110
104 147 125
115 141 129
105 135 118
107 123 116
126 128 133
133 130 137
103 107 103
95 99 93
64 78 59
32 56 33
23 51 28
23 56 29
21 54 28
21 52 28
21 52 29
20 51 27
19 48 25
20 51 27
23 55 30
21 54 28
17 47 23
21 53 27
21 52 28
21 53 29
19 50 27
22 54 28
33 60 36
70 77 74
100 102 107
138 130 144
162 152 170
151 141 159
149 139 158
160 150 169
155 145 164
160 149 173
167 155 181
170 157 180
167 155 180
176 162 183
162 152 174
145 139 148
126 124 124
97 104 90
82 92 66
80 92 61
80 91 60
79 90 60
81 91 60
78 89 60
81 92 61
82 93 61
78 88 60
83 95 63
83 94 63
83 94 63
81 92 60
81 92 61
78 89 59
87 98 65
80 91 61
79 90 61
8 22 96
8 23 102
8 22 101
7 22 97
7 22 97
8 23 102
8 22 99
8 22 97
7 21 89
7 21 88
7 22 97
7 20 88
8 23 100
7 20 87
6 19 82
13 24 91
35 43 79
51 58 59
64 73 51
67 75 51
72 81 53
71 81 54
67 75 50
71 80 54
75 85 56
73 83 55
71 81 54
67 76 53
72 81 54
69 78 53
78 88 58
75 84 56
77 87 58
76 85 57
71 80 55
75 85 58
80 90 60
77 88 58
96 100 89
132 125 142
168 156 178
170 156 182
164 152 176
166 154 179
166 154 180
169 156 182
167 154 178
173 160 186
168 155 182
164 152 178
167 155 178
171 159 181
175 162 186
173 162 187
182 167 192
175 163 186
164 152 176
171 159 181
174 159 187
175 162 186
170 158 181
164 152 174
159 148 172
169 156 179
166 155 181
166 156 177
166 154 177
154 145 164
114 113 112
100 105 87
98 104 84
115 116 111
104 108 95
117 117 110
112 115 107
120 121 117
107 109 103
127 125 125
122 122 119
125 124 125
126 123 127
129 126 133
139 135 140
143 137 146
155 147 162
151 142 156
151 144 159
155 147 159
157 149 158
161 152 168
155 145 164
164 154 170
170 159 176
170 159 178
151 142 155
136 134 135
107 113 94
83 98 57
67 87 26
64 85 13
69 92 14
67 90 6
68 92 6
69 92 6
68 90 5
67 91 6
66 89 6
71 95 6
69 93 6
69 94 6
69 93 6
71 95 6
71 95 6
69 93 6
68 91 6
69 92 6
70 94 6
67 90 5
68 91 6
69 93 6
73 98 6
70 94 6
67 91 6
69 92 6
69 93 6
69 92 6
66 90 5
67 90 6
67 90 6
67 90 5
67 91 6
67 90 6
67 91 6
61 81 15
66 83 28
67 78 38
72 70 63
72 61 72
76 58 77
75 56 76
76 57 78
78 58 79
75 56 76
79 59 85
85 63 88
78 58 80
80 59 84
80 60 83
78 58 79
77 57 78
79 58 83
77 57 78
78 58 81
75 57 78
79 67 77
79 77 72
78 87 62
84 95 62
78 88 58
81 92 61
80 91 62
82 94 60
81 92 61
82 94 61
83 94 62
77 88 57
77 88 58
81 92 60
82 94 61
77 89 58
79 91 58
74 85 57
78 89 57
75 85 56
75 86 57
77 88 58
75 86 57
75 86 57
77 88 58
78 89 57
77 87 60
104 107 99
135 130 139
160 150 169
158 149 167
146 137 155
154 145 164
158 148 168
149 141 161
118 118 122
98 101 97
51 70 40
50 75 31
46 71 29
45 70 29
52 79 34
52 79 33
49 75 33
52 77 32
49 75 32
52 79 34
52 79 34
50 75 34
54 81 36
53 81 35
53 79 36
54 82 36
48 73 33
53 81 35
51 78 34
51 77 33
51 77 33
51 78 34
44 70 30
86 93 88
117 118 121
127 123 135
147 138 149
156 148 163
158 148 165
151 142 159
156 146 166
162 151 174
151 143 158
149 142 161
169 157 178
151 142 160
163 152 169
165 154 175
153 144 161
169 157 175
153 144 161
161 150 165
162 151 168
161 151 166
160 150 166
141 133 157
126 118 146
117 111 140
82 77 120
61 60 116
56 55 110
59 57 116
57 54 109
60 58 114
62 59 119
60 58 113
57 55 111
59 58 113
58 56 110
63 61 120
59 56 111
58 56 114
59 57 113
60 57 113
62 60 118
62 59 115
57 55 107
57 55 110
61 58 116
59 56 110
59 56 108
57 56 108
62 60 116
58 57 110
53 51 100
62 60 117
56 55 104
55 54 104
57 56 109
54 54 107
61 61 114
53 54 99
77 75 120
90 87 126
111 105 139
135 129 154
158 147 169
161 152 172
156 147 170
159 150 178
164 154 173
161 152 171
159 149 167
166 155 173
169 158 179
158 149 168
161 153 167
154 145 162
159 151 167
153 143 156
152 145 163
154 148 159
137 134 147
151 143 155
139 133 143
100 103 96
83 90 75
74 90 57
62 91 55
58 102 60
50 105 61
34 115 66
29 127 73
30 136 78
29 146 82
27 140 79
27 139 78
26 136 75
27 139 79
26 132 74
27 141 79
29 151 82
28 141 78
30 155 86
28 144 78
27 142 79
29 151 79
30 158 82
27 145 79
30 153 85
28 148 79
28 150 79
28 148 78
28 146 79
28 148 78
29 148 81
29 152 82
28 144 76
27 140 76
27 145 76
28 148 78
30 153 83
29 150 79
29 149 79
31 145 80
46 143 85
66 130 89
69 124 84
74 126 85
83 114 87
85 105 83
75 90 64
80 90 70
87 95 76
71 83 63
58 73 48
43 63 39
34 56 32
21 54 28
20 52 27
19 47 24
20 50 27
19 49 26
23 56 30
22 55 29
21 52 29
21 51 28
21 52 28
20 50 26
21 53 28
22 54 29
22 54 28
32 58 39
70 79 76
95 96 103
125 120 137
158 149 166
154 144 160
157 148 171
154 144 169
161 151 175
167 156 181
166 155 177
172 160 183
169 157 180
170 157 184
169 156 182
170 157 182
173 160 183
152 143 160
130 126 139
134 131 134
98 102 89
79 89 66
84 95 63
82 93 61
86 97 63
81 92 60
80 91 60
82 93 62
79 90 61
81 92 61
83 94 61
81 92 61
79 89 61
80 91 61
82 93 62
80 91 61
83 94 62
7 22 97
8 23 104
8 24 104
8 22 98
7 21 93
8 22 101
8 23 101
7 21 95
7 21 89
7 21 93
7 21 96
7 22 95
6 19 83
7 20 88
7 20 87
22 30 82
48 56 70
62 69 56
70 79 53
61 69 47
74 83 55
68 76 50
61 69 48
66 75 51
72 81 54
70 79 53
73 83 55
74 84 56
75 85 58
78 88 59
77 87 57
76 85 56
73 83 56
79 90 59
79 90 60
75 85 57
80 90 60
77 87 58
98 103 86
134 128 139
167 154 178
167 155 181
163 152 179
160 147 172
170 156 181
168 155 177
169 157 180
152 142 167
165 153 178
170 157 181
168 155 179
175 162 184
166 154 178
166 154 175
163 151 172
160 150 170
156 147 166
148 141 155
165 154 173
156 147 162
145 138 147
155 147 160
155 147 158
129 125 136
131 126 134
127 124 127
131 126 128
132 130 132
136 131 135
140 135 143
152 145 158
153 145 156
158 148 161
149 142 155
165 155 171
160 150 166
154 146 162
170 158 179
167 156 177
169 157 179
168 158 181
172 159 185
175 162 187
177 164 186
164 152 175
174 162 184
178 165 188
176 162 185
176 163 187
175 162 186
173 160 184
173 161 185
174 162 184
173 161 183
168 157 174
142 138 146
112 115 104
82 98 57
69 91 19
69 91 9
69 93 9
64 87 5
66 89 5
64 86 5
69 92 6
69 93 6
67 91 6
69 92 6
67 90 6
69 94 6
72 96 6
70 95 6
68 91 6
70 94 6
66 90 5
70 94 6
71 96 6
66 89 5
66 89 5
66 90 6
68 91 5
67 90 5
67 90 5
66 90 5
71 95 6
69 92 6
68 91 6
63 85 5
67 89 5
68 91 6
67 90 6
68 91 6
63 85 5
66 89 5
65 82 30
69 81 43
68 76 46
67 64 60
71 56 71
72 55 75
77 58 77
76 57 78
69 52 72
78 59 79
79 59 81
70 53 74
76 57 78
81 60 83
80 59 83
79 59 82
70 53 74
76 57 80
75 56 76
77 59 81
79 72 75
76 77 66
79 89 62
77 88 58
79 90 58
82 93 61
79 89 58
81 92 60
79 90 59
78 88 59
79 90 59
78 89 60
81 92 63
82 93 63
79 90 60
86 95 73
88 96 75
89 97 72
89 96 75
94 100 83
87 94 76
95 100 84
90 96 79
97 102 85
100 104 93
95 100 87
98 102 93
101 103 96
115 114 118
140 134 148
130 126 138
136 130 137
127 125 129
119 117 118
121 119 122
106 105 105
83 91 81
50 70 36
50 73 33
46 71 29
47 72 31
46 69 31
49 74 32
49 75 33
50 76 33
52 79 34
56 84 36
49 77 33
53 81 36
51 79 33
53 79 35
50 76 33
50 76 34
52 81 35
51 79 34
54 82 35
51 78 33
51 77 34
54 75 41
83 91 81
126 122 128
144 138 153
151 142 158
156 147 163
163 152 169
154 145 161
150 141 158
156 147 162
161 151 169
155 146 163
159 149 171
165 154 174
156 148 163
155 147 167
157 147 163
161 150 171
162 151 173
156 147 166
162 152 172
160 150 168
171 159 180
168 157 178
151 141 168
113 106 139
96 91 131
78 75 122
56 54 108
61 58 116
59 56 109
61 59 116
63 60 118
60 58 112
63 61 121
60 58 117
60 57 114
58 57 110
59 56 109
59 57 113
60 58 115
58 55 112
58 56 112
60 58 113
58 55 110
63 60 118
59 56 112
58 56 111
59 56 108
56 54 108
62 61 120
62 61 117
58 57 110
62 60 116
57 54 108
58 57 111
59 58 111
58 57 109
56 58 107
54 55 105
58 59 112
57 57 105
93 89 128
104 100 126
130 121 147
155 145 167
153 146 167
166 156 176
165 156 176
164 154 172
165 155 172
159 149 170
167 156 177
165 156 176
158 150 169
161 151 167
159 149 172
162 152 167
166 156 176
159 152 167
144 139 150
147 141 153
149 143 158
156 148 162
151 144 156
123 122 120
95 105 87
77 94 68
64 101 69
57 101 63
41 128 74
32 118 69
25 128 73
27 135 75
26 131 75
27 141 78
26 132 73
28 145 80
28 144 81
29 150 83
30 155 84
31 157 84
29 150 80
29 149 79
29 150 79
31 158 82
28 143 78
28 146 76
28 145 77
29 150 80
29 152 81
27 143 76
29 151 82
28 153 82
29 150 82
29 148 78
28 143 77
28 149 79
27 142 77
29 150 81
29 147 79
29 150 83
29 149 81
27 145 76
36 150 84
40 143 77
49 130 74
60 117 68
63 97 61
67 101 61
71 92 59
72 88 58
70 81 54
75 87 57
65 78 50
63 77 48
44 65 39
42 64 37
23 52 29
20 51 27
19 47 25
20 51 26
20 50 26
23 57 31
22 54 29
20 50 27
20 51 27
22 54 28
22 53 29
19 51 26
21 54 27
33 55 43
110 109 118
140 133 151
139 132 156
167 155 173
154 145 165
153 143 163
163 152 175
156 146 168
158 148 171
175 162 184
174 162 187
171 159 182
169 157 181
181 167 187
177 164 188
167 155 180
175 161 184
161 150 173
148 140 157
132 129 132
113 113 110
95 101 83
82 92 64
80 91 61
81 92 60
87 98 63
81 91 61
81 92 61
82 94 62
84 95 61
80 92 60
80 91 61
79 89 61
84 96 62
82 93 61
85 96 63
8 23 106
8 22 99
8 23 104
7 22 98
8 22 98
7 21 95
8 22 97
8 22 98
6 19 83
7 21 87
7 22 94
7 20 87
7 21 93
7 20 89
26 34 81
43 51 73
59 68 70
64 72 50
66 74 49
66 74 50
67 75 50
68 77 52
66 75 51
72 81 54
76 86 56
72 81 55
75 85 56
70 79 54
77 86 58
74 82 57
76 84 61
74 84 56
82 90 69
80 87 72
90 96 79
91 96 77
101 104 93
89 95 78
118 116 114
129 125 132
152 142 160
150 140 156
148 139 155
146 137 152
142 134 150
142 135 150
143 137 147
148 141 152
130 125 136
135 130 140
121 119 122
127 123 128
126 124 123
126 123 127
118 119 116
122 121 118
114 113 107
117 116 112
106 109 100
114 117 109
112 114 105
103 108 91
98 103 88
106 110 96
95 102 80
88 97 75
95 103 80
113 114 103
157 149 164
173 160 184
178 165 188
171 159 183
171 158 185
173 161 184
182 168 192
177 165 188
183 169 191
180 166 191
186 172 194
172 160 183
176 163 189
181 168 192
178 166 187
174 162 188
171 159 186
174 163 186
174 161 186
174 161 187
172 158 184
180 166 189
178 164 186
182 168 192
172 161 183
177 164 185
170 158 173
137 135 136
109 113 102
91 103 67
72 92 28
61 84 8
65 87 5
72 96 6
68 90 5
67 90 6
68 92 6
68 92 6
66 88 5
65 87 5
69 93 6
70 93 6
70 94 6
67 90 5
70 95 6
69 93 6
68 92 6
68 92 6
70 94 6
67 90 6
67 91 5
69 93 6
68 91 6
67 91 6
66 89 5
66 88 5
69 92 6
65 88 5
67 90 6
63 86 5
69 93 6
63 84 5
66 88 5
67 90 5
64 87 5
62 83 11
68 88 16
64 76 35
65 71 46
73 68 64
63 53 62
67 50 69
77 58 80
73 54 73
76 57 77
76 57 77
73 55 76
71 54 73
76 56 78
78 58 80
76 56 77
71 53 76
75 57 79
81 60 83
75 56 79
76 61 82
84 78 82
85 86 78
95 101 84
90 97 76
87 95 76
92 96 81
89 97 75
107 109 99
101 106 98
113 115 107
99 104 92
107 109 102
115 115 114
124 122 123
117 117 115
108 110 107
119 117 118
122 119 122
126 122 125
121 118 122
134 129 131
143 136 143
129 125 133
141 134 146
131 127 137
148 140 153
143 136 147
134 129 140
140 133 145
125 121 127
107 108 106
89 93 82
86 90 75
82 87 72
86 92 73
75 82 62
62 75 47
66 78 49
53 70 39
48 67 33
43 65 27
50 74 32
51 78 32
50 76 34
49 75 32
49 74 33
51 77 34
50 77 33
51 77 33
47 72 30
50 77 33
47 72 32
48 73 32
49 75 32
48 74 32
49 75 33
46 69 31
47 70 33
79 93 71
100 103 100
127 123 133
141 136 151
155 147 161
145 137 155
144 137 153
159 150 163
156 146 170
152 144 157
158 148 165
164 153 172
160 150 166
163 154 172
163 152 171
156 147 162
156 146 164
157 147 168
158 150 168
164 154 169
166 155 174
166 154 175
159 149 167
160 150 170
141 132 155
112 106 140
87 82 126
62 60 111
55 53 106
57 55 112
60 57 114
60 57 117
60 58 116
59 57 112
57 55 110
62 59 115
63 61 120
59 58 115
57 55 108
57 55 109
60 57 115
59 57 111
61 58 117
60 58 115
61 59 115
61 59 116
60 58 113
58 55 110
63 61 118
61 59 116
62 59 117
58 57 110
61 58 113
62 59 114
61 60 116
57 57 108
54 53 103
58 58 112
56 56 107
54 55 103
53 54 103
53 54 106
86 84 126
97 94 128
136 127 154
153 144 165
156 149 166
162 154 173
162 152 171
169 158 179
167 157 180
173 162 181
164 155 171
159 151 167
169 160 177
155 145 160
148 141 154
139 134 148
152 145 158
138 134 143
135 131 144
141 137 148
129 127 138
137 136 141
134 131 137
114 114 109
90 101 82
94 104 91
80 114 87
66 129 90
55 127 82
25 130 75
26 132 74
26 138 77
26 131 76
27 137 77
27 139 78
27 143 77
26 136 75
28 145 80
27 140 75
28 145 79
31 160 89
30 153 82
30 155 84
29 148 82
30 153 84
29 150 82
30 155 84
29 152 84
28 148 79
30 154 84
29 146 80
28 144 78
29 147 81
28 143 79
27 141 73
29 148 78
29 152 79
29 147 79
31 158 85
28 145 79
29 148 81
28 144 76
27 141 77
36 139 78
47 139 79
55 119 70
64 111 66
71 95 58
75 95 60
74 90 59
78 90 59
72 83 55
71 83 54
67 79 51
56 71 46
46 64 39
33 57 33
24 55 30
19 48 25
23 56 31
22 56 29
22 53 29
21 53 29
23 56 31
21 53 28
20 49 26
23 56 29
28 57 35
56 69 62
98 100 108
139 133 150
147 138 158
160 149 169
157 146 165
155 145 164
160 151 174
166 155 176
157 145 167
163 152 177
178 164 187
168 156 180
171 158 184
169 157 181
175 162 185
165 153 180
168 155 181
169 158 182
175 162 188
168 156 182
163 152 170
162 151 167
131 127 134
110 112 105
88 97 77
81 92 63
77 88 59
78 89 59
80 91 61
79 90 60
84 95 63
80 91 60
82 93 61
82 92 61
78 90 60
82 93 62
81 92 60
8 22 100
8 23 104
8 23 100
7 21 92
7 21 91
7 21 96
7 20 85
8 23 99
7 20 88
6 19 83
7 20 84
6 19 78
7 20 85
22 28 82
32 38 80
61 66 71
66 73 57
77 82 65
75 80 67
72 78 61
77 85 63
83 87 75
81 84 73
85 89 78
90 93 85
97 98 90
103 103 101
95 96 94
102 102 99
110 108 112
110 110 107
104 104 103
110 108 113
121 116 126
133 127 138
133 127 141
136 129 142
137 130 142
141 134 145
121 119 117
112 113 110
119 118 116
108 108 110
113 113 108
107 108 98
97 100 92
98 103 89
88 94 77
94 98 83
89 97 76
90 96 79
88 95 74
95 101 80
87 96 69
82 92 67
80 90 63
81 92 62
77 87 61
80 90 61
81 92 62
84 94 62
81 92 61
85 96 63
81 91 60
84 95 63
79 90 60
80 91 61
103 107 93
141 136 148
175 162 183
172 160 182
178 164 190
178 164 190
175 161 189
174 160 184
179 165 187
178 164 188
173 160 185
176 163 187
173 162 186
170 158 181
177 164 190
173 160 187
174 162 185
177 163 186
176 163 187
173 161 185
174 161 187
181 167 191
176 163 188
176 164 190
179 165 190
173 161 185
170 158 181
160 149 168
145 138 143
108 114 102
70 90 38
63 86 5
63 86 5
69 91 6
68 92 6
65 88 5
67 91 5
66 90 5
63 86 5
69 93 6
69 93 6
70 93 6
66 89 5
68 92 6
67 91 6
66 89 5
69 93 6
69 93 6
69 93 6
68 91 5
69 93 6
68 92 6
67 90 5
66 89 5
69 93 6
67 89 5
67 91 6
68 91 5
63 86 5
66 88 5
67 91 5
67 90 6
61 84 5
66 89 5
63 86 5
62 85 5
63 85 5
61 81 15
64 78 35
66 72 45
67 64 58
68 53 66
75 56 77
68 51 71
67 50 69
71 53 73
73 54 75
70 53 74
70 53 74
77 57 78
71 53 73
75 56 78
84 61 85
74 56 76
74 55 76
66 51 69
74 62 76
99 92 98
110 108 110
126 125 123
117 117 113
135 130 135
133 128 136
134 129 137
139 133 143
130 125 131
150 143 157
128 125 131
143 136 150
146 138 149
150 143 158
153 143 160
146 137 155
160 150 171
158 148 169
147 139 156
151 142 160
164 154 171
154 144 167
150 140 160
142 133 153
156 145 162
162 151 170
165 153 175
161 149 169
159 150 168
146 138 152
114 113 115
79 87 66
70 80 52
69 80 52
66 76 49
69 80 50
64 74 47
67 78 48
59 71 42
56 72 40
46 64 30
51 72 33
44 67 29
47 71 31
47 74 31
47 74 31
50 77 33
47 72 32
51 79 35
50 76 33
49 75 32
50 77 34
48 74 32
53 80 35
48 72 32
49 71 33
50 70 35
54 69 37
78 87 67
118 116 117
127 123 129
139 133 147
148 140 155
148 137 147
149 141 157
148 140 154
152 143 159
148 141 159
154 146 161
151 143 163
153 145 160
161 152 166
158 149 167
163 154 167
156 148 164
166 155 171
162 152 167
158 147 167
162 151 172
168 157 178
155 147 168
158 148 166
140 130 155
110 104 143
78 74 122
63 61 121
57 56 111
56 54 107
59 58 115
59 58 118
59 58 115
59 57 116
54 52 104
63 60 119
60 59 117
61 59 115
58 55 110
63 60 120
60 58 114
65 62 123
60 58 115
61 58 115
59 57 112
61 59 117
58 55 110
61 59 114
60 58 111
60 58 115
58 56 110
60 58 112
61 59 118
61 59 114
62 60 118
58 57 110
59 57 110
55 55 106
51 52 101
55 54 106
54 55 105
58 59 108
64 64 111
92 88 121
116 110 139
123 118 137
135 131 144
147 141 149
149 141 157
141 135 141
132 129 136
137 134 142
123 123 122
125 122 124
120 119 120
115 114 113
109 112 103
100 105 99
108 110 105
110 114 106
110 112 109
105 109 100
103 107 96
101 107 93
101 106 92
93 104 78
81 99 68
92 109 90
99 132 108
71 131 95
51 132 82
25 127 76
26 136 74
25 132 75
26 134 75
28 146 81
28 141 79
27 138 77
30 157 87
30 156 86
29 147 79
30 156 86
27 144 78
28 148 79
28 147 78
28 145 78
30 157 83
29 151 80
30 151 80
29 147 81
31 158 85
29 149 79
29 154 82
29 147 81
29 153 82
28 144 78
29 150 81
29 152 82
28 148 78
30 151 82
29 146 80
28 149 80
29 148 82
26 137 76
28 145 77
35 143 78
40 130 74
50 129 72
61 116 68
67 89 58
74 90 58
80 92 59
69 80 54
72 83 56
78 90 58
72 84 54
66 79 52
54 68 43
51 66 40
29 55 32
19 48 26
20 50 26
22 53 29
21 51 27
23 56 31
21 51 29
18 48 25
21 53 28
23 53 29
60 70 62
93 93 97
107 105 115
150 141 160
147 138 158
146 137 156
147 137 155
151 141 161
164 153 176
165 153 176
169 158 182
167 156 178
170 158 178
169 158 182
173 161 185
173 161 185
159 147 172
160 149 172
172 159 182
172 159 183
170 158 181
167 154 181
176 162 186
158 147 170
150 140 160
144 137 150
129 126 132
97 103 85
89 97 73
79 89 63
85 95 64
81 91 63
84 92 67
84 93 65
84 95 67
81 91 65
92 98 81
93 99 83
93 98 81
7 21 94
7 20 91
8 23 106
7 21 94
8 22 102
7 21 95
7 21 97
6 19 84
7 20 86
6 18 83
7 20 87
6 18 75
29 32 84
74 69 107
83 81 92
96 92 100
106 103 115
115 110 115
100 96 102
107 102 115
116 111 117
124 118 129
115 109 118
127 121 134
132 124 134
122 116 129
147 137 154
140 131 150
136 126 147
145 134 153
150 138 157
148 137 159
143 133 155
160 148 171
155 143 167
156 144 168
157 145 170
159 147 173
146 138 155
110 112 105
76 86 61
81 89 66
84 94 64
76 87 59
82 92 61
77 87 59
78 89 61
79 90 60
77 88 58
79 89 59
82 93 63
82 93 62
84 94 62
81 92 61
85 96 63
86 97 64
83 93 63
84 94 61
85 96 63
83 94 63
84 95 63
83 94 63
82 93 63
82 92 61
80 90 61
78 88 61
83 94 62
93 100 81
146 139 153
170 157 182
173 160 182
169 157 183
183 169 192
176 162 187
179 166 188
184 170 193
181 166 192
165 154 179
173 160 185
173 159 184
185 171 196
177 164 186
177 163 188
181 167 190
182 169 194
172 159 185
173 161 187
178 163 190
169 157 182
175 161 185
177 164 189
180 167 191
172 159 184
176 163 187
159 150 165
143 138 148
108 111 107
83 97 56
64 86 5
67 90 6
63 85 5
65 88 5
62 83 5
69 92 6
68 91 6
69 93 6
66 89 5
69 92 6
66 89 5
70 94 6
66 89 5
66 89 5
66 89 5
69 93 6
65 88 5
67 91 5
69 93 6
66 89 5
67 91 5
64 88 5
69 93 6
68 91 5
64 88 5
67 91 5
67 90 5
64 86 5
67 90 5
66 89 5
66 88 5
66 88 5
65 88 5
63 85 5
64 86 5
65 88 5
57 77 5
61 80 18
63 66 50
66 61 56
67 53 69
70 53 72
73 54 74
68 51 70
67 51 69
67 51 69
70 53 70
71 52 72
75 56 78
70 52 70
79 59 79
78 58 81
80 59 82
76 57 79
71 54 72
80 68 77
81 81 74
107 107 105
139 134 140
156 146 166
157 148 167
156 146 166
149 140 160
162 150 170
172 159 179
164 154 170
166 154 175
164 152 173
160 149 171
161 150 172
156 145 166
161 150 170
156 146 167
163 152 173
159 149 167
161 151 175
156 146 163
159 149 170
164 151 171
152 143 161
154 143 162
160 150 171
153 142 161
157 147 162
152 142 162
145 137 152
136 130 137
107 105 106
72 82 58
67 77 47
63 74 46
64 74 47
63 73 48
64 75 45
66 76 47
57 67 41
50 61 34
51 64 35
42 60 27
44 62 29
45 67 29
44 66 29
47 70 31
45 69 29
44 69 30
44 69 29
45 70 30
47 72 31
44 67 29
44 64 28
47 66 32
46 61 30
52 64 36
56 68 40
58 69 42
88 92 81
112 111 106
129 125 134
132 127 134
135 128 140
136 132 144
150 141 159
154 146 161
152 145 159
153 145 161
151 144 157
143 138 153
154 144 160
161 151 173
159 149 168
168 157 179
155 146 163
154 147 162
162 152 173
165 155 174
158 149 171
160 150 170
153 144 160
135 126 154
103 97 131
68 66 114
60 58 118
61 60 118
56 55 110
59 57 114
59 58 114
61 58 117
59 57 118
61 59 114
62 60 117
61 58 114
62 59 120
62 60 119
58 56 110
61 58 114
61 58 115
60 57 112
60 57 113
60 58 112
60 59 114
63 60 118
57 54 105
62 59 115
57 55 108
60 58 112
61 59 114
61 58 112
57 55 109
54 54 103
61 59 115
60 60 114
56 57 111
59 58 111
56 57 108
57 56 110
55 57 110
60 61 112
76 76 112
83 88 104
101 103 105
97 101 94
109 113 99
98 104 89
91 98 80
92 100 81
94 102 81
91 100 75
84 93 70
84 94 68
82 92 67
87 96 73
82 92 64
77 89 60
82 93 62
80 92 60
77 88 59
78 90 59
84 96 65
79 92 59
78 90 58
76 89 58
67 108 66
62 111 72
51 125 82
33 131 77
25 130 74
27 135 78
26 135 77
27 140 79
30 152 83
28 142 81
28 143 79
27 141 79
27 142 75
30 155 85
29 151 83
28 144 81
29 150 80
32 163 88
29 149 83
30 159 86
28 147 79
29 151 84
28 144 77
29 151 81
30 155 85
28 144 77
28 144 79
30 156 87
28 147 81
31 157 85
30 152 82
31 157 84
29 146 81
29 151 81
27 141 78
28 147 77
27 141 78
28 144 79
29 151 82
36 137 77
45 134 73
56 119 69
62 98 61
71 91 58
77 91 59
77 88 59
67 79 52
69 80 52
69 81 54
73 86 56
68 82 53
61 75 48
47 66 40
28 52 30
20 50 27
21 52 27
20 50 27
22 54 30
24 52 29
23 52 29
27 54 30
34 59 36
80 84 84
91 92 96
122 118 126
128 121 133
135 127 142
144 136 157
144 134 147
149 139 158
145 135 151
134 128 145
154 142 164
156 145 171
165 153 179
162 151 175
163 151 175
157 147 169
166 154 175
150 140 165
162 150 173
163 150 170
162 150 172
169 158 182
167 157 176
163 151 171
164 153 174
161 150 167
151 142 156
137 132 139
100 106 93
97 102 91
114 115 108
102 105 96
122 121 120
120 119 125
110 111 107
129 126 131
125 121 124
128 123 134
135 131 139
7 21 98
7 21 94
7 22 98
7 21 96
7 21 90
6 19 83
7 20 88
6 18 82
6 19 82
6 18 79
6 18 81
51 49 90
75 70 103
106 98 120
112 105 125
127 117 142
134 125 143
139 129 149
144 133 154
143 132 150
149 137 161
127 118 142
144 134 157
138 128 150
153 141 163
154 141 166
162 149 174
146 134 160
146 136 162
157 146 170
169 155 178
155 143 170
165 152 175
163 151 176
161 148 174
164 151 175
160 146 173
164 152 176
153 142 162
105 106 101
82 92 65
74 84 56
77 87 59
80 91 60
78 88 59
78 88 59
82 93 60
77 87 59
83 94 62
80 90 61
81 91 60
80 91 60
79 90 61
84 95 63
82 93 62
79 88 59
83 94 61
82 92 61
82 93 62
85 96 63
78 88 60
81 92 61
84 96 63
83 94 62
81 92 62
85 96 63
80 91 61
96 103 87
145 139 147
179 165 187
175 161 184
172 159 185
171 158 185
177 165 190
176 162 187
181 166 190
172 159 187
174 162 185
182 168 192
178 165 190
179 165 191
176 162 186
170 157 183
168 156 183
168 157 182
178 165 189
173 160 185
174 161 184
172 159 181
169 158 184
174 162 187
181 167 190
170 158 182
173 161 181
156 146 160
141 136 143
107 113 97
85 100 59
70 91 21
64 86 5
66 88 5
68 91 6
69 93 6
64 87 5
67 89 5
65 88 5
68 93 6
69 93 6
68 92 6
65 88 5
65 88 5
68 92 6
68 91 5
66 89 5
69 93 6
68 91 5
67 90 5
67 92 5
68 92 6
64 87 5
66 89 5
67 91 5
66 88 5
65 88 5
67 90 5
63 84 5
63 86 5
61 81 5
67 91 5
64 86 5
64 87 5
66 88 5
66 89 5
60 81 5
62 83 11
66 83 27
61 74 33
61 61 50
72 56 70
60 46 62
71 52 72
70 52 72
69 52 72
76 56 76
72 54 72
71 53 72
71 54 72
72 54 74
73 55 74
72 54 74
72 54 75
69 52 73
72 57 72
68 65 64
75 82 57
89 95 78
133 128 137
159 149 168
161 150 171
167 155 177
162 152 175
164 154 173
152 141 159
157 147 167
158 148 171
150 139 158
171 159 177
162 150 169
162 150 176
159 148 171
165 154 175
158 147 163
158 147 169
156 145 169
161 150 171
162 151 169
155 144 168
153 142 161
148 139 157
145 137 156
144 138 155
149 140 155
142 134 151
146 137 155
139 132 143
114 112 115
82 86 74
62 72 48
63 73 46
63 73 45
55 64 39
55 64 39
57 67 42
57 67 40
57 66 38
42 51 29
41 52 30
40 52 27
45 61 30
40 55 26
40 56 26
43 61 27
41 59 27
44 65 29
37 55 24
43 59 28
38 53 26
40 53 26
47 59 32
49 61 34
46 55 32
59 69 40
58 68 41
69 78 53
88 91 81
119 116 118
128 123 130
137 132 139
148 141 151
147 141 156
156 147 159
145 138 151
155 146 163
134 129 142
162 151 170
153 146 163
160 150 168
146 141 153
157 147 164
156 147 169
168 157 177
156 147 161
153 144 162
155 145 169
155 147 168
151 141 164
131 123 156
110 103 141
62 60 113
61 59 117
57 55 109
63 61 121
60 58 118
55 53 109
62 59 117
57 56 111
61 59 117
58 55 109
59 57 113
60 58 114
56 55 106
61 59 115
61 58 113
61 59 117
58 56 111
61 58 115
62 60 120
61 58 116
60 57 110
60 58 115
62 59 116
58 56 112
59 56 110
61 58 114
60 57 111
58 57 110
59 57 112
60 59 114
61 60 116
57 57 109
54 54 102
58 58 111
57 57 110
52 53 103
55 56 107
55 59 97
64 71 89
73 82 80
75 86 64
81 93 60
83 94 62
80 92 60
78 89 58
83 96 61
80 92 59
80 91 60
78 89 58
80 93 60
82 93 60
81 93 61
76 90 59
72 85 56
79 92 60
79 91 59
77 88 58
77 88 57
81 93 61
78 90 58
74 90 60
64 100 63
56 116 70
39 105 63
25 128 76
27 139 80
27 135 77
29 149 83
26 136 76
24 131 71
28 143 79
28 146 81
29 148 84
30 153 84
29 153 82
29 144 80
29 150 80
30 151 84
30 153 82
30 153 84
30 151 83
31 157 85
28 146 79
30 158 83
30 155 81
30 157 83
28 149 80
30 153 82
29 149 82
30 152 82
29 149 81
29 146 80
29 149 81
29 149 79
27 141 78
28 145 80
29 147 82
29 148 83
27 142 78
28 143 77
33 150 83
47 128 73
54 117 69
66 111 68
68 87 55
74 87 57
74 86 56
75 85 57
69 79 53
72 83 55
72 84 55
65 76 50
68 80 52
59 73 46
42 62 37
29 52 30
23 53 30
26 52 29
29 56 32
38 60 37
31 55 32
39 59 37
46 61 40
90 92 93
107 104 112
122 116 129
127 119 130
119 112 127
113 108 117
125 117 127
133 125 138
133 125 138
130 124 133
148 137 149
147 138 156
149 139 157
151 140 161
150 141 156
145 138 156
151 143 157
143 136 146
146 138 152
151 143 158
139 134 142
141 135 144
116 115 121
130 126 134
119 117 122
126 124 130
115 115 117
110 113 108
102 106 94
93 99 83
126 123 122
132 128 140
150 143 157
160 149 172
159 148 167
158 148 167
159 148 170
162 151 173
152 143 168
7 22 101
7 21 101
7 20 92
7 21 97
8 23 104
6 19 88
7 21 90
6 20 87
6 19 82
6 18 73
31 32 75
71 67 97
103 96 120
126 116 140
146 134 151
131 120 145
133 121 144
134 124 145
137 126 151
141 130 153
129 120 140
139 129 152
154 141 162
153 142 163
144 133 161
147 135 160
136 124 152
154 142 169
150 137 157
153 141 167
165 153 179
156 144 168
161 149 174
167 155 185
163 150 174
162 150 176
157 145 171
167 155 180
141 132 148
110 109 107
77 86 58
81 90 60
81 91 61
79 90 61
82 93 61
81 91 60
77 88 60
78 88 59
80 90 60
76 87 58
82 94 62
80 91 61
79 90 60
83 94 62
83 93 63
81 92 62
84 95 63
83 93 61
83 95 62
83 94 62
78 89 60
85 97 64
83 94 62
82 92 62
81 92 62
83 94 61
83 94 62
98 103 86
141 132 145
163 152 178
180 167 191
169 156 181
177 163 187
170 157 182
170 158 184
167 155 183
183 168 190
181 168 192
179 165 188
179 164 189
176 163 188
176 163 188
177 163 190
177 163 189
174 161 187
170 157 187
174 161 185
174 160 186
181 166 186
182 168 190
175 163 184
174 162 186
180 167 189
170 157 181
154 146 160
127 126 127
113 117 108
78 95 47
65 86 5
65 88 5
67 90 5
65 89 5
67 91 5
67 90 5
66 90 5
70 94 6
68 91 6
67 90 5
66 89 5
68 92 6
65 87 5
70 95 6
67 89 5
69 93 6
66 89 5
68 93 6
67 90 5
64 86 5
68 92 6
68 93 6
65 88 5
66 89 5
65 88 5
66 87 5
66 88 5
65 87 5
65 87 5
61 83 5
64 86 5
65 87 5
62 83 5
61 83 5
64 86 5
63 86 5
61 83 5
63 81 22
67 72 47
66 63 56
69 55 65
58 45 60
65 49 65
64 49 67
70 52 70
62 47 63
72 54 74
76 56 75
70 53 72
75 56 78
77 57 77
71 54 74
79 58 81
78 59 79
71 64 66
72 73 63
79 87 61
83 92 67
117 118 110
140 133 147
166 154 173
165 154 178
155 144 166
157 145 166
158 146 171
157 146 170
164 152 173
158 146 168
163 153 174
170 156 177
157 146 170
164 153 173
158 146 169
155 146 162
157 146 165
155 146 164
158 147 172
151 142 162
158 148 168
157 149 166
157 146 163
150 142 157
155 145 157
152 142 157
151 141 153
147 139 155
145 138 153
122 117 129
100 100 100
79 84 71
62 72 45
63 72 45
56 67 40
57 66 41
57 67 40
50 58 36
54 63 37
50 58 35
43 50 29
42 48 28
43 51 28
38 47 25
40 51 25
30 39 18
39 50 25
39 50 25
36 46 23
42 51 28
43 53 28
46 53 29
46 54 31
49 58 32
63 73 44
53 65 38
51 61 35
56 67 39
74 83 62
97 100 92
120 117 121
120 118 123
132 126 139
143 137 149
154 144 162
140 134 149
146 140 150
152 144 161
146 140 153
149 143 154
155 147 162
154 147 161
159 150 165
142 136 144
154 147 158
144 138 144
143 135 147
138 132 141
126 124 134
123 119 137
104 100 133
78 76 113
66 64 120
63 60 119
57 55 112
56 54 110
61 60 117
60 58 117
58 56 112
63 61 118
64 61 122
65 63 123
60 58 114
60 58 115
58 56 112
61 59 115
58 55 109
60 57 113
64 61 120
62 59 117
59 55 110
60 57 111
61 58 114
61 59 117
64 61 121
61 58 115
59 56 111
57 56 106
59 58 111
62 60 116
59 58 109
62 60 121
60 59 117
59 58 111
50 50 94
53 53 100
51 52 99
55 56 105
55 58 108
57 60 102
59 65 90
65 75 73
78 89 68
78 89 59
79 91 59
80 91 59
83 95 62
77 88 59
76 89 58
79 90 60
80 92 61
81 94 62
77 89 59
79 91 61
79 91 60
79 90 58
81 93 60
81 93 60
81 92 60
79 90 59
79 91 59
82 94 60
77 99 62
60 108 65
50 119 71
28 120 72
25 129 74
26 134 77
25 133 74
26 135 75
28 145 81
29 145 81
29 149 84
31 157 85
27 138 76
30 155 84
29 149 83
28 145 80
27 139 77
28 143 78
29 151 82
29 148 80
30 150 83
30 155 84
31 155 85
30 156 83
29 150 82
27 141 75
29 152 83
29 150 83
29 151 80
29 146 80
27 142 76
28 143 77
26 136 75
28 145 80
28 142 77
28 148 81
27 138 77
29 146 80
28 145 78
28 142 80
30 147 81
37 140 79
47 120 69
63 105 62
68 94 60
70 83 54
68 79 52
73 85 54
75 88 56
70 81 54
72 81 63
70 81 55
71 81 55
68 77 58
65 79 55
51 66 45
39 59 39
37 56 36
39 57 38
46 58 40
49 59 42
48 59 41
51 62 43
69 73 59
86 85 82
96 93 96
99 95 98
98 95 100
101 97 100
104 100 109
105 101 108
111 106 113
109 104 108
125 118 125
120 115 120
113 109 112
124 119 123
115 113 115
104 106 101
103 104 98
100 103 93
84 90 77
103 107 96
92 96 87
93 98 81
88 94 80
87 94 72
86 95 70
78 87 64
80 90 65
86 95 69
78 88 64
81 90 69
117 117 111
125 123 130
143 135 153
156 145 168
170 157 180
174 160 184
167 156 180
164 152 178
159 149 172
7 21 99
7 20 92
6 18 87
7 21 95
6 19 84
7 20 88
6 18 77
6 17 78
22 26 75
50 48 76
85 78 110
106 98 122
128 119 143
122 112 134
135 124 145
121 112 139
140 129 155
131 121 148
143 131 159
151 139 159
153 140 160
151 138 164
156 143 164
143 133 162
148 138 164
154 142 169
155 142 169
149 137 162
162 149 178
161 148 175
166 153 179
163 151 178
168 155 182
165 152 177
164 151 176
156 144 168
160 148 174
154 143 167
142 134 150
99 101 96
76 85 58
76 86 58
82 92 61
77 87 59
81 91 61
80 90 59
79 90 61
80 91 60
80 91 60
79 89 59
83 94 62
82 93 62
79 90 60
83 94 63
83 93 62
83 94 63
82 93 62
80 90 61
82 92 61
86 98 63
85 96 63
84 94 63
83 94 62
81 92 62
82 92 61
83 95 64
85 96 63
96 102 82
132 128 136
167 154 177
183 169 193
180 164 189
173 160 186
174 161 184
179 166 186
174 160 182
169 156 179
174 161 185
170 158 183
174 162 185
184 169 194
163 152 172
161 151 170
164 153 173
160 149 170
160 151 170
158 149 165
163 153 169
163 151 168
148 140 156
148 141 151
157 148 164
153 145 158
145 139 151
138 132 142
115 115 112
102 110 86
78 95 49
65 87 5
68 91 5
61 83 5
67 91 5
65 88 5
62 83 5
67 90 5
62 84 5
66 88 5
66 89 5
64 87 5
68 91 5
67 90 5
66 89 5
68 92 6
63 86 5
64 87 5
63 85 5
72 95 6
67 92 5
66 89 5
66 88 5
66 89 5
63 85 5
61 82 5
67 90 5
65 88 5
64 86 5
65 87 5
67 90 5
65 88 5
62 84 5
64 86 5
66 88 5
63 85 5
62 84 5
61 83 5
63 84 17
66 77 42
54 57 40
67 54 63
61 46 61
64 49 65
65 49 64
64 48 64
62 47 63
68 52 70
73 54 73
69 52 71
64 48 65
73 55 72
66 50 71
68 54 67
67 59 65
72 71 64
77 83 63
74 84 56
78 89 59
87 95 69
119 116 123
149 140 156
164 152 174
166 154 178
158 146 170
167 154 172
161 151 172
164 151 173
160 148 171
149 140 159
159 147 168
163 152 172
167 155 177
157 146 171
160 149 169
155 145 166
154 144 164
152 142 162
154 144 164
157 147 166
154 145 160
152 143 163
146 139 157
158 148 165
139 131 147
140 133 145
140 135 147
143 136 148
150 141 157
118 113 123
101 100 96
71 77 58
63 73 45
59 68 43
54 65 38
60 70 42
61 71 43
49 57 33
49 58 33
44 51 29
47 55 32
42 50 28
45 51 33
39 45 24
34 42 22
40 46 30
49 55 34
50 57 36
51 54 43
45 52 33
61 67 49
51 58 42
67 73 56
65 73 51
61 70 45
78 85 65
81 85 72
94 97 86
84 90 75
116 114 115
118 115 121
121 119 123
127 122 127
127 122 126
128 125 126
126 122 126
127 124 129
134 129 136
120 119 119
121 121 118
121 120 121
115 115 116
112 112 108
105 109 101
110 113 107
117 118 114
112 113 107
107 110 99
88 91 98
85 88 104
71 71 115
58 56 112
58 57 115
57 56 110
61 58 118
57 56 111
59 57 116
57 55 113
59 57 113
60 58 116
61 58 115
59 57 112
58 56 109
61 58 115
61 58 115
59 56 111
63 61 121
59 56 110
61 58 116
62 59 117
64 61 122
60 57 112
60 58 113
58 57 110
61 59 115
64 62 120
56 53 105
57 56 109
58 56 111
60 58 115
59 57 112
56 55 110
59 57 112
59 58 110
59 58 112
58 59 111
57 58 109
52 53 101
52 54 98
59 65 86
73 80 91
73 82 63
79 90 60
80 91 60
78 90 58
81 92 60
80 92 59
81 93 61
84 96 63
79 91 61
76 88 59
78 91 59
78 90 59
80 92 62
78 90 59
80 91 59
79 91 60
78 90 59
81 94 60
80 92 60
80 92 59
74 97 62
58 106 67
45 118 71
25 119 70
25 128 74
26 136 77
26 133 75
25 128 72
26 135 76
28 141 80
28 143 79
29 150 83
30 151 83
29 147 82
29 148 82
29 150 82
31 157 87
30 151 83
30 153 84
30 152 84
29 147 79
30 155 85
27 142 77
29 148 80
28 148 80
28 146 80
27 142 76
30 151 82
28 143 77
28 144 77
28 148 79
28 145 80
27 139 76
27 138 76
29 147 80
26 135 75
27 140 76
28 143 78
29 146 81
28 143 79
28 143 78
30 136 77
51 125 74
70 102 75
82 104 78
73 82 60
91 96 83
88 93 82
90 96 83
93 98 89
101 102 94
101 102 95
93 96 89
89 94 89
101 101 99
90 92 90
66 74 61
52 63 50
50 62 43
50 60 42
53 64 44
59 64 48
63 68 50
66 69 51
67 70 55
80 79 72
73 74 63
69 70 56
76 75 66
76 76 70
88 86 82
83 82 77
77 77 69
71 75 61
73 77 60
71 75 54
73 79 58
75 81 58
78 83 67
78 87 60
75 83 59
76 87 58
74 85 57
77 89 59
76 87 57
77 87 58
76 88 58
77 87 58
80 91 61
79 89 60
79 90 59
82 93 61
80 91 60
79 90 64
84 91 72
108 110 102
121 120 121
145 137 153
154 144 170
161 150 178
164 153 181
159 148 172
7 20 94
6 19 87
7 20 91
6 18 86
7 20 88
6 19 84
6 17 68
31 34 77
70 65 86
88 82 113
88 81 102
115 104 130
127 117 139
113 105 129
113 104 127
140 129 152
126 116 140
136 126 151
140 128 158
145 133 160
145 134 159
140 130 157
132 122 152
152 141 163
144 133 157
156 143 168
150 139 165
157 143 168
147 135 164
152 140 170
160 148 172
158 146 173
158 146 174
164 152 181
161 149 175
162 150 178
166 154 181
167 155 178
146 137 155
102 105 93
81 90 64
78 87 59
74 84 57
80 91 61
79 89 60
75 86 59
80 90 60
80 90 60
81 90 61
80 90 60
83 93 62
82 93 62
78 89 60
81 91 60
80 91 61
79 90 59
79 90 60
86 98 63
82 93 62
83 94 64
89 98 75
92 100 77
86 96 68
92 100 78
93 100 80
86 96 70
93 100 81
111 112 106
144 138 144
163 152 172
163 153 172
162 151 170
156 147 162
154 145 163
153 145 158
166 154 173
155 145 160
151 144 157
146 138 152
148 142 153
143 136 149
145 139 148
141 136 140
133 129 133
138 133 142
138 133 136
121 120 122
134 128 131
111 113 106
118 119 110
106 108 102
112 114 105
108 111 99
99 104 84
99 105 83
85 96 68
76 92 48
66 88 18
68 92 6
64 88 5
64 87 5
62 84 5
66 88 5
66 90 5
68 91 5
63 86 5
65 87 5
65 88 5
68 91 5
68 91 5
65 89 5
64 86 5
67 90 5
63 85 5
65 89 5
63 86 5
64 86 5
65 88 5
61 83 5
68 92 5
66 90 5
69 92 6
68 91 5
63 86 5
65 88 5
65 86 5
65 89 5
69 92 5
61 82 5
61 83 5
62 83 5
66 88 5
62 85 5
58 79 5
65 87 5
62 81 24
60 74 32
60 64 45
63 55 60
64 49 66
65 49 67
66 50 65
66 50 65
65 49 63
71 54 69
71 53 71
69 52 69
64 49 67
61 47 66
64 49 66
64 52 61
66 62 62
75 78 62
75 84 58
79 90 58
77 87 57
83 92 66
93 96 90
140 133 144
153 145 167
161 148 172
165 153 176
160 149 175
167 154 175
160 150 172
158 146 169
168 156 175
159 150 171
151 140 160
157 146 167
151 141 164
163 152 174
151 141 160
160 148 168
156 146 165
154 144 164
153 143 159
144 135 150
162 150 172
150 140 159
157 148 165
146 138 156
153 145 165
147 139 152
153 143 161
146 137 151
151 142 156
114 111 119
88 93 82
71 79 59
62 70 52
71 79 53
71 79 52
57 68 40
70 75 61
62 70 47
62 68 52
81 83 73
72 76 63
76 78 70
74 75 68
76 77 71
77 79 69
59 65 47
83 81 78
89 89 84
82 83 76
87 88 80
90 93 82
96 95 90
90 93 82
100 100 94
106 105 102
123 120 115
121 118 117
120 119 116
121 120 122
141 135 142
115 114 113
99 101 92
97 101 91
102 104 98
82 89 74
83 90 76
91 96 81
84 91 72
86 94 75
80 90 66
83 92 66
82 92 64
78 89 59
82 92 64
76 87 57
78 90 58
75 85 65
73 81 74
67 73 92
61 62 106
59 58 116
57 56 113
59 57 116
57 57 113
58 56 114
61 59 115
60 58 114
60 58 114
60 57 113
62 60 120
58 56 110
61 58 114
60 57 116
63 61 121
62 59 119
59 57 111
61 59 118
61 59 117
61 59 118
60 58 113
59 57 111
60 57 111
58 56 109
62 60 115
61 58 114
62 59 118
59 57 110
60 57 110
60 58 114
59 58 113
61 59 117
58 58 108
60 60 115
56 55 107
58 58 111
50 54 100
56 56 109
67 67 106
79 80 108
77 82 91
81 89 79
82 92 66
77 89 58
81 93 61
80 92 60
79 90 60
77 90 58
81 93 61
80 92 61
84 95 62
80 92 61
81 93 60
81 93 62
78 90 61
80 92 61
80 92 61
79 91 59
78 90 59
80 92 61
82 93 61
68 100 64
61 108 65
46 121 71
26 117 67
23 119 72
24 126 70
27 139 79
29 146 81
28 141 79
28 146 81
29 146 81
29 149 82
28 147 84
29 149 83
28 141 79
29 147 79
31 158 85
29 147 81
29 148 80
29 148 80
30 154 82
30 152 84
30 151 82
27 142 76
30 150 83
28 147 78
29 148 80
28 146 78
31 157 87
30 151 83
28 146 79
27 140 77
31 157 83
27 141 79
28 143 80
28 146 78
28 146 78
26 131 74
30 151 83
27 140 78
28 141 79
38 139 81
67 132 91
91 122 101
99 118 107
111 111 115
125 121 129
132 127 137
116 113 115
124 119 127
116 114 120
135 128 142
133 127 136
113 109 116
112 107 119
98 95 94
80 81 81
64 68 57
58 62 46
62 65 49
64 67 50
64 67 50
66 68 51
66 68 52
66 67 52
66 68 52
65 66 52
65 66 52
67 69 52
66 67 52
67 68 52
67 68 52
68 70 52
67 69 53
66 67 51
69 72 53
70 74 54
70 75 55
69 75 53
68 75 53
72 80 55
75 84 57
75 85 56
72 83 55
75 86 58
74 85 57
74 85 57
77 87 58
76 86 58
75 86 56
73 83 57
75 85 57
76 87 57
79 90 60
79 90 59
78 88 62
98 102 89
118 117 120
126 123 129
141 134 149
156 145 166
165 152 176
7 20 94
13 23 93
12 22 89
6 18 85
19 27 80
16 23 70
41 48 61
37 42 62
62 61 80
110 102 117
110 100 121
122 110 131
127 117 140
117 108 131
124 115 142
131 120 148
128 118 142
123 115 142
139 129 153
139 128 155
140 130 155
143 131 153
156 143 167
150 138 162
162 149 173
151 138 167
149 137 163
152 140 166
154 142 167
153 141 169
162 149 172
165 152 177
150 138 166
153 141 166
172 158 182
152 139 166
157 146 172
168 154 176
143 136 146
112 113 108
78 89 60
81 91 60
76 86 60
80 90 61
81 91 63
82 92 63
83 91 71
82 91 64
86 93 73
91 98 76
87 95 72
102 106 93
97 103 87
91 98 79
93 99 85
99 102 96
110 112 101
104 106 98
114 115 108
116 117 106
109 110 108
115 116 108
123 120 123
112 113 112
133 129 131
126 124 128
137 133 136
151 143 156
134 130 134
137 132 139
118 118 118
126 124 126
129 126 126
115 117 111
112 114 105
118 117 115
111 112 107
113 114 109
105 108 96
91 98 79
96 102 86
104 107 95
83 92 63
89 98 73
100 106 88
91 99 74
96 103 81
82 92 66
87 97 69
83 92 64
83 94 62
81 92 62
81 92 60
85 97 63
75 89 50
74 89 43
67 86 28
61 83 10
67 90 5
64 86 5
65 88 5
65 87 5
62 85 5
66 89 5
61 84 5
66 89 5
67 91 5
62 84 5
65 89 5
67 90 5
65 88 5
63 86 5
69 93 5
65 88 5
63 85 5
59 80 5
69 93 6
64 87 5
63 86 5
67 90 5
63 84 5
64 87 5
65 88 5
69 91 5
66 88 5
62 84 5
64 87 5
66 88 5
65 88 5
63 86 5
64 85 5
68 90 5
64 86 5
64 87 5
60 81 5
61 81 13
66 77 39
53 59 41
56 50 53
62 47 62
60 46 61
55 42 54
61 47 62
68 51 69
64 48 67
62 48 66
65 50 67
64 49 67
61 47 63
73 56 74
63 59 61
69 67 63
74 81 58
73 83 54
73 83 55
79 89 59
74 84 55
78 85 65
119 116 122
131 126 138
157 148 168
161 149 171
156 144 166
161 149 173
164 152 176
144 137 158
157 146 166
169 156 179
156 145 167
158 148 164
160 149 174
153 142 163
158 149 165
161 150 168
145 138 156
160 151 168
145 138 159
163 153 170
151 143 161
155 144 160
141 134 148
139 131 145
138 131 148
124 122 130
140 133 146
127 122 131
133 126 135
120 116 121
104 105 100
92 96 87
101 101 96
108 107 103
107 107 103
106 105 103
109 108 102
112 110 109
98 99 95
107 105 106
103 102 97
104 103 97
114 111 111
107 107 104
112 107 105
98 97 92
113 111 108
106 106 103
125 123 125
110 108 107
117 115 115
140 134 138
126 124 122
138 132 136
131 128 133
143 137 143
138 132 136
140 133 142
150 141 155
137 133 139
119 119 114
107 109 99
84 92 73
73 85 52
72 83 52
73 85 54
72 84 53
68 79 51
73 84 55
76 87 56
73 84 53
79 91 58
75 86 55
77 88 58
77 89 58
78 89 58
68 78 57
65 72 76
68 74 91
56 57 102
54 52 105
60 57 116
59 57 115
59 57 114
62 59 118
58 57 110
59 57 115
62 60 117
58 56 114
60 58 115
61 59 116
58 55 109
62 59 117
61 58 115
61 58 115
63 60 118
58 56 111
62 60 119
59 57 111
63 61 119
61 58 115
60 58 113
62 60 116
60 57 112
64 62 120
61 59 117
62 60 120
58 57 108
58 57 113
57 55 109
62 60 119
54 54 105
59 58 113
56 56 107
56 57 106
51 55 99
54 55 103
52 53 101
80 79 111
108 104 130
114 113 121
96 101 96
87 97 70
80 91 60
81 94 61
78 90 58
78 90 59
80 92 61
80 92 61
78 90 60
76 89 58
78 89 58
82 94 62
77 89 59
81 92 61
79 90 59
80 91 60
80 92 60
79 92 60
79 93 61
69 94 61
63 107 65
34 110 63
27 133 75
25 128 73
28 141 78
26 133 74
26 131 75
26 134 76
26 135 77
28 146 80
29 147 81
28 143 80
29 152 82
28 144 80
29 148 80
28 144 80
30 153 83
30 150 82
31 158 86
30 150 82
29 147 81
30 153 84
27 141 76
30 153 81
27 142 78
29 148 80
29 150 82
29 148 80
29 147 78
29 149 80
27 140 74
28 144 78
26 136 73
27 138 74
30 152 82
27 138 74
28 142 77
27 141 76
28 141 76
26 136 76
44 153 89
68 140 94
99 127 114
145 144 147
134 130 146
150 141 158
135 128 143
158 148 164
146 138 152
138 130 146
126 122 135
130 123 136
109 103 112
107 101 102
101 98 101
83 83 79
70 72 60
63 66 50
65 67 51
68 69 51
66 67 50
66 66 51
67 68 52
66 67 51
66 67 51
65 66 51
66 68 52
67 69 52
68 69 53
66 67 52
67 68 52
68 69 52
65 67 52
68 69 52
67 68 52
67 68 52
67 70 51
68 72 52
71 77 54
78 85 58
67 73 50
69 78 53
74 83 56
74 85 57
78 88 58
70 80 55
72 83 55
78 88 58
72 82 55
74 84 57
74 84 56
78 89 58
76 87 57
80 90 60
72 82 54
78 88 58
79 89 68
82 87 71
112 113 113
131 126 137
145 138 154
15 23 78
18 24 77
21 27 73
21 27 70
16 21 62
41 47 54
44 50 41
56 57 55
86 83 93
86 80 94
119 109 127
128 118 139
128 117 138
119 108 132
119 110 136
135 125 149
137 126 150
143 132 159
141 131 155
140 130 155
144 131 154
139 127 150
161 147 171
160 148 172
148 137 161
151 140 167
153 143 169
156 143 170
160 148 172
163 150 172
156 145 172
153 141 171
160 147 173
164 152 179
160 148 171
156 144 167
158 148 169
150 141 160
131 125 140
114 115 113
107 107 103
101 104 92
101 103 98
106 108 105
111 110 114
121 119 121
128 125 127
120 119 115
115 114 114
142 136 145
129 126 130
120 118 122
140 135 144
137 133 137
147 139 148
148 141 151
151 143 155
147 139 155
144 137 149
150 142 161
164 153 169
166 155 172
161 150 169
158 147 169
170 157 180
158 148 169
164 153 175
166 154 174
143 136 151
127 125 126
88 97 72
88 97 72
87 98 65
86 96 68
80 90 61
85 95 65
87 97 67
85 95 65
84 95 63
81 91 60
82 93 61
75 86 57
84 95 63
80 91 60
85 95 62
79 90 61
80 91 61
81 92 62
84 95 62
82 93 62
82 93 63
84 95 63
80 91 60
84 96 63
77 90 54
73 91 40
67 87 25
60 82 5
65 87 5
64 87 5
64 87 5
65 88 5
64 87 5
64 86 5
63 86 5
64 87 5
62 85 5
67 90 5
68 92 6
64 85 5
64 87 5
64 87 5
63 85 5
60 82 5
63 86 5
65 87 5
65 88 5
63 86 5
60 83 5
67 90 5
65 88 5
69 93 6
68 91 5
62 84 5
66 90 5
63 84 5
66 89 5
68 92 5
60 81 5
66 90 5
64 87 5
64 87 5
66 89 5
66 89 5
64 86 5
60 79 12
59 77 25
59 69 38
61 54 53
62 48 63
60 45 61
63 48 62
62 47 62
60 46 60
64 49 62
61 46 60
64 49 66
61 47 64
62 52 61
72 62 71
70 69 62
71 77 56
71 80 54
71 82 53
69 78 52
78 88 58
77 85 59
78 87 60
109 110 106
135 128 140
150 139 153
166 153 173
148 138 156
158 146 169
158 147 168
153 144 165
146 139 156
145 139 150
143 135 147
147 139 157
143 135 149
150 141 156
147 140 152
141 134 145
133 129 137
139 131 144
119 116 123
126 121 131
124 120 126
119 117 120
118 115 117
132 128 130
108 108 107
112 112 105
107 106 105
115 114 113
113 113 111
101 103 93
97 99 92
103 102 103
115 115 117
124 120 130
130 124 130
142 137 143
141 135 143
114 111 112
129 127 129
136 130 135
114 110 112
134 127 132
136 128 135
124 121 123
138 133 139
139 133 139
141 134 138
137 130 135
135 128 134
159 149 160
134 130 134
136 133 139
135 133 139
133 130 133
144 137 149
141 136 145
153 145 156
152 143 163
149 142 156
155 146 158
142 135 144
123 123 122
87 96 76
78 87 63
75 87 55
73 85 53
76 87 56
74 86 55
72 83 53
76 88 57
74 86 55
74 86 55
76 87 58
72 84 54
73 84 55
74 86 56
72 82 63
73 81 82
64 68 97
58 57 109
58 57 111
56 54 107
58 57 115
60 58 113
55 54 109
59 57 114
55 53 106
60 57 112
60 58 114
62 60 115
61 58 115
56 54 108
64 62 122
60 58 112
61 59 114
60 57 111
59 56 112
60 57 112
63 61 121
60 56 111
63 60 121
59 57 112
58 56 108
63 60 117
61 58 114
59 57 108
60 60 115
61 59 113
57 55 106
59 58 113
58 56 111
53 52 101
57 57 108
57 57 107
52 53 100
55 55 105
53 54 103
57 58 101
84 82 117
115 110 137
138 130 150
143 138 149
119 120 116
92 100 79
82 93 63
81 92 61
79 91 60
78 91 60
79 92 60
77 89 60
80 90 61
83 94 64
87 97 67
80 91 65
88 98 67
84 96 64
83 93 72
84 95 68
90 99 74
94 103 82
79 98 73
68 102 74
44 112 73
24 120 69
26 132 75
26 136 76
26 132 76
28 142 78
28 143 80
28 145 81
28 145 79
30 149 82
28 143 81
28 145 80
27 141 77
30 154 83
29 149 82
29 148 81
27 142 76
29 150 82
30 150 84
29 146 79
30 151 81
28 145 78
30 155 84
30 153 82
29 147 81
28 143 78
28 146 79
27 141 77
28 143 79
28 145 79
28 141 77
28 144 79
28 142 79
26 133 73
28 142 79
28 143 79
28 142 78
27 137 74
24 128 70
37 138 80
70 142 98
101 141 116
128 133 140
146 139 154
151 141 159
150 143 158
152 144 160
153 142 156
135 127 140
118 116 123
114 110 116
99 97 97
100 96 96
78 78 73
69 70 59
68 69 55
66 68 51
64 66 51
67 68 52
66 67 51
68 69 52
64 66 51
66 67 51
67 68 52
66 68 51
68 69 53
65 66 51
67 68 52
66 68 53
65 67 52
67 69 51
67 68 52
69 69 52
66 67 51
68 69 52
65 66 52
67 69 51
68 71 52
66 71 51
71 76 54
71 77 53
72 81 55
74 84 56
75 85 56
73 83 57
76 86 58
68 79 52
77 89 60
71 81 54
74 85 58
72 83 55
72 82 55
73 84 55
72 83 55
76 86 58
77 88 58
72 83 56
76 86 59
94 98 87
101 102 102
43 49 55
25 29 60
39 44 52
24 29 43
40 44 37
35 40 31
52 59 39
68 70 61
84 81 91
135 123 137
122 111 130
132 121 139
103 95 117
132 121 139
126 115 140
139 127 148
122 113 137
140 129 155
135 125 149
128 116 142
146 134 155
149 137 156
149 139 157
147 137 157
143 133 155
143 133 152
134 127 142
153 143 158
156 146 164
151 141 159
134 127 143
144 136 152
140 134 149
136 130 143
130 124 135
132 127 137
133 128 135
130 127 124
128 123 136
138 131 144
143 135 150
138 132 144
148 140 153
145 137 152
151 141 158
149 141 155
152 144 161
160 150 169
163 152 173
164 153 172
163 151 172
158 147 172
161 150 171
168 157 180
171 157 177
162 150 174
174 161 185
165 154 176
170 157 181
170 158 184
171 158 182
182 167 188
173 159 180
172 159 184
169 155 179
172 160 185
176 162 189
166 154 180
147 140 153
112 113 108
90 97 73
81 92 62
81 93 62
83 93 62
81 91 61
82 93 62
82 93 62
80 91 60
83 94 62
82 93 62
81 92 61
86 97 64
82 93 62
82 94 62
81 92 62
78 88 59
83 94 62
84 95 62
80 91 62
78 88 60
79 89 60
82 93 62
82 94 61
79 90 59
75 88 52
74 90 45
67 86 27
63 83 8
65 88 5
64 86 5
65 88 5
64 86 5
63 85 5
68 91 5
66 90 5
63 87 5
65 88 5
68 92 5
69 92 6
60 82 5
67 90 5
64 87 5
65 89 5
68 92 6
64 87 5
69 93 5
67 91 5
63 87 5
67 89 5
60 82 5
67 90 5
62 84 5
64 86 5
65 88 5
65 88 5
65 88 5
66 88 5
65 88 5
67 90 5
64 87 5
65 88 5
58 79 5
64 85 5
59 80 5
63 85 5
64 86 6
65 83 26
60 63 45
55 51 48
57 44 57
57 44 56
63 48 65
59 46 59
55 43 56
64 49 64
59 45 62
60 45 58
70 58 72
72 60 73
74 73 70
79 81 72
79 82 72
93 96 84
88 91 79
92 96 82
100 100 99
103 104 97
107 107 104
115 113 114
115 110 122
135 129 137
124 119 131
140 133 147
136 129 139
135 129 139
119 116 119
124 119 124
125 120 124
126 123 124
111 112 106
109 109 107
122 119 122
117 114 114
111 111 108
92 95 88
89 95 79
110 110 103
92 98 83
92 98 82
95 101 82
89 96 82
91 97 78
79 88 65
90 97 79
75 86 60
71 81 55
71 82 52
74 84 56
84 91 70
101 104 96
114 114 116
131 126 133
153 143 153
148 142 151
150 142 150
135 130 141
141 136 142
148 142 148
151 142 153
140 135 137
143 135 145
143 133 141
142 136 145
139 133 140
141 134 141
134 129 137
152 144 153
143 137 144
144 138 143
147 140 151
150 143 149
151 141 153
154 147 156
157 149 163
159 150 163
149 141 153
152 145 156
160 152 165
159 150 163
146 139 148
111 113 110
86 94 76
77 89 57
82 94 60
77 88 58
76 87 56
81 92 60
74 86 55
73 85 55
79 91 59
76 87 57
79 91 58
76 87 57
78 90 59
76 87 65
69 77 82
67 73 90
56 57 100
59 57 113
55 54 105
59 57 113
59 57 114
60 58 116
59 57 110
62 59 117
60 58 115
62 59 117
60 58 114
60 58 113
57 55 107
61 58 113
60 58 115
61 58 113
61 58 116
62 59 116
62 59 116
61 58 114
59 57 111
60 57 115
59 56 109
57 56 111
60 58 115
62 59 116
60 58 115
58 56 108
59 57 114
59 57 111
60 58 111
56 56 107
58 59 112
54 54 104
54 55 107
55 55 107
56 55 108
51 52 94
58 59 103
90 86 120
116 111 138
146 137 160
156 147 166
139 134 143
117 119 114
104 109 94
87 97 76
104 110 94
101 106 95
100 106 93
100 104 94
113 115 106
110 112 108
106 111 102
118 119 118
118 117 112
114 118 107
129 128 126
129 127 129
129 127 128
123 124 125
117 126 123
94 128 110
54 116 78
22 113 67
24 122 71
26 131 75
26 130 75
28 141 81
26 132 77
29 146 78
28 144 80
29 148 83
31 155 86
27 140 77
30 150 84
30 150 82
29 149 84
28 142 77
29 148 82
29 146 80
30 150 82
27 141 78
28 142 78
29 145 75
28 139 76
29 146 81
28 146 80
29 147 80
29 148 83
28 147 81
29 146 80
28 144 80
27 138 77
27 141 79
26 134 74
27 140 77
27 137 78
26 134 73
27 137 75
27 137 75
27 139 79
29 127 72
68 124 88
85 128 104
119 125 125
143 139 150
142 133 147
143 134 151
143 135 147
138 129 139
129 121 132
117 110 122
99 96 95
86 84 81
70 69 60
64 65 50
63 65 50
66 67 50
66 68 51
64 66 49
65 68 51
66 67 51
68 68 52
67 68 52
69 70 53
66 67 51
67 67 50
68 69 53
69 69 52
66 68 51
69 69 52
68 69 52
70 71 53
67 68 52
66 67 51
68 69 52
69 69 52
67 67 51
68 68 51
65 66 51
66 67 50
69 72 53
68 73 50
68 75 51
66 74 51
76 85 57
71 82 54
74 85 56
76 87 58
79 90 59
72 83 54
73 83 56
74 86 56
76 87 58
73 84 57
78 89 59
80 91 59
72 83 56
75 85 57
73 83 57
77 87 59
82 90 69
51 51 47
44 49 37
48 49 42
39 40 36
50 55 43
53 55 49
55 57 51
77 75 74
68 66 74
91 85 99
115 105 123
114 107 124
110 105 119
112 106 120
108 103 117
103 99 115
129 121 140
117 112 121
126 119 131
121 115 129
128 121 132
123 117 123
115 112 118
102 101 108
122 117 124
115 112 121
111 110 113
111 110 108
115 114 113
106 107 99
101 102 101
109 110 103
97 100 90
100 103 94
97 100 88
92 97 84
97 102 89
115 116 114
137 131 136
160 150 169
163 150 170
156 145 171
171 159 180
164 152 175
169 156 181
184 168 190
172 159 181
170 156 179
173 160 184
169 155 179
162 150 177
170 156 178
181 167 191
172 159 183
176 162 185
177 163 188
174 160 188
174 161 187
169 156 182
177 163 185
172 158 183
178 164 188
178 164 189
177 164 186
179 165 191
177 163 187
178 164 189
180 166 190
157 148 165
130 128 128
85 94 67
82 93 61
84 95 62
82 93 62
83 94 62
84 95 62
84 95 62
81 92 61
84 95 62
81 92 61
80 90 60
84 95 63
87 98 64
82 93 62
84 94 61
82 92 62
84 95 63
81 91 60
82 93 62
81 91 60
83 93 62
83 94 62
82 93 62
81 93 60
79 93 53
69 86 38
66 87 25
65 87 5
62 83 5
62 85 5
66 89 5
65 87 5
61 83 5
64 87 5
68 92 5
63 85 5
65 87 5
64 87 5
66 90 5
67 90 5
66 89 5
66 89 5
66 89 5
65 87 5
68 91 5
65 88 5
66 89 5
65 88 5
66 90 5
66 88 5
66 89 5
65 87 5
66 89 5
62 85 5
66 89 5
61 82 5
63 86 5
66 89 5
61 83 5
63 86 5
64 87 5
66 89 5
60 81 5
66 89 5
63 84 5
59 79 7
62 77 28
63 66 46
58 54 51
52 42 48
50 40 50
53 40 54
53 41 54
56 42 56
62 47 62
65 50 68
85 71 89
102 91 104
101 93 105
108 101 108
109 104 107
114 111 112
115 111 117
124 120 124
114 109 114
124 118 125
138 130 139
140 132 145
130 123 131
133 126 137
132 126 136
99 102 91
98 100 92
87 91 85
88 93 81
89 93 82
92 98 77
91 97 80
90 96 83
79 86 68
79 87 67
80 88 68
75 83 60
78 87 62
75 85 57
70 80 53
74 83 59
77 89 58
81 92 59
74 84 55
72 83 53
74 85 55
73 84 55
76 88 56
70 81 53
75 85 55
74 84 54
75 86 55
74 85 55
83 89 76
112 111 110
129 126 132
145 138 150
153 145 156
156 147 160
149 142 154
160 150 167
168 157 171
155 146 158
141 135 144
160 150 161
157 149 160
154 144 158
158 149 163
157 150 159
159 150 164
157 149 158
159 152 161
158 150 161
150 143 156
160 151 166
149 142 152
162 152 165
159 150 166
152 143 159
157 147 164
157 149 164
150 144 160
166 156 177
160 150 168
148 142 151
127 124 128
95 101 86
77 89 57
72 83 53
76 87 56
75 87 55
75 87 56
74 86 56
77 88 58
74 85 56
78 90 59
75 86 56
77 89 58
71 81 61
70 78 78
68 73 88
63 62 112
50 48 96
57 55 112
55 54 103
58 56 111
57 55 108
61 57 112
58 55 110
62 58 113
67 59 110
60 58 113
65 59 112
62 58 110
60 57 113
56 54 106
61 58 115
60 57 111
57 55 110
65 62 122
59 56 109
62 58 113
60 58 114
62 60 115
57 54 106
60 57 113
58 57 110
61 58 114
55 53 104
62 59 116
62 60 118
55 54 105
59 58 112
56 55 106
54 55 106
57 56 109
55 56 107
54 54 103
50 52 97
56 57 101
72 71 102
111 108 123
115 112 126
149 141 157
137 132 144
112 115 104
113 114 108
115 116 111
139 135 144
135 131 140
136 131 138
142 136 151
145 140 148
139 136 147
155 147 162
152 144 156
149 143 156
149 144 154
159 150 170
146 142 152
151 144 158
155 148 163
144 148 157
113 138 128
76 120 98
34 128 77
24 125 72
26 136 77
27 138 77
26 135 78
26 130 72
27 137 76
29 146 82
26 134 76
28 143 78
29 146 80
28 142 80
29 146 80
29 146 81
30 150 82
28 146 80
30 152 84
30 154 84
30 152 83
30 151 82
27 139 76
29 149 82
28 146 79
30 153 83
28 141 76
27 138 75
27 136 75
29 146 80
27 139 75
27 136 73
27 136 74
26 132 71
26 134 75
25 129 71
27 139 76
25 128 69
26 135 74
27 138 77
27 138 75
35 132 74
70 119 81
109 126 116
135 130 135
123 121 131
150 143 158
134 125 137
118 115 122
119 114 123
108 104 108
82 81 75
79 78 72
67 68 54
64 65 49
66 67 51
64 65 50
67 67 51
67 67 51
67 68 52
68 69 52
67 68 51
66 67 51
67 67 51
68 69 52
66 67 52
66 67 51
69 70 52
68 69 52
68 69 52
68 69 52
69 69 52
68 69 51
67 67 51
68 69 52
66 67 51
66 67 51
66 67 50
69 70 52
67 68 51
66 68 50
68 71 52
71 76 52
69 75 53
74 82 56
72 81 54
73 84 56
76 87 57
75 85 55
71 81 54
72 83 57
70 81 53
70 82 55
75 86 57
75 85 58
75 86 57
78 89 61
83 92 65
78 87 66
79 88 62
73 82 60
65 62 66
65 64 63
74 67 73
67 66 68
76 72 73
88 83 90
100 96 95
86 84 90
88 85 87
95 92 92
92 92 86
92 91 85
108 104 106
95 95 92
108 106 105
84 86 84
84 87 79
97 97 94
87 91 81
99 100 92
89 94 82
87 92 76
87 93 77
89 93 75
89 94 77
87 94 71
78 85 70
83 91 69
77 84 62
79 88 64
75 85 57
75 86 57
73 83 56
79 90 59
79 88 58
76 86 59
77 88 60
95 99 89
132 129 134
162 150 168
173 159 186
167 155 181
177 163 190
172 159 183
169 156 180
177 163 187
172 159 186
172 158 186
168 155 180
174 161 185
173 160 184
173 158 184
172 158 182
175 160 186
177 163 189
181 166 191
177 162 189
178 164 190
164 151 181
177 162 187
168 155 183
174 160 188
182 168 194
175 162 189
176 163 187
178 164 189
177 163 188
171 159 186
167 155 170
120 119 117
85 94 69
83 94 62
86 97 64
80 90 60
80 91 60
84 95 63
82 93 62
85 96 63
84 94 63
83 94 63
81 92 61
85 95 63
83 94 62
83 94 61
82 92 61
82 92 62
79 89 59
80 91 60
82 92 61
82 92 61
82 93 61
80 90 60
79 90 60
80 91 59
74 86 50
70 87 40
66 85 27
62 83 8
61 83 5
66 89 5
61 83 5
69 93 6
62 84 5
65 87 5
66 89 5
68 93 6
64 87 5
65 88 5
64 86 5
65 87 5
67 91 5
66 89 5
64 87 5
65 88 5
64 87 5
65 87 5
63 85 5
64 88 5
64 87 5
58 79 5
66 89 5
67 91 5
62 84 5
68 91 5
65 88 5
65 88 5
67 91 5
66 89 5
63 85 5
67 90 5
70 94 6
64 87 5
62 83 5
63 85 5
66 89 5
63 83 12
54 70 20
56 59 44
58 55 51
54 42 54
52 40 54
57 44 57
59 44 60
67 53 68
75 63 75
89 77 94
105 93 112
123 114 130
128 117 136
117 110 122
135 126 145
138 128 142
144 133 155
142 131 148
148 137 154
152 140 160
143 132 151
144 132 152
149 138 158
145 134 152
136 129 140
104 105 98
76 83 63
74 84 56
74 84 57
72 83 54
71 81 55
75 86 56
81 91 58
71 81 53
71 80 53
77 87 57
72 82 54
74 84 56
79 89 58
74 85 55
76 87 57
74 85 56
76 88 57
77 87 57
70 80 52
76 87 56
75 85 55
73 85 54
72 82 54
79 90 59
71 82 53
72 83 54
71 82 53
78 88 60
91 97 81
112 110 111
147 139 152
159 149 164
160 149 166
158 151 161
159 149 166
158 149 159
159 149 166
163 153 168
153 146 158
162 151 166
166 155 170
156 149 161
164 152 170
157 149 164
160 150 165
159 150 167
150 143 159
151 142 159
152 144 160
165 154 171
171 159 172
152 144 160
161 152 166
158 149 162
165 155 172
162 152 167
158 149 166
157 149 163
160 151 169
141 135 145
115 114 117
85 91 76
74 86 57
77 89 57
77 87 57
76 89 58
77 89 59
75 86 57
80 92 59
77 89 57
79 90 59
75 86 58
80 92 65
75 85 69
68 74 95
53 55 91
59 57 108
60 55 103
63 58 113
61 57 107
73 60 105
75 60 107
73 61 110
69 58 102
77 62 110
75 59 98
76 62 109
74 61 111
66 58 106
70 60 111
66 61 115
62 58 114
62 58 111
61 59 116
61 58 113
61 58 114
59 57 108
63 60 117
60 58 113
61 59 114
55 52 103
58 55 108
55 53 103
59 57 108
59 57 110
55 55 105
54 53 102
55 54 104
60 59 114
55 55 105
54 54 106
52 53 99
53 56 103
47 51 89
65 67 98
83 84 103
96 99 105
113 116 112
109 112 99
115 116 111
105 111 99
129 126 127
140 138 143
164 155 175
163 153 174
166 156 178
163 155 174
166 156 178
174 163 186
164 157 178
170 159 185
169 158 182
170 161 183
172 160 182
170 160 183
164 154 175
153 151 164
114 137 132
76 130 102
38 131 77
24 121 68
27 137 77
27 138 77
26 132 73
29 150 81
28 142 79
28 141 77
27 139 77
29 147 82
29 146 83
28 142 79
28 139 75
29 147 82
31 156 86
30 155 86
29 146 80
30 153 84
26 132 73
27 140 78
29 146 83
28 142 77
27 135 75
28 140 76
27 141 76
27 138 75
28 143 78
27 141 75
26 133 73
28 141 79
27 136 74
27 138 76
25 127 69
27 138 74
26 133 72
27 138 75
25 131 72
25 133 72
27 134 73
38 124 69
57 107 66
74 107 74
103 108 100
118 116 116
117 117 118
114 110 116
112 110 112
110 105 106
80 79 77
72 72 60
64 65 49
64 65 49
65 66 49
64 66 50
64 65 50
66 66 49
66 67 51
68 69 51
67 68 51
66 67 51
67 68 51
68 68 51
67 68 52
68 69 51
66 67 50
66 67 50
67 68 51
68 68 51
68 69 52
68 68 51
64 65 50
69 70 53
66 66 49
68 68 51
68 68 51
68 68 52
68 68 51
66 67 49
67 67 50
67 68 50
66 68 49
69 72 52
71 77 54
72 80 54
75 83 62
72 83 57
81 90 69
86 94 76
84 91 73
91 97 79
90 96 82
91 97 81
99 103 98
91 94 85
94 98 85
95 99 91
95 98 92
102 103 101
111 111 112
100 91 107
81 78 87
102 94 111
102 94 108
114 105 120
107 98 111
119 108 123
97 94 96
76 79 70
66 74 49
72 78 64
74 78 65
68 76 50
75 79 64
65 74 50
77 87 57
75 83 59
74 83 60
74 83 54
72 82 55
72 82 56
75 84 57
81 92 61
76 85 56
74 85 57
80 90 59
78 88 58
78 88 60
81 92 60
80 91 60
78 88 59
80 90 60
82 92 61
79 90 61
83 94 63
82 92 61
80 90 60
107 108 98
129 124 129
158 148 166
167 154 179
164 152 177
176 162 187
172 159 184
175 162 184
171 159 185
169 156 184
166 151 179
177 164 191
177 163 186
177 162 186
172 159 185
169 157 186
174 159 184
173 160 185
169 156 184
169 156 179
177 164 189
176 162 187
176 162 185
170 157 184
175 162 186
174 160 186
171 158 183
173 160 185
179 165 189
178 163 189
176 163 186
157 148 166
124 121 126
88 98 71
84 95 62
87 97 64
83 94 62
84 95 63
83 94 62
82 92 62
84 95 63
82 93 62
82 92 61
81 92 62
80 90 60
82 93 62
80 91 61
85 95 62
79 90 60
84 94 61
84 94 62
83 94 62
81 91 60
81 92 62
82 92 62
81 91 60
78 89 59
82 94 57
72 88 42
67 86 32
64 87 8
67 90 5
65 88 5
63 86 5
64 87 5
66 90 6
65 88 5
63 86 5
61 83 5
65 89 5
66 88 5
65 87 5
67 92 5
64 87 5
64 88 5
65 88 5
63 86 5
67 91 5
66 89 5
65 88 5
60 83 5
64 88 5
62 84 5
64 87 5
60 82 5
67 89 5
62 84 5
63 85 5
64 86 5
67 90 5
66 88 5
60 81 5
63 85 5
66 89 5
63 86 5
59 80 5
63 86 5
64 86 5
61 82 11
57 72 27
54 59 40
63 52 59
58 46 58
57 43 57
73 60 73
73 61 74
77 69 79
86 73 86
106 96 110
129 116 133
119 108 127
140 128 145
136 127 142
144 132 149
133 121 142
145 132 151
145 135 155
153 141 162
146 134 154
148 137 159
150 139 160
154 143 163
143 133 152
147 138 151
112 109 114
88 94 79
71 81 54
73 83 56
70 80 53
74 84 57
71 80 53
75 86 56
74 84 53
79 89 58
75 86 56
77 88 58
75 85 55
74 85 56
76 86 57
74 85 55
74 84 55
74 85 55
76 86 57
77 89 58
75 85 56
73 84 53
81 91 59
79 89 57
77 89 57
74 85 54
71 82 53
75 86 57
75 86 56
84 92 68
99 102 94
135 131 135
150 143 157
162 154 171
156 148 160
165 154 171
157 148 166
148 139 152
167 156 170
165 155 173
161 152 167
167 156 175
161 150 167
153 145 159
158 151 166
155 147 162
168 158 173
162 154 172
172 159 179
156 148 163
163 152 172
164 154 173
166 156 173
166 155 172
168 158 176
164 154 175
162 152 169
161 152 172
169 157 178
154 146 164
163 153 171
136 130 142
117 116 119
88 96 78
80 91 61
83 95 61
80 92 59
76 88 57
76 88 59
80 92 60
79 90 63
84 93 72
80 90 65
71 82 60
78 85 84
82 81 88
78 73 102
76 60 102
80 63 108
79 60 103
90 64 100
86 65 109
95 65 97
99 66 91
101 70 106
94 66 100
99 67 99
87 62 96
100 69 101
77 61 105
86 63 102
87 63 100
76 61 108
71 61 108
66 57 104
59 55 107
58 56 111
60 58 115
58 56 108
57 55 108
59 56 111
62 58 114
57 54 105
60 58 113
58 57 113
58 56 109
58 56 112
55 55 106
56 56 107
59 58 109
58 58 111
53 54 103
50 53 98
45 46 87
48 52 91
62 68 91
74 81 82
78 88 67
81 93 68
78 90 59
77 90 60
83 94 64
110 112 108
128 125 131
147 140 153
159 153 174
175 161 185
168 156 180
175 161 184
172 160 181
174 163 185
169 158 179
165 156 179
168 157 182
171 159 181
168 157 181
158 149 172
142 142 157
130 143 145
88 128 108
24 124 68
22 115 67
26 132 75
26 132 73
26 132 76
26 131 74
28 145 80
26 134 74
28 144 79
29 146 80
28 143 80
29 147 81
26 130 72
28 144 78
29 147 80
30 151 83
31 156 85
29 146 80
30 153 84
27 140 77
29 148 80
29 147 81
29 146 81
27 139 75
29 148 81
28 144 80
29 148 80
27 139 76
26 136 74
27 137 75
28 142 78
25 127 70
28 144 79
27 138 76
25 132 72
25 128 69
26 133 74
25 131 71
26 128 72
46 126 71
46 109 62
60 95 56
75 89 61
92 97 82
105 107 100
88 89 88
93 92 92
85 81 79
70 71 63
66 68 49
62 64 48
62 63 49
64 65 49
68 68 51
64 66 50
65 66 50
65 67 51
67 68 52
65 65 49
67 68 51
66 67 51
65 66 50
65 66 49
69 70 52
68 70 52
67 68 50
67 68 51
66 67 51
66 67 50
66 66 50
67 68 52
68 68 51
67 67 51
68 68 51
67 67 50
66 66 50
65 65 49
65 65 50
68 68 50
67 68 51
69 70 51
65 67 50
68 72 51
81 85 72
92 94 86
106 107 104
121 118 122
107 106 110
124 122 121
126 123 125
125 121 128
121 117 128
130 125 131
131 126 140
133 127 140
144 137 149
137 130 144
135 129 146
138 130 148
118 109 130
126 117 134
133 122 142
128 118 141
124 112 134
148 136 155
117 109 130
109 103 108
83 86 75
64 72 51
63 71 49
70 78 52
70 79 52
70 79 53
75 84 56
72 81 55
71 80 54
74 84 56
80 90 60
72 80 55
78 88 59
78 88 58
80 90 60
80 90 60
76 86 58
75 85 56
80 91 60
81 90 60
81 92 61
74 84 57
76 86 58
79 91 60
80 91 60
79 89 59
77 87 59
77 87 58
81 91 60
98 102 88
132 127 136
169 155 177
169 156 184
173 161 187
175 162 189
168 155 179
175 161 186
170 156 186
179 164 189
169 156 183
173 161 186
178 164 185
166 152 178
167 152 175
178 163 190
178 164 187
172 160 186
180 166 191
173 160 187
167 153 180
169 157 181
183 169 192
179 165 190
172 158 185
171 158 184
182 168 192
177 163 187
178 164 191
180 165 190
178 164 190
161 150 171
124 122 124
96 102 80
84 95 62
83 94 62
81 92 60
85 96 63
84 96 63
83 94 62
83 94 61
85 96 63
82 93 61
84 94 64
79 90 60
81 92 62
82 92 62
91 99 74
87 96 73
84 93 66
84 94 67
83 92 64
85 93 69
86 94 75
96 100 85
84 91 72
97 102 87
99 102 89
86 96 65
74 91 42
66 89 9
65 87 5
67 90 5
64 86 5
65 88 5
65 87 5
62 85 5
64 87 5
65 87 5
64 87 5
65 89 5
66 89 5
68 91 5
64 87 5
64 87 5
66 89 5
64 87 5
67 91 5
67 90 5
68 92 5
65 90 5
66 89 5
67 91 5
64 87 5
66 88 5
65 88 5
65 87 5
64 87 5
61 85 5
66 88 5
66 88 5
64 87 5
60 81 5
63 85 5
62 83 5
62 85 5
61 83 5
59 80 5
63 82 20
65 77 38
60 62 49
59 52 57
62 50 61
69 55 73
78 65 77
86 74 89
98 86 97
111 100 110
107 98 113
122 110 124
135 123 140
136 125 142
138 125 144
147 133 149
138 126 145
144 131 151
152 139 161
140 129 143
149 137 157
150 138 160
148 136 152
143 130 151
151 139 163
153 141 164
133 125 139
108 107 106
76 84 60
68 77 50
72 82 54
75 86 56
73 83 54
73 84 54
75 86 57
74 85 57
76 87 57
75 86 57
75 85 57
69 79 51
78 89 59
75 86 57
79 89 58
75 86 57
75 85 56
77 88 58
77 88 58
77 89 58
77 88 58
79 90 57
74 85 56
74 85 55
79 91 59
76 87 56
79 90 58
78 90 57
82 91 68
106 109 101
134 131 135
157 148 162
158 147 165
164 153 171
167 157 178
161 151 167
166 154 171
158 149 166
165 154 174
156 146 166
156 150 167
167 154 174
154 144 159
160 151 168
164 153 168
163 154 168
156 147 165
171 159 180
170 158 176
160 149 166
165 154 175
163 153 170
171 159 179
163 153 171
160 151 173
170 157 178
169 158 175
157 148 164
168 158 177
149 142 156
131 126 134
119 121 116
93 98 83
91 98 79
95 103 82
102 106 90
96 102 84
99 105 92
97 102 87
102 108 94
107 110 100
122 117 119
103 97 103
93 85 104
102 81 107
91 66 102
93 66 100
102 67 91
111 72 96
116 73 92
126 78 90
114 73 92
122 75 86
121 75 89
113 72 90
113 73 95
117 73 87
119 76 96
105 69 97
104 70 100
92 65 99
82 63 105
87 65 106
72 59 105
64 57 103
63 59 116
59 56 111
58 56 112
60 58 111
57 56 108
59 57 112
58 57 109
52 51 102
54 53 100
56 57 107
59 57 109
55 54 105
52 52 101
52 53 98
51 53 100
54 55 102
48 50 93
51 54 94
60 65 82
73 82 76
80 91 70
78 89 59
79 91 60
79 91 59
81 93 60
82 95 62
101 104 99
112 114 115
142 135 147
156 147 169
173 161 184
160 153 172
170 162 182
176 163 185
167 159 179
166 157 175
168 159 183
178 167 189
168 157 181
173 161 184
156 154 168
130 141 141
84 121 104
32 128 74
24 123 69
24 125 71
25 129 73
26 132 74
26 134 75
28 140 74
27 139 75
29 148 81
28 142 78
28 143 78
27 141 78
27 140 76
27 138 75
30 151 84
29 145 80
30 152 84
28 143 78
28 142 79
27 140 76
29 146 79
27 136 73
28 142 78
27 140 77
26 135 73
26 135 75
25 130 70
26 134 73
26 133 72
26 135 73
24 125 69
25 130 70
26 134 74
24 125 66
25 127 70
24 123 67
23 122 67
27 137 76
28 132 70
41 114 63
58 110 64
64 96 58
73 85 54
74 83 58
74 85 65
89 90 80
81 81 75
78 78 69
58 60 45
62 64 48
62 63 48
66 67 50
67 68 50
65 66 49
64 64 48
65 66 50
66 67 50
68 69 52
66 67 50
66 67 51
69 69 51
66 67 50
66 67 50
65 66 49
66 68 51
68 68 51
65 66 50
67 68 51
69 70 51
70 71 53
65 66 50
70 70 52
66 67 51
64 65 49
67 67 50
66 66 51
66 66 49
66 66 50
67 67 50
66 66 49
66 67 50
68 69 53
80 79 73
80 80 75
106 104 102
115 113 122
144 136 152
148 139 154
158 149 165
151 141 161
157 148 167
146 138 157
158 147 167
158 147 169
150 141 162
154 143 166
159 149 171
150 140 167
161 149 172
144 132 157
136 126 146
133 122 145
139 127 150
155 142 164
152 139 157
134 125 137
115 111 113
87 93 74
66 74 49
71 79 53
72 82 55
70 79 52
75 84 55
74 84 56
76 85 57
71 81 55
76 86 58
78 88 58
74 84 56
73 82 55
77 87 59
81 91 61
77 87 59
80 90 60
76 86 58
81 92 61
81 91 61
76 85 59
80 90 61
80 91 61
79 90 60
80 91 60
80 91 61
78 88 58
78 89 59
80 90 60
113 114 111
138 132 140
172 158 181
174 159 187
168 155 181
175 163 189
165 155 181
165 153 181
162 151 175
176 163 185
179 164 188
176 162 187
169 157 184
171 158 181
182 168 192
172 160 185
174 161 187
175 161 183
178 164 188
175 161 190
178 163 188
170 157 183
170 157 183
178 164 187
172 159 184
178 165 190
182 168 190
174 161 185
180 166 190
178 164 186
169 155 181
155 144 165
147 140 150
98 103 89
85 94 67
83 93 67
92 100 76
97 103 84
91 98 79
87 96 68
89 98 72
102 107 85
101 106 87
96 100 90
100 104 92
102 107 92
115 114 113
116 116 113
126 125 124
114 113 112
114 117 109
114 112 110
128 126 123
142 135 145
128 124 128
132 126 137
129 125 130
116 116 109
105 109 98
83 96 63
64 85 24
64 87 5
66 88 5
67 90 6
64 85 5
63 84 5
66 89 5
64 88 5
63 86 5
65 87 5
62 84 5
66 88 5
65 89 5
65 88 5
64 87 5
63 85 5
63 85 5
63 86 5
64 87 5
67 89 5
64 87 5
66 88 5
67 91 5
67 90 5
65 88 5
64 87 5
62 84 5
66 89 5
63 86 5
64 87 5
65 87 5
64 86 5
63 85 5
62 84 5
61 83 5
60 82 5
64 86 5
57 78 5
63 81 26
67 78 43
67 67 56
93 85 87
80 69 80
94 83 91
92 81 91
102 91 103
100 87 101
113 104 114
112 99 111
136 124 139
127 116 131
130 117 133
136 124 141
125 116 130
140 127 145
134 122 140
142 129 147
152 139 157
139 128 145
133 122 141
141 129 152
158 147 168
152 141 161
149 137 157
138 128 146
129 122 129
92 95 86
71 80 55
71 81 53
70 80 53
75 84 57
78 88 58
77 88 58
76 85 57
76 88 57
78 89 59
77 88 57
78 89 58
77 87 58
71 81 54
74 85 55
77 88 57
73 84 54
78 90 58
80 91 59
78 89 58
75 85 56
73 83 55
75 85 56
79 91 60
76 87 56
75 86 57
80 91 60
80 91 59
76 88 57
84 92 69
124 122 124
139 134 145
163 152 170
171 159 177
161 152 171
162 153 170
165 155 174
154 145 161
160 150 170
158 148 169
156 146 167
176 164 182
164 154 171
163 152 169
159 150 168
164 153 169
162 151 169
156 148 161
158 150 165
156 148 166
154 146 158
157 149 167
152 144 157
154 146 156
150 143 155
147 140 150
153 146 159
141 135 145
150 142 151
139 134 143
125 123 130
114 114 109
99 105 95
125 124 124
121 120 119
125 122 127
128 126 128
148 140 153
137 132 141
145 137 149
146 136 148
144 133 143
136 122 133
131 106 118
125 98 116
105 71 94
125 77 90
132 79 84
123 76 85
128 78 87
140 82 81
141 82 81
141 83 80
145 85 79
133 79 83
131 79 87
138 82 81
140 82 76
119 74 90
121 75 92
120 76 90
106 71 100
96 68 106
92 65 99
79 62 102
79 60 101
69 60 108
54 51 99
55 53 103
55 52 101
56 53 104
59 58 111
57 55 106
60 58 114
55 55 107
55 54 105
56 55 106
54 53 99
54 53 103
55 54 104
50 52 97
52 52 98
46 49 86
58 65 76
76 86 71
72 83 59
78 89 59
76 89 60
78 91 60
75 87 58
79 90 60
88 97 70
95 102 89
115 117 110
147 140 154
158 150 170
166 157 180
168 156 180
161 152 177
169 159 180
169 159 181
171 162 182
172 161 183
164 154 178
170 158 180
159 149 170
131 141 146
85 123 104
44 122 78
25 129 73
25 130 71
24 125 70
26 131 74
23 123 68
28 143 79
28 141 79
26 131 73
27 134 75
29 148 81
27 138 76
30 151 84
27 138 76
27 138 74
29 148 78
27 137 75
28 143 79
30 152 81
27 140 76
29 143 77
27 137 74
28 139 76
27 136 74
27 139 76
26 135 75
27 137 75
28 142 76
25 130 71
25 130 69
26 132 72
24 125 68
23 121 65
25 129 71
26 133 75
23 119 65
25 128 69
23 121 65
26 129 73
46 121 69
63 109 67
83 101 77
77 85 61
77 87 61
71 79 53
66 72 52
68 72 56
62 64 49
61 64 48
59 60 45
63 64 48
66 66 50
65 66 50
65 66 49
68 68 50
65 66 50
67 68 51
65 67 50
67 68 50
67 68 51
65 66 49
65 65 48
68 69 50
67 68 50
67 68 51
65 66 50
67 68 51
65 66 49
66 67 50
68 69 51
64 65 49
65 65 48
69 69 51
66 66 49
66 66 49
66 67 50
65 66 49
64 64 49
65 65 49
67 67 50
65 64 48
64 64 48
76 75 63
92 88 90
123 117 123
143 133 148
149 139 158
151 143 160
158 148 168
163 152 173
164 153 174
147 137 161
159 149 169
159 148 170
159 149 171
160 149 174
153 144 171
155 146 170
158 146 169
143 132 156
152 139 161
157 143 166
158 145 166
150 137 161
146 135 157
126 119 135
114 112 109
75 84 62
74 83 56
75 84 57
75 84 56
77 87 59
77 87 59
79 90 60
79 89 59
73 83 56
80 90 59
78 88 59
80 90 61
79 89 59
80 90 60
78 88 60
77 86 58
74 84 57
77 86 59
81 91 61
76 86 59
79 88 59
81 91 61
84 95 62
77 86 60
78 88 58
82 92 62
84 94 62
82 93 62
82 92 65
109 112 101
141 135 145
172 159 183
171 158 186
172 159 185
178 163 186
173 160 185
169 156 184
168 156 182
176 161 184
178 164 189
182 167 191
176 162 186
173 159 186
175 162 187
176 163 186
180 167 191
171 158 182
171 158 187
172 158 183
174 159 184
172 159 185
175 162 183
172 158 181
170 158 184
170 158 181
168 156 180
162 150 171
169 157 177
163 152 174
161 150 168
144 138 149
131 128 130
132 128 132
112 113 106
117 117 115
128 126 124
129 127 126
136 131 133
137 132 137
140 134 138
139 133 139
139 134 139
142 133 144
132 126 132
140 134 144
147 141 154
142 136 149
139 133 146
143 136 150
156 146 159
143 135 151
156 146 161
154 143 165
151 140 157
160 149 169
159 148 168
136 130 141
135 133 133
110 113 103
73 90 34
63 86 5
62 84 5
61 82 5
65 88 5
64 87 5
65 86 5
66 89 5
61 82 5
64 87 5
67 90 5
63 86 5
63 85 5
68 91 6
65 88 5
66 88 5
64 88 5
61 84 5
69 92 6
66 89 5
68 92 5
68 91 5
62 85 5
67 90 5
65 88 5
67 90 5
66 89 5
66 88 5
62 83 5
63 84 5
61 82 5
64 87 5
61 83 5
62 83 5
59 80 5
61 82 5
60 82 5
63 86 5
66 83 33
61 70 41
75 78 68
92 85 88
101 90 97
118 107 113
100 88 99
89 80 87
113 103 112
117 104 113
112 102 114
121 111 124
132 122 134
133 121 137
131 119 135
143 130 144
136 124 139
153 139 157
141 129 147
152 139 159
142 129 144
153 140 161
147 136 154
146 135 156
148 136 156
144 134 154
164 152 173
137 128 143
106 107 102
85 91 73
75 85 56
77 87 57
71 81 53
73 82 54
73 83 54
74 84 56
74 83 56
76 88 58
76 86 56
79 90 59
75 85 56
77 87 58
75 86 57
75 85 56
77 88 58
76 86 57
80 92 59
77 87 57
75 86 56
77 88 57
77 88 57
75 86 56
77 87 57
74 85 59
83 92 66
82 92 63
84 92 68
84 93 69
114 114 111
133 129 136
158 149 163
174 161 182
155 147 162
164 154 173
157 148 161
154 145 163
145 139 154
145 138 147
154 143 161
148 141 157
144 137 149
150 143 151
137 132 141
140 135 142
141 136 145
132 129 136
129 126 128
126 124 125
125 124 124
127 124 126
114 113 114
120 119 122
109 112 105
124 123 123
115 115 114
125 126 119
117 120 111
117 118 114
107 108 105
103 106 98
117 116 116
131 128 136
153 145 163
163 153 170
156 147 165
161 151 168
162 150 172
165 149 169
157 144 161
164 142 154
149 125 142
146 114 127
139 98 103
135 82 82
143 84 81
137 81 84
140 82 75
152 87 73
147 84 71
145 85 78
156 89 72
152 87 72
152 87 72
150 86 75
152 87 73
150 86 73
144 84 83
138 82 83
136 81 79
128 77 83
127 77 88
107 71 99
108 72 99
93 65 96
88 64 101
76 62 111
63 55 98
55 53 105
57 55 108
55 52 99
56 55 107
54 52 102
55 54 104
54 53 104
55 54 104
52 51 97
50 50 98
51 53 96
47 49 92
46 49 89
52 58 79
64 71 83
71 81 67
79 90 60
79 91 60
79 90 60
79 90 59
79 92 59
82 94 62
78 90 59
79 90 58
91 100 77
102 106 100
139 136 145
153 145 161
171 160 182
153 148 165
162 152 173
168 159 180
175 164 186
167 160 182
164 154 177
163 154 176
166 160 178
145 150 160
99 123 113
51 128 85
22 113 61
22 117 67
24 121 67
25 128 71
26 136 74
24 124 69
26 135 75
27 135 75
26 138 75
26 133 74
28 141 77
29 146 80
29 146 81
28 140 76
30 149 80
30 151 83
26 133 72
28 142 77
28 143 79
28 144 79
26 135 74
25 133 72
26 132 74
26 133 73
27 140 76
24 127 69
27 138 75
25 128 68
24 125 68
24 127 69
23 121 65
25 129 71
23 121 67
25 131 72
25 131 71
23 117 65
25 128 72
30 126 69
77 125 94
87 113 88
106 110 99
104 106 98
95 98 92
75 80 61
63 68 50
67 69 52
60 61 47
62 64 48
61 62 47
64 65 49
62 63 47
64 65 48
64 65 49
65 66 50
66 67 50
68 69 51
66 66 49
65 66 49
67 68 50
63 64 47
66 67 49
67 68 50
68 68 51
64 65 49
66 67 50
66 67 50
66 67 50
66 67 49
66 67 50
65 66 49
66 67 50
66 67 51
64 66 50
67 67 49
64 64 49
63 64 47
68 68 51
66 66 49
66 67 49
66 66 49
63 63 47
74 73 62
88 85 84
104 99 106
129 122 134
138 129 144
148 142 163
157 148 171
162 152 176
168 158 178
158 147 167
160 147 169
156 147 166
160 150 171
157 147 170
153 143 166
167 157 182
160 148 168
161 147 171
149 137 165
156 142 166
157 144 166
165 152 177
157 145 170
125 119 129
112 112 107
81 88 68
78 87 59
77 87 58
75 85 57
78 89 59
81 90 59
74 82 57
76 86 57
76 85 57
76 85 57
78 89 60
77 87 59
79 89 60
81 91 60
79 89 59
80 89 60
79 89 60
78 88 59
80 90 60
81 91 62
79 89 60
82 93 62
78 88 59
81 92 62
78 89 59
79 90 60
82 92 61
85 95 62
82 91 63
106 109 98
143 137 152
171 157 182
170 157 185
165 153 175
172 159 183
177 164 187
168 156 180
171 157 181
179 164 187
169 157 180
167 155 176
163 152 173
167 155 178
164 153 173
166 155 175
152 143 163
159 148 167
162 152 168
159 149 166
157 147 162
155 146 159
146 139 151
153 145 156
144 138 143
148 140 154
146 138 147
143 136 144
145 141 148
133 128 138
134 130 136
129 127 127
136 131 139
152 144 153
157 148 162
156 147 160
149 140 157
152 143 158
156 146 169
161 149 167
155 146 159
160 150 165
161 150 170
162 150 172
176 163 182
170 157 177
164 153 175
173 161 184
167 155 174
173 161 184
171 158 180
165 152 175
171 158 185
173 159 183
166 152 174
172 159 184
168 155 176
159 147 167
142 134 146
106 110 94
73 90 44
65 87 5
60 81 5
63 85 5
66 90 5
63 86 5
64 87 5
60 81 5
65 89 5
63 85 5
66 91 5
62 84 5
62 85 5
67 91 5
69 93 6
65 88 5
64 86 5
63 86 5
65 89 5
67 90 5
66 89 5
61 85 5
69 93 6
66 89 5
61 83 5
64 87 5
61 84 5
64 87 5
62 83 5
63 85 5
62 85 5
65 88 5
64 86 5
57 78 5
63 86 5
61 83 5
60 82 5
61 80 21
70 82 44
90 90 75
92 87 80
95 86 92
84 74 81
108 97 106
97 85 93
110 100 107
111 100 108
131 119 128
104 93 104
122 110 120
121 109 123
126 115 130
122 111 127
149 136 151
151 139 157
128 118 137
155 143 160
147 135 151
163 150 166
156 143 162
146 136 156
150 138 163
147 135 155
148 138 157
152 141 163
152 141 161
138 130 140
113 112 109
82 90 65
75 86 57
72 81 54
74 85 57
73 83 56
79 90 59
76 86 57
79 90 57
75 85 56
76 86 55
79 88 61
79 89 60
84 95 66
80 88 64
87 94 74
85 92 71
93 99 85
93 98 83
92 97 78
91 96 83
104 109 94
103 106 92
100 105 88
102 107 93
109 110 105
102 103 97
109 111 105
113 113 107
119 119 112
139 135 142
162 152 167
154 146 160
126 125 126
125 123 126
132 129 134
126 123 128
140 135 140
128 127 130
120 120 115
120 119 122
128 126 126
121 120 119
113 114 108
104 107 99
111 112 107
100 104 91
100 104 90
91 98 78
101 105 90
105 108 101
92 99 81
93 100 84
81 92 63
88 98 73
84 94 70
83 93 66
83 92 66
83 93 68
78 90 60
77 88 62
107 109 99
119 118 117
149 143 156
153 145 163
166 152 172
169 153 171
165 149 171
172 148 165
165 137 149
164 132 143
166 131 141
159 113 111
152 100 101
150 91 81
152 88 77
150 86 69
148 85 70
151 86 71
156 89 69
157 89 71
159 91 71
160 91 70
157 90 71
160 91 70
156 89 72
156 89 72
157 89 69
149 86 75
149 87 79
147 85 75
142 84 84
129 78 85
130 77 79
116 73 91
88 61 91
87 61 91
72 57 98
64 56 105
65 57 106
54 52 102
57 55 107
55 54 103
58 57 109
53 53 102
57 56 104
52 52 101
49 50 94
44 47 85
45 47 88
45 49 85
61 69 78
61 71 70
72 83 67
80 92 61
76 87 57
78 90 59
75 87 58
80 92 60
74 86 57
78 89 60
78 91 58
82 93 63
87 95 74
114 115 114
127 126 133
158 150 166
153 148 166
170 160 181
165 157 179
158 150 173
167 156 181
170 161 181
169 160 180
162 154 177
147 148 158
114 131 128
72 120 94
33 102 64
24 121 66
21 110 61
25 127 70
26 134 73
25 129 70
26 133 74
26 135 75
26 136 72
27 138 77
25 130 72
28 143 78
27 140 76
29 145 78
29 145 78
25 130 71
26 138 74
28 141 76
27 139 76
28 146 80
27 134 72
25 132 72
27 136 75
26 135 73
25 131 72
26 136 73
26 132 71
25 132 75
24 126 67
26 132 72
25 129 69
22 116 63
24 122 66
23 122 66
24 125 68
23 118 62
22 116 62
71 126 93
85 124 102
106 120 115
124 127 129
123 120 123
104 103 105
91 92 86
64 69 55
60 63 51
59 60 45
59 60 45
63 64 48
61 62 47
63 64 48
64 65 48
64 65 49
68 69 50
68 68 50
64 65 48
64 65 47
69 69 50
66 67 49
66 66 49
65 66 49
66 66 49
66 67 50
66 67 49
67 68 50
68 69 51
65 66 50
67 68 49
68 68 50
67 67 49
66 67 49
62 64 47
65 65 48
66 66 49
66 66 49
66 66 49
65 65 47
64 65 48
66 66 48
66 65 48
64 65 47
65 65 48
74 72 61
93 89 90
127 123 129
127 119 135
159 149 167
156 145 167
167 157 177
169 157 181
164 153 174
166 152 173
157 144 166
157 147 170
156 147 170
151 142 167
161 151 176
158 147 170
162 148 172
163 150 175
167 153 177
155 143 168
162 149 173
146 134 157
128 122 131
97 101 93
75 84 58
80 90 59
76 86 58
82 93 61
81 91 60
78 88 58
82 92 62
77 87 59
82 92 60
83 93 61
79 90 59
77 86 59
79 89 60
87 98 64
82 93 62
78 87 59
81 91 61
80 91 61
90 98 70
88 96 76
92 99 73
89 98 70
95 102 81
84 92 68
91 100 76
94 100 83
105 109 95
108 112 96
102 106 92
127 124 128
141 135 147
159 149 167
154 143 161
155 146 163
156 147 164
148 139 155
142 134 150
146 139 154
154 143 158
149 140 155
155 146 158
130 127 132
141 135 146
149 143 149
127 125 125
128 125 126
126 123 130
123 122 121
135 132 134
108 110 104
117 118 109
119 119 117
122 121 114
111 112 107
113 115 108
108 111 98
104 109 90
103 107 95
107 110 98
99 104 89
105 107 96
141 137 141
166 155 174
166 152 174
169 154 180
172 158 182
172 158 184
175 162 188
171 157 181
176 162 188
180 165 190
164 152 178
164 152 175
174 160 183
171 157 182
172 158 180
175 160 185
175 160 181
169 155 181
170 157 181
174 160 182
172 159 184
175 162 184
166 154 179
167 155 180
170 156 179
162 151 172
145 138 147
101 106 95
82 94 63
61 81 25
58 80 5
62 85 5
63 86 5
63 85 5
65 88 5
59 80 5
68 91 5
68 91 5
63 86 5
65 88 5
63 85 5
63 85 5
63 85 5
65 88 5
62 84 5
62 85 5
64 87 5
66 89 5
68 91 5
62 84 5
65 89 5
64 87 5
66 89 5
64 87 5
62 84 5
65 88 5
65 88 5
60 83 5
63 85 5
62 84 5
60 82 5
58 79 5
63 84 5
57 77 5
59 79 5
69 86 35
80 85 65
87 88 69
90 86 83
87 79 87
95 84 89
98 87 96
127 114 123
119 106 112
121 109 120
130 119 129
126 113 126
127 115 128
119 108 120
136 124 138
143 132 147
148 136 151
143 131 146
149 137 153
146 134 147
154 143 158
151 139 158
142 132 149
143 133 147
147 135 154
156 143 164
157 145 168
146 136 159
155 144 164
137 129 141
119 115 119
85 91 73
85 93 67
85 91 72
81 88 71
91 96 79
92 97 84
93 95 85
97 100 87
98 102 91
102 104 97
105 106 99
114 115 109
108 109 105
113 113 112
118 117 116
112 112 108
128 124 129
116 116 117
132 127 131
134 128 134
138 133 136
135 132 139
133 128 134
153 145 156
134 129 135
140 135 142
135 130 141
143 137 152
163 153 167
143 135 147
144 139 151
132 128 137
110 111 107
103 106 98
101 105 93
99 104 90
93 100 82
84 92 75
81 90 65
81 93 62
88 97 71
82 92 64
78 88 63
78 90 60
83 94 60
81 93 60
79 90 63
83 92 63
77 88 58
76 86 57
79 90 59
78 90 59
79 92 60
78 90 58
79 91 59
83 94 61
82 94 60
76 87 58
78 89 58
80 92 59
92 98 83
104 107 103
130 126 135
144 138 150
170 155 177
165 146 164
159 137 152
164 136 151
161 120 121
163 117 119
161 112 111
161 108 102
154 95 82
159 90 71
156 89 70
160 90 68
160 90 67
159 90 69
155 88 68
163 92 69
159 90 69
166 94 70
158 89 69
154 88 69
156 89 69
160 90 70
163 92 71
161 92 70
153 87 69
155 89 69
155 89 73
141 83 77
137 81 75
125 77 83
119 74 89
101 68 99
97 66 96
73 56 92
63 55 102
58 55 106
54 52 99
52 50 96
52 52 100
55 54 103
52 51 96
53 54 102
46 47 90
46 47 89
44 46 84
46 50 76
58 65 79
71 80 75
75 87 61
75 86 57
75 87 58
80 92 61
79 91 60
77 89 59
76 88 58
77 88 59
81 93 60
80 92 60
78 91 59
84 94 72
103 108 97
134 130 145
152 145 158
159 153 173
167 157 177
164 155 177
154 147 171
162 153 175
158 152 174
162 155 178
140 142 153
119 129 131
94 119 108
48 117 74
22 116 65
23 122 67
24 125 71
24 129 69
24 126 69
26 136 75
26 133 74
25 131 72
26 136 72
27 138 76
25 129 70
27 140 78
28 142 77
27 139 75
27 138 75
27 141 76
26 137 76
27 138 74
27 138 75
25 130 70
27 136 74
27 140 75
25 129 69
23 122 67
24 123 65
26 132 74
23 121 65
25 127 67
23 120 65
24 125 66
26 134 73
24 124 68
20 108 56
23 121 66
24 124 67
44 114 71
82 127 103
114 133 128
138 145 148
158 154 166
130 124 136
125 119 127
94 92 91
83 82 77
59 60 44
60 62 46
61 62 46
62 64 48
62 64 47
63 64 47
64 65 48
65 66 48
62 64 48
65 66 49
67 67 50
68 68 49
64 65 48
67 68 50
65 66 49
69 69 51
66 67 49
68 69 51
65 66 49
67 68 50
67 68 50
68 69 51
67 68 49
67 68 49
67 67 50
67 67 50
67 68 49
66 66 49
65 66 48
66 67 49
68 69 50
67 67 50
65 65 49
63 63 48
64 63 47
63 63 46
64 64 49
66 65 49
85 81 77
114 107 113
130 122 133
141 133 151
142 133 151
155 147 168
167 157 176
161 152 174
158 148 172
162 152 172
147 139 160
156 147 170
155 144 167
163 152 177
166 154 177
166 153 178
162 149 172
157 146 173
162 148 175
168 154 178
155 144 160
141 135 142
93 98 86
80 89 63
74 83 58
88 97 67
81 91 63
82 92 63
82 91 67
88 96 69
83 93 63
95 102 80
100 104 90
99 104 87
91 96 81
98 102 86
99 104 92
98 101 86
97 101 88
112 112 105
100 103 95
99 103 95
123 121 120
121 119 122
126 124 126
127 123 127
123 121 123
123 121 123
128 123 124
133 129 138
130 126 131
127 125 129
135 132 141
131 127 135
121 119 121
127 125 126
124 121 121
122 121 117
120 119 121
116 116 112
118 119 111
121 120 116
117 118 112
100 104 87
105 108 102
118 118 118
101 106 92
101 106 88
100 104 90
97 104 81
96 102 85
96 102 80
89 95 76
90 99 70
86 94 66
91 100 73
88 98 69
86 96 63
83 93 63
86 97 64
84 95 62
82 93 62
79 90 61
96 102 85
126 123 126
153 145 162
178 165 188
169 156 182
180 165 188
176 161 186
177 163 186
175 162 185
177 162 183
173 160 185
177 163 186
181 166 190
177 163 186
169 157 184
178 165 188
172 160 185
170 157 182
176 162 187
163 151 174
166 154 179
172 159 186
166 154 179
166 154 179
160 147 173
159 148 170
165 154 172
151 142 156
139 134 141
93 101 81
72 89 40
59 81 5
61 82 5
62 84 5
64 86 5
59 81 5
66 88 5
63 85 5
68 90 5
61 83 5
63 85 5
66 89 5
66 89 5
62 84 5
64 87 5
63 85 5
64 87 5
64 87 5
67 91 5
63 86 5
61 84 5
67 90 5
61 83 5
59 81 5
65 87 5
61 82 5
64 86 5
62 83 5
60 81 5
56 76 4
62 84 5
58 80 5
62 83 5
60 80 5
62 83 5
59 79 5
62 77 42
71 81 52
74 77 65
104 97 102
113 102 110
119 108 116
109 99 111
120 108 118
126 117 126
124 113 126
120 107 120
130 117 129
131 119 135
130 119 133
142 130 142
145 133 148
128 116 134
141 130 146
143 132 147
139 129 143
148 137 152
147 136 150
156 143 162
155 144 161
136 128 141
137 128 143
133 126 140
139 131 146
148 138 151
126 120 129
126 122 123
106 106 101
110 109 108
121 119 122
121 118 122
104 104 103
136 130 137
116 113 118
131 126 131
141 133 147
126 123 127
134 128 136
133 127 136
142 135 148
138 131 147
145 137 149
153 144 162
156 146 163
152 143 160
158 148 165
160 150 164
158 149 168
159 148 168
168 157 179
159 150 171
164 152 174
158 149 167
175 162 184
165 153 176
165 154 175
166 154 173
152 144 160
144 138 146
110 111 103
96 102 83
77 88 58
79 90 58
73 84 56
80 91 61
79 90 60
80 92 60
78 89 58
80 91 59
82 93 61
79 91 59
81 92 60
77 88 57
79 90 59
85 97 63
74 85 56
75 86 58
79 90 58
81 92 60
79 89 59
77 89 58
78 89 59
74 85 56
82 94 61
75 85 57
77 88 59
82 94 60
80 92 61
76 88 61
102 105 93
122 117 117
161 144 157
156 128 136
160 124 131
154 117 121
161 115 116
161 108 102
157 97 86
162 98 84
156 88 68
159 90 69
161 91 68
158 90 69
160 91 69
160 91 70
157 89 69
159 91 69
161 91 69
162 92 70
162 92 70
160 90 69
160 91 69
160 91 69
163 93 70
160 90 69
159 90 67
161 91 69
163 92 68
154 88 74
154 88 75
137 81 81
132 80 85
119 73 81
110 70 91
96 65 92
82 60 92
61 53 101
56 51 93
52 51 96
49 49 92
52 50 96
48 49 93
53 53 98
55 53 103
48 50 91
48 50 90
52 56 81
58 65 73
71 82 66
81 93 62
77 88 59
78 90 59
74 87 57
81 94 61
79 91 60
79 89 62
82 94 64
85 96 69
74 88 57
81 92 62
91 99 79
89 96 79
98 102 96
128 126 128
142 137 148
154 152 164
151 145 162
158 151 167
145 143 156
149 144 159
154 146 163
148 146 156
120 129 132
78 120 95
42 112 69
26 97 57
22 119 64
23 120 64
24 122 65
25 128 70
25 132 72
28 142 78
25 130 71
27 137 73
25 129 72
26 133 72
28 143 80
29 149 81
27 139 74
26 134 74
27 136 76
26 133 72
26 132 71
27 137 73
26 135 70
26 132 72
25 128 69
24 124 67
24 126 67
25 128 70
24 124 66
21 110 59
22 114 60
24 126 68
23 121 64
24 124 66
22 115 60
23 124 66
21 114 59
23 119 63
47 111 74
95 133 112
130 145 145
149 148 162
152 144 164
130 126 135
119 117 126
84 82 79
67 67 57
62 63 46
60 61 46
60 61 46
63 64 47
60 62 47
64 64 47
62 63 48
67 68 49
66 67 50
66 66 48
68 69 50
66 67 49
66 66 49
67 68 50
66 67 50
64 65 48
67 68 49
71 71 51
66 66 49
68 69 50
67 68 50
65 66 48
65 65 47
66 66 49
65 66 48
68 69 50
64 64 48
67 68 50
66 66 49
65 65 48
62 62 45
64 64 47
65 65 48
63 63 47
64 64 48
61 61 45
62 62 46
62 63 46
69 69 56
79 78 77
115 109 119
129 123 136
157 147 167
157 148 169
156 146 167
154 145 169
160 148 172
174 160 181
167 155 178
161 150 173
164 153 177
161 151 170
171 158 179
166 153 174
175 160 182
160 146 175
160 147 170
149 138 159
139 132 147
130 125 131
126 124 126
98 103 89
106 109 96
105 108 97
106 108 101
99 102 99
121 119 123
112 111 111
127 125 127
119 117 119
134 127 128
124 120 126
131 128 131
130 125 128
154 146 153
133 128 133
130 125 135
151 143 154
145 137 152
144 138 152
153 144 160
151 142 154
141 134 146
163 153 167
160 150 168
159 149 169
162 151 169
154 143 166
168 157 176
163 151 170
143 137 148
125 124 125
101 105 95
90 98 78
91 98 76
86 95 69
89 98 70
88 95 72
93 101 76
84 95 64
85 96 64
79 88 65
86 96 64
82 92 61
83 93 62
85 95 62
84 94 63
82 93 61
82 92 61
83 93 62
86 97 64
87 98 65
84 94 62
84 95 62
83 93 62
80 90 60
86 97 64
79 89 60
85 96 64
83 94 61
81 93 61
90 98 72
118 119 115
160 148 166
174 160 184
181 167 190
171 157 181
179 166 188
171 158 182
168 153 180
169 156 181
172 160 186
171 158 184
173 160 184
173 160 184
168 155 181
178 164 185
166 155 179
170 156 179
175 161 186
169 155 179
173 159 183
168 156 177
169 155 181
161 149 174
166 153 178
170 157 182
165 152 173
147 136 154
133 129 135
114 116 106
75 89 49
59 78 18
60 81 5
57 76 5
63 85 5
63 86 5
61 83 5
60 82 5
63 87 5
61 83 5
62 85 5
62 84 5
65 88 5
65 88 5
63 86 5
60 82 5
64 86 5
63 85 5
60 82 5
61 84 5
63 86 5
63 86 5
65 88 5
64 87 5
63 86 5
59 81 5
65 88 5
61 82 5
62 84 5
57 78 5
63 85 5
59 79 5
59 80 5
61 82 5
59 80 5
66 80 44
75 85 57
94 94 84
97 95 88
109 100 109
118 107 118
114 105 113
108 100 106
127 115 126
129 119 125
123 115 122
121 114 122
126 117 124
117 110 116
135 125 139
118 112 117
118 111 113
123 116 126
127 118 127
125 119 127
129 121 129
125 119 124
115 111 115
111 108 114
120 114 119
115 112 112
111 110 108
104 102 104
105 104 102
113 110 112
100 102 95
117 116 108
107 106 106
128 123 133
138 130 145
155 144 161
150 141 158
156 146 164
155 144 162
153 142 160
166 154 173
167 155 173
153 143 166
155 145 166
161 150 171
162 150 172
152 141 164
158 148 171
172 159 181
162 152 173
166 154 176
171 158 175
164 152 177
170 157 179
168 156 182
168 157 181
163 153 174
169 158 179
168 156 176
165 155 174
167 155 175
164 153 177
175 162 185
151 143 160
131 128 130
103 108 92
84 95 63
78 89 59
83 94 62
78 88 58
75 85 56
82 92 60
84 95 63
80 91 60
81 91 61
76 87 58
80 92 60
78 89 59
77 87 58
77 89 58
79 89 58
79 89 59
80 91 61
76 86 56
80 91 60
83 94 61
76 87 57
83 95 62
84 95 61
75 86 57
77 89 58
78 89 59
76 87 58
78 89 59
96 96 77
119 106 98
144 123 127
160 122 124
165 127 132
150 103 102
160 111 108
157 92 73
150 87 68
156 88 67
159 90 68
162 92 69
151 86 67
156 89 67
159 90 69
156 89 67
160 91 70
157 89 69
159 90 69
159 90 68
161 91 69
161 91 68
164 92 69
156 88 68
157 89 68
156 89 66
160 90 69
161 91 69
160 90 68
156 89 68
155 89 71
159 90 67
144 84 73
136 81 79
129 77 79
118 73 88
93 64 93
81 59 95
64 53 95
53 51 98
49 49 92
49 49 95
53 53 99
52 52 98
48 49 91
48 50 91
53 55 90
64 69 80
69 79 72
85 93 82
88 95 78
79 91 63
88 94 78
90 96 81
97 101 94
102 106 95
99 103 95
97 102 90
100 105 100
95 100 86
110 112 109
100 105 96
101 106 98
112 113 111
136 132 141
141 135 149
143 137 157
131 130 140
125 124 130
130 128 132
129 125 136
123 124 129
126 126 125
101 113 100
68 100 76
50 107 67
26 104 53
21 113 58
23 121 65
24 125 67
24 127 66
26 136 73
24 124 65
27 137 75
27 136 74
27 138 74
25 128 70
25 130 69
27 141 74
27 137 75
25 131 70
26 135 73
24 128 68
26 133 70
25 128 70
24 127 68
25 128 69
24 128 67
26 133 71
28 144 77
23 121 63
22 119 65
23 122 66
25 129 67
21 115 60
24 125 66
22 117 60
20 107 56
20 106 57
19 102 54
33 119 68
56 113 77
105 131 119
136 143 151
146 144 158
141 133 150
117 114 124
103 101 106
88 85 84
57 57 43
61 62 45
61 62 46
62 62 46
65 66 48
66 67 49
65 66 48
65 65 49
67 68 49
63 64 47
64 66 48
66 67 49
65 65 48
66 66 49
63 64 48
65 66 49
65 67 48
67 67 49
66 66 48
67 68 49
62 63 47
63 64 47
69 70 51
64 65 48
65 65 47
65 66 48
62 63 47
67 67 50
65 65 47
64 65 48
66 67 49
67 67 49
64 64 46
64 64 47
64 64 47
64 64 47
63 64 48
64 64 47
64 64 48
62 62 45
75 74 68
93 89 93
127 120 127
140 133 148
161 151 168
158 149 170
166 154 174
167 156 175
163 152 175
162 151 173
166 153 177
165 154 173
168 156 178
166 155 176
145 136 153
149 137 151
153 145 155
144 137 149
138 131 145
133 127 135
149 141 148
151 142 154
124 120 125
127 122 127
134 129 139
142 135 144
146 138 152
148 139 155
149 142 153
152 144 158
153 143 159
170 157 175
153 144 159
164 152 172
159 147 169
167 155 175
164 153 174
164 153 173
165 153 175
171 158 178
174 160 182
175 161 188
168 157 179
176 163 186
168 155 180
179 166 190
177 162 187
171 159 185
173 160 188
176 161 187
165 152 178
153 144 163
117 117 113
89 99 72
85 97 64
82 92 61
82 93 62
84 94 63
81 92 61
82 93 62
81 91 61
85 95 63
84 95 63
81 91 61
84 95 62
84 95 62
82 93 62
81 91 61
80 91 61
83 94 62
83 94 63
81 92 62
80 91 62
85 96 63
82 93 62
83 94 63
81 91 62
84 94 62
82 92 61
82 93 61
84 94 62
81 91 60
92 101 70
128 125 122
155 146 162
173 160 180
175 162 184
177 164 189
170 157 180
170 158 182
176 163 190
172 158 181
169 154 177
172 158 181
169 156 182
170 157 182
164 151 175
166 152 175
172 159 185
171 158 185
177 162 185
167 154 177
171 158 183
169 156 179
164 152 178
168 156 180
174 161 184
169 156 181
172 158 180
155 145 163
147 140 150
121 122 123
92 102 79
71 90 35
57 78 5
62 85 5
61 85 5
62 84 5
59 81 5
65 87 5
61 84 5
64 86 5
58 80 5
62 85 5
59 81 5
62 85 5
63 85 5
63 86 5
59 80 5
66 89 5
62 84 5
62 84 5
58 81 5
61 82 5
64 86 5
63 84 5
62 84 5
61 82 5
61 83 5
60 82 5
62 84 5
55 75 4
58 78 5
61 83 5
63 85 5
56 77 5
53 73 4
70 82 45
85 92 68
91 91 81
105 102 99
102 97 99
101 96 94
113 105 112
115 110 112
114 107 111
121 114 117
109 106 103
108 105 102
106 103 106
104 102 102
98 98 95
107 105 104
100 99 97
113 110 111
102 100 93
101 101 98
98 98 93
97 98 90
101 103 92
98 100 91
85 91 73
89 95 76
83 90 70
86 91 71
87 94 77
89 97 75
77 87 58
92 98 83
106 106 104
134 128 141
162 150 166
161 150 169
165 154 175
163 151 174
171 158 182
165 153 174
173 160 180
170 157 182
166 153 174
162 150 174
171 159 184
164 152 175
168 156 183
160 147 168
168 155 173
168 155 180
169 156 178
169 157 175
170 157 177
170 159 180
173 160 182
167 155 177
169 158 178
171 159 181
164 154 176
181 167 191
181 168 191
179 165 186
171 158 181
167 154 173
146 139 153
130 127 128
87 95 72
83 94 62
82 94 62
79 91 60
81 92 60
79 91 61
79 91 60
82 94 61
78 89 59
81 92 61
77 88 58
81 93 61
81 92 60
79 90 60
79 90 59
78 89 59
83 94 61
81 92 61
79 90 61
80 92 61
82 92 61
72 83 57
79 91 59
80 91 59
74 85 55
75 87 57
83 94 61
86 93 61
96 86 64
112 97 77
142 105 101
147 100 92
150 94 87
151 92 81
158 95 79
158 91 70
151 86 66
157 89 68
154 87 67
157 89 68
165 94 69
155 89 68
159 91 68
163 92 69
162 92 69
165 94 70
160 91 69
164 93 70
163 92 70
162 92 68
161 91 69
162 92 68
165 93 70
159 90 69
159 90 66
157 89 68
162 91 69
160 90 68
156 88 66
155 88 66
148 85 67
142 83 69
130 79 75
123 75 85
122 75 88
91 64 90
84 62 98
64 55 95
54 52 98
53 52 102
49 49 93
51 50 99
47 49 90
48 48 89
68 69 84
87 89 100
96 96 102
103 105 110
102 108 106
119 117 119
120 119 121
124 122 127
114 116 116
121 119 123
122 120 124
123 122 129
112 117 120
130 127 134
132 130 141
143 138 150
139 136 145
141 138 147
152 146 161
149 143 160
147 141 157
121 121 129
129 128 129
90 98 85
99 105 92
84 95 77
85 94 74
77 92 73
67 95 66
51 99 60
39 102 59
24 111 60
23 122 66
22 118 65
24 124 67
24 123 68
24 125 67
25 129 70
24 127 70
26 133 71
26 136 72
29 144 76
26 135 73
25 132 72
26 131 72
26 135 73
25 131 70
25 130 71
23 120 65
25 128 68
23 121 64
22 117 63
23 124 67
23 120 64
23 121 64
24 125 67
24 123 65
21 110 56
20 104 56
22 116 60
22 113 59
22 114 60
23 120 63
21 111 60
58 122 80
105 138 123
124 138 141
156 156 165
155 147 167
151 143 160
121 115 124
96 93 94
75 75 68
60 61 45
60 61 46
62 62 47
61 63 46
65 65 48
61 62 45
64 64 47
64 65 47
64 65 48
63 64 47
66 67 49
66 67 49
67 68 49
65 66 48
65 67 50
65 65 48
68 69 51
64 65 47
65 67 48
66 67 48
67 68 48
65 66 50
64 65 48
67 67 49
65 66 48
68 68 49
64 65 48
65 65 48
63 64 48
64 65 47
63 64 47
63 64 47
65 65 48
65 65 48
63 63 46
62 63 45
64 64 47
63 63 47
62 61 46
62 61 46
66 66 50
80 81 69
86 87 77
122 119 122
137 130 142
151 143 163
160 151 170
154 144 167
174 161 184
170 158 179
162 152 174
161 152 174
164 152 176
170 158 183
128 125 125
117 116 114
114 112 110
112 113 104
112 111 106
136 130 142
147 139 155
162 151 173
167 154 177
170 157 176
173 161 184
169 157 182
154 146 168
169 157 176
173 160 185
175 162 183
175 162 186
175 161 184
182 167 189
179 166 190
173 159 183
171 158 182
176 161 183
179 165 189
179 165 189
170 156 180
175 162 187
180 165 190
178 162 187
176 162 188
178 162 188
170 156 184
171 157 187
180 166 189
166 152 181
174 159 182
172 158 181
152 143 157
110 112 109
88 98 70
87 98 64
84 94 63
83 94 63
83 94 62
84 95 63
80 91 60
86 97 63
83 93 62
87 97 62
81 91 62
82 92 62
80 91 61
83 93 63
83 94 63
84 95 63
83 94 62
78 87 59
83 93 62
77 88 60
82 92 61
84 95 63
83 94 62
83 94 63
84 95 63
80 90 60
86 97 63
80 90 60
80 91 61
86 95 69
132 129 130
136 130 141
172 158 179
175 162 186
175 161 184
174 160 183
174 161 187
176 163 184
169 155 180
169 157 181
178 164 187
167 154 177
166 153 178
160 147 170
174 160 184
171 158 182
168 155 176
167 154 178
177 163 187
172 158 185
173 158 185
167 154 176
163 150 173
156 144 168
159 147 171
171 158 178
163 150 171
151 140 158
133 129 132
105 111 95
88 98 72
59 79 21
56 79 5
60 80 5
60 81 5
64 87 5
59 81 5
62 84 5
62 85 5
63 85 5
62 86 5
63 85 5
60 83 5
58 79 5
62 84 5
64 86 5
57 79 5
64 86 5
61 84 5
62 85 5
58 79 5
61 83 5
59 81 5
60 81 5
62 84 5
63 85 5
63 85 5
58 79 5
60 82 5
58 79 5
58 79 5
54 74 4
59 80 5
65 81 35
75 89 52
83 89 70
84 89 69
95 95 87
89 90 86
104 103 93
101 97 96
95 94 83
96 97 87
83 85 72
74 79 64
87 92 75
89 92 78
89 93 80
78 85 63
78 84 64
77 84 62
70 78 56
74 83 57
77 85 59
75 84 57
76 85 58
73 83 54
74 84 57
72 82 55
72 82 55
74 84 55
75 85 55
74 84 56
78 87 56
77 87 57
77 86 60
100 102 91
128 124 129
143 136 149
169 156 177
165 152 176
175 162 183
165 153 176
169 157 183
167 155 175
164 152 178
168 155 177
167 154 175
169 156 180
166 154 176
173 160 183
166 156 176
163 151 173
171 158 179
171 158 182
169 157 181
174 161 185
168 155 181
163 152 175
174 162 183
172 160 181
167 155 181
171 158 180
168 155 176
175 162 186
172 160 184
174 163 184
169 157 179
160 150 170
139 133 144
122 121 118
90 97 77
81 93 60
79 90 60
78 90 59
80 90 60
78 89 59
81 92 61
75 86 59
84 96 63
81 92 60
80 91 60
81 91 60
79 90 59
81 92 61
81 92 61
77 88 58
73 83 56
77 89 57
79 90 60
75 86 58
78 89 58
79 90 59
78 89 59
79 91 61
77 88 59
77 86 57
88 85 57
107 88 61
113 93 65
133 90 69
140 98 85
156 96 81
161 95 77
157 89 66
156 88 67
156 89 67
159 90 67
156 89 66
161 91 68
163 92 68
157 89 68
160 91 67
162 92 69
157 90 68
157 89 67
159 90 68
160 91 69
163 93 69
158 90 68
163 92 68
162 92 68
164 93 69
157 90 68
161 92 68
166 93 69
155 88 67
157 89 68
161 91 69
161 91 67
159 90 68
151 87 70
148 85 69
139 80 72
122 74 79
103 67 87
90 63 88
89 64 98
54 49 90
50 50 98
49 49 94
47 48 91
51 51 93
82 78 108
88 86 112
105 102 118
120 122 131
116 116 124
124 123 136
136 133 145
145 138 155
154 148 160
150 143 159
148 141 163
156 148 167
155 146 164
157 150 169
144 138 156
154 148 167
155 148 168
158 151 169
149 143 168
154 149 167
149 144 163
155 149 169
136 132 141
119 119 126
90 101 88
83 95 72
75 87 60
74 88 57
68 83 52
67 89 54
52 91 54
43 105 59
37 107 59
23 107 57
22 119 63
21 112 59
21 116 58
24 125 67
25 130 70
24 124 66
24 127 71
25 132 70
24 128 67
24 127 69
25 132 70
27 134 72
26 136 73
26 131 70
24 123 65
26 134 74
24 123 66
24 127 69
25 131 69
24 124 68
23 120 63
23 119 63
23 124 64
21 110 57
22 116 61
19 103 53
22 114 61
23 123 64
22 115 59
18 101 51
34 111 65
84 123 102
111 134 128
143 143 151
156 155 171
146 139 157
140 132 148
120 114 126
90 87 88
65 65 53
58 59 43
62 63 46
64 65 47
63 64 46
62 63 46
62 63 47
65 66 49
64 65 48
64 65 47
62 64 46
64 65 47
65 65 48
65 65 48
66 66 47
64 65 49
67 67 48
64 65 48
64 65 48
65 65 47
66 67 48
65 65 47
64 65 47
65 65 47
64 65 47
67 67 49
64 65 48
67 68 49
67 67 49
63 64 47
66 66 48
63 63 46
61 61 45
66 66 48
64 64 46
64 64 47
64 63 45
65 65 49
64 64 46
63 63 45
62 61 44
61 62 45
67 70 51
76 79 66
85 88 78
117 116 117
131 126 131
150 141 159
158 149 168
162 151 177
161 152 169
167 156 176
161 151 169
159 150 166
155 146 164
83 93 67
93 100 74
80 90 59
90 99 72
111 113 98
135 129 134
163 152 169
176 162 188
189 174 195
176 161 183
177 162 189
174 161 188
177 163 191
175 161 186
178 164 187
172 157 184
178 163 186
176 160 185
175 162 188
171 157 181
175 162 187
172 159 184
178 164 190
173 160 184
172 158 188
176 161 189
175 161 183
170 158 185
175 161 184
183 170 192
179 166 188
179 165 189
177 162 186
180 166 190
179 165 188
179 165 188
166 154 177
144 137 151
127 126 125
90 99 71
84 95 62
82 93 61
84 95 62
85 96 64
84 95 63
84 95 64
85 95 63
84 95 64
83 94 63
81 92 61
83 93 62
82 92 61
83 93 61
84 95 62
85 96 64
81 92 62
82 93 61
82 93 62
85 95 62
82 93 62
81 91 61
79 90 61
84 95 62
82 92 61
82 93 61
83 94 62
82 92 62
81 91 61
91 99 73
116 117 113
139 133 143
171 159 181
174 159 185
176 162 185
173 161 185
176 162 182
173 161 185
173 159 184
160 149 173
169 155 180
172 157 184
169 155 182
173 160 182
170 156 181
161 150 173
173 160 182
163 152 176
167 156 179
168 154 176
168 155 179
169 156 178
153 141 165
171 158 181
165 152 176
156 144 165
157 146 168
155 144 163
132 128 134
112 113 106
80 88 66
62 81 26
61 83 5
64 86 5
60 82 5
58 79 5
57 78 5
60 83 5
52 74 4
61 84 5
55 77 4
60 81 5
60 82 5
60 82 5
58 80 5
61 83 5
59 80 5
62 85 5
55 76 5
61 81 13
57 79 5
61 82 5
62 84 5
59 81 5
58 80 5
59 81 5
58 80 5
54 74 4
57 78 4
54 74 4
58 79 5
58 78 4
65 82 36
66 80 45
77 83 70
84 86 77
88 92 76
82 89 69
79 84 68
78 83 66
72 81 53
71 79 56
74 83 55
65 73 48
70 78 52
70 80 52
73 82 54
74 84 54
73 84 53
73 83 54
70 80 52
68 77 50
74 84 55
75 86 56
75 84 55
72 81 53
76 87 57
77 88 57
75 84 57
77 87 56
74 84 55
76 86 56
73 83 55
77 87 56
75 84 55
75 85 55
92 98 76
114 112 113
138 132 139
164 152 172
172 159 177
164 154 175
163 151 175
162 151 171
165 153 176
169 156 180
171 158 182
169 156 178
164 152 177
171 157 183
163 151 174
169 156 178
179 165 188
161 149 175
166 155 177
167 155 177
168 157 179
168 155 182
167 155 178
172 159 185
170 158 182
170 157 179
175 162 184
177 163 186
164 153 174
172 159 180
169 156 177
171 158 182
166 154 176
161 150 170
137 132 139
114 114 112
85 95 66
79 89 59
82 93 62
81 93 61
81 91 59
78 89 59
80 91 60
81 93 60
79 90 59
81 92 60
80 91 60
78 89 60
75 85 55
78 88 59
79 90 60
80 92 60
76 86 57
79 90 59
78 89 59
78 88 59
82 93 61
78 89 59
80 91 59
84 88 59
84 87 59
99 84 58
112 85 59
122 89 63
141 88 65
147 86 65
153 88 66
162 92 67
155 88 67
157 90 67
155 88 67
155 89 67
162 91 67
157 89 67
159 90 68
156 89 67
160 91 68
166 94 70
164 93 69
167 95 69
162 92 69
160 91 69
157 90 67
166 94 70
162 92 69
161 91 69
163 92 68
164 93 69
163 93 68
159 90 67
156 89 67
162 92 68
161 91 67
156 88 67
162 92 68
154 88 66
157 89 67
149 85 69
132 78 65
131 77 72
102 68 86
98 67 90
70 56 96
52 49 91
52 51 102
49 49 90
64 64 98
109 104 132
124 118 146
135 129 148
150 144 162
147 138 164
142 139 159
142 135 157
150 143 164
142 136 157
156 146 171
149 144 160
153 146 172
149 146 162
166 156 180
148 141 163
156 150 168
144 140 165
152 148 166
157 149 171
156 149 165
163 154 177
155 148 168
143 139 157
134 129 143
112 112 111
98 106 96
95 102 86
79 92 61
68 81 53
69 86 57
64 91 55
49 94 52
35 94 51
28 103 55
21 111 58
20 103 54
22 115 61
25 130 70
22 118 63
24 125 66
26 131 70
27 138 74
20 107 56
23 122 63
24 126 68
24 126 67
22 118 63
23 122 64
26 133 72
24 127 67
24 127 67
23 121 63
23 119 64
22 117 62
23 120 64
22 117 60
23 115 62
22 114 57
21 112 58
22 115 60
20 108 55
18 100 52
18 101 50
25 109 59
69 114 88
85 119 102
126 132 137
140 147 155
161 154 173
152 149 165
134 128 144
111 106 115
95 95 91
58 60 49
58 60 43
61 62 45
63 64 46
60 61 45
64 64 47
63 64 46
64 64 47
64 64 47
63 64 47
62 63 46
63 64 46
62 63 46
65 66 49
64 65 47
64 65 47
67 68 50
65 66 47
64 65 48
64 65 48
65 66 48
67 68 50
64 65 47
64 65 46
63 65 47
69 70 51
64 66 48
63 64 46
64 65 48
63 64 47
68 68 50
66 66 48
64 65 47
61 62 45
65 65 48
62 62 45
66 66 48
65 66 49
65 64 47
61 61 45
60 60 44
60 60 44
62 63 45
74 76 60
97 97 92
113 114 109
122 119 125
147 141 151
151 145 161
151 144 162
147 140 156
138 135 143
140 135 140
136 131 136
126 124 129
81 91 61
82 93 62
83 93 61
78 88 59
124 123 120
139 131 144
166 151 170
169 154 179
171 157 180
176 162 187
175 162 187
182 166 188
173 159 185
174 159 183
184 170 193
174 160 182
175 160 184
176 162 190
183 168 193
173 158 186
179 163 190
177 163 189
176 163 189
174 160 185
183 168 190
167 153 180
179 166 191
184 170 191
171 157 182
178 164 191
175 160 185
180 167 193
178 163 188
178 164 187
179 164 189
179 166 190
169 157 178
148 141 154
115 116 108
86 97 67
81 93 62
85 96 64
82 92 61
85 95 63
84 95 62
85 95 62
83 94 62
86 96 63
82 94 63
82 92 61
81 91 61
85 95 63
84 95 63
84 96 63
83 93 62
82 93 63
86 97 64
81 92 62
82 93 62
82 93 62
84 95 63
82 93 62
83 93 63
82 93 61
83 94 62
80 90 61
85 94 63
81 91 61
85 95 68
109 112 102
133 127 136
158 145 167
172 159 184
168 156 177
175 162 187
168 156 178
178 165 188
166 153 176
178 164 186
166 154 176
169 157 180
172 158 180
161 150 176
158 147 170
161 149 165
162 150 170
167 155 174
161 148 168
155 145 165
150 140 157
149 139 158
147 139 152
139 132 149
147 139 156
148 139 153
149 140 154
141 135 143
114 113 117
105 107 97
77 87 60
65 82 36
60 82 5
59 78 5
59 81 5
60 82 5
58 79 4
59 81 5
60 82 5
61 83 5
62 84 15
58 79 5
64 86 19
60 82 5
60 82 15
54 76 4
61 83 15
65 87 5
61 82 5
61 83 5
59 80 5
56 76 4
60 82 5
56 77 5
62 83 5
59 81 5
56 78 5
53 73 4
50 70 4
57 78 5
53 74 4
57 77 5
75 86 59
91 97 85
115 110 115
120 117 111
99 98 95
85 89 75
67 75 51
70 79 51
72 82 53
74 83 54
73 82 53
75 85 55
73 82 52
67 77 50
70 79 50
73 82 53
74 84 52
72 81 54
70 79 51
72 82 53
76 86 56
75 85 55
76 86 57
77 86 57
73 82 55
76 87 58
77 87 56
73 83 56
75 85 55
73 83 55
75 85 56
80 90 59
74 84 56
75 85 56
80 91 60
102 104 95
125 122 121
149 140 151
160 149 171
172 158 182
171 158 182
165 152 175
166 154 178
169 157 179
173 160 183
169 157 177
160 149 173
159 148 168
170 158 180
165 152 177
173 161 184
171 159 179
163 152 173
174 161 184
163 151 174
174 162 183
174 160 183
169 156 180
174 161 186
177 164 186
166 154 177
172 160 184
173 160 182
173 159 184
175 161 183
171 159 184
165 154 180
174 161 184
137 130 145
133 129 136
109 112 101
85 94 70
83 94 61
83 94 61
82 93 61
80 91 59
80 91 61
79 91 60
82 94 62
80 91 61
78 89 59
79 90 60
83 94 62
81 91 61
84 95 65
78 89 58
80 90 60
79 90 59
84 93 66
77 86 61
85 93 72
97 102 87
85 93 71
93 90 77
106 86 64
115 88 64
133 90 67
138 88 63
144 88 64
151 88 66
158 90 66
157 89 66
156 88 66
154 88 66
150 86 65
151 86 66
162 91 68
159 90 67
158 90 67
159 90 68
161 91 68
157 89 67
157 89 67
163 93 68
158 90 67
160 91 68
162 92 68
162 92 68
163 92 69
159 91 69
162 92 69
160 91 69
153 87 65
159 91 68
161 91 67
157 89 67
165 93 70
162 91 66
162 91 69
152 87 65
154 88 67
153 88 70
150 87 68
147 85 75
123 74 77
111 69 79
91 62 92
64 50 86
47 48 89
56 57 87
89 86 119
115 110 136
136 127 148
140 133 152
147 140 160
148 139 163
153 145 166
147 142 165
158 148 171
157 148 171
141 132 160
151 144 163
142 136 159
165 156 179
155 147 168
145 141 162
150 143 163
155 147 169
155 147 171
149 146 163
156 150 168
157 150 173
148 147 161
158 151 173
134 134 148
130 129 140
126 128 133
97 101 93
92 100 83
74 89 56
72 86 55
65 81 50
53 89 53
50 97 55
37 113 58
29 101 51
19 103 51
23 118 65
23 119 63
22 117 63
23 119 61
23 120 64
23 124 66
25 128 69
24 122 66
23 119 62
25 127 67
25 130 71
25 131 69
24 124 66
22 116 62
23 123 66
24 124 66
23 123 65
22 113 58
23 121 61
21 116 59
22 111 57
21 113 60
18 99 49
19 105 53
20 108 56
19 101 52
27 106 56
46 119 77
85 116 102
126 139 138
138 148 152
154 150 166
168 163 183
149 145 158
132 127 141
117 112 113
91 89 89
58 59 47
57 58 43
58 59 44
62 62 46
61 61 44
62 63 46
60 61 45
61 62 45
66 67 49
64 65 47
65 66 47
62 63 45
65 66 48
62 64 47
64 65 47
65 66 48
64 65 48
62 63 46
64 65 46
66 67 48
69 69 49
64 64 46
65 66 47
64 65 48
65 66 48
64 65 47
62 62 45
64 65 47
63 64 47
65 66 48
67 67 48
66 66 48
61 62 46
65 65 47
64 63 46
62 62 45
59 60 44
65 64 47
62 62 44
63 63 45
60 60 44
63 64 48
69 70 53
74 73 68
113 111 111
114 109 113
144 137 149
144 139 151
156 150 168
147 140 158
139 133 147
124 123 127
116 115 114
96 101 85
99 102 92
82 92 62
82 92 62
81 91 60
89 96 76
123 121 119
149 141 158
163 151 172
172 158 183
171 157 183
168 153 180
170 157 181
183 168 191
164 152 181
180 166 190
177 161 188
179 164 188
178 164 187
177 162 188
174 159 186
177 163 188
178 162 187
176 162 189
187 172 195
183 166 190
175 161 185
175 160 186
184 169 193
180 166 191
168 155 180
180 166 191
178 162 188
182 166 193
178 163 190
171 158 182
177 164 191
179 165 186
168 156 181
145 138 148
112 113 107
85 95 65
82 93 61
81 92 62
82 94 63
86 96 63
84 96 64
85 95 63
86 98 64
84 94 63
82 92 61
84 95 63
84 95 63
83 94 63
85 96 64
82 92 62
84 94 62
84 95 62
84 95 64
85 96 63
84 94 61
84 95 65
82 91 64
87 95 70
84 94 62
87 97 68
89 97 70
85 94 69
92 101 74
97 105 82
87 95 73
121 120 115
130 126 133
155 143 165
161 151 171
169 157 174
163 151 174
152 144 159
155 145 163
160 150 164
151 143 156
159 149 163
155 144 161
148 140 152
144 137 147
145 136 148
142 135 146
142 136 147
143 135 144
147 140 150
132 126 134
125 120 125
119 117 120
133 128 136
113 112 109
115 113 109
115 114 111
112 112 109
93 97 88
89 92 83
95 101 78
88 96 75
67 81 42
59 77 19
60 81 10
59 80 14
55 75 15
60 79 20
57 76 15
60 81 15
61 82 24
61 81 20
58 78 25
58 80 19
58 78 24
58 79 20
61 82 17
55 76 14
56 77 13
63 85 20
59 80 19
56 78 15
58 80 13
54 74 4
58 79 14
53 73 4
59 80 5
51 72 4
57 78 4
51 71 4
54 75 4
59 77 20
63 78 41
90 95 84
106 103 107
117 113 118
139 131 143
113 110 117
101 100 91
66 72 52
70 79 51
72 81 52
74 83 54
71 80 52
63 72 48
72 83 54
71 80 51
77 87 55
74 84 55
77 88 57
76 86 55
74 84 56
76 86 55
71 79 51
74 84 55
75 85 55
74 84 54
72 82 55
80 90 58
75 84 56
78 90 56
79 90 60
76 87 57
80 91 59
78 88 58
76 86 58
78 89 58
77 87 57
88 95 73
108 109 102
135 129 137
149 140 157
173 161 182
167 155 177
168 156 174
176 163 185
168 157 178
165 153 176
164 152 178
178 165 188
176 162 185
172 159 178
167 154 177
179 165 189
175 161 183
171 159 183
169 157 180
177 164 187
167 154 178
172 160 185
172 160 183
172 159 183
168 155 181
171 158 181
165 155 175
175 161 185
170 158 184
177 163 186
169 157 179
170 156 178
174 162 183
167 156 176
136 129 145
116 117 112
87 95 77
78 88 61
82 92 63
86 93 75
78 89 61
89 96 76
87 95 72
89 97 72
91 99 76
96 102 83
92 98 79
99 103 91
95 100 87
97 101 84
103 105 95
102 105 93
102 105 93
102 106 93
106 109 103
110 110 101
112 112 110
120 117 115
110 104 93
130 106 92
132 96 81
139 95 78
139 86 66
152 88 65
153 87 64
150 86 64
161 91 68
156 89 66
159 90 66
157 90 67
160 91 67
158 90 66
160 91 68
162 92 69
164 92 68
162 92 68
157 90 67
162 92 68
156 89 67
161 91 68
159 90 67
156 88 67
156 89 67
163 93 68
165 93 68
161 91 68
160 91 69
159 91 67
154 88 66
154 88 65
157 89 66
160 91 67
164 92 68
159 91 66
156 88 65
156 88 66
155 88 65
150 85 65
148 85 70
129 77 80
121 74 82
94 63 86
73 58 92
81 77 112
96 93 118
115 109 136
133 126 148
139 132 157
148 140 162
148 140 161
151 143 165
137 135 152
152 146 166
150 145 167
156 150 172
151 143 163
153 145 168
145 139 155
162 152 172
150 144 167
161 152 172
159 153 168
150 144 166
157 147 169
151 146 163
160 152 171
149 141 165
147 143 162
153 147 167
158 151 175
139 137 153
139 135 148
117 120 120
103 110 104
82 91 75
75 88 60
67 84 53
68 92 55
53 90 50
49 96 55
35 92 49
21 102 51
20 105 53
20 110 56
18 105 53
19 107 55
24 126 64
22 117 61
25 130 69
24 127 68
24 126 65
24 126 65
25 130 70
25 128 67
23 121 61
23 121 63
23 119 61
19 106 52
23 121 63
22 118 62
20 109 56
21 112 56
21 112 58
22 117 59
22 117 60
19 104 52
21 112 57
24 113 61
64 118 86
103 124 116
118 132 131
138 144 149
149 148 164
158 150 167
154 147 166
144 138 155
129 128 141
116 112 122
84 83 78
58 59 43
57 58 42
58 59 43
59 59 43
59 61 44
61 62 45
63 64 46
62 62 45
62 62 44
64 64 47
61 62 44
61 61 45
64 65 47
66 67 49
65 66 47
62 62 45
63 64 46
66 67 47
66 66 48
66 66 47
64 65 46
59 61 44
64 65 47
62 63 46
65 65 47
61 62 45
66 67 48
66 66 47
65 65 47
63 63 46
62 62 45
64 65 47
62 62 45
62 62 44
61 61 44
62 62 45
62 63 46
60 61 44
62 63 45
62 62 45
64 63 46
60 60 45
77 76 66
103 99 101
118 113 121
145 137 154
161 151 170
169 158 179
161 152 173
165 156 175
154 146 162
141 137 144
124 123 122
107 112 97
90 98 75
82 92 62
78 89 61
84 95 62
92 100 78
137 132 136
149 140 157
175 161 184
177 163 188
178 165 190
179 165 191
177 161 188
178 163 187
173 158 186
176 162 187
176 161 184
169 156 183
177 163 187
176 162 188
176 162 184
170 158 187
180 165 192
184 169 191
180 163 189
175 161 185
182 168 192
175 160 185
173 159 188
180 164 189
174 159 182
178 163 186
175 161 186
179 165 190
181 167 190
175 160 185
178 163 190
187 171 195
160 149 172
125 123 129
110 110 106
85 94 64
86 96 64
84 94 63
81 92 62
84 95 64
83 93 64
83 93 63
83 94 61
88 97 69
88 97 70
91 100 73
84 93 65
84 94 65
90 98 73
92 100 77
88 96 77
96 103 84
97 104 82
93 100 81
97 102 85
100 106 88
108 111 98
101 106 89
115 116 108
107 109 99
113 115 109
121 120 115
121 120 113
125 122 124
123 122 122
125 122 128
150 143 151
141 134 143
129 125 131
135 130 140
122 121 118
133 129 135
130 127 134
114 113 115
132 128 132
122 120 116
119 118 117
130 124 130
114 115 109
105 106 101
115 115 113
114 114 108
97 102 88
106 108 101
108 109 101
99 103 91
91 97 78
96 101 85
93 98 79
81 88 67
85 92 72
80 86 67
86 93 72
78 87 65
79 88 62
71 82 50
67 82 41
57 74 27
59 78 19
63 83 28
58 78 5
59 80 18
60 80 14
63 84 26
58 80 20
59 80 24
59 80 20
63 82 35
61 82 20
56 77 28
59 81 31
58 77 20
61 83 24
61 82 15
62 83 25
53 74 15
51 70 14
56 76 25
57 76 21
53 73 4
53 72 15
49 69 4
51 70 4
54 74 4
52 72 4
70 82 48
89 94 84
116 115 115
126 121 126
141 132 147
145 134 147
131 123 133
86 88 80
69 78 53
73 83 52
66 76 48
71 80 52
67 76 51
71 81 52
68 77 50
71 81 52
67 77 50
68 76 51
77 88 58
74 83 54
76 87 56
74 84 55
74 84 55
75 85 54
78 88 58
75 86 56
75 85 56
75 85 57
73 83 54
75 86 57
78 89 57
79 89 58
80 91 60
81 92 60
75 84 56
78 89 58
81 92 60
82 92 63
87 95 74
123 120 126
144 136 153
158 148 169
164 151 172
176 162 183
173 160 181
167 155 177
171 158 181
162 152 173
166 154 177
171 158 180
173 160 183
168 155 180
169 157 183
174 161 184
180 165 188
165 154 175
175 162 187
177 163 188
177 163 184
169 156 177
166 155 180
164 152 174
168 156 179
174 160 181
165 154 175
175 163 184
168 157 175
168 155 176
160 150 173
160 149 170
165 155 169
151 143 158
134 129 137
109 110 106
100 104 95
110 111 106
110 112 107
96 102 87
112 113 107
109 108 110
120 119 117
128 124 125
121 119 119
125 123 130
121 120 122
139 133 142
133 128 130
129 124 133
129 124 134
140 133 142
136 130 144
141 134 144
126 122 132
143 137 148
147 134 142
134 113 115
140 113 115
137 93 90
143 97 86
151 88 66
149 85 63
155 88 65
156 89 65
156 89 65
154 88 65
154 88 66
164 92 67
151 87 64
157 89 68
159 90 67
156 89 65
151 87 65
157 89 67
160 91 66
153 87 66
160 91 67
165 93 68
160 90 67
160 91 68
158 90 67
161 92 68
164 93 68
154 87 65
160 91 67
166 94 69
159 90 67
157 89 66
161 91 68
154 88 66
158 89 66
162 91 66
156 88 65
160 90 66
160 91 66
152 87 65
159 90 68
142 83 74
128 75 73
105 69 81
101 75 87
103 93 109
102 97 120
132 127 150
135 129 151
147 139 158
144 138 160
136 134 153
150 145 165
144 137 159
151 147 168
154 147 167
145 136 155
147 140 161
143 139 158
144 143 157
145 140 157
157 147 167
152 146 164
150 142 163
154 147 164
150 144 165
145 141 156
147 145 165
146 141 160
144 142 160
142 141 160
150 144 159
148 148 163
135 132 152
134 133 144
124 124 133
108 113 111
86 94 80
70 81 58
63 79 50
65 83 52
52 91 52
44 92 51
42 102 56
22 93 47
21 102 52
20 106 57
20 106 54
19 108 53
22 118 59
20 111 57
21 110 57
21 115 61
22 117 63
21 113 59
25 130 69
22 119 62
21 113 59
24 124 65
23 122 63
19 105 51
20 114 56
21 112 59
19 101 53
21 113 59
22 118 59
19 102 53
19 103 55
21 108 54
61 109 79
87 125 104
92 123 104
131 142 146
148 145 156
150 151 159
150 144 157
145 143 160
134 131 141
123 123 129
104 104 108
83 82 77
55 59 43
58 60 43
60 61 44
61 62 44
60 61 44
60 60 43
61 62 46
60 61 45
63 64 45
63 63 45
63 64 47
65 65 48
65 66 47
61 63 45
64 65 47
60 60 44
62 64 47
62 62 45
65 65 48
64 65 47
64 65 46
64 65 47
61 62 45
60 61 44
62 64 47
61 62 45
64 64 47
62 63 45
58 59 43
62 62 45
60 60 43
62 62 44
66 66 47
66 66 47
62 63 44
63 63 45
59 59 43
61 61 45
61 60 44
61 61 43
61 61 44
59 59 43
79 76 71
99 96 100
129 120 131
150 139 156
162 151 171
184 169 191
175 163 184
166 155 178
164 151 173
154 145 160
137 130 141
131 128 133
111 114 103
84 94 63
80 88 60
86 95 66
100 103 89
135 130 133
152 142 160
179 165 191
178 162 185
177 160 185
180 165 190
177 160 185
182 167 190
180 166 191
175 161 189
179 163 188
172 157 182
175 161 188
183 169 195
177 162 188
176 162 188
174 159 181
175 160 186
179 164 189
182 168 191
183 167 191
178 163 187
187 172 194
178 162 188
178 164 188
180 165 190
177 162 189
185 170 194
181 166 189
174 161 186
179 164 188
168 155 183
172 158 179
143 136 146
112 114 111
92 100 80
92 97 78
98 103 87
99 105 83
97 102 84
97 103 84
102 106 94
104 109 94
115 117 106
110 112 106
110 111 103
106 110 101
117 118 111
114 114 107
121 121 120
112 114 106
123 122 120
127 124 127
122 121 120
139 133 136
146 139 148
142 136 142
136 131 131
145 139 149
146 140 149
137 133 137
151 143 154
144 138 146
139 134 140
154 145 158
148 140 154
143 137 143
129 127 129
116 117 110
102 106 97
113 116 107
104 107 97
100 104 92
101 104 94
92 100 79
95 101 84
94 100 81
92 99 79
83 92 63
86 95 70
83 92 65
82 91 62
78 87 59
79 89 62
79 90 61
82 92 63
77 88 57
76 86 57
80 90 59
77 88 58
73 83 55
73 83 54
71 81 52
75 85 57
71 82 54
77 88 57
69 81 45
62 75 37
61 80 32
59 78 26
59 79 23
61 81 28
56 75 25
59 79 24
60 79 35
60 79 31
58 77 30
62 82 29
58 78 28
57 76 34
65 86 38
54 73 31
54 74 25
56 76 21
59 79 31
57 75 31
61 81 32
53 73 20
52 71 13
52 72 4
51 68 24
51 70 13
48 68 12
48 66 13
69 81 54
75 84 67
104 105 102
123 118 122
142 134 147
141 133 146
138 127 145
128 120 127
97 98 97
94 97 85
69 77 51
71 82 51
66 76 49
76 86 55
69 79 51
72 82 52
75 84 54
76 86 56
72 82 53
74 85 56
70 80 52
75 85 55
72 82 54
79 89 58
72 82 54
76 86 55
70 80 52
76 87 57
74 83 55
77 88 58
81 91 60
76 87 58
74 84 55
78 88 58
80 90 60
73 83 55
77 87 58
79 90 58
76 87 57
86 94 72
107 109 98
137 131 139
147 138 154
165 153 174
166 155 177
172 159 180
161 149 172
168 155 179
165 153 177
165 154 174
167 155 180
167 155 178
171 157 178
165 152 179
170 159 179
165 154 175
164 153 173
163 152 172
168 156 176
159 149 167
169 157 175
162 152 174
155 146 162
153 146 158
147 139 153
156 147 162
168 157 169
149 141 155
145 138 155
144 137 151
148 142 153
132 128 133
135 131 135
113 114 110
131 127 130
127 125 125
140 135 143
127 123 135
141 136 143
142 135 149
142 136 149
148 140 153
147 139 156
143 135 152
154 145 164
161 151 166
154 145 163
147 139 156
153 143 166
156 146 167
162 151 171
153 142 165
164 153 172
147 137 163
159 146 167
160 142 160
155 131 148
153 113 118
148 99 95
158 101 93
145 84 65
157 89 67
156 88 65
150 86 63
149 86 64
156 89 65
154 88 66
160 91 67
158 90 67
157 89 67
155 88 65
155 89 65
158 89 66
160 90 65
161 91 68
157 89 67
163 93 69
160 91 68
161 91 68
154 88 65
154 88 64
161 91 67
157 89 66
161 91 67
157 89 65
157 89 67
161 91 67
161 92 68
159 90 67
161 91 67
154 87 65
163 92 67
150 85 63
158 89 67
156 88 66
161 91 66
142 82 63
147 84 69
136 80 71
124 78 77
130 94 99
122 103 119
126 119 137
132 126 145
140 133 154
139 135 153
136 129 154
150 144 161
144 139 162
138 133 154
155 148 168
149 142 163
147 141 160
152 147 168
140 134 154
137 133 155
145 142 158
143 138 159
153 148 167
138 134 155
136 136 152
141 138 154
139 138 156
149 142 160
148 143 164
142 138 155
151 145 162
143 140 160
129 131 144
142 140 155
141 138 149
124 127 131
116 120 123
101 106 102
91 101 87
70 81 62
61 76 49
60 78 49
52 85 48
45 94 51
41 86 47
31 99 52
29 109 57
21 111 57
21 113 58
22 117 59
23 121 65
23 121 64
21 115 58
24 125 64
23 119 62
22 117 60
23 119 64
22 121 63
21 114 57
22 119 62
22 114 60
19 104 52
19 107 54
19 104 51
18 101 52
20 110 56
22 115 59
26 99 52
68 120 86
80 111 88
84 117 98
112 121 122
136 135 144
144 144 153
135 134 147
131 133 139
142 140 147
127 125 128
118 117 119
88 90 88
72 73 66
54 58 41
60 61 44
59 61 44
60 61 44
58 60 43
60 60 44
60 60 43
58 60 43
60 61 44
60 61 43
62 63 45
60 62 44
64 64 45
65 66 48
65 66 47
62 64 46
62 63 46
61 62 45
63 64 45
65 66 47
67 68 50
61 62 46
66 66 48
60 61 44
63 64 46
63 64 46
62 62 45
63 63 44
62 63 45
60 61 42
63 63 45
61 61 44
63 63 46
61 61 44
59 58 43
67 67 47
64 64 46
61 61 45
59 60 44
61 62 45
57 57 41
62 61 44
63 64 55
88 83 84
124 117 127
147 139 155
161 151 173
174 160 182
168 156 180
172 161 182
169 157 184
173 161 184
164 153 168
158 147 163
136 132 139
85 95 63
79 88 59
88 97 69
106 108 100
132 128 134
171 159 177
173 156 183
182 168 190
175 160 188
175 162 187
180 165 191
181 167 193
179 165 191
179 165 190
180 164 191
180 164 191
173 159 184
171 156 182
179 165 191
183 170 193
172 158 183
178 163 185
176 162 189
176 163 186
188 172 193
174 160 181
177 163 185
172 159 181
165 155 175
170 156 183
176 163 182
168 155 174
168 157 176
170 157 177
155 143 160
157 148 167
154 144 157
145 139 148
137 133 139
116 116 111
120 120 117
123 122 121
126 125 124
129 125 124
133 129 130
132 128 130
131 128 132
136 131 139
145 139 145
135 131 140
139 134 141
148 141 152
143 136 146
151 143 155
153 144 157
147 139 150
150 142 156
159 149 168
153 145 161
159 149 169
160 148 167
168 154 172
161 151 172
169 156 176
173 160 182
163 152 172
173 161 181
173 160 181
168 155 180
152 143 159
139 134 147
117 117 111
89 98 70
83 94 61
88 98 70
82 91 67
79 89 62
80 91 60
81 92 60
76 87 58
81 91 60
74 85 56
81 91 60
76 87 57
78 88 58
80 90 60
74 84 57
74 83 56
79 89 57
77 87 57
79 89 58
73 84 55
82 92 60
73 84 56
73 84 55
72 81 54
76 86 57
72 82 57
75 85 59
77 87 58
74 85 60
73 84 57
65 80 41
59 76 33
62 78 44
66 81 45
62 80 40
56 74 34
58 75 43
62 80 38
58 78 38
57 77 31
58 78 27
60 79 40
55 75 31
53 70 38
59 79 43
56 74 36
61 82 35
56 75 24
56 76 27
51 71 20
48 66 19
49 67 14
49 67 24
49 68 20
54 69 38
80 86 69
86 87 81
104 104 105
119 114 118
142 131 142
141 133 142
130 122 140
144 134 148
135 128 138
123 116 122
100 100 98
81 88 63
73 83 54
72 82 52
70 79 51
72 82 54
68 78 51
72 83 53
72 81 52
76 87 56
70 80 52
80 89 58
72 83 53
72 83 54
68 78 51
73 84 55
73 83 54
73 83 54
77 87 57
75 85 56
78 88 57
76 86 56
78 89 58
78 88 58
79 90 60
79 89 61
82 92 62
87 96 66
81 91 62
90 98 77
85 94 70
91 98 79
125 121 123
157 149 161
156 146 165
162 152 172
163 152 171
160 148 169
157 147 168
158 149 164
163 153 172
143 135 148
147 139 160
145 137 151
158 149 164
149 142 159
145 139 149
138 133 142
142 136 145
145 139 147
143 137 150
130 126 135
131 127 133
136 131 138
124 123 123
131 128 131
116 116 115
132 129 129
120 120 120
109 110 103
119 119 113
121 120 122
115 114 112
112 113 108
115 115 110
117 117 112
138 133 142
146 139 148
160 148 170
164 152 171
153 142 167
165 152 176
169 157 181
161 149 175
157 147 168
177 164 184
166 154 181
166 153 176
170 157 179
160 149 174
170 157 182
180 165 189
168 155 179
163 151 177
160 147 171
160 145 164
155 132 149
154 126 141
151 108 112
150 100 100
147 87 71
156 89 64
148 85 62
155 88 66
162 91 67
149 85 64
152 87 65
153 87 64
161 91 67
158 89 66
159 91 66
154 88 65
156 90 66
160 92 67
163 92 68
163 92 68
158 90 66
157 89 66
159 90 66
157 90 67
150 86 63
161 91 67
157 90 66
161 91 66
157 90 66
156 89 65
156 89 66
161 91 66
156 89 65
157 89 66
158 90 67
156 89 66
152 87 65
156 88 64
155 88 64
160 91 66
153 87 66
151 86 65
153 87 65
139 82 66
130 84 73
127 87 86
117 92 98
132 121 137
127 121 141
135 130 151
134 126 146
140 134 154
137 133 154
152 144 165
131 125 144
145 139 159
128 123 143
156 147 171
148 140 160
149 145 162
136 133 154
136 131 151
142 137 155
155 147 165
151 143 163
143 137 158
135 134 151
136 131 154
150 142 165
157 150 170
135 133 150
148 142 159
132 133 149
131 131 152
154 149 164
136 132 149
140 137 153
132 132 142
124 122 130
87 96 94
85 99 83
75 86 66
66 79 53
56 81 47
46 75 40
56 93 52
45 94 52
35 92 48
33 103 57
18 102 51
19 105 54
21 119 59
20 109 57
18 104 51
20 109 56
24 130 66
19 105 55
21 110 57
22 118 62
19 106 54
19 105 54
19 109 53
20 114 55
20 112 56
20 109 54
19 107 52
41 109 68
62 112 79
71 112 90
96 126 112
106 129 116
134 142 143
127 129 133
122 126 128
126 128 134
103 109 105
98 103 98
114 116 113
89 96 85
93 99 91
82 83 77
68 68 55
53 55 39
58 59 44
58 59 42
58 58 41
63 64 45
59 60 42
58 59 42
63 64 46
59 61 44
63 64 46
57 59 43
61 63 45
61 62 44
58 59 43
64 65 46
62 63 46
65 66 47
63 63 46
65 66 47
66 67 47
63 64 45
63 63 46
62 63 46
60 62 44
64 66 47
64 64 46
62 63 46
59 61 45
63 63 45
59 60 43
61 62 44
63 63 45
63 63 45
65 65 47
61 62 45
59 59 42
61 61 45
61 62 44
63 62 44
61 61 44
58 57 40
60 60 43
74 71 65
94 89 93
125 118 132
147 137 156
163 153 175
160 151 174
178 166 187
171 160 184
172 162 182
168 159 180
172 159 180
170 159 179
154 145 164
82 91 62
83 93 62
88 94 70
119 118 120
150 140 154
161 150 172
176 162 189
179 163 187
178 163 187
176 163 186
178 162 187
163 149 175
174 160 184
167 154 175
174 161 180
172 158 181
171 158 178
161 148 170
176 163 186
158 146 163
171 156 175
168 156 177
158 147 163
157 148 161
145 136 153
159 149 163
159 149 165
157 147 163
150 142 151
146 139 147
144 135 144
149 142 155
157 148 159
128 126 125
138 132 137
138 133 138
134 130 135
149 143 152
140 134 143
147 140 153
160 149 156
155 144 161
159 148 167
160 150 169
163 152 171
170 159 171
162 151 170
169 156 177
164 152 167
168 156 178
167 155 177
171 157 177
170 158 178
175 163 185
174 161 181
172 159 180
176 161 184
177 163 185
173 161 183
172 158 180
186 171 192
174 160 183
176 163 189
174 161 184
179 165 193
178 165 191
173 158 184
177 163 188
176 163 187
165 154 173
147 139 153
105 107 96
83 92 69
84 94 61
82 93 60
81 92 61
81 92 60
83 94 61
78 88 59
77 87 57
78 89 59
79 90 58
82 93 61
81 92 61
76 87 58
78 89 59
77 88 57
79 89 58
78 88 58
72 82 54
74 83 55
77 87 58
70 80 52
77 88 58
76 87 57
75 85 58
71 80 55
75 84 58
73 83 59
70 81 58
74 84 59
74 85 58
71 82 59
69 81 56
82 91 79
85 93 80
66 79 52
67 80 51
55 73 40
59 77 41
63 80 54
55 72 40
56 75 39
61 79 40
59 79 39
60 76 55
57 75 38
57 75 40
52 68 40
56 73 39
54 73 28
49 67 24
49 67 28
51 69 31
56 70 40
71 82 61
76 85 65
83 86 79
115 111 116
123 118 122
131 122 138
136 127 136
144 135 149
135 127 141
138 129 144
137 127 140
129 123 130
106 104 108
77 84 65
72 82 52
71 82 53
77 87 55
73 83 54
73 83 52
72 81 52
73 83 54
78 88 59
74 84 56
71 81 52
79 88 62
76 86 58
84 93 66
75 86 58
83 91 66
73 83 56
91 96 79
91 97 75
86 94 69
89 95 77
95 99 83
97 102 84
104 108 98
95 99 84
95 100 88
109 108 108
107 108 100
97 101 92
105 107 100
119 120 112
136 131 141
151 143 152
144 136 148
128 124 133
141 135 142
136 131 135
132 129 131
135 131 136
119 118 120
126 124 125
133 128 133
131 128 132
124 120 125
104 106 101
117 115 114
113 114 109
118 118 111
119 118 116
115 116 110
103 107 93
102 106 95
104 108 96
105 109 95
99 103 88
96 101 86
93 100 84
88 97 72
84 93 65
90 97 80
85 94 68
84 94 67
86 95 63
91 97 78
107 110 100
135 131 136
146 139 155
162 150 170
169 156 182
165 152 175
175 162 184
167 155 178
158 147 170
168 156 181
161 150 174
161 149 175
170 157 181
160 148 177
160 149 176
161 149 174
163 151 175
161 149 175
160 148 174
159 147 170
161 146 168
163 139 154
154 119 129
155 108 104
156 98 82
144 84 65
154 88 65
144 82 61
150 85 64
157 89 66
156 89 65
154 88 64
148 84 63
152 87 65
157 89 66
153 87 65
147 84 63
150 87 65
156 89 66
155 88 66
162 92 67
159 91 66
158 90 65
152 87 63
160 91 67
158 90 67
162 91 66
163 92 67
165 93 68
152 88 63
160 90 65
161 91 66
157 89 66
159 90 66
160 91 67
156 89 66
153 88 66
162 91 66
152 86 64
156 89 65
156 88 65
155 88 64
160 90 65
153 87 64
148 83 61
134 83 65
124 88 81
119 90 86
139 127 128
114 106 117
131 127 142
122 121 140
138 132 152
145 138 162
122 120 140
137 133 151
153 145 165
144 142 160
149 143 162
132 129 150
145 140 160
134 134 151
129 128 143
132 134 148
138 135 153
157 150 167
141 139 157
138 138 155
147 142 162
140 135 154
135 135 152
142 141 158
146 143 157
138 136 148
138 134 152
148 142 158
140 138 152
123 125 136
122 123 133
107 117 121
114 116 119
93 103 96
83 92 79
72 82 64
67 85 63
82 99 75
73 92 72
66 96 68
53 90 60
61 102 73
57 108 69
33 101 56
37 109 60
25 113 60
20 113 57
20 115 58
19 107 53
22 116 63
21 119 60
22 119 61
19 108 54
21 118 59
19 112 55
26 109 58
31 115 60
46 119 71
47 106 67
67 117 89
75 130 96
95 119 112
118 138 129
112 132 124
131 138 141
141 138 149
121 127 130
130 128 134
100 107 102
95 102 90
80 92 73
73 86 59
72 83 58
64 71 51
55 60 41
56 59 42
55 56 40
57 58 42
57 58 42
62 63 45
62 62 46
58 60 43
61 62 44
61 62 44
61 62 45
62 63 45
61 63 45
59 61 43
59 61 44
60 61 45
62 63 45
60 62 45
63 64 46
64 64 45
61 63 45
64 65 45
64 65 46
60 62 44
62 64 45
61 62 45
61 62 43
64 65 45
62 62 45
61 62 44
61 62 45
62 63 45
61 62 44
63 64 46
63 64 46
65 66 47
60 59 41
59 60 42
64 65 46
60 60 43
60 59 43
58 57 42
57 56 40
78 75 68
97 92 94
124 115 130
146 136 150
163 151 176
174 161 186
176 164 186
170 158 181
173 161 181
171 160 182
180 168 189
175 162 187
174 160 183
