P3
400 225
255
186 206 111
186 207 110
184 205 105
183 204 102
186 207 111
187 207 115
184 205 100
185 206 108
187 207 111
183 204 90
184 205 102
183 204 95
184 205 102
182 204 94
183 204 95
181 203 84
184 205 100
179 202 72
180 202 72
184 205 99
181 203 86
180 202 78
179 202 74
181 203 86
181 203 84
180 202 78
179 201 74
180 202 76
180 202 70
178 201 67
179 201 62
178 200 57
179 201 72
178 201 57
180 202 76
178 201 60
180 202 74
180 202 74
180 201 62
179 201 72
178 201 65
180 202 74
179 201 67
178 201 65
179 201 72
177 200 47
178 200 60
177 200 54
177 200 51
177 199 47
179 201 62
176 199 40
178 201 62
177 200 47
178 200 60
177 200 51
176 199 40
177 200 54
176 199 47
176 199 44
176 199 40
178 200 57
178 200 57
176 199 25
176 199 31
176 199 51
177 199 51
176 199 18
177 200 31
176 199 36
175 199 36
175 199 31
175 198 31
177 200 47
174 198 18
174 197 0
175 198 25
175 198 18
176 199 0
175 198 18
175 198 25
175 199 31
175 198 25
174 197 0
175 198 31
176 199 18
175 198 0
173 197 0
175 198 0
174 198 0
175 198 18
175 198 18
175 198 0
174 197 0
175 198 0
174 197 0
174 197 0
175 198 0
174 198 18
175 198 0
175 198 0
174 198 0
174 198 0
174 198 0
175 198 0
175 198 0
175 198 0
175 198 0
174 198 0
174 198 0
174 198 0
173 197 0
175 198 0
174 198 0
174 198 0
174 198 0
174 198 0
175 198 0
175 198 0
174 197 0
175 198 0
175 198 0
175 198 0
175 198 0
175 198 0
175 198 0
174 198 0
174 198 0
175 198 0
174 198 0
174 197 0
174 198 0
174 198 0
173 197 0
174 198 0
175 198 0
175 198 0
174 198 0
174 198 0
175 198 0
173 197 0
175 198 0
175 198 0
175 198 0
175 198 0
175 198 0
175 198 0
175 198 0
175 198 0
175 198 0
173 197 0
176 199 0
174 198 0
175 198 0
173 197 0
173 197 0
175 198 0
175 198 0
173 197 0
175 198 0
174 198 0
175 198 0
175 198 0
175 198 0
175 198 0
175 198 0
175 198 0
173 197 0
175 198 0
174 198 0
176 198 0
172 191 18
172 183 42
168 166 58
167 155 67
167 145 75
164 133 78
166 118 94
159 103 98
162 96 108
163 94 106
161 93 106
166 102 116
167 102 116
168 105 118
171 109 124
172 111 126
169 107 121
172 111 126
173 113 128
173 113 129
172 111 126
171 111 127
171 109 124
172 109 124
171 110 124
170 108 122
167 104 118
170 107 121
170 110 125
169 109 124
170 107 121
169 107 122
174 113 128
168 106 120
172 111 126
172 111 126
170 109 123
174 114 129
176 115 130
173 113 128
177 115 130
172 112 128
178 117 133
174 114 129
174 113 128
173 112 127
176 115 131
172 109 123
174 112 126
171 113 127
174 118 124
173 134 112
173 144 103
176 157 94
171 162 85
174 180 63
175 187 49
175 195 22
174 197 9
174 197 0
174 198 0
174 198 0
175 198 0
174 198 0
174 198 0
176 199 0
174 198 0
175 198 0
174 198 0
174 198 0
174 197 0
174 198 0
174 197 0
174 197 0
175 198 0
173 197 0
175 198 0
173 197 0
174 197 0
174 198 0
173 197 0
174 197 0
174 198 0
176 198 0
174 198 0
176 198 0
174 198 0
174 197 0
175 198 0
175 198 0
175 198 0
175 198 0
175 198 0
175 198 0
174 197 0
173 197 0
173 197 0
175 198 0
174 198 0
174 197 0
174 198 0
174 198 0
175 198 0
174 198 0
175 198 0
175 198 0
175 198 0
175 198 0
174 198 0
174 198 0
175 198 0
174 198 0
176 199 0
174 197 0
175 198 0
175 198 0
174 198 0
174 198 0
176 198 0
175 198 0
175 198 0
174 198 0
176 199 0
175 198 0
173 197 0
174 198 0
174 198 0
175 198 0
174 198 0
176 199 0
175 198 0
175 198 0
175 198 0
175 198 0
174 197 0
173 197 0
174 198 0
175 198 25
174 198 0
174 198 0
175 198 0
175 198 18
174 197 0
175 198 0
175 198 25
176 199 25
175 198 18
175 198 18
175 198 31
174 198 18
175 198 31
174 198 18
175 198 25
175 198 0
176 199 36
175 199 36
177 199 47
175 198 0
175 198 31
176 199 44
175 199 44
176 199 40
176 199 40
176 199 44
174 198 31
177 199 40
178 200 54
177 200 54
178 200 57
176 199 40
177 200 47
178 200 57
173 197 18
176 199 44
177 200 57
176 199 44
178 201 60
174 198 31
177 200 54
178 200 62
181 202 78
178 201 65
177 199 44
180 202 76
179 201 67
179 201 60
178 201 60
178 200 60
177 200 57
180 202 74
180 202 70
178 200 57
179 201 70
179 201 65
182 203 78
182 203 86
181 202 74
178 201 65
180 202 74
180 202 78
178 201 67
180 202 74
180 202 74
181 203 82
181 203 88
178 201 74
180 202 84
181 203 82
180 202 78
179 201 70
179 201 74
182 204 94
182 204 92
178 201 70
183 204 95
182 203 88
181 202 78
185 205 102
183 204 92
182 204 86
185 206 110
185 205 105
182 203 92
186 207 114
183 204 97
186 206 107
185 206 111
183 204 97
182 203 88
181 203 84
183 204 94
182 204 97
183 204 92
182 203 92
182 204 84
181 203 88
179 201 74
180 202 72
181 203 84
180 202 78
181 203 90
180 202 82
182 204 95
182 203 86
179 202 76
181 203 84
180 202 72
182 203 88
181 203 82
180 202 80
181 203 80
179 201 65
178 201 67
177 200 51
180 202 74
181 202 76
179 201 65
177 200 54
180 202 76
178 201 60
176 199 51
176 199 44
179 202 76
177 200 51
178 201 65
178 200 60
178 200 62
178 200 54
175 199 40
177 200 51
178 200 51
175 199 40
177 200 51
177 200 51
176 199 40
178 200 51
177 200 44
176 199 51
176 199 54
177 199 44
177 200 57
175 198 36
177 199 40
176 199 44
175 198 36
175 198 25
176 199 36
175 198 25
175 199 40
176 199 31
175 198 31
175 198 0
174 198 18
175 198 25
176 199 36
174 198 0
175 198 18
174 198 25
175 198 25
175 198 18
174 198 0
176 199 25
174 198 18
174 197 0
176 199 25
175 198 31
174 197 0
176 199 25
174 197 0
175 198 0
173 197 0
175 198 0
175 198 0
175 198 0
174 198 0
174 197 0
175 198 0
176 198 0
175 198 0
174 198 0
173 197 0
174 198 0
176 198 0
175 198 0
174 198 0
174 198 0
173 197 0
175 198 0
176 199 0
175 198 0
174 198 0
175 198 0
174 198 0
174 198 0
174 198 0
174 198 0
175 198 0
176 199 0
175 198 0
174 198 0
176 199 0
174 198 0
173 197 0
174 197 0
175 198 0
174 198 0
175 198 0
175 198 0
175 198 0
175 198 0
174 198 0
175 198 0
173 197 0
175 198 0
174 198 0
175 198 0
175 198 0
174 198 0
175 198 0
174 198 0
175 198 0
174 197 0
175 198 0
175 198 0
174 197 0
173 197 0
175 198 0
175 198 0
175 198 0
174 198 0
174 198 0
173 197 0
176 199 0
175 198 0
175 198 0
173 197 0
174 197 0
173 197 0
175 198 0
174 198 0
174 198 0
174 198 0
174 198 0
175 198 0
175 198 0
175 198 0
174 197 0
174 197 0
175 198 0
175 198 0
174 198 0
174 198 0
175 198 0
174 198 0
174 197 0
174 198 0
175 198 0
174 197 0
174 198 0
173 195 15
170 187 30
169 172 51
170 168 53
166 146 70
165 132 83
164 122 88
164 107 96
165 99 108
164 95 108
164 99 112
164 96 109
163 101 115
166 102 116
173 110 124
174 111 125
172 109 124
171 110 125
172 114 130
173 114 129
171 110 125
173 112 127
175 115 130
172 111 126
171 110 125
169 106 120
166 105 120
170 107 121
169 106 120
170 108 123
172 110 125
169 106 120
173 110 125
172 109 123
171 110 125
171 112 128
176 114 129
175 114 129
172 112 127
172 110 126
175 114 130
175 114 130
179 117 132
174 113 129
175 114 129
175 113 129
175 114 129
173 113 128
174 111 126
176 115 131
172 111 127
175 114 128
175 121 123
172 133 109
175 141 110
172 159 84
175 173 80
175 179 65
173 192 33
175 197 17
174 198 0
173 197 0
175 198 0
174 198 0
173 197 0
174 197 0
175 198 0
175 198 0
175 198 0
175 198 0
174 197 0
173 197 0
175 198 0
175 198 0
174 198 0
174 197 0
174 198 0
174 198 0
175 198 0
176 199 0
173 197 0
175 198 0
174 197 0
174 197 0
175 198 0
174 198 0
175 198 0
175 198 0
175 198 0
174 198 0
175 198 0
175 198 0
175 198 0
176 198 0
175 198 0
175 198 0
175 198 0
175 198 0
174 198 0
174 198 0
174 198 0
174 198 0
174 197 0
175 198 0
175 198 0
174 197 0
175 198 0
175 198 0
176 198 0
173 197 0
175 198 0
175 198 0
174 198 0
174 198 0
175 198 0
174 198 0
174 197 0
174 198 0
174 197 0
174 198 0
173 197 0
175 198 0
175 198 0
174 197 0
175 198 0
174 198 0
174 198 0
175 198 0
175 198 0
174 198 0
174 198 0
174 197 0
174 197 0
174 198 0
173 197 0
175 198 0
175 198 0
175 198 0
175 198 0
174 198 0
175 198 0
174 197 0
174 198 0
174 197 0
174 198 0
175 198 0
174 198 0
174 198 0
175 198 18
174 198 0
174 198 18
174 198 0
175 198 18
175 198 18
175 198 25
174 198 0
174 198 0
175 198 0
176 199 18
174 198 0
175 198 0
174 198 0
175 198 18
174 198 25
175 198 31
175 199 44
175 198 25
176 199 31
176 199 44
176 199 44
175 198 36
175 198 31
177 200 57
176 199 36
174 198 18
176 199 40
176 199 44
175 198 31
176 199 44
177 199 44
177 200 62
176 199 44
178 200 60
177 200 47
179 201 65
177 200 54
177 200 51
180 201 65
178 200 54
178 201 65
179 201 54
179 201 65
178 200 47
176 200 57
177 200 60
178 201 65
179 201 67
178 200 60
178 201 65
180 202 70
179 201 70
179 201 74
178 201 67
177 200 54
180 202 74
178 201 65
178 201 60
180 202 82
181 203 86
178 200 57
180 202 78
180 202 78
179 201 67
181 203 84
179 201 67
179 201 70
181 203 90
179 201 72
180 202 80
183 204 97
183 204 97
183 204 97
181 203 80
183 204 94
184 205 99
183 204 90
183 204 92
182 203 84
184 205 107
185 206 110
179 202 72
182 203 90
185 205 103
186 207 110
183 204 88
182 203 82
180 202 72
181 202 74
179 202 76
180 202 70
180 202 72
178 200 65
181 203 84
180 202 78
180 202 72
177 200 62
180 202 74
180 202 70
177 200 62
179 201 70
177 200 60
179 201 65
181 202 76
180 202 74
178 201 57
180 202 74
176 200 57
177 200 51
178 200 57
176 199 47
178 201 62
179 201 65
177 200 44
177 200 54
178 200 60
177 200 57
178 200 60
177 200 47
178 200 54
177 200 57
176 199 51
178 201 65
176 199 40
177 200 54
176 199 44
175 198 44
174 198 31
177 200 44
175 198 31
175 198 36
175 198 18
176 199 40
175 198 18
175 198 25
175 198 18
175 198 31
174 198 0
175 198 18
175 198 18
175 198 31
175 198 18
176 199 18
174 198 0
175 198 18
175 198 18
174 197 18
174 198 0
174 198 0
176 198 18
174 198 0
175 198 18
174 198 0
175 198 0
174 198 0
175 198 0
174 198 0
173 197 0
174 198 0
175 198 0
174 198 0
174 197 0
175 198 0
175 198 0
175 198 0
174 198 0
174 197 0
174 198 0
174 198 0
175 198 0
175 198 0
174 198 0
174 197 0
175 198 0
175 198 0
175 198 0
174 198 0
175 198 0
175 198 0
175 198 0
175 198 0
175 198 0
174 197 0
173 197 0
175 198 0
174 198 0
174 198 0
174 197 0
174 198 0
174 198 0
175 198 0
175 198 0
176 198 0
175 198 0
174 198 0
175 198 0
175 198 0
175 198 0
173 197 0
175 198 0
175 198 0
174 197 0
174 198 0
174 198 0
174 198 0
175 198 0
174 198 0
174 197 0
176 198 0
175 198 0
174 198 0
174 198 0
175 198 0
175 198 0
175 198 0
174 198 0
175 198 0
174 198 0
175 198 0
175 198 0
174 197 0
175 198 0
175 198 0
175 198 0
175 198 0
174 198 0
175 198 0
175 198 0
175 198 0
175 198 0
175 198 0
175 198 0
175 198 0
175 198 0
174 198 0
174 197 0
175 198 0
174 198 0
175 198 0
175 198 0
174 198 0
173 197 0
174 198 0
174 198 0
175 198 0
174 198 0
175 198 0
173 197 0
175 198 0
173 197 0
174 197 5
173 192 24
170 182 38
171 168 58
165 151 63
165 139 79
162 122 87
162 103 96
162 99 103
161 89 100
159 92 103
167 101 114
169 102 115
165 102 115
170 106 120
168 107 122
172 112 127
173 112 127
172 109 124
172 111 126
175 114 130
170 111 127
173 111 126
171 111 127
171 110 125
171 111 126
167 106 121
168 106 121
173 114 130
170 107 121
167 104 118
165 103 117
169 107 121
172 111 127
172 109 123
170 109 124
172 111 126
172 109 124
176 115 130
171 111 127
171 111 126
173 112 128
175 115 131
172 112 128
175 113 128
174 112 127
173 113 128
177 116 131
173 112 128
173 112 127
173 112 128
176 113 128
175 114 129
175 111 122
174 126 119
173 130 116
173 152 96
174 158 89
174 168 80
176 186 58
173 189 39
175 197 10
173 197 0
174 198 0
174 198 0
174 198 0
173 197 0
175 198 0
174 197 0
174 198 0
174 198 0
175 198 0
174 198 0
175 198 0
173 197 0
175 198 0
174 197 0
175 198 0
174 197 0
175 198 0
174 198 0
174 198 0
174 198 0
175 198 0
175 198 0
174 198 0
174 197 0
175 198 0
175 198 0
174 198 0
174 198 0
175 198 0
174 198 0
174 198 0
174 198 0
174 197 0
175 198 0
174 198 0
175 198 0
174 198 0
175 198 0
174 198 0
176 199 0
173 197 0
174 197 0
175 198 0
174 198 0
176 198 0
174 197 0
173 197 0
174 198 0
175 198 0
174 198 0
176 198 0
175 198 0
175 198 0
174 198 0
175 198 0
174 198 0
175 198 0
174 197 0
174 198 0
174 198 0
174 198 0
174 198 0
175 198 0
174 198 0
175 198 0
173 197 0
175 198 0
174 198 0
175 198 0
174 198 0
174 197 0
173 197 0
174 198 0
173 197 0
177 199 0
173 197 0
175 198 0
174 198 0
175 198 0
176 199 0
174 198 0
175 198 0
175 198 0
175 198 0
174 198 0
174 198 0
174 198 0
175 198 0
175 198 0
174 198 0
175 198 0
175 198 0
174 198 0
174 198 0
175 198 0
175 198 0
174 198 0
174 197 0
175 198 0
175 198 0
175 198 0
176 199 0
174 198 0
175 198 0
175 198 18
174 198 18
175 198 18
175 198 25
175 198 25
177 199 31
175 198 18
175 198 25
174 198 18
175 198 36
172 197 0
174 198 31
175 198 18
176 199 36
175 198 25
176 199 54
176 199 44
176 199 40
177 199 40
176 199 36
176 199 25
176 199 36
176 199 44
176 199 40
177 200 51
176 199 47
178 200 54
175 199 31
176 199 40
178 200 60
180 202 72
179 201 62
177 199 47
177 200 60
180 202 72
179 201 72
179 202 78
179 201 57
178 201 62
177 200 54
178 200 62
179 201 67
179 201 67
179 201 67
180 202 74
177 200 54
179 201 62
179 202 80
181 203 86
181 203 80
181 203 84
179 201 74
179 201 70
183 204 97
182 203 90
180 202 76
178 200 62
181 203 80
182 204 88
180 202 76
180 202 72
181 203 82
181 203 86
181 203 82
179 202 76
180 202 80
179 201 62
181 203 88
183 204 95
183 204 86
181 203 84
179 201 70
181 203 88
180 202 76
178 201 62
177 200 47
179 201 67
179 201 70
179 201 62
179 201 70
179 201 72
175 198 31
177 200 51
178 200 62
178 201 62
177 200 44
178 201 57
175 199 44
176 199 31
176 199 40
178 201 62
176 199 44
175 199 47
177 199 36
174 198 36
176 199 44
177 200 47
176 199 40
178 200 51
177 200 54
175 198 31
175 198 18
177 200 54
177 200 44
177 199 40
174 198 0
175 198 25
174 198 0
176 199 40
176 199 31
176 199 25
177 199 40
174 198 18
175 199 31
174 198 18
177 199 25
175 198 25
174 198 25
176 199 18
175 198 18
174 198 0
174 198 0
174 197 0
174 198 0
175 198 0
175 198 18
174 198 18
175 198 0
173 197 0
174 198 0
174 198 0
175 198 0
174 198 0
174 198 0
174 197 0
176 198 0
173 197 0
175 198 0
173 197 0
176 199 0
175 198 0
175 198 0
174 198 0
174 198 0
174 198 0
172 197 0
174 197 0
174 197 0
174 198 0
174 198 0
174 197 0
175 198 0
176 198 0
175 198 0
175 198 0
174 198 0
174 197 0
175 198 0
175 198 0
175 198 0
175 198 0
175 198 0
174 197 0
174 198 0
173 197 0
174 198 0
175 198 0
175 198 0
174 198 0
175 198 0
174 198 0
174 197 0
175 198 0
175 198 0
175 198 0
174 198 0
175 198 0
175 198 0
174 198 0
175 198 0
175 198 0
174 198 0
175 198 0
174 198 0
175 198 0
174 198 0
175 198 0
175 198 0
175 198 0
174 198 0
175 198 0
173 197 0
174 198 0
175 198 0
175 198 0
175 198 0
174 198 0
175 198 0
174 197 0
174 198 0
174 197 0
174 197 0
175 198 0
174 197 0
175 198 0
176 198 0
174 198 0
174 198 0
174 197 0
175 198 0
175 198 0
175 198 0
174 197 0
174 198 0
174 197 0
175 198 0
175 198 0
174 197 0
174 197 0
174 198 0
176 199 0
175 198 0
174 198 0
175 198 0
175 198 0
176 198 0
174 197 0
174 198 0
174 198 0
173 197 0
174 198 0
174 198 0
175 198 0
175 197 9
171 186 36
171 175 55
166 156 60
165 139 73
164 132 79
161 101 93
163 100 104
160 89 101
162 93 105
163 97 110
166 99 113
165 99 112
169 106 120
170 107 121
171 109 124
177 114 129
172 112 128
174 114 129
172 112 127
171 112 127
173 114 130
170 108 123
169 109 123
172 111 126
170 109 124
172 110 125
172 110 125
168 105 120
172 108 122
167 106 120
172 110 124
171 108 122
168 105 118
172 111 126
169 109 124
169 108 123
171 109 124
173 112 128
171 110 126
176 115 131
173 112 127
173 112 128
175 115 130
173 112 128
172 112 127
174 114 130
176 115 131
174 114 130
177 115 131
173 110 125
172 110 126
177 115 130
172 111 127
177 119 128
174 130 117
173 142 104
176 153 96
176 164 88
173 175 72
174 185 56
173 194 23
174 198 0
174 197 0
175 198 0
174 197 0
174 198 0
174 198 0
174 197 0
175 198 0
175 198 0
175 198 0
175 198 0
175 198 0
174 197 0
175 198 0
174 198 0
175 198 0
174 197 0
174 197 0
174 198 0
174 197 0
173 197 0
175 198 0
174 197 0
175 198 0
174 197 0
175 198 0
174 198 0
174 198 0
175 198 0
174 197 0
174 198 0
174 197 0
174 197 0
174 198 0
174 197 0
175 198 0
174 198 0
176 198 0
173 197 0
176 198 0
176 198 0
175 198 0
175 198 0
175 198 0
174 198 0
174 198 0
175 198 0
175 198 0
175 198 0
174 198 0
175 198 0
174 197 0
174 197 0
174 198 0
174 198 0
174 198 0
175 198 0
175 198 0
174 197 0
174 198 0
175 198 0
174 198 0
174 197 0
175 198 0
175 198 0
175 198 0
175 198 0
174 198 0
174 198 0
174 198 0
174 197 0
173 197 0
174 198 0
175 198 0
174 197 0
175 198 0
174 198 0
174 198 0
174 198 0
174 198 0
175 198 0
175 198 0
175 198 0
175 198 0
174 198 0
175 198 0
174 198 0
175 198 0
174 198 0
174 198 0
175 198 0
175 198 0
174 197 0
174 198 0
174 197 0
174 198 0
174 198 0
175 198 0
175 198 0
174 198 0
174 198 0
175 198 0
175 198 0
175 198 0
175 198 0
176 199 0
175 198 0
174 198 0
173 197 0
175 198 0
174 198 0
175 198 0
176 198 0
175 198 0
175 198 0
175 198 0
175 198 18
174 197 0
175 198 0
176 199 25
175 198 25
175 198 18
175 198 18
176 199 31
176 199 18
177 199 44
175 198 31
175 198 36
176 199 36
176 199 25
174 198 31
176 199 36
178 200 51
176 198 40
175 198 25
176 199 51
177 199 54
178 200 54
175 199 40
178 200 60
176 199 40
177 199 47
178 200 47
178 200 60
177 199 51
177 200 47
178 200 57
178 200 57
178 201 62
178 201 57
178 200 54
176 199 54
178 200 67
179 201 74
178 201 67
177 200 57
179 201 67
178 200 60
179 201 72
181 203 78
179 201 65
179 201 72
180 202 74
179 201 67
180 202 82
181 202 82
179 201 70
180 202 80
180 202 76
179 201 72
180 202 72
178 201 65
180 202 74
180 202 74
180 202 76
178 200 62
179 201 70
178 200 54
178 200 54
178 201 67
177 200 60
180 202 72
179 201 72
176 199 47
176 199 51
178 201 60
176 199 40
178 200 57
177 200 51
177 200 54
176 199 36
176 199 51
176 199 36
176 199 44
176 199 44
177 200 51
175 199 40
175 198 25
175 198 31
176 199 0
175 198 31
175 198 25
175 198 18
175 198 25
176 199 31
174 197 18
174 197 0
175 198 25
175 198 0
176 199 31
176 199 36
175 198 0
174 198 0
175 198 0
175 198 18
175 198 18
175 198 0
174 198 0
176 198 0
174 198 0
174 197 0
175 198 0
174 198 0
174 198 0
175 198 0
175 198 0
173 197 0
174 198 0
174 198 0
175 198 0
174 198 0
175 198 0
174 197 0
175 198 0
175 198 0
175 198 0
175 198 0
173 197 0
175 198 0
174 198 0
175 198 0
174 198 0
175 198 0
175 198 0
174 197 0
174 197 0
175 198 0
173 197 0
174 198 0
173 197 0
174 197 0
175 198 0
175 198 0
176 199 0
174 198 0
173 197 0
174 198 0
173 197 0
174 198 0
174 198 0
174 197 0
174 198 0
175 198 0
174 197 0
175 198 0
173 196 0
175 198 0
175 198 0
174 198 0
175 198 0
174 198 0
174 198 0
174 198 0
175 198 0
174 197 0
175 198 0
175 198 0
175 198 0
174 197 0
174 197 0
175 198 0
174 198 0
175 198 0
174 198 0
174 198 0
175 198 0
174 198 0
174 198 0
173 197 0
175 198 0
173 197 0
174 197 0
173 197 0
174 198 0
174 198 0
173 197 0
174 198 0
175 198 0
174 198 0
173 197 0
174 197 0
175 198 0
175 198 0
175 198 0
174 197 0
174 198 0
175 198 0
174 198 0
174 198 0
175 198 0
174 198 0
176 198 0
173 197 0
174 197 0
175 198 0
175 198 0
175 198 0
175 198 0
175 198 0
175 198 0
174 198 0
175 198 0
175 198 0
174 198 0
175 198 0
173 197 0
175 198 0
174 198 0
175 198 0
174 198 0
173 197 0
173 197 0
175 198 0
174 197 0
175 198 0
175 198 0
175 198 0
174 197 0
172 187 33
169 174 50
166 160 57
166 138 79
163 127 82
161 110 91
162 95 96
164 92 103
161 89 100
162 93 106
164 98 110
168 101 114
164 100 113
167 105 120
167 105 119
172 109 124
173 111 126
172 111 127
173 112 128
176 116 131
175 115 130
175 114 129
170 108 122
174 113 127
172 109 123
171 111 126
172 110 125
166 104 118
173 110 124
169 107 121
167 104 118
168 106 121
170 106 120
170 108 123
167 105 120
170 106 120
172 111 126
170 109 123
171 109 123
171 109 124
170 111 127
172 111 126
175 113 128
176 115 130
176 115 130
174 114 130
176 115 130
175 113 128
174 113 128
175 115 131
173 110 126
172 110 126
174 111 125
172 110 125
171 110 125
177 121 127
170 122 116
175 133 111
173 148 98
174 166 84
174 179 66
175 193 34
176 198 14
174 198 0
175 198 0
175 198 0
175 198 0
174 197 0
173 197 0
176 199 0
175 198 0
174 198 0
174 198 0
174 198 0
174 197 0
173 197 0
174 198 0
174 198 0
175 198 0
173 197 0
174 198 0
174 198 0
175 198 0
174 198 0
175 198 0
174 198 0
174 198 0
174 197 0
174 198 0
175 198 0
174 197 0
173 197 0
175 198 0
175 198 0
175 198 0
175 198 0
174 198 0
174 197 0
174 198 0
175 198 0
175 198 0
174 198 0
174 198 0
174 197 0
173 197 0
175 198 0
173 197 0
173 197 0
174 198 0
175 198 0
173 197 0
174 197 0
174 198 0
174 197 0
174 198 0
174 198 0
175 198 0
174 198 0
174 198 0
175 198 0
175 198 0
173 197 0
174 198 0
176 198 0
174 198 0
174 197 0
174 198 0
174 198 0
174 198 0
175 198 0
175 198 0
175 198 0
176 199 0
175 198 0
174 198 0
174 198 0
174 198 0
173 197 0
174 198 0
174 198 0
175 198 0
174 198 0
175 198 0
175 198 0
175 198 0
174 198 0
175 198 0
173 197 0
175 198 0
174 198 0
175 198 0
174 198 0
175 198 0
173 197 0
176 198 0
174 198 0
176 199 0
174 197 0
175 198 0
175 198 0
175 198 0
173 197 0
174 197 0
175 198 0
175 198 0
174 198 0
174 198 0
174 197 0
175 198 0
174 198 0
175 198 0
175 198 0
174 198 0
175 198 0
174 197 0
174 198 0
175 198 0
174 198 0
174 198 0
174 198 0
173 197 0
174 198 0
175 198 0
175 198 0
174 197 0
175 198 0
173 197 0
175 198 18
175 198 0
174 198 18
175 198 31
176 199 36
176 199 31
174 198 18
174 198 18
175 198 18
175 199 36
175 198 36
175 198 18
175 198 18
175 198 31
175 198 25
175 198 36
176 199 44
176 199 36
176 199 44
175 198 25
176 199 31
179 201 57
176 199 51
177 200 51
177 200 57
176 199 44
177 200 51
179 201 65
176 199 44
177 200 60
176 199 47
177 200 65
176 199 44
179 201 60
178 200 44
177 200 47
177 200 54
178 200 57
179 201 60
177 200 57
179 201 70
178 201 57
179 201 70
179 202 76
179 201 67
179 201 60
178 201 60
175 199 44
178 201 57
177 200 54
179 201 65
177 200 47
179 201 60
177 200 54
177 200 57
176 199 44
176 199 47
177 199 40
176 199 31
176 199 51
175 198 25
177 200 54
175 198 31
177 199 36
175 199 36
175 199 44
176 198 18
175 199 36
176 199 18
175 198 0
175 198 18
174 197 0
174 198 31
173 197 18
175 198 25
174 198 0
175 198 0
176 199 18
174 198 0
175 198 0
175 198 0
175 198 18
174 198 0
174 197 0
174 198 0
175 198 18
174 198 18
174 198 0
175 198 0
175 198 0
175 198 0
175 198 0
175 198 0
174 198 0
174 198 0
174 197 0
175 198 0
175 198 0
175 198 0
175 198 0
175 198 0
175 198 0
175 198 0
174 198 0
174 197 0
175 198 0
175 198 0
175 198 0
174 198 0
175 198 0
175 198 0
173 197 0
174 198 0
175 198 0
175 198 0
174 198 0
174 197 0
174 198 0
174 198 0
175 198 0
174 198 0
174 198 0
175 198 0
173 197 0
175 198 0
174 198 0
175 198 0
175 198 0
176 198 0
174 197 0
175 198 0
174 198 0
175 198 0
174 198 0
174 197 0
174 198 0
174 197 0
174 198 0
175 198 0
175 198 0
175 198 0
173 197 0
174 198 0
173 197 0
175 198 0
174 198 0
174 198 0
174 198 0
175 198 0
175 198 0
174 198 0
174 198 0
173 197 0
175 198 0
174 198 0
175 198 0
174 197 0
174 197 0
175 198 0
174 197 0
176 198 0
176 199 0
174 198 0
174 198 0
174 197 0
175 198 0
173 197 0
173 197 0
174 198 0
176 199 0
175 198 0
175 198 0
174 198 0
173 197 0
174 198 0
174 198 0
174 198 0
174 197 0
174 198 0
174 198 0
174 197 0
175 198 0
175 198 0
176 198 0
175 198 0
174 198 0
173 197 0
175 198 0
174 198 0
175 198 0
174 198 0
174 198 0
175 198 0
174 197 0
174 198 0
174 198 0
173 197 0
175 198 0
174 198 0
175 198 0
174 198 0
175 198 0
174 197 0
173 197 0
174 198 0
175 198 0
176 199 0
174 197 0
173 197 0
174 197 0
175 198 0
173 197 0
173 193 16
171 181 38
169 168 52
167 158 67
163 126 83
164 116 94
164 103 99
162 92 102
160 91 103
164 96 109
165 96 109
166 101 114
165 100 113
167 106 121
168 105 120
173 114 130
173 113 128
173 112 127
173 113 129
175 115 131
173 114 130
173 113 129
173 113 128
174 114 129
172 112 128
169 109 124
170 108 123
171 109 124
168 106 121
167 105 119
170 107 121
171 110 125
172 110 124
170 107 122
169 107 121
169 106 120
170 106 120
173 112 127
169 108 123
172 111 126
173 112 127
174 112 126
174 114 129
175 113 128
175 114 130
175 115 131
177 116 132
176 116 132
175 114 129
175 114 129
175 113 128
176 114 129
174 112 127
174 111 126
173 111 126
175 115 131
173 109 123
172 116 122
173 125 117
177 147 111
174 159 91
176 173 82
174 184 59
173 191 38
174 197 0
175 198 0
175 198 0
174 198 0
173 197 0
174 197 0
177 198 0
175 198 0
174 198 0
174 198 0
175 198 0
174 197 0
175 198 0
174 198 0
175 198 0
175 198 0
174 198 0
175 198 0
174 198 0
174 197 0
174 198 0
175 198 0
175 198 0
174 198 0
174 198 0
174 198 0
174 197 0
174 197 0
175 198 0
174 198 0
174 198 0
175 198 0
175 198 0
175 198 0
174 197 0
174 198 0
173 197 0
175 198 0
174 197 0
175 198 0
175 198 0
176 198 0
175 198 0
174 198 0
175 198 0
175 198 0
175 198 0
173 197 0
174 198 0
174 197 0
174 198 0
173 197 0
175 198 0
175 198 0
176 198 0
175 198 0
174 198 0
174 197 0
174 198 0
174 198 0
176 199 0
174 198 0
175 198 0
174 198 0
174 198 0
174 198 0
174 198 0
175 198 0
174 198 0
174 198 0
174 197 0
174 198 0
174 197 0
175 198 0
175 198 0
175 198 0
174 197 0
175 198 0
174 197 0
175 198 0
174 197 0
176 199 0
175 198 0
173 197 0
174 198 0
175 198 0
174 198 0
173 197 0
174 198 0
174 198 0
175 198 0
174 197 0
173 197 0
174 197 0
175 198 0
175 198 0
174 197 0
174 198 0
174 197 0
174 198 0
174 197 0
175 198 0
174 198 0
174 197 0
174 197 0
174 198 0
175 198 0
175 198 0
175 198 0
173 197 0
174 198 0
174 197 0
174 198 0
175 198 0
174 197 0
174 198 0
176 198 0
174 198 0
175 198 0
174 198 0
175 198 0
174 198 0
174 198 0
175 198 0
175 198 0
174 198 0
174 197 0
174 198 18
174 198 0
175 198 18
175 198 0
174 197 18
174 198 18
175 198 18
175 198 25
175 198 18
175 198 0
174 197 0
175 198 0
174 198 0
175 198 18
175 198 25
175 198 40
176 199 36
176 199 36
175 198 31
174 197 0
178 201 51
177 199 40
176 199 31
176 199 36
176 199 36
178 200 54
176 199 40
176 199 40
176 199 40
177 199 44
175 198 18
176 199 51
176 199 40
177 200 57
175 199 40
177 200 57
177 200 54
178 200 60
177 199 51
178 200 62
178 201 60
176 199 40
177 199 47
177 199 40
175 198 36
177 200 57
177 200 51
177 200 40
177 200 51
177 200 51
175 199 40
175 199 40
174 198 18
175 198 25
175 198 31
176 199 40
175 198 18
175 199 36
175 198 0
175 198 31
176 199 25
176 199 25
175 198 25
175 198 0
175 198 0
174 198 0
175 198 25
174 197 0
174 198 0
175 198 18
175 198 18
174 198 0
174 198 0
175 198 0
174 198 0
173 197 0
174 198 0
175 198 0
176 198 0
174 197 0
174 198 0
174 197 0
174 198 0
174 197 0
175 198 0
176 199 0
174 198 0
174 198 0
173 197 0
175 198 0
174 198 0
175 198 0
176 198 0
174 197 0
174 198 0
174 198 0
175 198 0
174 198 0
174 198 0
173 197 0
175 198 0
174 198 0
175 198 0
174 198 0
174 197 0
174 198 0
175 198 0
175 198 0
175 198 0
174 197 0
174 198 0
175 198 0
175 198 0
174 198 0
175 198 0
175 198 0
175 198 0
173 197 0
174 198 0
175 198 0
174 198 0
176 198 0
174 198 0
175 198 0
174 197 0
174 198 0
175 198 0
174 198 0
175 198 0
173 197 0
175 198 0
174 198 0
174 198 0
174 197 0
176 199 0
176 199 0
174 197 0
174 198 0
174 198 0
174 198 0
174 198 0
174 198 0
174 197 0
174 198 0
174 197 0
174 198 0
175 198 0
174 197 0
174 198 0
174 197 0
174 198 0
174 198 0
173 197 0
175 198 0
175 198 0
175 198 0
176 199 0
173 197 0
175 198 0
174 197 0
175 198 0
174 197 0
174 198 0
174 198 0
174 198 0
174 197 0
174 197 0
175 198 0
174 197 0
174 197 0
173 197 0
174 198 0
176 198 0
175 198 0
174 198 0
174 198 0
173 197 0
174 198 0
175 198 0
175 198 0
174 197 0
175 198 0
174 198 0
174 198 0
174 198 0
175 198 0
175 198 0
174 198 0
175 198 0
176 199 0
175 198 0
175 198 0
174 197 0
175 197 0
174 197 0
175 198 0
174 198 0
174 198 0
176 198 0
174 197 0
175 198 0
174 198 0
175 198 0
174 198 0
174 198 0
175 198 0
173 197 0
174 198 0
175 197 11
172 188 33
169 170 51
168 157 61
162 132 75
160 113 85
158 96 89
158 89 100
159 89 101
159 89 100
163 95 108
166 101 114
165 100 113
167 105 119
170 110 125
167 107 121
168 106 120
173 113 128
173 112 127
173 111 125
174 113 128
171 110 126
174 114 129
172 109 124
171 111 126
172 111 126
171 111 126
174 112 127
169 108 123
168 107 121
167 106 120
169 105 119
165 104 118
168 107 122
168 105 119
167 103 116
173 112 127
170 110 124
173 111 125
174 112 127
176 115 131
174 114 129
176 114 129
175 114 129
171 110 125
173 114 130
175 117 133
177 115 131
171 112 128
174 114 130
175 114 130
177 115 130
177 115 131
175 113 128
175 114 129
172 111 126
172 110 126
175 113 128
175 115 129
174 118 120
174 131 114
173 143 104
172 160 86
175 178 68
173 188 48
174 196 20
175 198 0
175 198 0
175 198 0
174 197 0
175 198 0
175 198 0
174 198 0
174 198 0
174 198 0
175 198 0
174 198 0
174 198 0
175 198 0
174 198 0
174 197 0
175 198 0
176 199 0
174 197 0
174 198 0
174 198 0
174 197 0
174 198 0
173 197 0
175 198 0
174 197 0
175 198 0
175 198 0
174 198 0
174 197 0
174 198 0
174 198 0
173 197 0
174 198 0
175 198 0
175 198 0
175 198 0
174 197 0
176 199 0
174 198 0
174 198 0
174 198 0
174 198 0
175 198 0
174 198 0
175 198 0
175 198 0
174 198 0
175 198 0
175 198 0
174 198 0
174 198 0
175 198 0
173 197 0
174 198 0
174 198 0
174 198 0
175 198 0
174 198 0
174 197 0
174 197 0
174 198 0
174 197 0
174 198 0
174 198 0
176 198 0
174 198 0
174 198 0
174 198 0
174 198 0
175 198 0
174 197 0
174 197 0
173 197 0
175 198 0
176 198 0
175 198 0
175 198 0
174 198 0
175 198 0
176 198 0
174 198 0
173 197 0
174 198 0
175 198 0
174 198 0
174 198 0
173 197 0
174 198 0
174 198 0
175 198 0
174 198 0
175 198 0
174 198 0
175 198 0
175 198 0
173 197 0
175 198 0
174 198 0
174 198 0
174 198 0
174 198 0
174 198 0
174 197 0
174 198 0
174 198 0
175 198 0
174 198 0
174 197 0
175 198 0
174 198 0
173 197 0
174 198 0
175 198 0
174 198 0
174 198 0
175 198 0
175 198 0
174 198 0
174 198 0
176 198 0
175 198 0
174 197 0
176 198 0
175 198 0
174 198 0
175 198 0
174 198 0
175 198 0
174 197 0
174 198 0
176 198 0
175 198 0
175 198 0
174 198 0
174 198 0
174 198 0
174 198 0
175 198 0
175 198 18
175 198 18
174 197 18
175 198 18
176 199 0
174 198 0
173 197 18
176 199 18
174 197 18
177 199 25
174 198 25
177 199 54
174 198 31
176 199 40
174 198 18
177 200 47
176 199 36
177 199 40
176 199 40
175 199 40
177 200 47
176 199 40
176 199 40
175 199 40
176 199 47
178 200 54
175 199 36
177 199 51
176 199 40
177 199 36
175 198 36
175 199 36
177 200 40
175 198 18
176 199 36
174 198 0
175 199 36
176 199 18
176 199 36
175 198 25
175 198 31
175 198 0
176 199 40
175 198 18
175 198 18
175 198 18
175 198 0
175 198 18
174 198 0
175 198 0
174 198 0
174 198 0
175 198 18
174 198 0
173 197 0
175 198 0
175 198 0
175 198 0
175 198 0
174 198 0
174 198 0
175 198 0
175 198 0
175 198 0
175 198 0
175 198 0
175 198 0
175 198 0
174 198 0
175 198 0
175 198 0
174 198 0
175 198 0
174 198 0
174 198 0
175 198 0
175 198 0
173 197 0
174 197 0
175 198 0
176 198 0
175 198 0
175 198 0
174 198 0
175 198 0
175 198 0
175 198 0
175 198 0
175 198 0
174 198 0
174 197 0
174 198 0
174 198 0
175 198 0
174 198 0
174 198 0
174 197 0
174 198 0
174 198 0
173 197 0
174 198 0
174 197 0
174 198 0
175 198 0
175 198 0
175 198 0
174 197 0
175 198 0
174 198 0
174 197 0
172 196 0
175 198 0
175 198 0
174 198 0
174 198 0
174 197 0
174 197 0
174 198 0
175 198 0
174 198 0
175 198 0
174 198 0
175 198 0
175 198 0
175 198 0
174 197 0
175 198 0
175 198 0
175 198 0
174 198 0
175 198 0
173 197 0
176 199 0
175 198 0
174 197 0
174 197 0
173 197 0
175 198 0
175 198 0
174 197 0
175 198 0
174 198 0
174 198 0
175 198 0
173 197 0
174 197 0
174 198 0
174 197 0
174 197 0
174 197 0
175 198 0
175 198 0
175 198 0
175 198 0
174 197 0
174 197 0
175 198 0
174 198 0
173 197 0
174 197 0
175 198 0
173 197 0
174 198 0
174 197 0
174 198 0
175 198 0
174 198 0
175 198 0
175 198 0
176 199 0
174 197 0
174 198 0
175 198 0
175 198 0
174 198 0
175 198 0
175 198 0
173 197 0
174 197 0
174 197 0
174 198 0
175 198 0
175 198 0
175 198 0
173 197 0
175 198 0
174 197 0
175 198 0
175 198 0
175 198 0
175 198 0
175 198 0
173 197 0
175 198 0
174 198 0
175 198 0
172 190 25
171 171 55
166 154 59
161 128 72
157 111 79
157 95 85
160 88 98
162 93 105
160 89 101
162 97 111
162 94 107
169 104 117
168 107 121
168 103 117
171 108 123
171 111 126
175 115 131
174 115 131
174 113 128
175 115 131
172 112 127
174 112 127
172 112 128
171 111 127
173 112 127
170 108 123
171 110 124
170 108 122
168 107 121
167 106 120
170 109 124
170 108 123
165 103 116
169 107 121
170 108 122
170 108 122
168 105 119
172 111 126
172 112 127
169 108 123
169 109 124
173 113 128
175 114 129
174 113 129
171 110 124
174 113 129
174 112 127
175 116 131
175 115 130
172 111 126
177 116 131
176 116 132
174 114 130
173 113 128
174 113 128
172 111 126
173 110 125
173 112 127
176 114 129
174 115 125
174 120 124
173 130 115
173 149 100
174 164 86
174 181 62
174 190 46
174 197 9
174 198 0
175 198 0
176 199 0
173 197 0
174 198 0
173 197 0
174 197 0
174 198 0
174 198 0
174 198 0
174 197 0
174 197 0
174 198 0
174 197 0
174 198 0
175 198 0
174 198 0
174 198 0
175 198 0
175 198 0
174 197 0
174 198 0
174 197 0
174 198 0
174 198 0
175 198 0
174 198 0
174 198 0
174 198 0
174 198 0
175 198 0
174 198 0
174 197 0
174 197 0
174 198 0
175 198 0
176 198 0
175 198 0
174 197 0
174 198 0
175 198 0
174 198 0
174 197 0
175 198 0
174 198 0
174 197 0
175 198 0
174 198 0
174 197 0
175 198 0
174 198 0
175 198 0
175 198 0
175 198 0
174 198 0
175 198 0
174 197 0
174 197 0
174 198 0
175 198 0
175 198 0
175 198 0
175 198 0
175 198 0
174 198 0
175 198 0
176 198 0
175 198 0
174 197 0
175 198 0
174 198 0
174 198 0
175 198 0
174 198 0
174 198 0
175 198 0
173 197 0
175 198 0
175 198 0
175 198 0
174 198 0
175 198 0
174 197 0
174 198 0
175 198 0
175 198 0
175 198 0
174 198 0
173 197 0
174 198 0
175 198 0
174 198 0
175 198 0
175 198 0
175 198 0
175 198 0
174 198 0
174 197 0
175 198 0
174 198 0
174 197 0
175 198 0
175 198 0
174 198 0
175 198 0
174 198 0
175 198 0
174 197 0
174 197 0
173 197 0
175 198 0
174 198 0
174 198 0
173 197 0
174 198 0
175 198 0
175 198 0
175 198 0
175 198 0
174 198 0
175 198 0
174 197 0
175 198 0
174 197 0
175 198 0
175 198 0
174 198 0
175 198 0
175 198 0
174 197 0
174 198 0
173 197 0
174 198 0
175 198 0
174 198 0
174 198 0
175 198 0
174 198 0
174 197 0
174 198 0
174 198 0
175 198 0
174 197 0
175 198 0
175 198 0
175 198 0
175 198 0
175 198 0
175 198 0
174 198 18
175 198 25
175 198 18
175 198 25
175 198 18
175 198 25
175 198 0
176 199 36
176 199 25
175 198 25
175 198 31
174 198 25
177 199 44
175 199 31
177 200 47
175 198 31
175 198 25
175 198 31
174 198 25
175 198 0
175 198 25
175 198 31
175 198 18
176 199 18
174 198 0
175 198 25
175 198 0
176 199 18
174 198 0
174 197 0
176 198 0
174 198 18
175 198 0
175 198 0
175 198 0
174 197 0
175 198 0
174 198 0
175 198 0
175 198 0
175 198 0
174 198 0
175 198 0
174 197 0
174 198 0
174 198 0
174 198 0
175 198 0
175 198 0
174 198 0
174 198 0
175 198 0
174 198 0
175 198 0
175 198 0
175 198 0
174 198 0
175 198 0
176 198 0
175 198 0
174 198 0
176 198 0
176 198 0
175 198 0
175 198 0
175 198 0
175 198 0
175 198 0
175 198 0
174 197 0
174 198 0
173 197 0
176 199 0
175 198 0
174 197 0
176 199 0
175 198 0
175 198 0
176 198 0
175 198 0
174 198 0
172 197 0
174 198 0
175 198 0
174 198 0
175 198 0
175 198 0
175 198 0
175 198 0
174 198 0
174 197 0
175 198 0
175 198 0
173 197 0
174 198 0
175 198 0
175 198 0
173 197 0
173 197 0
174 198 0
174 198 0
175 198 0
174 197 0
174 198 0
175 198 0
176 198 0
175 198 0
175 198 0
174 197 0
175 198 0
175 198 0
174 198 0
174 198 0
174 197 0
176 198 0
174 198 0
175 198 0
174 198 0
175 198 0
173 197 0
172 197 0
175 198 0
175 198 0
175 198 0
174 197 0
173 197 0
175 198 0
175 198 0
175 198 0
174 198 0
174 198 0
175 198 0
174 198 0
175 198 0
174 198 0
175 198 0
175 198 0
174 197 0
175 198 0
174 198 0
174 197 0
175 198 0
175 198 0
175 198 0
173 197 0
173 197 0
174 198 0
175 198 0
174 198 0
175 198 0
174 198 0
174 197 0
174 197 0
175 198 0
175 198 0
174 197 0
176 198 0
175 198 0
174 198 0
174 197 0
174 197 0
174 198 0
175 198 0
175 198 0
175 198 0
175 198 0
174 197 0
174 198 0
174 197 0
174 197 0
174 197 0
174 198 0
174 197 0
174 198 0
174 198 0
174 198 0
174 198 0
174 197 0
174 198 0
174 197 0
174 198 0
175 198 0
174 198 0
173 193 22
171 180 46
168 167 54
168 149 70
163 124 77
160 92 90
158 90 93
161 86 97
166 96 109
164 97 110
163 96 109
163 97 110
170 105 118
164 98 111
171 109 123
176 114 129
171 111 127
173 113 129
174 114 130
172 113 128
173 112 128
174 112 127
174 114 129
169 109 124
173 112 127
170 109 124
171 110 125
169 109 124
170 110 125
170 109 125
171 110 125
170 109 123
169 107 122
169 109 123
165 102 116
168 105 118
170 107 121
168 106 120
167 105 119
169 108 124
172 112 127
170 108 123
172 111 127
172 110 125
172 112 128
173 113 128
175 113 128
174 114 130
178 118 134
172 112 128
174 115 131
177 114 129
174 115 131
174 113 129
173 112 128
173 111 127
173 111 126
176 114 129
176 115 131
173 111 125
177 115 130
176 114 128
171 117 121
171 134 108
174 158 95
174 165 86
175 185 60
175 196 24
175 198 0
174 198 0
174 197 0
174 198 0
175 198 0
174 198 0
174 198 0
175 198 0
174 198 0
174 198 0
174 198 0
175 198 0
175 198 0
175 198 0
174 197 0
174 198 0
174 197 0
175 198 0
175 198 0
174 197 0
174 197 0
176 198 0
175 198 0
174 198 0
174 197 0
175 198 0
175 198 0
175 198 0
174 198 0
174 198 0
174 198 0
175 198 0
174 198 0
174 198 0
176 199 0
175 198 0
174 198 0
176 198 0
175 198 0
175 198 0
174 198 0
175 198 0
174 198 0
174 198 0
174 197 0
174 198 0
175 198 0
174 198 0
175 198 0
174 198 0
174 198 0
176 198 0
175 198 0
175 198 0
173 197 0
175 198 0
174 197 0
174 197 0
174 198 0
175 198 0
173 197 0
175 198 0
175 198 0
176 198 0
175 198 0
174 198 0
174 198 0
174 198 0
175 198 0
175 198 0
174 198 0
175 198 0
174 198 0
175 198 0
174 198 0
174 198 0
174 197 0
174 197 0
175 198 0
174 197 0
174 197 0
175 198 0
174 198 0
174 198 0
173 197 0
174 198 0
174 198 0
175 198 0
174 198 0
174 198 0
174 198 0
174 197 0
175 198 0
175 198 0
175 198 0
174 198 0
174 198 0
175 198 0
174 197 0
175 198 0
175 198 0
174 197 0
174 198 0
175 198 0
175 198 0
175 198 0
174 198 0
173 197 0
174 197 0
173 197 0
174 198 0
175 198 0
174 198 0
175 198 0
175 198 0
175 198 0
174 197 0
174 198 0
175 198 0
175 198 0
174 198 0
175 198 0
175 198 0
174 197 0
175 198 0
174 198 0
174 198 0
174 198 0
174 198 0
175 198 0
174 198 0
175 198 0
175 198 0
174 198 0
175 198 0
175 198 0
174 198 0
174 197 0
174 198 0
175 198 0
175 198 0
174 198 0
175 198 0
174 197 0
174 198 0
174 198 0
175 198 0
174 198 0
175 198 0
175 198 0
175 198 0
174 198 0
174 198 0
175 198 0
174 198 0
173 197 0
175 198 0
174 198 0
177 199 40
174 198 18
175 198 18
175 198 31
174 198 18
175 198 0
174 198 25
176 199 25
176 199 25
174 198 0
175 198 0
176 199 0
175 198 18
175 198 0
175 198 0
175 198 0
174 198 0
174 198 0
175 198 0
175 198 0
173 197 0
174 197 0
174 198 0
175 198 0
175 198 0
174 198 0
174 198 0
175 198 0
174 198 0
174 198 0
174 198 0
174 198 0
175 198 0
175 198 0
174 197 0
175 198 0
175 198 0
175 198 0
173 197 0
174 198 0
175 198 0
174 197 0
174 198 0
175 198 0
174 197 0
174 197 0
174 198 0
174 197 0
175 198 0
174 198 0
175 198 0
175 198 0
175 198 0
174 198 0
175 198 0
174 197 0
175 198 0
174 198 0
174 197 0
174 198 0
174 198 0
175 198 0
174 198 0
174 198 0
175 198 0
174 198 0
175 198 0
176 199 0
175 198 0
174 197 0
173 197 0
174 198 0
174 198 0
174 198 0
175 198 0
174 197 0
175 198 0
174 197 0
174 198 0
173 197 0
175 198 0
174 198 0
175 198 0
174 198 0
175 198 0
175 198 0
175 198 0
175 198 0
175 198 0
175 198 0
174 198 0
174 198 0
174 198 0
174 198 0
175 198 0
173 197 0
175 198 0
174 198 0
172 197 0
175 198 0
174 198 0
174 198 0
176 199 0
175 198 0
174 198 0
174 198 0
174 198 0
173 197 0
174 197 0
175 198 0
175 198 0
174 198 0
174 198 0
174 198 0
174 198 0
174 198 0
174 197 0
174 198 0
174 197 0
174 198 0
174 197 0
174 197 0
176 198 0
175 198 0
174 197 0
174 197 0
174 198 0
175 198 0
174 198 0
174 197 0
175 198 0
174 198 0
175 198 0
174 198 0
174 198 0
174 198 0
175 198 0
173 197 0
174 198 0
174 198 0
175 198 0
174 198 0
174 197 0
174 197 0
174 198 0
174 198 0
175 198 0
173 197 0
175 198 0
175 198 0
174 198 0
173 197 0
174 198 0
175 198 0
174 198 0
174 197 0
174 197 0
174 197 0
176 199 0
175 198 0
175 198 0
174 198 0
174 198 0
174 198 0
175 198 0
174 198 0
174 197 0
175 198 0
175 198 0
174 197 0
174 198 0
174 197 0
175 198 0
174 197 12
172 187 32
171 170 53
167 144 70
161 125 76
157 97 82
156 83 91
160 88 99
161 89 100
163 94 106
164 95 108
166 100 113
167 99 111
169 104 118
172 109 123
170 108 122
172 110 125
171 110 125
172 112 127
174 114 129
173 112 128
171 110 126
173 113 129
174 114 130
171 112 127
170 111 127
170 110 125
171 110 126
172 110 125
173 112 127
170 109 124
169 107 122
167 105 120
165 105 120
170 109 124
169 108 122
170 106 120
165 104 119
171 108 122
171 108 123
169 109 125
172 110 125
175 114 129
168 108 123
174 115 131
174 113 129
171 109 124
173 113 129
173 112 128
174 113 129
177 116 132
175 115 131
173 112 128
177 116 132
175 114 129
173 112 127
174 113 128
172 113 129
173 112 128
172 109 123
175 112 127
175 113 129
176 110 124
175 115 127
174 123 120
174 142 106
173 155 93
174 178 68
176 190 39
174 198 0
176 198 0
175 198 0
175 198 0
175 198 0
173 197 0
173 197 0
174 198 0
174 197 0
174 197 0
173 197 0
174 197 0
175 198 0
174 197 0
175 198 0
174 197 0
175 198 0
174 198 0
174 198 0
175 198 0
174 198 0
174 198 0
174 197 0
174 197 0
175 198 0
173 197 0
174 198 0
174 198 0
174 198 0
175 198 0
173 197 0
174 197 0
175 198 0
175 198 0
175 198 0
175 198 0
174 197 0
175 198 0
174 197 0
174 197 0
175 198 0
175 198 0
174 197 0
174 198 0
173 197 0
174 198 0
175 198 0
175 198 0
175 198 0
175 198 0
176 198 0
174 197 0
175 198 0
173 197 0
175 198 0
174 197 0
174 197 0
174 198 0
174 197 0
175 198 0
175 198 0
175 198 0
175 198 0
175 198 0
175 198 0
173 197 0
175 198 0
175 198 0
175 198 0
175 198 0
174 197 0
174 198 0
174 198 0
174 197 0
174 198 0
174 198 0
174 198 0
175 198 0
174 198 0
174 198 0
175 198 0
175 198 0
175 198 0
175 198 0
175 198 0
175 198 0
173 197 0
175 198 0
174 198 0
175 198 0
174 198 0
175 198 0
174 198 0
175 198 0
174 198 0
174 198 0
175 198 0
174 198 0
175 198 0
174 197 0
174 198 0
174 198 0
175 198 0
175 198 0
176 198 0
175 198 0
174 198 0
174 198 0
174 198 0
174 198 0
176 198 0
174 198 0
175 198 0
174 197 0
175 198 0
173 197 0
174 198 0
175 198 0
175 198 0
175 198 0
175 198 0
176 199 0
173 197 0
173 197 0
175 198 0
175 198 0
175 198 0
173 197 0
174 198 0
174 198 0
173 197 0
175 198 0
174 197 0
174 197 0
174 198 0
174 198 0
172 197 0
174 198 0
173 197 0
175 198 0
174 198 0
175 198 0
176 199 0
174 198 0
175 198 0
175 198 0
175 198 0
174 198 0
174 198 0
175 198 0
174 197 0
174 197 0
175 198 0
174 197 0
174 197 0
175 198 0
174 198 0
174 198 0
175 198 0
175 198 0
175 198 0
174 197 0
175 198 18
174 198 18
175 198 0
174 197 0
175 198 0
175 198 0
175 198 0
175 198 0
175 198 0
175 198 0
174 198 0
174 198 0
174 197 0
174 198 0
176 198 0
174 198 0
174 198 0
174 198 0
175 198 0
174 198 0
174 198 0
175 198 0
175 198 0
174 198 0
175 198 0
174 197 0
175 198 0
175 198 0
173 197 0
174 198 0
175 198 0
175 198 0
176 198 0
175 198 0
174 198 0
174 198 0
175 198 0
176 198 0
175 198 0
174 198 0
174 198 0
174 197 0
174 198 0
174 198 0
173 197 0
174 197 0
174 198 0
175 198 0
175 198 0
175 198 0
173 197 0
175 198 0
175 198 0
174 198 0
175 198 0
174 197 0
175 198 0
175 198 0
174 198 0
175 198 0
174 197 0
174 197 0
174 198 0
175 198 0
173 197 0
174 198 0
176 198 0
175 198 0
175 198 0
175 198 0
174 197 0
174 197 0
175 198 0
175 198 0
173 197 0
175 198 0
176 198 0
174 197 0
174 197 0
174 198 0
173 197 0
174 197 0
174 198 0
174 198 0
174 198 0
175 198 0
174 198 0
174 198 0
175 198 0
174 198 0
174 198 0
174 198 0
174 198 0
174 198 0
173 197 0
175 198 0
175 197 0
175 198 0
175 198 0
174 197 0
175 198 0
173 197 0
173 197 0
173 197 0
175 198 0
174 198 0
174 197 0
174 197 0
175 198 0
174 198 0
174 198 0
173 197 0
175 198 0
175 198 0
173 197 0
174 198 0
175 198 0
174 198 0
174 198 0
175 198 0
174 198 0
174 198 0
174 198 0
174 197 0
175 198 0
175 198 0
174 198 0
173 197 0
174 198 0
174 198 0
174 197 0
175 198 0
174 198 0
173 197 0
175 198 0
175 198 0
174 198 0
174 198 0
175 198 0
175 198 0
174 197 0
174 197 0
174 198 0
175 198 0
174 197 0
173 197 0
174 198 0
174 197 0
174 198 0
176 198 0
175 198 0
173 197 0
174 197 0
173 197 0
175 198 0
173 197 0
174 197 0
174 197 0
175 198 0
174 197 0
174 197 0
175 198 0
173 197 0
174 197 0
173 197 0
174 197 0
172 196 0
174 197 0
174 197 5
174 195 8
168 177 36
167 152 57
165 135 81
154 96 82
159 86 90
164 94 106
160 89 101
163 92 104
163 94 107
161 96 109
160 91 104
169 106 120
167 104 118
170 108 122
170 109 123
172 111 126
174 115 131
172 112 128
175 115 131
174 113 128
173 112 127
171 111 127
174 115 130
172 111 126
170 110 125
173 112 127
171 111 126
170 110 125
168 108 122
169 109 123
168 107 120
169 108 122
164 102 115
169 108 122
166 108 123
167 104 118
162 103 117
170 109 124
169 110 125
171 109 123
174 114 129
175 114 129
172 111 127
173 113 129
172 112 127
172 112 128
173 112 128
174 114 130
174 113 128
175 114 130
175 114 129
174 115 131
171 111 126
175 115 131
175 115 131
174 112 128
173 111 125
174 113 128
175 114 129
174 112 127
171 110 125
172 110 125
174 112 127
170 109 122
173 129 117
176 145 109
173 159 87
174 182 61
174 192 33
174 198 0
173 197 0
175 198 0
175 197 0
174 197 0
175 198 0
173 197 0
175 198 0
175 198 0
175 198 0
174 197 0
175 198 0
173 197 0
173 197 0
174 198 0
175 198 0
173 197 0
175 198 0
174 198 0
174 198 0
175 198 0
175 198 0
174 197 0
174 198 0
174 197 0
174 198 0
175 198 0
174 197 0
175 198 0
174 197 0
174 197 0
175 198 0
174 197 0
175 198 0
174 197 0
174 198 0
174 198 0
175 198 0
174 198 0
175 198 0
175 198 0
174 197 0
174 197 0
175 198 0
174 198 0
175 198 0
175 198 0
176 199 0
174 198 0
174 198 0
174 198 0
174 198 0
175 198 0
175 198 0
175 198 0
174 198 0
174 198 0
174 197 0
174 197 0
175 198 0
174 198 0
174 198 0
174 198 0
175 198 0
175 198 0
174 197 0
174 197 0
175 198 0
175 198 0
175 198 0
174 198 0
175 198 0
174 197 0
174 198 0
173 197 0
175 198 0
175 198 0
175 198 0
174 197 0
174 197 0
173 197 0
175 198 0
175 198 0
174 198 0
175 198 0
174 198 0
174 197 0
175 198 0
175 198 0
174 198 0
173 197 0
174 198 0
174 198 0
175 198 0
174 198 0
174 197 0
174 198 0
176 198 0
175 198 0
175 198 0
174 197 0
175 198 0
174 198 0
174 198 0
175 198 0
174 198 0
174 198 0
174 198 0
174 198 0
175 198 0
176 198 0
176 198 0
175 198 0
175 198 0
175 198 0
174 198 0
174 197 0
175 198 0
175 198 0
174 198 0
175 198 0
174 197 0
176 199 0
174 198 0
175 198 0
174 198 0
175 198 0
175 198 0
174 198 0
175 198 0
174 197 0
174 198 0
174 198 0
174 198 0
175 198 0
174 198 0
174 198 0
174 198 0
173 197 0
175 198 0
173 197 0
174 198 0
175 198 0
174 198 0
174 197 0
175 198 0
174 198 0
174 198 0
174 198 0
175 198 0
175 198 0
174 197 0
174 198 0
176 199 0
174 197 0
175 198 0
174 198 0
174 198 0
174 198 0
175 198 0
173 197 0
175 198 0
174 198 0
175 198 0
174 198 0
174 198 0
175 198 0
174 198 0
174 197 0
174 198 0
175 198 0
174 198 0
175 198 0
175 198 0
173 197 0
174 198 0
175 198 0
174 198 0
175 198 0
175 198 0
175 198 0
175 198 0
175 198 0
175 198 0
174 197 0
175 198 0
175 198 0
174 197 0
174 198 0
175 198 0
174 198 0
175 198 0
175 198 0
174 198 0
174 198 0
174 198 0
175 198 0
175 198 0
174 198 0
174 197 0
174 198 0
175 198 0
175 198 0
173 197 0
174 198 0
174 198 0
175 198 0
175 198 0
175 198 0
175 198 0
176 199 0
175 198 0
175 198 0
174 198 0
175 198 0
174 197 0
175 198 0
175 198 0
176 198 0
175 198 0
175 198 0
175 198 0
174 198 0
175 198 0
174 198 0
175 198 0
175 198 0
175 198 0
175 198 0
174 198 0
175 198 0
174 198 0
174 197 0
173 197 0
175 198 0
173 197 0
176 199 0
174 197 0
174 198 0
175 198 0
174 198 0
174 198 0
175 198 0
174 198 0
175 198 0
172 197 0
174 198 0
174 198 0
175 198 0
175 198 0
174 198 0
174 198 0
175 198 0
174 198 0
174 198 0
174 197 0
174 197 0
174 198 0
175 198 0
175 198 0
175 198 0
173 197 0
174 198 0
174 197 0
174 198 0
175 198 0
174 198 0
174 198 0
174 198 0
174 198 0
174 198 0
173 197 0
175 198 0
174 198 0
174 198 0
175 198 0
173 197 0
175 198 0
174 197 0
175 198 0
174 197 0
174 198 0
174 197 0
173 197 0
175 198 0
174 197 0
175 198 0
174 197 0
173 197 0
175 198 0
175 198 0
175 198 0
174 197 0
174 198 0
174 197 0
175 198 0
175 198 0
175 198 0
175 198 0
174 198 0
173 197 0
173 197 0
175 198 0
175 198 0
174 198 0
174 198 0
175 198 0
174 197 0
174 198 0
174 198 0
174 197 0
174 197 0
175 198 0
174 197 0
175 198 0
175 198 0
174 197 0
174 197 0
174 198 0
175 198 0
174 198 0
175 198 0
174 197 0
174 198 0
174 198 0
174 198 0
174 198 0
174 197 0
176 198 0
175 195 18
171 179 45
165 157 51
159 121 74
159 105 82
154 81 89
160 87 97
158 86 98
161 91 103
159 89 101
165 101 115
164 97 111
166 101 115
169 105 119
171 108 123
171 109 124
172 110 125
174 114 129
172 111 126
173 113 129
174 114 130
173 114 129
174 114 129
173 114 129
175 115 131
174 111 125
174 112 127
169 109 124
174 111 126
171 110 125
168 108 123
166 106 121
166 105 120
167 106 119
168 106 121
163 102 116
166 106 120
167 105 119
171 109 124
171 109 123
171 109 124
171 109 124
174 113 128
174 113 127
169 109 125
173 112 128
176 115 131
174 113 128
175 115 131
175 115 131
174 114 130
175 114 130
175 116 131
176 115 131
173 113 129
174 114 129
174 114 130
174 115 131
175 113 128
175 113 128
172 111 127
175 112 127
172 111 126
173 110 125
174 113 128
173 112 127
173 114 124
174 129 113
174 147 106
175 166 86
175 187 55
174 195 28
175 198 0
175 198 0
173 197 0
175 198 0
175 198 0
175 198 0
174 198 0
174 198 0
174 197 0
174 198 0
175 198 0
174 197 0
174 198 0
174 198 0
175 198 0
174 198 0
173 197 0
175 198 0
174 198 0
173 197 0
173 197 0
174 198 0
173 197 0
173 197 0
174 198 0
175 197 0
174 198 0
174 197 0
175 198 0
173 197 0
175 198 0
175 198 0
173 197 0
174 197 0
175 198 0
175 198 0
175 198 0
174 197 0
174 198 0
174 198 0
173 197 0
174 198 0
175 198 0
175 198 0
174 197 0
174 198 0
173 197 0
174 197 0
174 198 0
174 198 0
175 198 0
175 198 0
176 198 0
175 198 0
174 198 0
175 198 0
174 198 0
175 198 0
174 197 0
175 198 0
175 198 0
174 198 0
175 198 0
175 198 0
175 198 0
174 197 0
175 198 0
174 198 0
176 198 0
174 197 0
176 198 0
174 198 0
175 198 0
174 198 0
175 198 0
175 198 0
175 198 0
174 197 0
175 198 0
174 197 0
174 198 0
173 197 0
175 198 0
174 197 0
173 197 0
173 197 0
174 198 0
175 198 0
174 198 0
175 198 0
176 198 0
175 198 0
174 197 0
175 197 0
174 198 0
175 198 0
175 198 0
175 198 0
174 197 0
176 198 0
174 197 0
175 198 0
174 197 0
174 198 0
174 198 0
175 198 0
173 197 0
175 198 0
174 198 0
173 197 0
175 198 0
176 198 0
174 198 0
174 197 0
175 198 0
176 199 0
176 199 0
174 198 0
175 198 0
174 197 0
176 198 0
173 197 0
175 198 0
175 198 0
175 198 0
175 198 0
175 198 0
174 198 0
174 198 0
174 198 0
174 197 0
175 198 0
175 198 0
175 198 0
174 198 0
175 198 0
175 198 0
174 198 0
174 198 0
174 198 0
175 198 0
174 198 0
174 198 0
175 198 0
174 198 0
175 198 0
174 198 0
174 198 0
174 198 0
174 197 0
174 198 0
175 198 0
174 198 0
175 198 0
174 197 0
174 198 0
175 198 0
173 197 0
174 197 0
177 199 0
174 197 0
174 198 0
174 197 0
175 198 0
175 198 0
175 198 0
175 198 0
174 198 0
175 198 0
175 198 0
175 198 0
174 198 0
175 198 0
173 197 0
174 198 0
175 198 0
173 197 0
175 198 0
174 198 0
175 198 0
175 198 0
174 197 0
174 197 0
174 197 0
175 198 0
174 197 0
175 198 0
175 198 0
174 198 0
175 198 0
174 198 0
174 197 0
175 198 0
175 198 0
174 197 0
175 198 0
175 198 0
175 198 0
175 198 0
174 198 0
175 198 0
173 197 0
173 197 0
175 198 0
174 198 0
175 198 0
174 198 0
174 198 0
176 199 0
175 198 0
175 198 0
175 198 0
174 198 0
174 198 0
174 198 0
174 198 0
175 198 0
175 198 0
175 198 0
175 198 0
175 198 0
174 198 0
174 198 0
174 197 0
175 198 0
174 198 0
176 199 0
174 198 0
174 198 0
174 198 0
174 197 0
174 198 0
175 198 0
174 198 0
175 198 0
175 198 0
176 198 0
175 198 0
175 198 0
174 198 0
174 198 0
174 198 0
175 198 0
173 197 0
174 197 0
175 198 0
175 198 0
175 198 0
174 198 0
175 198 0
173 197 0
174 197 0
174 198 0
173 197 0
175 198 0
174 197 0
174 198 0
175 198 0
175 198 0
175 198 0
175 198 0
175 198 0
175 198 0
175 198 0
175 198 0
174 197 0
175 198 0
174 198 0
174 197 0
174 198 0
175 198 0
174 198 0
175 198 0
174 198 0
175 198 0
174 197 0
174 198 0
174 198 0
174 198 0
174 198 0
174 198 0
176 199 0
174 198 0
174 198 0
174 198 0
175 198 0
175 198 0
174 198 0
174 198 0
175 198 0
174 198 0
174 198 0
174 197 0
175 198 0
174 198 0
174 197 0
174 198 0
175 198 0
174 197 0
173 197 0
174 197 0
174 198 0
174 198 0
175 198 0
174 197 0
173 197 0
173 197 0
174 198 0
175 198 0
175 198 0
175 198 0
174 198 0
173 196 0
174 198 0
173 197 0
176 198 0
176 199 0
174 198 0
174 197 0
175 198 0
174 198 0
174 198 0
174 197 0
174 197 0
174 197 0
175 198 0
174 197 0
174 198 0
173 188 34
171 171 60
166 140 80
157 104 84
162 92 96
155 84 94
160 88 99
160 90 101
157 91 103
161 94 106
165 99 113
163 98 112
169 105 119
168 105 119
170 109 124
170 109 124
172 112 127
174 113 128
176 115 130
176 117 132
173 115 130
173 114 129
173 114 130
176 115 131
173 113 129
173 113 128
172 113 129
169 110 125
168 107 122
168 107 122
170 109 124
168 106 120
167 106 120
165 104 118
167 105 119
167 106 120
165 104 118
166 103 116
166 105 119
170 108 123
170 108 122
169 107 121
172 110 125
172 112 127
172 111 126
173 114 129
172 112 126
174 114 130
173 113 129
174 113 129
174 113 129
174 115 130
175 115 130
172 111 127
173 113 128
176 115 131
175 113 128
174 114 130
174 113 128
172 112 127
175 116 132
174 114 129
171 109 123
174 113 128
174 112 126
173 111 126
174 113 128
171 115 126
174 130 118
174 154 98
173 171 78
174 192 34
175 198 0
175 198 0
174 197 0
174 198 0
175 198 0
173 197 0
175 198 0
174 198 0
175 198 0
175 198 0
174 198 0
174 198 0
175 198 0
175 198 0
174 198 0
174 198 0
175 198 0
175 198 0
175 198 0
174 197 0
174 197 0
175 198 0
175 198 0
174 198 0
174 197 0
173 197 0
175 198 0
174 197 0
175 198 0
174 198 0
174 197 0
174 197 0
173 197 0
174 198 0
175 198 0
173 197 0
175 198 0
174 197 0
175 198 0
174 197 0
174 197 0
174 198 0
174 198 0
175 198 0
175 198 0
174 197 0
174 198 0
174 198 0
174 198 0
175 198 0
174 198 0
175 198 0
174 198 0
175 198 0
174 198 0
174 197 0
174 197 0
174 198 0
175 198 0
174 198 0
175 198 0
174 197 0
174 198 0
174 198 0
175 198 0
174 197 0
175 198 0
174 198 0
175 198 0
174 197 0
175 198 0
174 197 0
175 198 0
175 198 0
174 198 0
174 198 0
175 198 0
174 197 0
174 198 0
174 197 0
174 198 0
174 198 0
175 198 0
175 198 0
174 198 0
173 197 0
175 198 0
174 198 0
175 198 0
174 198 0
175 198 0
176 199 0
174 197 0
176 198 0
173 196 0
176 199 0
175 198 0
174 198 0
175 198 0
174 198 0
174 198 0
174 198 0
174 198 0
174 198 0
175 198 0
175 198 0
174 198 0
173 197 0
174 197 0
174 198 0
174 198 0
175 198 0
174 198 0
174 198 0
175 198 0
173 197 0
175 198 0
175 198 0
174 197 0
174 198 0
175 198 0
175 198 0
174 197 0
174 198 0
173 197 0
175 198 0
175 198 0
175 198 0
175 198 0
174 197 0
174 198 0
174 198 0
175 198 0
175 198 0
176 198 0
175 198 0
175 198 0
174 197 0
174 198 0
175 198 0
174 197 0
175 198 0
174 198 0
175 198 0
174 197 0
174 198 0
174 197 0
174 198 0
175 198 0
174 198 0
174 198 0
175 198 0
175 198 0
174 197 0
175 198 0
175 198 0
174 197 0
173 197 0
174 197 0
174 198 0
174 197 0
174 197 0
175 198 0
174 198 0
175 198 0
173 197 0
174 197 0
173 197 0
175 198 0
174 198 0
174 198 0
174 198 0
175 198 0
174 198 0
174 198 0
174 198 0
175 198 0
175 198 0
174 198 0
174 197 0
174 198 0
174 198 0
174 198 0
175 198 0
174 197 0
174 198 0
174 197 0
175 198 0
174 198 0
174 198 0
173 197 0
174 197 0
174 198 0
176 198 0
174 198 0
174 198 0
175 198 0
174 198 0
175 198 0
174 197 0
173 197 0
175 198 0
173 197 0
174 197 0
174 197 0
174 197 0
174 198 0
175 198 0
174 197 0
175 198 0
174 197 0
174 197 0
174 197 0
175 198 0
173 197 0
175 198 0
174 198 0
175 198 0
175 198 0
174 198 0
173 197 0
174 198 0
174 198 0
174 197 0
175 198 0
174 198 0
173 197 0
174 198 0
174 197 0
174 197 0
175 198 0
174 198 0
175 198 0
174 198 0
175 198 0
174 197 0
175 198 0
175 198 0
174 197 0
174 198 0
175 198 0
174 197 0
174 198 0
174 197 0
173 197 0
174 197 0
173 197 0
173 197 0
175 198 0
176 198 0
174 198 0
174 197 0
174 197 0
173 197 0
175 198 0
175 198 0
173 197 0
174 197 0
175 198 0
173 197 0
174 198 0
175 198 0
175 198 0
174 198 0
173 197 0
175 198 0
174 197 0
175 198 0
175 198 0
174 198 0
175 198 0
174 198 0
174 198 0
175 198 0
175 198 0
175 198 0
175 198 0
175 198 0
175 198 0
175 198 0
174 198 0
174 198 0
173 197 0
174 198 0
174 198 0
175 198 0
174 198 0
174 197 0
175 198 0
175 198 0
174 198 0
175 198 0
174 198 0
175 198 0
174 197 0
174 198 0
174 198 0
175 198 0
174 197 0
175 198 0
175 198 0
174 197 0
175 198 0
175 198 0
174 198 0
174 197 0
175 198 0
174 198 0
173 197 0
174 198 0
175 198 0
174 198 0
175 198 0
175 198 0
175 198 0
173 197 0
174 198 0
175 198 0
174 197 0
174 198 0
174 197 0
175 198 0
174 198 0
175 198 0
175 198 0
175 198 0
175 198 0
174 193 34
174 184 57
170 154 84
164 121 94
165 106 100
158 87 98
162 90 101
157 89 100
163 93 106
165 99 112
164 95 108
165 97 110
165 100 113
168 103 117
167 104 118
170 108 122
174 113 129
173 114 129
175 113 128
170 111 127
172 113 129
172 111 126
173 115 131
177 117 132
174 114 129
173 113 128
170 110 125
172 112 127
170 110 125
172 111 127
169 107 122
171 111 126
168 107 122
169 110 125
169 106 119
168 106 121
164 101 115
167 104 118
168 104 118
167 106 120
170 108 123
168 106 121
168 107 121
168 106 120
171 109 124
170 111 126
174 112 127
175 115 130
174 113 128
175 115 130
174 113 129
175 115 131
172 112 127
176 116 132
176 116 132
174 111 126
178 116 131
175 115 131
176 116 132
173 112 127
176 116 132
173 113 128
173 113 129
170 109 124
169 110 125
173 112 127
175 114 129
171 110 125
172 109 123
174 117 125
176 141 111
175 169 82
175 184 60
173 193 31
174 198 0
174 197 0
175 198 0
174 198 0
175 198 0
174 198 0
174 197 0
175 198 0
174 198 0
175 198 0
174 197 0
174 197 0
174 197 0
174 198 0
175 198 0
176 199 0
174 198 0
174 197 0
174 198 0
175 198 0
175 198 0
174 197 0
174 197 0
175 198 0
173 197 0
173 197 0
175 198 0
174 197 0
174 197 0
175 198 0
174 197 0
174 198 0
175 198 0
174 197 0
175 198 0
174 198 0
175 198 0
175 198 0
175 198 0
175 198 0
174 197 0
173 197 0
175 198 0
174 197 0
174 198 0
174 197 0
174 197 0
174 198 0
174 197 0
174 197 0
175 198 0
174 198 0
175 198 0
174 198 0
174 198 0
174 197 0
175 198 0
172 197 0
174 198 0
174 198 0
175 198 0
173 197 0
173 197 0
175 198 0
174 197 0
173 197 0
174 197 0
175 198 0
174 198 0
174 198 0
175 198 0
174 197 0
174 197 0
175 198 0
174 198 0
174 198 0
174 197 0
175 198 0
173 197 0
174 197 0
174 197 0
174 197 0
173 197 0
174 198 0
175 198 0
174 197 0
175 198 0
174 198 0
174 197 0
175 198 0
174 198 0
176 198 0
175 198 0
174 198 0
175 198 0
175 198 0
174 197 0
175 198 0
174 197 0
175 198 0
174 198 0
174 198 0
174 198 0
175 198 0
174 198 0
173 197 0
174 198 0
174 198 0
174 197 0
174 197 0
175 198 0
173 197 0
173 197 0
175 198 0
175 198 0
174 198 0
175 198 0
175 198 0
174 198 0
176 199 0
174 197 0
175 198 0
174 198 0
175 198 0
176 198 0
176 198 0
174 198 0
174 198 0
174 198 0
175 198 0
173 197 0
175 198 0
174 198 0
175 198 0
174 198 0
174 198 0
175 198 0
174 198 0
174 198 0
175 198 0
174 198 0
175 198 0
174 198 0
175 198 0
175 198 0
174 198 0
174 198 0
174 198 0
175 198 0
175 198 0
175 198 0
176 199 0
174 197 0
173 197 0
174 198 0
176 199 0
174 197 0
174 197 0
175 198 0
173 197 0
175 198 0
175 198 0
174 198 0
175 198 0
176 198 0
175 198 0
174 198 0
174 198 0
174 198 0
174 198 0
175 198 0
175 198 0
175 198 0
175 198 0
175 198 0
174 197 0
174 198 0
174 197 0
174 198 0
174 197 0
175 198 0
175 198 0
175 198 0
174 198 0
174 197 0
173 197 0
174 197 0
175 198 0
175 198 0
173 197 0
174 197 0
175 198 0
175 198 0
175 198 0
176 199 0
175 198 0
174 198 0
176 199 0
174 197 0
174 198 0
175 198 0
175 198 0
173 197 0
174 198 0
176 198 0
174 198 0
174 197 0
175 198 0
174 198 0
174 197 0
174 197 0
174 197 0
175 198 0
175 198 0
174 197 0
174 198 0
173 197 0
174 198 0
174 198 0
175 198 0
174 198 0
176 198 0
174 197 0
173 197 0
175 198 0
174 197 0
174 198 0
174 198 0
173 197 0
174 198 0
175 198 0
174 198 0
174 198 0
175 198 0
175 198 0
174 198 0
173 197 0
174 198 0
175 198 0
174 197 0
175 198 0
174 198 0
174 198 0
174 198 0
174 198 0
174 198 0
174 198 0
175 198 0
175 198 0
173 197 0
174 198 0
174 198 0
173 197 0
174 198 0
174 198 0
174 198 0
173 197 0
174 198 0
174 197 0
174 198 0
175 198 0
175 198 0
174 197 0
175 198 0
175 198 0
175 198 0
175 198 0
175 198 0
175 198 0
174 198 0
174 198 0
173 197 0
174 197 0
173 197 0
175 198 0
173 197 0
174 198 0
175 198 0
176 198 0
175 198 0
175 198 0
173 197 0
173 197 0
174 198 0
173 197 0
174 198 0
173 197 0
174 198 0
174 198 0
175 198 0
174 197 0
174 197 0
173 197 0
174 198 0
174 197 0
174 197 0
175 198 0
174 198 0
173 197 0
175 198 0
174 198 0
175 198 0
173 197 0
173 197 0
175 198 0
174 197 0
175 198 0
174 197 0
174 197 0
175 198 0
174 197 0
174 197 0
176 198 0
174 198 0
173 197 0
174 198 0
175 198 0
174 198 0
174 198 0
174 198 0
174 198 0
175 198 0
174 197 0
174 198 0
175 198 0
175 198 9
174 192 39
175 180 67
172 157 91
168 128 107
165 102 115
163 99 112
163 98 111
166 99 112
162 95 107
164 97 110
163 97 110
165 99 113
168 103 117
170 108 123
170 108 123
171 108 122
174 113 129
171 110 125
175 113 128
176 116 132
175 115 131
174 114 130
173 113 129
177 115 130
173 113 128
171 111 126
167 107 121
170 111 127
172 111 126
169 109 123
167 108 123
168 107 123
169 109 123
168 105 119
167 106 120
165 105 119
168 107 121
165 105 119
169 107 122
167 106 120
169 108 123
168 108 122
168 107 122
166 108 123
175 115 130
169 109 123
176 115 131
170 111 127
171 111 127
174 114 130
173 114 130
174 114 130
171 110 126
174 114 129
175 115 131
177 118 133
177 116 132
174 115 131
174 114 130
174 115 130
172 110 125
176 115 130
172 112 127
173 113 129
172 112 127
172 112 127
170 109 124
171 111 126
170 111 126
171 113 128
173 132 117
175 154 101
174 180 66
175 193 38
174 196 17
174 198 0
174 198 0
175 198 0
174 197 0
174 197 0
175 198 0
174 198 0
174 198 0
174 197 0
173 197 0
174 197 0
174 197 0
174 197 0
174 197 0
176 198 0
174 198 0
174 198 0
174 197 0
174 198 0
175 198 0
175 198 0
176 199 0
175 198 0
174 197 0
174 197 0
175 198 0
174 198 0
175 198 0
175 198 0
175 198 0
174 198 0
174 198 0
174 198 0
174 197 0
174 197 0
175 198 0
174 197 0
173 197 0
175 198 0
173 197 0
173 197 0
175 198 0
175 198 0
174 198 0
174 197 0
174 197 0
174 198 0
173 197 0
173 197 0
175 198 0
175 198 0
174 198 0
174 198 0
174 198 0
174 198 0
175 198 0
174 198 0
175 198 0
175 198 0
174 198 0
175 198 0
174 197 0
174 198 0
175 198 0
173 197 0
176 198 0
174 198 0
174 198 0
174 198 0
174 197 0
175 198 0
175 198 0
174 198 0
174 198 0
175 198 0
174 198 0
175 198 0
174 197 0
174 198 0
174 198 0
176 199 0
174 198 0
175 198 0
174 198 0
175 198 0
175 198 0
175 198 0
175 198 0
175 198 0
174 197 0
175 198 0
173 197 0
175 198 0
174 198 0
175 198 0
174 198 0
174 198 0
175 198 0
174 198 0
174 198 0
173 197 0
175 198 0
174 198 0
175 198 0
175 198 0
175 198 0
174 197 0
175 198 0
174 197 0
175 198 0
175 198 0
174 198 0
175 198 0
175 198 0
174 198 0
175 198 0
175 198 0
175 198 0
174 197 0
175 198 0
176 198 0
175 198 0
174 198 0
174 198 0
176 199 0
175 198 0
175 198 0
174 198 0
174 198 0
174 198 0
174 198 0
175 198 0
173 197 0
174 198 0
173 197 0
174 198 0
175 198 0
175 198 0
174 198 0
173 197 0
174 198 0
175 198 0
174 197 0
174 198 0
175 198 0
174 197 0
174 198 0
174 197 0
174 197 0
175 198 0
176 199 0
174 198 0
175 198 0
175 198 0
174 197 0
175 198 0
176 199 0
174 198 0
175 198 0
175 198 0
175 198 0
175 198 0
174 197 0
175 198 0
174 197 0
175 198 0
174 197 0
175 198 0
174 198 0
175 198 0
175 198 0
174 197 0
173 197 0
174 198 0
174 197 0
174 197 0
174 198 0
175 198 0
175 198 0
174 198 0
175 198 0
174 197 0
174 198 0
173 197 0
175 198 0
175 198 0
174 198 0
174 198 0
175 198 0
174 198 0
175 198 0
174 198 0
175 198 0
174 197 0
175 198 0
174 198 0
174 198 0
174 198 0
174 198 0
174 198 0
175 198 0
174 198 0
174 198 0
175 198 0
175 198 0
175 198 0
174 198 0
176 198 0
174 198 0
174 197 0
173 197 0
173 197 0
174 197 0
175 198 0
174 198 0
174 198 0
174 197 0
174 198 0
174 198 0
174 197 0
174 198 0
175 198 0
174 197 0
174 197 0
174 198 0
173 197 0
174 198 0
174 197 0
173 197 0
174 197 0
174 198 0
174 198 0
174 197 0
174 198 0
175 198 0
175 198 0
174 198 0
174 197 0
174 197 0
174 197 0
175 198 0
174 198 0
174 197 0
174 197 0
176 198 0
175 198 0
174 197 0
174 197 0
173 197 0
175 198 0
174 198 0
174 197 0
174 198 0
173 197 0
174 198 0
174 198 0
174 197 0
175 198 0
175 198 0
174 197 0
174 198 0
174 197 0
174 197 0
175 198 0
175 198 0
174 197 0
174 197 0
174 197 0
174 198 0
174 198 0
175 198 0
174 198 0
173 197 0
174 198 0
173 197 0
173 197 0
175 198 0
174 197 0
174 198 0
175 198 0
176 199 0
174 198 0
174 198 0
173 196 0
174 197 0
174 197 0
174 197 0
174 197 0
175 198 0
176 198 0
175 198 0
174 198 0
174 198 0
174 198 0
173 197 0
174 197 0
175 198 0
174 198 0
174 198 0
175 198 0
174 198 0
174 198 0
175 198 0
174 198 0
174 197 0
173 197 0
174 197 0
175 198 0
174 198 0
173 197 0
174 197 0
173 197 0
174 198 0
174 197 0
174 198 0
174 197 0
174 198 0
173 197 0
174 198 0
174 197 0
175 198 0
174 197 0
174 198 0
174 198 0
175 196 24
176 184 62
174 170 79
172 150 98
174 125 122
171 112 126
167 107 121
165 104 119
166 104 118
162 101 114
169 105 119
167 102 116
169 105 119
169 107 121
167 105 119
169 109 123
173 111 126
171 112 128
175 115 130
177 116 132
172 112 128
174 115 130
173 113 128
173 114 130
172 113 128
171 111 126
174 113 128
169 109 124
171 112 127
173 113 128
172 111 125
174 113 127
169 108 123
168 107 121
169 108 122
165 106 120
168 105 119
167 106 120
166 106 120
164 103 117
171 110 124
168 107 122
169 108 122
168 107 122
168 109 123
167 108 124
172 111 126
171 110 125
169 109 124
173 113 129
172 113 129
174 113 128
174 114 130
173 114 130
173 112 128
177 116 132
174 115 131
177 118 134
174 114 130
175 116 133
170 111 127
173 112 127
173 114 130
176 113 128
171 110 125
173 113 129
169 110 125
174 113 128
171 112 128
171 112 127
171 112 127
173 132 120
175 149 107
174 172 80
175 184 57
174 193 33
174 198 0
174 198 0
175 198 0
174 197 0
175 198 0
175 198 0
174 198 0
173 197 0
174 198 0
174 198 0
174 198 0
175 198 0
175 198 0
173 197 0
174 197 0
174 197 0
174 198 0
174 198 0
175 198 0
174 197 0
175 198 0
175 198 0
174 198 0
176 199 0
173 197 0
174 198 0
174 198 0
176 198 0
174 197 0
175 198 0
174 198 0
176 199 0
174 198 0
175 198 0
174 198 0
175 198 0
174 197 0
174 198 0
176 198 0
174 198 0
175 198 0
173 197 0
174 198 0
174 197 0
175 198 0
174 197 0
175 197 0
174 198 0
173 197 0
174 198 0
175 198 0
174 198 0
175 198 0
174 198 0
175 198 0
173 197 0
175 198 0
175 198 0
174 197 0
173 197 0
175 198 0
176 198 0
174 198 0
175 198 0
174 198 0
174 198 0
174 197 0
174 198 0
174 197 0
175 198 0
176 199 0
172 197 0
174 198 0
175 198 0
175 198 0
174 197 0
174 197 0
175 198 0
174 197 0
174 198 0
175 198 0
173 197 0
174 198 0
175 198 0
174 197 0
174 197 0
175 198 0
174 198 0
174 198 0
175 198 0
174 198 0
175 198 0
174 197 0
173 197 0
175 198 0
176 198 0
174 198 0
174 197 0
175 198 0
175 198 0
174 198 0
174 198 0
175 198 0
175 198 0
175 198 0
175 198 0
175 198 0
174 198 0
175 198 0
174 197 0
175 198 0
174 197 0
175 198 0
176 198 0
174 198 0
175 198 0
174 197 0
175 198 0
174 198 0
174 198 0
175 198 0
174 198 0
175 198 0
173 197 0
173 197 0
174 198 0
175 198 0
174 197 0
174 197 0
175 198 0
175 198 0
174 198 0
173 197 0
175 198 0
174 197 0
174 198 0
175 198 0
174 198 0
176 198 0
174 197 0
174 198 0
174 198 0
174 197 0
175 198 0
174 198 0
175 198 0
175 198 0
174 198 0
174 198 0
173 197 0
174 197 0
175 198 0
174 198 0
174 198 0
174 198 0
174 198 0
174 198 0
175 198 0
175 198 0
175 198 0
175 198 0
175 198 0
174 198 0
175 198 0
173 197 0
175 198 0
174 198 0
174 198 0
174 198 0
174 198 0
175 198 0
175 198 0
176 198 0
174 197 0
175 198 0
175 198 0
175 198 0
175 198 0
175 198 0
175 198 0
173 197 0
173 197 0
175 198 0
175 198 0
175 198 0
174 198 0
174 197 0
175 198 0
175 198 0
174 198 0
175 198 0
176 199 0
174 197 0
175 198 0
175 198 0
174 197 0
174 198 0
175 198 0
174 198 0
174 198 0
175 198 0
175 198 0
175 198 0
175 198 0
175 198 0
175 198 0
173 197 0
175 198 0
175 198 0
175 198 0
175 198 0
174 198 0
174 198 0
174 198 0
175 198 0
175 198 0
174 198 0
175 198 0
174 198 0
174 198 0
174 198 0
175 198 0
174 197 0
175 198 0
176 198 0
175 198 0
174 198 0
173 197 0
174 198 0
175 198 0
174 198 0
174 197 0
173 197 0
173 197 0
175 198 0
175 198 0
175 198 0
173 197 0
174 197 0
175 198 0
174 198 0
174 198 0
174 197 0
174 198 0
175 198 0
175 198 0
175 198 0
174 197 0
174 198 0
173 197 0
174 197 0
174 197 0
174 197 0
174 198 0
175 198 0
174 198 0
174 197 0
175 198 0
175 198 0
175 198 0
174 198 0
173 197 0
174 197 0
175 198 0
175 198 0
175 198 0
173 196 0
174 198 0
174 197 0
174 198 0
174 198 0
174 198 0
174 198 0
175 198 0
174 198 0
175 198 0
175 198 0
174 197 0
174 198 0
174 197 0
174 197 0
174 198 0
175 198 0
175 198 0
173 197 0
173 197 0
174 198 0
174 198 0
174 198 0
175 198 0
174 198 0
175 198 0
174 198 0
174 197 0
175 198 0
175 198 0
174 198 0
174 197 0
175 198 0
174 198 0
174 198 0
175 198 0
174 197 0
175 198 0
174 197 0
174 197 0
175 198 0
175 198 0
173 197 0
174 197 0
174 198 0
174 198 0
175 198 0
174 197 0
174 197 0
173 197 0
173 196 0
173 197 0
174 198 0
174 197 0
175 198 0
174 198 0
174 197 0
175 197 9
173 190 37
175 178 71
173 164 90
174 144 110
176 129 124
175 116 132
170 110 125
172 112 127
170 110 125
169 107 122
168 107 122
168 106 121
171 111 126
168 105 119
172 111 126
171 109 124
172 113 128
175 114 130
174 114 129
175 116 132
175 115 130
175 115 130
177 118 135
171 113 129
176 116 131
172 112 127
170 110 126
170 109 124
175 115 131
168 107 122
170 109 123
171 110 125
165 106 121
169 109 123
169 108 123
170 109 123
165 104 118
164 104 118
167 105 118
165 103 117
166 106 120
168 107 121
166 105 119
167 107 121
170 108 122
169 109 124
167 108 123
171 111 126
171 111 126
172 113 128
174 116 132
168 109 125
172 113 128
174 115 131
176 116 131
173 112 127
175 116 132
173 113 128
175 114 130
177 118 133
176 115 130
174 115 131
173 113 128
171 110 125
172 112 127
172 112 127
174 115 131
171 111 126
175 115 131
174 114 130
172 111 126
174 129 122
177 147 111
174 170 80
174 180 66
175 190 48
175 196 19
175 198 0
173 197 0
174 197 0
175 198 0
174 197 0
173 197 0
175 198 0
174 198 0
174 198 0
174 198 0
175 198 0
174 198 0
174 197 0
175 198 0
174 198 0
174 198 0
174 198 0
174 198 0
175 198 0
174 197 0
175 198 0
175 198 0
174 198 0
174 198 0
174 197 0
175 198 0
175 198 0
174 198 0
174 198 0
175 198 0
175 198 0
173 197 0
176 198 0
175 198 0
174 197 0
174 198 0
174 198 0
174 198 0
175 198 0
174 198 0
174 198 0
175 198 0
174 197 0
174 197 0
174 198 0
174 197 0
175 198 0
175 198 0
175 198 0
173 197 0
176 198 0
174 198 0
174 197 0
175 198 0
173 197 0
174 198 0
174 197 0
175 198 0
174 198 0
175 198 0
175 198 0
175 198 0
175 198 0
174 197 0
175 198 0
174 198 0
174 198 0
175 198 0
174 198 0
175 198 0
175 198 0
175 198 0
175 198 0
174 197 0
174 197 0
175 198 0
173 197 0
174 197 0
174 198 0
174 197 0
175 198 0
174 198 0
174 198 0
175 198 0
173 197 0
174 198 0
176 199 0
174 197 0
174 198 0
174 197 0
175 198 0
175 198 0
174 197 0
174 198 0
174 198 0
174 198 0
174 197 0
175 198 0
175 198 0
175 198 0
174 197 0
175 198 0
175 198 0
175 198 0
175 198 0
174 198 0
174 198 0
174 198 0
174 197 0
175 198 0
175 198 0
175 198 0
173 197 0
174 198 0
173 197 0
175 198 0
174 198 0
175 198 0
174 198 0
174 198 0
175 198 0
173 197 0
175 198 0
176 198 0
175 198 0
173 197 0
175 198 0
174 198 0
176 199 0
174 197 0
175 198 0
175 198 0
175 198 0
175 198 0
175 198 0
175 198 0
175 198 0
175 198 0
174 198 0
174 198 0
174 198 0
174 198 0
175 198 0
174 198 0
173 197 0
174 198 0
174 198 0
175 198 0
176 198 0
174 198 0
175 198 0
175 198 0
176 199 0
175 198 0
173 197 0
175 198 0
176 199 0
175 198 0
175 198 0
174 198 0
174 198 0
175 198 0
174 197 0
173 197 0
173 197 0
174 198 0
176 199 0
174 198 0
174 198 0
174 198 0
175 198 0
174 198 0
174 198 0
174 198 0
174 197 0
173 197 0
176 198 0
175 198 0
174 198 0
175 197 0
174 198 0
174 197 0
174 198 0
175 198 0
175 198 0
174 198 0
175 198 0
175 198 0
174 198 0
174 198 0
174 198 0
173 197 0
174 197 0
174 198 0
174 197 0
175 198 0
175 198 0
175 198 0
174 198 0
174 198 0
174 197 0
174 197 0
175 198 0
174 198 0
174 198 0
174 198 0
173 197 0
175 198 0
174 198 0
174 197 0
174 198 0
174 198 0
174 198 0
174 198 0
174 197 0
174 197 0
177 199 0
175 198 0
174 198 0
173 197 0
174 197 0
174 198 0
174 197 0
174 198 0
175 198 0
173 197 0
175 197 0
174 197 0
174 198 0
174 198 0
174 198 0
174 198 0
175 198 0
174 198 0
175 198 0
174 198 0
174 198 0
174 198 0
174 198 0
174 197 0
174 198 0
175 198 0
174 197 0
174 198 0
174 197 0
174 198 0
174 198 0
176 198 0
174 198 0
174 197 0
174 198 0
174 198 0
174 197 0
175 198 0
174 198 0
174 197 0
174 197 0
174 198 0
175 198 0
175 198 0
174 198 0
175 198 0
175 198 0
175 198 0
174 198 0
174 197 0
175 198 0
173 197 0
174 197 0
174 198 0
174 197 0
175 198 0
174 197 0
174 198 0
174 198 0
174 198 0
174 197 0
174 198 0
174 198 0
175 198 0
173 197 0
173 197 0
175 198 0
174 197 0
175 198 0
174 198 0
174 197 0
174 198 0
173 197 0
174 198 0
174 197 0
174 198 0
174 197 0
174 198 0
174 197 0
174 197 0
174 197 0
176 198 0
173 197 0
175 198 0
173 197 0
174 197 0
175 198 0
173 197 0
174 197 0
174 197 0
174 198 0
175 198 0
175 198 0
175 198 0
175 198 0
174 198 0
173 197 0
176 198 0
175 198 0
174 197 0
174 197 0
174 197 0
174 198 0
174 197 0
173 197 0
173 197 0
174 195 24
175 190 47
173 175 71
174 158 97
173 139 115
172 128 121
172 113 129
173 114 130
171 111 126
177 117 131
169 109 125
171 111 126
170 110 125
172 110 125
170 109 124
172 110 125
172 112 127
172 112 128
172 113 128
174 115 131
175 116 131
175 115 130
175 115 131
174 114 130
171 115 131
172 112 128
171 112 128
170 110 125
174 116 132
171 111 126
166 105 120
171 111 126
170 110 125
167 107 121
164 103 117
169 108 122
165 104 118
165 104 119
166 106 120
167 105 119
166 105 118
162 103 117
165 105 119
170 108 123
167 106 121
169 109 124
170 110 125
172 113 129
171 110 125
170 111 126
171 112 127
172 112 127
175 114 129
173 113 129
176 115 131
175 114 129
173 114 129
174 115 131
173 111 126
174 114 130
176 116 132
174 114 129
174 114 129
174 114 130
174 112 127
173 114 129
175 116 132
174 113 128
170 111 127
175 115 130
173 113 129
175 115 131
174 128 123
173 139 114
174 159 94
175 176 72
173 186 49
175 194 31
175 198 0
174 197 0
173 197 0
174 198 0
174 197 0
174 198 0
174 198 0
174 198 0
174 197 0
174 197 0
175 198 0
174 197 0
174 197 0
175 198 0
173 197 0
174 197 0
174 198 0
175 198 0
175 198 0
174 198 0
173 197 0
174 197 0
173 197 0
175 198 0
173 197 0
174 198 0
174 198 0
173 197 0
175 198 0
174 198 0
174 198 0
174 197 0
173 197 0
173 197 0
174 198 0
174 198 0
175 198 0
175 198 0
173 197 0
173 197 0
174 197 0
175 198 0
174 197 0
173 197 0
175 198 0
175 198 0
173 197 0
175 198 0
175 198 0
175 198 0
174 198 0
173 197 0
174 197 0
174 198 0
173 197 0
173 197 0
173 197 0
175 198 0
175 198 0
175 198 0
175 198 0
174 198 0
175 198 0
175 198 0
174 198 0
174 198 0
174 198 0
174 198 0
175 198 0
175 198 0
175 198 0
175 198 0
175 198 0
174 198 0
175 198 0
174 198 0
174 198 0
174 198 0
176 199 0
174 197 0
175 198 0
174 198 0
174 198 0
174 197 0
175 198 0
175 198 0
175 198 0
174 198 0
175 198 0
175 198 0
174 198 0
173 197 0
176 198 0
174 197 0
175 198 0
174 197 0
173 197 0
174 197 0
176 199 0
174 198 0
174 198 0
175 198 0
174 198 0
175 198 0
175 198 0
174 198 0
174 198 0
175 198 0
174 198 0
174 198 0
174 198 0
174 198 0
174 198 0
173 197 0
175 198 0
175 198 0
175 198 0
174 198 0
175 198 0
174 198 0
175 198 0
174 198 0
174 198 0
173 197 0
174 198 0
175 198 0
175 198 0
175 198 0
176 199 0
175 198 0
176 198 0
174 198 0
175 198 0
175 198 0
175 198 0
175 198 0
174 198 0
174 198 0
175 198 0
174 198 0
174 198 0
174 198 0
175 198 0
174 198 0
175 198 0
175 198 0
175 198 0
176 198 0
174 198 0
174 198 0
174 198 0
174 197 0
175 198 0
175 198 0
175 198 0
174 198 0
174 197 0
175 198 0
174 198 0
175 198 0
174 198 0
175 198 0
174 198 0
174 198 0
174 198 0
174 197 0
174 198 0
174 197 0
174 197 0
175 198 0
174 198 0
175 198 0
174 197 0
174 198 0
174 198 0
175 198 0
174 197 0
174 197 0
174 198 0
174 197 0
173 197 0
175 198 0
173 197 0
174 198 0
174 198 0
175 198 0
174 198 0
175 198 0
175 198 0
174 198 0
174 197 0
175 198 0
174 197 0
174 198 0
174 197 0
173 197 0
173 197 0
175 198 0
174 197 0
175 198 0
175 198 0
174 197 0
174 198 0
175 198 0
174 198 0
174 198 0
174 198 0
174 198 0
175 198 0
174 198 0
173 197 0
175 198 0
174 198 0
174 198 0
175 198 0
175 198 0
174 198 0
175 198 0
175 198 0
174 198 0
175 198 0
175 198 0
174 198 0
174 197 0
174 197 0
173 197 0
174 197 0
174 198 0
175 197 0
174 198 0
174 198 0
175 198 0
174 198 0
175 198 0
175 198 0
175 198 0
173 197 0
174 198 0
175 198 0
174 198 0
174 197 0
174 198 0
173 197 0
175 198 0
175 198 0
175 198 0
174 197 0
175 198 0
175 198 0
174 198 0
174 197 0
175 198 0
174 197 0
174 197 0
175 198 0
173 197 0
174 198 0
175 198 0
173 197 0
174 197 0
175 198 0
175 198 0
174 198 0
175 198 0
174 197 0
176 198 0
175 198 0
174 198 0
174 198 0
175 198 0
174 198 0
173 197 0
174 197 0
175 198 0
174 198 0
174 197 0
173 197 0
174 197 0
174 198 0
176 199 0
174 197 0
174 198 0
175 198 0
174 198 0
175 198 0
173 197 0
173 197 0
174 198 0
173 197 0
173 197 0
175 198 0
175 198 0
175 198 0
174 198 0
175 198 0
176 199 0
175 198 0
174 198 0
174 197 0
175 198 0
174 198 0
173 197 0
174 198 0
174 198 0
173 196 0
174 197 0
175 198 0
174 198 0
173 197 0
175 198 0
175 198 0
174 197 0
175 198 0
174 197 0
174 197 0
173 197 0
175 198 0
174 197 0
174 197 0
174 198 0
175 198 0
175 197 14
174 192 37
173 182 61
176 174 80
174 152 100
172 137 113
174 122 127
175 115 130
174 113 129
172 112 128
171 113 128
171 111 126
175 115 130
172 112 127
171 113 128
173 113 129
171 111 126
174 115 131
175 114 130
171 112 128
177 115 131
173 112 127
174 115 131
172 113 129
173 113 128
173 114 130
169 109 124
169 110 125
173 113 128
168 110 125
170 110 124
166 106 120
169 110 125
166 106 120
166 107 121
161 101 115
168 109 125
164 104 118
163 102 116
169 110 125
168 107 121
165 104 118
169 108 123
164 104 118
168 110 124
170 109 124
168 109 124
169 108 122
171 111 127
170 110 125
173 113 128
169 110 126
172 113 128
172 111 126
174 114 129
171 112 128
173 113 129
173 113 128
174 114 129
175 116 131
174 115 131
175 115 130
175 115 130
176 115 131
176 116 131
173 114 130
173 113 128
172 112 127
174 116 132
174 114 130
173 114 129
174 115 131
175 116 130
174 122 127
175 133 118
172 155 97
175 172 77
175 186 52
174 191 42
175 198 0
174 197 0
174 197 0
173 197 0
173 197 0
176 198 0
174 198 0
175 198 0
174 198 0
174 197 0
175 198 0
174 197 0
176 198 0
174 197 0
173 197 0
172 197 0
175 198 0
175 198 0
175 198 0
174 198 0
175 198 0
175 198 0
175 198 0
175 198 0
173 197 0
175 198 0
174 197 0
175 198 0
175 198 0
174 198 0
174 198 0
175 198 0
175 198 0
175 198 0
174 198 0
175 198 0
175 198 0
175 198 0
175 197 0
174 197 0
176 199 0
174 198 0
174 198 0
174 197 0
175 198 0
174 198 0
174 198 0
175 198 0
174 198 0
175 198 0
173 197 0
174 197 0
175 198 0
174 197 0
175 198 0
175 198 0
175 198 0
175 198 0
175 198 0
175 198 0
174 198 0
174 197 0
175 198 0
174 198 0
174 197 0
174 197 0
174 197 0
175 198 0
174 198 0
173 197 0
174 197 0
175 198 0
175 198 0
174 197 0
173 197 0
174 198 0
174 197 0
175 198 0
174 197 0
174 197 0
173 197 0
174 197 0
175 198 0
175 198 0
174 198 0
174 197 0
174 197 0
174 197 0
175 198 0
174 198 0
175 198 0
174 197 0
173 197 0
174 198 0
175 198 0
175 198 0
175 198 0
174 198 0
175 198 0
175 198 0
175 198 0
175 198 0
174 198 0
174 198 0
175 198 0
174 198 0
174 197 0
173 197 0
174 198 0
175 198 0
174 198 0
174 197 0
174 198 0
174 198 0
175 198 0
173 197 0
175 198 0
174 198 0
174 197 0
175 198 0
174 198 0
174 197 0
174 198 0
174 198 0
174 198 0
175 198 0
175 198 0
175 198 0
174 198 0
173 197 0
174 198 0
174 197 0
175 198 0
173 197 0
174 197 0
175 198 0
175 198 0
175 198 0
173 197 0
175 198 0
173 197 0
174 198 0
176 199 0
174 198 0
174 198 0
174 198 0
174 197 0
174 198 0
174 197 0
175 198 0
175 198 0
175 198 0
174 198 0
175 198 0
174 197 0
175 198 0
174 198 0
174 197 0
174 198 0
174 197 0
173 197 0
175 198 0
174 198 0
174 197 0
176 198 0
175 198 0
176 198 0
176 199 0
175 198 0
174 197 0
175 198 0
175 198 0
173 197 0
175 198 0
176 198 0
175 198 0
175 198 0
175 198 0
175 198 0
174 197 0
173 197 0
175 198 0
174 198 0
174 198 0
176 199 0
176 198 0
175 198 0
175 198 0
175 198 0
175 198 0
174 198 0
175 198 0
173 197 0
175 198 0
174 197 0
175 198 0
174 197 0
175 198 0
175 198 0
174 197 0
174 198 0
174 198 0
175 198 0
175 198 0
174 198 0
175 198 0
174 197 0
175 198 0
175 198 0
174 198 0
174 197 0
175 198 0
175 198 0
176 198 0
174 198 0
174 197 0
174 198 0
175 198 0
174 197 0
175 198 0
174 197 0
174 198 0
174 198 0
176 199 0
175 198 0
174 198 0
175 198 0
174 198 0
175 198 0
175 198 0
174 197 0
175 198 0
175 198 0
174 198 0
174 198 0
174 197 0
173 197 0
174 197 0
174 197 0
174 198 0
173 197 0
175 198 0
175 198 0
173 197 0
173 197 0
174 198 0
174 198 0
175 198 0
173 197 0
174 198 0
174 197 0
174 198 0
175 198 0
174 198 0
175 198 0
175 198 0
175 198 0
176 199 0
174 197 0
174 198 0
174 198 0
175 198 0
174 198 0
175 198 0
174 198 0
174 198 0
174 197 0
175 198 0
174 198 0
175 198 0
174 197 0
175 198 0
175 198 0
175 198 0
173 197 0
174 198 0
175 198 0
174 198 0
175 198 0
174 198 0
175 198 0
174 197 0
173 197 0
174 198 0
173 197 0
175 198 0
174 198 0
174 198 0
174 197 0
174 198 0
174 198 0
174 197 0
175 198 0
174 197 0
174 198 0
174 198 0
174 197 0
174 197 0
173 197 0
173 197 0
173 196 0
174 197 0
173 197 0
174 198 0
174 197 0
175 198 0
175 198 0
175 198 0
175 198 0
174 198 0
173 197 0
175 198 0
173 197 0
175 198 0
174 198 0
175 198 0
175 198 0
174 197 0
174 197 0
174 198 0
174 197 0
174 194 31
175 188 52
175 175 78
174 165 86
174 158 97
174 139 114
173 120 127
171 113 129
173 114 129
173 114 130
176 116 132
172 112 127
175 115 131
173 113 128
172 112 128
174 115 131
173 113 129
174 113 128
178 118 133
174 113 129
175 116 132
173 113 128
173 113 128
171 113 129
172 112 127
174 113 129
171 112 127
173 113 129
173 113 128
169 108 123
171 112 128
165 106 120
169 108 122
169 109 124
168 110 125
166 105 119
165 105 120
162 103 117
164 104 118
169 109 124
165 105 119
164 105 119
161 103 117
168 107 121
167 107 121
167 105 119
170 110 125
171 110 125
171 111 127
164 106 121
168 109 124
170 110 125
171 111 126
169 109 125
172 113 128
178 117 133
175 115 130
174 114 130
175 115 131
174 114 130
174 115 131
177 118 134
177 117 133
173 113 129
174 113 128
172 112 127
173 113 129
173 112 127
173 114 129
172 113 128
174 115 130
171 111 127
173 113 128
176 122 128
174 139 115
176 151 105
174 164 89
175 178 72
174 189 48
175 194 29
174 197 0
175 198 0
175 198 0
174 198 0
175 198 0
174 198 0
172 197 0
175 198 0
176 199 0
174 198 0
175 198 0
174 198 0
175 198 0
174 198 0
175 198 0
174 197 0
175 198 0
174 197 0
175 198 0
175 198 0
173 196 0
174 198 0
173 197 0
174 197 0
175 198 0
175 198 0
175 198 0
174 197 0
173 197 0
173 197 0
173 197 0
175 198 0
174 198 0
174 197 0
174 197 0
174 198 0
174 198 0
175 198 0
175 198 0
175 198 0
175 198 0
174 197 0
173 197 0
175 198 0
174 197 0
174 197 0
174 198 0
173 197 0
175 198 0
175 198 0
174 198 0
174 198 0
174 198 0
175 198 0
176 198 0
175 198 0
174 198 0
174 197 0
173 197 0
174 198 0
175 198 0
173 197 0
174 197 0
175 198 0
174 197 0
175 198 0
174 198 0
173 197 0
174 198 0
175 198 0
175 198 0
174 198 0
173 197 0
175 198 0
174 197 0
176 199 0
174 198 0
174 198 0
174 198 0
175 198 0
176 198 0
174 198 0
174 198 0
174 198 0
175 198 0
173 197 0
175 198 0
174 197 0
173 197 0
175 198 0
174 198 0
175 198 0
174 198 0
174 197 0
175 198 0
175 198 0
175 198 0
175 198 0
175 198 0
175 198 0
173 197 0
174 198 0
174 198 0
175 198 0
175 198 0
174 198 0
174 198 0
174 197 0
174 198 0
173 197 0
175 198 0
174 198 0
175 198 0
174 197 0
174 198 0
176 198 0
175 198 0
174 197 0
174 198 0
174 198 0
175 198 0
173 197 0
174 198 0
175 198 0
175 198 0
176 199 0
175 198 0
175 198 0
174 198 0
175 198 0
175 198 0
175 198 0
175 198 0
176 199 0
175 198 0
174 198 0
175 198 0
174 198 0
175 198 0
175 198 0
173 197 0
174 198 0
176 198 0
173 197 0
175 198 0
174 198 0
175 198 0
175 198 0
174 198 0
175 198 0
175 198 0
174 198 0
174 197 0
175 198 0
174 198 0
174 197 0
174 198 0
174 197 0
174 198 0
174 197 0
175 198 0
174 198 0
175 198 0
174 198 0
175 198 0
174 197 0
173 197 0
174 198 0
175 198 0
174 198 0
175 198 0
175 198 0
174 198 0
175 198 0
175 198 0
175 198 0
174 197 0
174 198 0
174 197 0
175 198 0
175 198 0
173 197 0
175 198 0
176 198 0
175 198 0
174 198 0
174 198 0
174 198 0
175 198 0
174 198 0
175 198 0
174 198 0
175 198 0
175 198 0
175 198 0
175 198 0
174 198 0
174 197 0
175 198 0
175 198 0
174 198 0
175 198 0
173 197 0
175 198 0
174 198 0
175 198 0
175 198 0
175 198 0
174 198 0
174 198 0
174 198 0
175 198 0
172 197 0
174 198 0
175 198 0
174 198 0
174 197 0
174 198 0
174 198 0
174 198 0
175 198 0
174 198 0
173 197 0
174 198 0
173 197 0
174 198 0
174 197 0
175 198 0
173 197 0
175 198 0
175 198 0
175 198 0
174 198 0
173 197 0
174 198 0
175 198 0
175 198 0
175 198 0
174 198 0
175 198 0
175 198 0
174 197 0
174 198 0
176 198 0
174 198 0
174 196 0
175 198 0
173 197 0
175 198 0
173 197 0
173 197 0
175 198 0
174 198 0
175 197 0
174 197 0
174 198 0
173 197 0
175 198 0
174 198 0
175 198 0
175 198 0
175 198 0
174 197 0
174 198 0
174 198 0
173 197 0
174 197 0
174 197 0
173 197 0
174 198 0
173 197 0
174 198 0
175 198 0
174 197 0
174 198 0
175 198 0
172 196 0
173 197 0
174 198 0
174 198 0
174 198 0
174 198 0
174 197 0
175 198 0
176 199 0
174 198 0
174 198 0
175 198 0
175 198 0
173 197 0
174 197 0
174 198 0
174 197 0
174 197 0
174 198 0
174 197 0
174 198 0
174 198 0
174 197 0
174 197 0
175 198 0
175 198 0
173 197 0
176 198 0
174 197 0
174 197 0
175 198 0
175 198 0
174 197 0
173 197 0
174 198 0
174 198 0
175 198 0
174 197 0
173 197 0
174 197 0
174 198 0
175 198 0
174 197 0
173 195 22
175 191 42
174 179 71
175 176 74
174 164 89
174 149 102
172 134 117
176 121 131
172 113 129
173 113 129
172 114 129
174 115 132
174 114 129
174 114 129
173 114 130
173 112 128
176 116 131
175 115 131
175 115 130
173 113 128
175 115 131
174 115 130
172 113 129
174 116 132
174 115 131
174 113 128
172 113 128
171 113 129
168 110 125
169 111 126
168 108 123
171 111 126
169 109 124
169 110 124
167 107 121
164 105 120
165 106 120
161 102 116
164 103 117
164 103 117
162 100 114
163 100 113
165 105 119
161 99 112
165 106 121
166 107 122
164 105 120
169 109 124
165 105 119
171 113 128
171 113 129
173 113 128
171 112 127
172 112 127
173 113 128
172 113 128
173 113 128
174 115 131
174 114 129
173 114 129
175 115 131
174 114 130
175 115 130
173 114 129
171 112 128
176 115 130
175 115 131
175 114 130
175 117 134
173 113 128
171 112 128
175 115 130
175 116 132
175 115 130
172 116 125
172 135 115
171 146 105
176 165 93
175 177 73
172 184 50
174 192 33
174 196 19
175 198 0
176 199 0
175 198 0
174 197 0
174 198 0
175 198 0
175 198 0
173 197 0
175 198 0
173 197 0
176 198 0
174 197 0
175 198 0
173 197 0
175 198 0
175 198 0
174 198 0
174 197 0
174 198 0
174 198 0
174 197 0
176 198 0
175 198 0
176 198 0
175 198 0
174 197 0
175 198 0
175 198 0
174 197 0
174 197 0
175 198 0
174 198 0
175 198 0
174 197 0
174 198 0
174 198 0
174 197 0
175 198 0
174 197 0
175 198 0
175 198 0
174 198 0
175 198 0
174 198 0
175 198 0
175 198 0
174 198 0
175 198 0
174 197 0
174 197 0
174 198 0
174 197 0
174 197 0
175 198 0
174 197 0
174 198 0
175 198 0
174 198 0
174 198 0
175 198 0
174 197 0
174 197 0
175 198 0
175 198 0
175 198 0
174 198 0
175 198 0
175 197 0
174 197 0
175 198 0
175 198 0
176 199 0
174 197 0
174 198 0
174 198 0
174 197 0
175 198 0
173 197 0
173 197 0
175 198 0
174 198 0
174 197 0
174 197 0
175 198 0
173 197 0
175 198 0
175 198 0
174 198 0
176 199 0
175 198 0
175 198 0
174 198 0
175 198 0
174 197 0
174 198 0
175 198 0
175 198 0
172 197 0
174 197 0
175 198 0
174 197 0
175 198 0
175 198 0
174 198 0
175 198 0
175 198 0
175 198 0
174 198 0
174 198 0
175 198 0
174 197 0
174 197 0
175 198 0
174 198 0
174 197 0
175 198 0
174 198 0
175 198 0
174 197 0
175 198 0
174 197 0
173 196 0
174 197 0
175 198 0
174 197 0
174 197 0
175 198 0
174 198 0
174 198 0
175 198 0
174 197 0
174 198 0
175 198 0
174 198 0
175 198 0
173 197 0
176 198 0
175 198 0
175 198 0
175 198 0
176 198 0
174 197 0
175 198 0
174 198 0
174 198 0
174 197 0
175 198 0
174 198 0
174 198 0
175 198 0
175 198 0
175 198 0
174 198 0
175 198 0
175 198 0
174 198 0
175 198 0
175 198 0
174 198 0
174 198 0
174 198 0
174 197 0
173 197 0
174 198 0
174 198 0
175 198 0
176 198 0
175 198 0
174 198 0
175 198 0
173 197 0
175 198 0
174 197 0
174 197 0
175 198 0
174 197 0
175 198 0
173 197 0
175 198 0
176 198 0
175 198 0
174 197 0
175 198 0
175 198 0
175 198 0
175 198 0
174 197 0
175 198 0
174 198 0
174 198 0
174 198 0
175 198 0
174 198 0
173 197 0
175 198 0
175 198 0
174 198 0
175 198 0
175 198 0
174 198 0
174 198 0
174 198 0
174 198 0
174 198 0
175 198 0
173 197 0
174 198 0
173 197 0
174 197 0
174 197 0
174 198 0
174 198 0
174 198 0
175 198 0
174 198 0
175 198 0
174 197 0
175 198 0
175 198 0
175 198 0
174 198 0
174 197 0
174 197 0
174 197 0
174 197 0
174 198 0
175 198 0
175 198 0
175 198 0
173 197 0
175 198 0
174 198 0
175 198 0
174 197 0
174 197 0
175 198 0
175 198 0
175 198 0
173 197 0
174 198 0
174 198 0
174 197 0
174 197 0
174 197 0
175 198 0
174 198 0
174 198 0
173 197 0
174 198 0
174 198 0
174 197 0
173 197 0
174 197 0
174 197 0
175 198 0
174 197 0
174 198 0
174 198 0
175 198 0
173 197 0
173 197 0
174 198 0
174 198 0
174 197 0
174 197 0
174 198 0
174 197 0
173 197 0
176 198 0
174 197 0
175 198 0
174 198 0
175 198 0
175 198 0
174 198 0
174 198 0
174 197 0
174 197 0
172 196 0
174 198 0
175 198 0
174 198 0
173 197 0
173 197 0
173 197 0
174 197 0
174 198 0
174 198 0
175 198 0
175 198 0
173 197 0
175 198 0
173 197 0
173 197 0
174 197 0
174 197 0
175 198 0
173 196 0
173 197 0
173 197 0
174 197 0
173 197 0
174 198 0
174 197 0
174 198 0
172 196 0
175 198 0
173 197 0
175 198 0
173 197 0
172 196 0
174 197 0
174 198 0
174 198 0
175 198 0
174 198 0
174 198 0
173 196 0
174 196 22
174 187 52
176 183 65
176 175 80
173 156 96
174 138 111
167 125 112
173 118 128
174 114 130
176 117 133
172 114 130
173 114 129
171 110 125
176 116 131
173 113 128
175 115 130
174 115 131
173 113 129
175 116 133
175 115 130
172 113 129
175 115 130
171 113 129
175 116 132
171 113 128
171 111 126
173 113 128
172 112 128
166 109 124
173 113 128
170 111 125
165 107 122
168 110 125
164 104 118
165 106 120
164 106 121
161 103 117
158 98 111
160 100 113
164 106 121
166 106 121
164 105 119
161 103 118
163 103 117
166 106 120
165 103 116
168 107 121
166 107 122
167 109 124
165 105 120
171 112 127
170 111 127
168 108 123
170 112 126
170 112 128
173 113 129
172 113 128
174 114 130
171 112 127
174 114 130
174 114 129
173 114 129
176 117 133
175 114 130
175 114 130
175 115 131
176 116 131
174 114 129
174 115 131
176 116 131
174 114 129
177 117 133
173 115 131
173 114 129
173 119 125
175 131 122
175 147 108
174 155 101
173 171 79
175 179 69
175 189 49
175 195 29
175 198 0
174 198 0
174 197 0
176 199 0
175 198 0
175 198 0
174 197 0
173 197 0
175 198 0
173 197 0
174 197 0
174 197 0
174 197 0
173 197 0
175 198 0
174 198 0
174 197 0
175 198 0
175 198 0
174 197 0
175 198 0
174 197 0
175 198 0
173 197 0
174 197 0
174 197 0
174 197 0
174 197 0
175 198 0
175 198 0
174 197 0
174 197 0
174 198 0
174 197 0
174 197 0
174 197 0
174 198 0
174 197 0
174 197 0
174 198 0
174 198 0
174 198 0
176 199 0
174 197 0
175 198 0
174 198 0
174 197 0
175 198 0
175 198 0
174 198 0
174 197 0
175 198 0
175 198 0
173 197 0
174 197 0
175 198 0
173 197 0
175 198 0
174 198 0
174 198 0
174 197 0
174 198 0
174 197 0
175 198 0
174 198 0
174 198 0
174 197 0
176 198 0
175 198 0
175 198 0
173 197 0
174 198 0
174 198 0
175 198 0
175 198 0
174 198 0
175 198 0
174 198 0
174 198 0
174 197 0
174 198 0
175 198 0
174 198 0
175 198 0
174 198 0
175 198 0
174 198 0
175 198 0
174 197 0
174 198 0
174 197 0
173 197 0
174 198 0
175 198 0
174 198 0
176 199 0
175 198 0
175 198 0
174 198 0
174 197 0
175 198 0
175 198 0
174 197 0
174 198 0
175 198 0
175 198 0
175 198 0
174 198 0
175 198 0
173 197 0
175 198 0
174 198 0
174 198 0
174 198 0
174 197 0
175 198 0
174 197 0
175 198 0
174 198 0
175 198 0
174 197 0
174 198 0
174 198 0
174 198 0
175 198 0
175 198 0
174 198 0
174 197 0
174 197 0
174 198 0
174 198 0
175 198 0
174 198 0
175 198 0
174 198 0
175 198 0
174 197 0
174 197 0
173 197 0
175 198 0
175 198 0
175 198 0
175 198 0
175 198 0
175 198 0
175 198 0
174 198 0
175 198 0
173 197 0
174 197 0
174 198 0
174 197 0
175 198 0
174 197 0
174 198 0
173 197 0
173 197 0
175 198 0
175 198 0
175 198 0
175 198 0
175 198 0
174 198 0
175 198 0
174 198 0
174 198 0
175 198 0
174 197 0
174 197 0
174 197 0
174 198 0
174 198 0
174 197 0
175 198 0
175 198 0
175 198 0
173 197 0
173 197 0
174 197 0
174 198 0
175 198 0
175 198 0
175 198 0
174 198 0
175 198 0
176 199 0
175 198 0
176 199 0
174 198 0
174 198 0
174 198 0
175 198 0
175 198 0
174 197 0
174 197 0
174 197 0
173 197 0
175 198 0
175 198 0
173 197 0
175 198 0
174 197 0
175 198 0
174 198 0
174 198 0
174 198 0
173 197 0
174 197 0
175 198 0
174 198 0
174 198 0
175 198 0
175 198 0
176 198 0
174 198 0
174 197 0
174 197 0
174 198 0
174 197 0
175 198 0
174 198 0
174 198 0
174 198 0
174 197 0
175 198 0
174 197 0
174 198 0
175 198 0
174 198 0
175 198 0
174 198 0
174 197 0
174 197 0
173 197 0
175 198 0
174 197 0
174 197 0
174 198 0
174 198 0
175 198 0
174 198 0
174 197 0
172 197 0
175 198 0
175 198 0
173 197 0
174 198 0
174 197 0
174 198 0
175 198 0
174 197 0
174 197 0
175 198 0
175 198 0
175 198 0
174 198 0
173 197 0
174 197 0
175 198 0
175 198 0
174 197 0
175 198 0
175 198 0
175 198 0
174 197 0
176 199 0
174 197 0
175 198 0
174 198 0
174 198 0
173 197 0
174 197 0
174 198 0
175 198 0
175 198 0
173 197 0
175 198 0
175 198 0
174 198 0
174 198 0
175 198 0
176 199 0
174 197 0
174 198 0
174 198 0
174 198 0
174 198 0
175 198 0
175 198 0
173 197 0
174 197 0
174 197 0
175 198 0
174 198 0
174 197 0
175 198 0
175 198 0
175 198 0
174 197 0
173 197 0
174 198 0
173 196 0
175 198 0
173 197 0
174 197 0
175 198 0
173 197 0
174 198 0
175 198 0
174 197 0
174 197 0
175 198 0
174 198 0
175 198 0
174 197 0
175 198 0
175 198 0
174 196 19
174 195 26
174 185 56
175 181 64
175 170 84
173 155 99
175 147 108
172 124 122
175 118 127
176 116 132
176 116 132
174 116 132
176 117 133
176 115 131
175 117 133
175 115 131
173 113 129
174 114 130
174 113 128
171 113 129
171 113 128
173 114 129
173 114 129
172 113 129
171 112 127
174 114 129
172 114 130
171 112 128
170 111 127
169 110 125
167 109 124
167 110 125
169 110 125
166 107 122
167 108 123
164 105 119
166 104 118
163 105 119
159 100 114
163 103 116
166 106 120
160 101 115
165 105 120
160 99 112
162 103 117
162 101 115
160 100 114
166 106 120
165 107 122
165 104 117
161 102 116
170 110 125
173 114 130
171 112 127
171 111 127
173 112 127
169 110 126
171 111 126
178 118 133
174 116 131
173 113 128
171 112 127
173 114 130
173 114 130
174 115 130
175 114 129
173 114 130
176 117 133
175 116 132
176 117 133
176 117 132
177 117 133
174 115 131
173 114 130
175 117 133
173 119 124
174 128 120
174 142 112
174 157 99
175 167 87
173 174 70
174 187 49
175 193 37
174 196 17
174 197 0
175 198 0
175 198 0
176 199 0
174 197 0
173 197 0
173 197 0
175 198 0
175 198 0
174 197 0
173 197 0
175 198 0
175 198 0
174 198 0
174 198 0
175 198 0
175 198 0
173 197 0
174 197 0
173 197 0
176 198 0
174 197 0
174 198 0
175 198 0
175 198 0
174 198 0
173 197 0
174 197 0
175 198 0
174 197 0
173 197 0
174 197 0
175 198 0
174 198 0
175 198 0
175 198 0
174 197 0
175 198 0
175 198 0
175 198 0
175 198 0
175 198 0
175 198 0
174 198 0
175 198 0
173 197 0
174 197 0
174 197 0
175 197 0
175 198 0
175 198 0
175 198 0
174 197 0
174 198 0
173 197 0
174 197 0
174 198 0
175 198 0
174 197 0
174 198 0
175 198 0
174 198 0
174 197 0
175 198 0
174 197 0
175 198 0
175 198 0
174 197 0
175 198 0
174 197 0
174 198 0
173 197 0
174 198 0
174 197 0
174 198 0
175 198 0
175 198 0
174 197 0
175 198 0
173 197 0
175 198 0
175 198 0
174 197 0
174 197 0
175 198 0
174 197 0
175 198 0
174 198 0
174 197 0
174 198 0
176 198 0
173 197 0
174 197 0
173 197 0
174 197 0
175 198 0
175 198 0
174 198 0
175 198 0
175 198 0
175 198 0
175 198 0
173 197 0
174 198 0
175 198 0
174 198 0
175 198 0
175 198 0
173 197 0
175 198 0
174 197 0
175 198 0
175 198 0
174 198 0
174 198 0
174 198 0
174 197 0
173 197 0
174 198 0
174 198 0
175 198 0
173 197 0
175 198 0
174 197 0
173 197 0
175 198 0
175 198 0
175 198 0
174 198 0
174 198 0
174 197 0
173 197 0
175 198 0
174 197 0
174 198 0
174 198 0
175 198 0
174 197 0
174 197 0
174 197 0
174 198 0
175 198 0
175 198 0
175 198 0
174 197 0
175 198 0
174 198 0
174 197 0
175 198 0
174 198 0
174 198 0
174 198 0
174 197 0
175 198 0
174 198 0
175 198 0
173 197 0
175 198 0
174 197 0
175 198 0
174 198 0
175 198 0
175 198 0
176 198 0
175 198 0
174 198 0
175 198 0
175 198 0
173 197 0
176 199 0
174 198 0
175 198 0
173 197 0
173 197 0
175 198 0
175 198 0
174 198 0
174 198 0
174 198 0
174 197 0
174 198 0
174 198 0
174 197 0
174 198 0
174 198 0
175 198 0
173 197 0
175 198 0
175 198 0
175 198 0
174 198 0
174 197 0
174 198 0
175 198 0
174 197 0
175 198 0
174 197 0
173 197 0
174 198 0
175 198 0
174 198 0
174 198 0
173 197 0
174 198 0
174 198 0
174 198 0
175 198 0
175 198 0
175 198 0
173 197 0
174 197 0
174 198 0
175 198 0
175 198 0
175 198 0
175 198 0
173 197 0
174 198 0
174 197 0
174 198 0
175 198 0
174 198 0
174 198 0
174 197 0
174 197 0
175 198 0
175 198 0
174 197 0
175 198 0
174 197 0
174 198 0
174 198 0
174 197 0
174 198 0
175 198 0
174 198 0
174 197 0
175 198 0
174 197 0
175 198 0
174 198 0
174 198 0
174 197 0
174 197 0
175 198 0
173 197 0
175 198 0
175 198 0
173 197 0
175 198 0
174 197 0
175 198 0
174 198 0
174 198 0
174 197 0
174 198 0
174 198 0
174 197 0
174 198 0
174 198 0
173 197 0
174 197 0
174 198 0
174 198 0
175 198 0
174 198 0
174 197 0
174 197 0
174 197 0
174 198 0
174 198 0
174 197 0
175 198 0
173 197 0
175 198 0
174 198 0
174 198 0
174 198 0
174 198 0
173 197 0
173 197 0
174 197 0
173 197 0
174 197 0
174 197 0
175 198 0
174 197 0
175 198 0
174 197 0
174 197 0
174 198 0
175 198 0
173 197 0
174 197 0
173 197 0
173 197 0
176 198 0
174 197 0
175 198 0
173 197 0
174 198 0
174 198 0
173 197 0
174 198 0
174 198 0
174 198 0
174 198 0
174 198 0
174 197 0
174 198 0
175 198 0
175 198 0
174 197 0
174 197 0
173 197 0
172 196 9
174 193 34
173 186 48
174 181 65
174 177 71
176 164 94
174 153 102
174 143 110
174 127 122
174 117 131
174 116 132
172 114 129
174 115 131
173 115 131
176 116 132
171 112 127
173 114 130
177 118 134
176 118 134
174 115 131
175 116 131
174 114 130
173 115 131
169 112 128
171 112 127
171 110 125
169 111 126
172 114 130
170 112 128
171 113 129
169 110 125
169 112 127
167 109 124
167 109 124
165 107 121
165 106 120
161 103 117
164 105 120
164 104 118
165 105 119
155 95 108
156 98 112
160 101 114
159 100 113
159 100 113
164 105 119
162 102 116
163 101 115
165 106 120
166 106 120
160 102 116
170 112 128
167 108 123
168 109 124
168 110 125
171 111 126
172 112 127
170 111 126
172 113 128
172 114 130
172 112 127
171 110 125
172 113 129
173 113 128
172 114 130
172 113 128
174 115 130
172 113 128
176 117 132
173 112 127
173 114 130
175 116 132
175 115 130
176 117 132
176 117 133
177 117 133
175 116 127
176 126 127
174 139 114
175 152 106
173 157 95
174 173 73
175 183 62
175 189 45
175 194 32
174 197 0
175 198 0
175 198 0
174 197 0
175 198 0
175 198 0
173 197 0
174 197 0
174 198 0
175 198 0
174 198 0
174 197 0
175 198 0
174 198 0
174 197 0
174 198 0
174 197 0
174 197 0
175 198 0
175 198 0
174 198 0
174 197 0
174 197 0
174 197 0
174 198 0
175 198 0
173 197 0
175 198 0
174 198 0
173 197 0
174 197 0
173 197 0
174 197 0
174 198 0
175 198 0
174 198 0
174 198 0
174 198 0
176 198 0
175 198 0
173 197 0
173 197 0
175 198 0
175 198 0
175 198 0
174 198 0
174 197 0
175 197 0
174 198 0
175 198 0
173 197 0
175 198 0
174 198 0
174 197 0
173 197 0
175 198 0
173 197 0
175 198 0
175 198 0
175 198 0
175 198 0
174 198 0
175 198 0
175 198 0
173 197 0
174 197 0
175 198 0
176 198 0
175 197 0
173 197 0
175 198 0
175 198 0
174 198 0
174 198 0
174 198 0
175 198 0
174 198 0
175 198 0
175 198 0
174 198 0
175 198 0
175 198 0
175 198 0
174 197 0
174 198 0
175 198 0
174 198 0
175 198 0
175 198 0
174 198 0
174 197 0
175 198 0
174 198 0
174 197 0
173 197 0
174 197 0
173 197 0
175 198 0
174 197 0
174 198 0
174 198 0
174 198 0
175 198 0
174 198 0
175 198 0
175 198 0
175 198 0
173 197 0
175 198 0
175 198 0
174 198 0
173 197 0
176 199 0
174 197 0
175 198 0
174 198 0
174 197 0
175 198 0
174 198 0
176 198 0
174 198 0
175 198 0
174 197 0
174 198 0
174 197 0
174 198 0
173 197 0
173 197 0
175 198 0
174 198 0
173 197 0
174 198 0
174 198 0
175 198 0
175 198 0
175 198 0
174 197 0
176 198 0
176 198 0
175 198 0
175 198 0
175 198 0
174 198 0
175 198 0
175 198 0
175 198 0
173 197 0
174 198 0
174 197 0
174 198 0
174 198 0
175 198 0
174 198 0
175 198 0
175 198 0
174 198 0
174 198 0
175 198 0
173 197 0
174 198 0
174 198 0
175 198 0
174 198 0
174 198 0
174 198 0
174 197 0
175 198 0
175 198 0
174 198 0
174 198 0
174 198 0
176 198 0
174 198 0
174 197 0
175 198 0
175 198 0
174 197 0
174 198 0
175 198 0
174 198 0
174 197 0
175 198 0
173 197 0
175 198 0
174 198 0
175 198 0
174 197 0
176 199 0
174 198 0
174 198 0
175 198 0
174 198 0
173 197 0
175 198 0
175 198 0
175 198 0
174 198 0
175 198 0
175 198 0
175 198 0
174 198 0
175 198 0
174 198 0
174 198 0
174 198 0
174 197 0
176 199 0
174 197 0
174 198 0
176 198 0
173 197 0
173 197 0
175 198 0
175 198 0
174 198 0
174 198 0
174 198 0
175 198 0
174 197 0
174 198 0
174 198 0
174 198 0
175 198 0
174 198 0
173 197 0
175 198 0
175 198 0
174 198 0
173 197 0
174 198 0
173 197 0
174 198 0
174 197 0
174 197 0
174 198 0
174 197 0
173 197 0
173 197 0
174 198 0
175 198 0
174 198 0
174 198 0
175 198 0
174 198 0
174 198 0
174 198 0
173 197 0
175 198 0
174 198 0
175 198 0
175 198 0
175 198 0
174 197 0
174 197 0
174 198 0
174 198 0
175 198 0
174 198 0
174 197 0
174 198 0
174 198 0
174 197 0
174 197 0
175 198 0
174 197 0
174 198 0
174 198 0
174 198 0
175 198 0
174 197 0
175 198 0
174 198 0
175 198 0
175 198 0
174 197 0
175 198 0
173 197 0
174 198 0
175 198 0
174 198 0
174 197 0
174 197 0
173 197 0
173 197 0
175 198 0
174 198 0
174 197 0
174 198 0
175 198 0
174 197 0
175 198 0
174 197 0
173 197 0
175 198 0
174 197 0
175 198 0
174 198 0
173 196 0
173 196 0
174 197 0
174 197 0
174 198 0
174 197 0
174 197 0
174 197 0
175 198 0
174 197 0
174 197 0
175 197 0
174 197 0
174 197 0
174 198 0
173 197 0
175 198 0
174 197 0
174 197 17
175 191 39
174 184 55
174 182 64
175 169 85
175 158 99
175 153 101
174 143 110
172 127 119
174 116 130
175 116 131
175 116 131
177 117 132
174 116 132
172 113 128
172 113 129
175 116 132
173 114 130
174 114 130
175 115 130
174 115 130
173 114 129
173 113 129
174 115 131
173 115 131
172 114 129
173 114 129
170 111 126
168 109 124
172 112 127
169 111 127
171 111 127
164 105 119
164 104 118
163 104 119
164 104 118
167 107 121
164 105 119
160 100 113
163 102 116
159 98 112
160 101 115
157 99 112
160 99 112
163 103 117
159 98 112
163 102 117
163 101 115
163 103 117
166 106 120
167 107 122
165 105 119
165 104 118
166 108 122
167 106 120
169 112 127
173 114 129
168 109 124
166 108 122
172 112 127
172 113 128
171 113 129
170 110 125
172 114 130
174 115 131
173 114 130
172 113 129
175 115 131
171 111 126
174 114 129
173 113 128
175 116 132
176 115 131
175 116 132
173 114 129
176 117 133
176 118 128
174 128 123
175 142 112
175 147 106
175 158 91
176 168 86
176 181 67
174 184 53
174 190 39
175 196 22
175 198 0
174 197 0
174 197 0
174 197 0
175 198 0
176 198 0
174 197 0
175 198 0
174 197 0
174 197 0
174 197 0
174 198 0
173 197 0
173 197 0
175 198 0
174 197 0
173 197 0
175 198 0
174 198 0
175 198 0
173 196 0
174 197 0
175 198 0
175 198 0
174 198 0
175 198 0
175 198 0
174 197 0
174 198 0
174 197 0
173 197 0
175 198 0
174 198 0
174 197 0
175 198 0
174 198 0
175 198 0
174 197 0
174 198 0
175 198 0
176 198 0
173 197 0
175 198 0
175 198 0
175 198 0
173 197 0
174 197 0
176 199 0
175 198 0
175 198 0
174 197 0
174 198 0
174 198 0
174 198 0
173 197 0
173 197 0
174 197 0
173 197 0
173 197 0
174 197 0
175 198 0
174 198 0
173 197 0
174 198 0
174 197 0
174 197 0
175 198 0
174 198 0
175 198 0
173 197 0
175 198 0
175 198 0
174 198 0
175 198 0
174 197 0
174 197 0
174 198 0
174 198 0
173 197 0
175 198 0
175 198 0
175 198 0
174 197 0
174 197 0
173 197 0
176 198 0
175 198 0
174 198 0
174 197 0
174 197 0
175 198 0
174 198 0
174 198 0
174 198 0
173 196 0
174 197 0
174 197 0
175 198 0
174 198 0
174 197 0
175 198 0
174 197 0
174 198 0
174 197 0
175 198 0
174 198 0
176 198 0
174 198 0
174 198 0
174 197 0
175 198 0
175 198 0
175 198 0
174 198 0
175 198 0
175 198 0
174 197 0
174 197 0
175 198 0
174 198 0
176 198 0
175 198 0
175 198 0
174 197 0
174 197 0
174 197 0
175 198 0
174 197 0
174 198 0
175 198 0
175 198 0
175 198 0
174 197 0
175 198 0
175 198 0
175 198 0
175 198 0
175 198 0
176 198 0
174 198 0
175 198 0
175 198 0
174 198 0
173 197 0
174 198 0
174 198 0
174 198 0
174 198 0
175 198 0
174 198 0
174 198 0
175 198 0
175 198 0
174 197 0
174 198 0
175 198 0
175 198 0
174 198 0
173 197 0
175 198 0
174 198 0
175 198 0
174 198 0
175 198 0
175 198 0
174 197 0
174 198 0
176 198 0
173 197 0
174 197 0
173 197 0
174 198 0
174 197 0
174 198 0
174 197 0
174 198 0
174 198 0
175 198 0
175 198 0
175 198 0
175 198 0
175 198 0
174 197 0
175 198 0
174 197 0
175 198 0
174 198 0
174 198 0
174 198 0
175 198 0
175 198 0
175 198 0
174 198 0
173 197 0
174 197 0
176 199 0
176 198 0
173 197 0
174 198 0
175 198 0
175 198 0
174 198 0
174 197 0
174 198 0
175 198 0
173 197 0
175 198 0
175 198 0
174 197 0
175 198 0
174 198 0
174 198 0
174 198 0
174 198 0
174 198 0
175 198 0
174 198 0
174 198 0
175 198 0
174 197 0
173 197 0
174 197 0
174 198 0
175 198 0
174 197 0
175 198 0
175 198 0
173 197 0
174 198 0
174 197 0
174 197 0
175 198 0
174 198 0
174 197 0
174 198 0
174 198 0
174 198 0
175 198 0
175 198 0
176 198 0
174 197 0
175 198 0
174 197 0
174 198 0
174 198 0
174 197 0
174 197 0
175 198 0
173 197 0
174 198 0
175 198 0
174 198 0
174 198 0
174 197 0
175 198 0
175 198 0
175 198 0
173 197 0
173 197 0
175 198 0
175 198 0
174 197 0
174 198 0
174 197 0
174 197 0
174 197 0
173 197 0
173 197 0
175 198 0
174 198 0
174 197 0
174 197 0
175 198 0
175 198 0
174 197 0
175 198 0
176 198 0
174 197 0
174 197 0
174 197 0
175 198 0
174 197 0
175 198 0
174 197 0
173 197 0
174 197 0
174 197 0
174 197 0
174 198 0
174 198 0
175 198 0
175 198 0
174 197 0
174 197 0
175 198 0
175 198 0
174 198 0
174 198 0
174 197 0
175 198 0
174 198 0
174 198 0
174 197 0
174 197 0
174 198 0
174 197 0
173 197 0
174 197 0
175 198 0
174 197 0
173 196 0
174 197 0
174 198 0
174 197 14
175 194 32
175 189 48
175 186 56
174 170 82
173 167 84
173 154 98
172 145 107
174 136 119
174 122 125
174 116 129
175 115 130
176 117 132
174 116 132
174 115 130
174 115 130
175 114 129
171 113 129
176 116 131
175 115 130
174 114 130
172 114 130
173 114 129
174 116 132
172 114 129
172 113 128
173 114 129
171 112 127
167 109 125
172 114 129
170 111 126
170 110 125
166 108 122
166 108 123
164 105 119
165 105 119
164 104 118
164 104 118
162 103 117
163 103 117
161 100 114
160 99 112
161 100 113
159 100 114
162 100 114
164 102 115
162 102 116
161 102 116
159 98 111
165 106 120
165 106 120
166 108 123
164 105 120
166 107 122
171 113 128
167 110 125
167 110 125
171 112 128
170 112 127
171 112 128
173 115 131
169 110 125
172 114 130
174 115 130
173 114 129
173 113 128
173 113 129
173 114 130
173 114 130
174 115 131
173 112 128
176 116 131
175 117 133
172 111 127
172 113 128
175 116 132
175 116 132
173 115 128
173 123 122
178 141 117
173 145 106
174 157 94
176 168 84
174 175 74
174 183 61
173 190 35
174 194 26
174 196 10
173 197 0
173 197 0
174 197 0
174 198 0
175 198 0
174 197 0
173 197 0
173 197 0
176 199 0
173 197 0
174 198 0
173 196 0
175 198 0
175 198 0
173 197 0
175 198 0
175 198 0
175 197 0
174 198 0
174 198 0
175 198 0
174 197 0
175 198 0
174 198 0
175 198 0
174 197 0
173 197 0
175 198 0
173 197 0
173 197 0
174 197 0
173 197 0
174 197 0
174 197 0
174 198 0
173 197 0
175 198 0
173 197 0
174 197 0
174 198 0
174 197 0
174 197 0
174 197 0
175 198 0
174 197 0
174 198 0
174 197 0
174 198 0
175 198 0
174 197 0
174 197 0
174 198 0
175 198 0
174 197 0
174 197 0
174 198 0
174 197 0
174 198 0
174 198 0
174 197 0
174 197 0
174 197 0
174 198 0
174 197 0
174 198 0
174 198 0
174 197 0
174 197 0
175 198 0
174 198 0
174 198 0
175 198 0
173 197 0
174 198 0
174 197 0
175 198 0
174 198 0
176 199 0
174 197 0
175 198 0
174 197 0
173 196 0
176 199 0
175 197 0
174 198 0
174 197 0
174 197 0
174 197 0
174 198 0
173 196 0
173 197 0
174 198 0
174 197 0
173 197 0
175 198 0
175 198 0
174 198 0
174 198 0
174 198 0
175 198 0
174 197 0
174 198 0
175 198 0
175 197 0
173 197 0
174 197 0
175 198 0
175 198 0
176 198 0
176 198 0
174 198 0
175 198 0
174 197 0
175 198 0
175 198 0
175 198 0
175 198 0
174 197 0
174 198 0
175 198 0
174 198 0
175 198 0
175 198 0
175 198 0
173 197 0
174 198 0
174 198 0
175 198 0
175 198 0
175 198 0
174 197 0
173 197 0
175 197 0
174 197 0
173 197 0
174 198 0
174 198 0
174 198 0
174 198 0
175 198 0
175 198 0
174 198 0
173 197 0
174 198 0
175 198 0
174 197 0
175 198 0
175 198 0
174 197 0
175 198 0
175 198 0
174 198 0
174 198 0
174 198 0
174 198 0
175 198 0
176 198 0
176 198 0
174 198 0
175 198 0
174 198 0
175 198 0
173 197 0
174 198 0
174 198 0
174 198 0
175 198 0
174 198 0
175 198 0
175 198 0
173 197 0
173 197 0
174 198 0
174 198 0
174 198 0
175 198 0
175 198 0
174 198 0
173 197 0
174 197 0
174 197 0
176 198 0
174 198 0
174 198 0
175 198 0
174 197 0
175 198 0
175 198 0
174 198 0
175 198 0
174 197 0
175 198 0
174 197 0
174 198 0
176 199 0
175 198 0
174 198 0
174 197 0
174 198 0
174 198 0
174 198 0
174 198 0
174 197 0
175 197 0
174 197 0
175 198 0
174 198 0
175 198 0
174 197 0
175 198 0
175 198 0
175 198 0
175 198 0
174 197 0
175 198 0
174 198 0
174 198 0
174 198 0
173 197 0
174 198 0
173 197 0
174 197 0
175 198 0
174 198 0
174 198 0
174 197 0
173 197 0
174 197 0
174 198 0
174 198 0
174 197 0
175 198 0
175 198 0
176 199 0
174 198 0
175 198 0
175 198 0
175 198 0
175 198 0
172 196 0
174 197 0
174 198 0
175 198 0
173 197 0
174 197 0
174 198 0
174 198 0
174 197 0
174 197 0
175 198 0
174 198 0
175 198 0
175 198 0
174 198 0
174 197 0
174 198 0
174 198 0
174 197 0
174 198 0
175 198 0
173 197 0
174 198 0
173 197 0
173 196 0
176 198 0
174 198 0
175 198 0
174 197 0
174 197 0
175 198 0
175 198 0
174 197 0
174 197 0
176 199 0
174 197 0
173 197 0
175 198 0
174 198 0
175 198 0
173 197 0
175 198 0
175 198 0
174 197 0
174 198 0
174 197 0
174 197 0
174 198 0
173 197 0
175 198 0
175 198 0
174 197 0
174 197 0
174 197 0
174 197 0
174 198 0
174 198 0
174 197 0
173 197 0
175 198 0
174 198 0
173 197 0
174 197 0
173 197 0
174 197 0
174 197 0
175 198 0
176 199 0
173 196 0
174 197 0
175 198 0
174 198 0
174 198 0
175 197 17
173 193 29
175 190 46
174 182 61
175 175 76
175 164 92
175 157 101
175 145 113
176 134 121
171 121 123
174 114 130
173 115 131
171 114 131
173 113 129
173 116 132
174 116 131
171 111 126
174 115 131
177 117 133
171 113 128
170 111 126
174 114 130
173 115 131
171 113 128
169 109 124
171 113 129
171 111 126
171 113 128
169 110 126
166 108 123
164 105 119
163 105 119
163 106 121
169 110 125
165 106 120
159 100 114
168 108 123
167 106 120
160 99 113
161 101 115
163 102 116
155 96 109
158 96 109
162 102 115
167 103 117
159 99 113
158 99 113
160 99 112
158 97 110
163 105 119
160 101 115
167 108 123
165 104 118
168 108 123
170 110 125
166 107 122
167 107 121
170 111 126
170 111 126
169 110 125
170 112 127
170 111 126
171 112 128
169 112 127
171 112 127
172 113 128
173 113 129
173 114 129
174 116 131
172 113 129
173 114 130
175 116 131
174 117 133
171 110 125
175 115 131
173 113 129
176 117 133
175 116 132
172 121 123
174 132 120
171 139 108
173 150 102
176 171 82
175 171 83
175 181 67
175 188 53
174 194 30
174 195 19
174 198 0
175 197 0
174 197 0
172 196 0
174 198 0
173 197 0
174 197 0
174 197 0
174 197 0
174 198 0
174 198 0
173 197 0
174 197 0
173 197 0
174 198 0
174 198 0
174 198 0
175 198 0
175 198 0
174 197 0
175 198 0
174 198 0
174 197 0
175 198 0
175 198 0
174 197 0
175 198 0
174 198 0
174 197 0
173 197 0
174 197 0
173 197 0
174 198 0
175 198 0
174 197 0
176 198 0
174 198 0
174 198 0
174 198 0
175 198 0
174 198 0
174 197 0
175 197 0
173 197 0
174 197 0
174 197 0
174 197 0
174 198 0
173 197 0
174 198 0
175 198 0
174 198 0
174 197 0
173 197 0
174 197 0
174 198 0
174 197 0
173 197 0
175 198 0
174 198 0
175 198 0
173 197 0
175 198 0
174 198 0
175 198 0
174 198 0
174 198 0
175 198 0
174 197 0
174 197 0
173 197 0
172 197 0
173 197 0
174 198 0
174 197 0
175 198 0
175 198 0
174 197 0
175 198 0
175 198 0
174 197 0
174 197 0
174 198 0
173 197 0
173 196 0
174 197 0
174 197 0
174 197 0
174 198 0
175 198 0
175 198 0
174 197 0
173 197 0
175 198 0
174 198 0
176 199 0
175 198 0
174 198 0
175 198 0
174 198 0
174 197 0
174 198 0
173 196 0
174 198 0
175 198 0
175 198 0
174 197 0
175 198 0
174 197 0
175 198 0
175 198 0
175 198 0
175 198 0
175 198 0
175 198 0
174 197 0
174 197 0
175 198 0
173 197 0
174 197 0
174 198 0
174 197 0
174 198 0
174 197 0
175 198 0
174 198 0
174 198 0
175 198 0
174 198 0
175 198 0
175 198 0
174 198 0
174 197 0
174 197 0
175 198 0
174 198 0
175 198 0
175 198 0
175 198 0
175 198 0
173 197 0
174 198 0
176 198 0
175 198 0
174 198 0
175 198 0
175 198 0
174 198 0
175 198 0
175 198 0
174 198 0
175 198 0
174 198 0
174 198 0
174 198 0
175 198 0
175 198 0
173 197 0
173 197 0
176 198 0
174 197 0
175 198 0
175 198 0
175 198 0
174 198 0
174 197 0
175 198 0
173 197 0
174 198 0
175 198 0
175 198 0
174 197 0
175 198 0
173 197 0
174 198 0
174 198 0
174 198 0
175 198 0
173 197 0
175 198 0
174 197 0
174 198 0
175 198 0
175 198 0
175 198 0
175 198 0
174 197 0
175 198 0
174 197 0
174 197 0
175 198 0
174 197 0
175 198 0
174 198 0
174 198 0
174 197 0
175 198 0
176 199 0
173 197 0
174 198 0
175 198 0
175 198 0
173 197 0
174 198 0
175 198 0
175 198 0
175 198 0
174 197 0
174 197 0
174 197 0
175 198 0
175 198 0
175 198 0
174 197 0
175 198 0
174 198 0
175 198 0
175 198 0
174 198 0
175 198 0
174 197 0
173 197 0
174 197 0
174 198 0
173 197 0
175 198 0
174 196 0
174 198 0
175 198 0
174 197 0
175 197 0
175 198 0
174 197 0
174 197 0
174 198 0
175 198 0
174 198 0
174 197 0
174 198 0
175 198 0
175 198 0
174 198 0
175 198 0
174 198 0
174 197 0
174 197 0
174 197 0
174 197 0
175 197 0
173 197 0
175 198 0
174 198 0
174 197 0
173 197 0
174 198 0
174 197 0
175 198 0
173 197 0
174 198 0
173 197 0
173 197 0
175 198 0
174 197 0
174 197 0
174 197 0
174 198 0
174 198 0
175 198 0
173 197 0
174 197 0
175 198 0
173 196 0
175 198 0
175 198 0
176 198 0
173 197 0
174 198 0
173 197 0
175 198 0
173 197 0
174 198 0
175 198 0
173 197 0
174 197 0
173 197 0
175 198 0
174 198 0
175 198 0
174 198 0
175 198 0
174 197 0
174 197 0
174 197 0
174 198 0
173 197 0
174 197 0
175 198 0
174 198 0
175 198 0
174 197 0
173 197 0
175 198 0
173 196 0
174 197 0
174 198 0
173 197 0
173 196 0
175 198 0
175 198 0
175 198 0
173 197 0
174 197 0
174 193 31
174 190 42
173 184 58
173 174 72
175 166 90
173 159 92
174 147 108
173 138 113
176 134 121
176 126 126
174 117 129
173 114 130
175 117 133
175 117 132
173 114 129
173 115 131
171 111 125
173 115 131
173 114 130
173 114 129
171 113 128
173 115 130
170 111 126
170 112 127
170 111 127
168 110 125
170 109 124
164 108 124
167 109 124
168 110 125
165 106 120
168 109 124
168 109 124
161 103 117
164 103 118
164 106 120
167 105 119
159 99 113
163 103 117
163 103 117
157 98 111
162 102 115
165 104 117
160 99 113
164 102 115
160 101 113
163 103 117
164 103 117
162 101 115
160 98 111
162 102 116
164 105 119
162 102 115
165 107 123
166 110 125
165 106 120
168 111 126
169 110 125
166 108 123
168 107 122
171 112 128
168 109 124
173 115 131
170 110 126
170 112 128
172 113 129
169 110 124
171 113 129
172 114 130
174 115 131
174 115 130
177 118 134
172 112 127
174 115 130
172 113 128
174 115 130
176 116 132
175 117 131
172 124 120
176 136 121
175 139 116
174 151 101
176 156 101
172 170 77
174 175 73
174 183 61
175 192 38
175 193 32
174 197 0
174 197 0
174 197 0
174 197 0
174 198 0
175 198 0
176 199 0
174 197 0
175 198 0
174 198 0
175 198 0
174 197 0
175 198 0
174 198 0
173 197 0
174 197 0
174 197 0
175 198 0
173 197 0
174 197 0
174 198 0
174 197 0
175 198 0
174 196 0
174 197 0
174 197 0
174 198 0
174 198 0
174 197 0
174 198 0
175 198 0
173 196 0
174 198 0
175 198 0
174 198 0
174 197 0
174 198 0
174 198 0
173 197 0
173 197 0
174 197 0
175 198 0
175 198 0
174 197 0
175 198 0
175 198 0
174 198 0
174 197 0
175 198 0
174 197 0
173 197 0
176 198 0
175 198 0
174 198 0
175 198 0
174 198 0
174 197 0
175 198 0
175 198 0
173 197 0
174 197 0
173 197 0
174 198 0
174 198 0
173 197 0
174 198 0
173 197 0
175 198 0
174 197 0
174 198 0
173 197 0
174 198 0
175 198 0
174 197 0
175 198 0
174 197 0
174 197 0
173 197 0
175 198 0
174 198 0
174 197 0
175 198 0
174 198 0
173 197 0
173 197 0
175 198 0
174 198 0
175 198 0
174 198 0
175 198 0
174 197 0
174 198 0
173 197 0
174 197 0
174 197 0
173 197 0
175 198 0
174 197 0
174 197 0
175 198 0
175 198 0
175 198 0
174 198 0
175 198 0
173 197 0
176 198 0
176 199 0
175 198 0
176 198 0
174 198 0
175 198 0
175 198 0
174 198 0
174 198 0
175 198 0
174 197 0
174 198 0
174 198 0
175 198 0
173 197 0
174 198 0
174 197 0
175 198 0
173 196 0
174 198 0
174 198 0
175 198 0
175 198 0
174 197 0
173 197 0
174 198 0
175 198 0
174 198 0
175 198 0
174 198 0
174 198 0
175 198 0
175 198 0
176 198 0
175 198 0
174 198 0
175 198 0
175 198 0
174 198 0
175 198 0
174 198 0
175 198 0
174 198 0
174 198 0
175 198 0
174 198 0
175 198 0
175 198 0
175 198 0
174 198 0
174 198 0
175 198 0
175 198 0
175 198 0
174 198 0
175 198 0
172 197 0
175 198 0
173 197 0
174 198 0
175 198 0
175 198 0
174 197 0
175 198 0
174 198 0
174 198 0
174 197 0
174 197 0
174 197 0
174 198 0
175 198 0
174 198 0
175 198 0
175 198 0
175 198 0
174 197 0
174 197 0
175 198 0
174 198 0
173 197 0
173 197 0
174 197 0
174 197 0
174 198 0
174 197 0
174 198 0
174 198 0
173 197 0
175 198 0
174 198 0
175 198 0
174 198 0
174 197 0
174 197 0
173 197 0
174 198 0
175 198 0
175 198 0
175 198 0
174 198 0
174 197 0
174 197 0
174 198 0
175 198 0
174 197 0
174 198 0
174 198 0
174 197 0
174 198 0
173 197 0
174 198 0
173 197 0
174 198 0
174 198 0
175 198 0
175 198 0
176 198 0
174 198 0
174 198 0
174 198 0
175 198 0
175 198 0
174 198 0
173 197 0
174 198 0
173 197 0
175 198 0
175 198 0
174 198 0
174 197 0
174 198 0
175 197 0
175 198 0
174 197 0
175 198 0
173 195 0
174 198 0
174 198 0
175 198 0
174 198 0
173 197 0
174 197 0
174 197 0
174 197 0
174 198 0
174 197 0
174 197 0
173 197 0
176 199 0
175 198 0
174 197 0
174 197 0
174 198 0
175 198 0
175 198 0
175 198 0
174 197 0
175 198 0
173 197 0
175 198 0
173 197 0
174 197 0
174 198 0
173 197 0
174 197 0
174 197 0
174 198 0
175 198 0
174 197 0
175 198 0
175 198 0
174 197 0
173 197 0
174 197 0
173 197 0
175 198 0
174 198 0
175 198 0
174 198 0
175 198 0
174 198 0
174 198 0
174 197 0
173 197 0
173 196 0
175 198 0
174 198 0
174 198 0
176 199 0
174 197 0
174 197 0
174 197 0
172 196 0
174 197 0
174 197 0
175 198 0
174 198 0
173 196 0
174 197 0
174 198 0
174 197 0
174 197 0
175 198 0
173 197 0
174 198 0
174 197 0
174 197 17
174 192 35
175 187 55
177 179 74
174 178 67
174 167 87
174 155 100
175 146 108
174 139 112
174 131 123
173 121 126
174 118 131
173 115 130
168 110 125
176 116 132
175 116 133
172 114 130
173 114 129
172 111 126
172 112 127
170 111 126
171 113 129
169 111 126
171 112 127
170 111 126
168 109 124
169 110 124
170 111 127
166 109 124
162 106 120
170 111 126
165 105 119
169 109 124
163 106 121
164 105 119
167 107 121
163 103 116
158 100 114
167 107 121
160 101 115
161 100 113
161 97 110
159 98 111
163 103 118
161 101 114
161 100 113
164 100 114
159 100 114
159 98 112
158 98 111
161 101 114
166 108 123
163 103 117
160 101 115
164 105 120
165 107 121
168 108 122
165 106 121
170 111 126
166 106 121
169 109 124
174 114 130
169 110 125
167 108 123
171 112 128
169 110 125
170 112 127
170 111 126
169 110 125
170 111 126
169 110 126
173 113 129
173 114 129
174 114 130
175 114 129
171 112 127
179 118 133
174 115 131
170 112 127
174 125 123
174 128 120
174 147 109
175 155 100
175 156 103
174 167 87
173 174 73
174 181 65
175 191 42
174 193 31
174 195 20
174 197 0
175 198 0
174 198 0
175 198 0
174 197 0
174 197 0
174 197 0
175 198 0
174 197 0
174 198 0
173 197 0
174 197 0
174 197 0
175 198 0
174 198 0
174 197 0
176 198 0
175 198 0
174 197 0
175 198 0
173 197 0
174 198 0
174 197 0
173 197 0
174 198 0
172 196 0
174 197 0
174 198 0
173 196 0
174 198 0
174 197 0
174 198 0
173 197 0
172 197 0
174 197 0
175 198 0
174 198 0
173 197 0
174 197 0
176 198 0
174 197 0
175 198 0
173 197 0
174 197 0
175 198 0
176 198 0
173 197 0
174 197 0
175 198 0
175 198 0
175 198 0
173 197 0
175 198 0
174 197 0
174 197 0
173 197 0
174 197 0
174 197 0
174 198 0
174 198 0
174 197 0
175 198 0
174 197 0
174 198 0
174 197 0
172 195 0
174 198 0
175 198 0
175 198 0
175 198 0
174 197 0
175 198 0
174 198 0
174 197 0
174 198 0
174 198 0
174 198 0
173 197 0
174 197 0
175 198 0
174 197 0
174 198 0
174 198 0
174 198 0
175 198 0
174 198 0
174 197 0
175 198 0
175 198 0
174 198 0
175 198 0
174 198 0
174 198 0
175 198 0
175 198 0
174 197 0
174 198 0
173 197 0
175 198 0
175 198 0
175 198 0
175 198 0
174 198 0
173 197 0
174 197 0
175 198 0
173 197 0
174 198 0
173 197 0
175 198 0
175 198 0
175 198 0
174 198 0
174 197 0
175 198 0
174 198 0
175 198 0
175 198 0
174 198 0
173 197 0
174 198 0
175 198 0
174 197 0
174 198 0
176 198 0
175 198 0
174 198 0
174 198 0
174 198 0
174 198 0
174 198 0
174 198 0
174 197 0
174 198 0
173 196 0
175 198 0
174 198 0
175 198 0
175 198 0
174 198 0
175 198 0
174 198 0
174 198 0
175 198 0
175 198 0
173 197 0
174 198 0
175 198 0
174 198 0
176 199 0
174 198 0
175 198 0
174 198 0
175 198 0
174 198 0
173 197 0
174 198 0
174 197 0
175 198 0
173 197 0
174 197 0
175 198 0
175 198 0
175 198 0
174 198 0
174 198 0
174 197 0
173 197 0
174 197 0
175 198 0
174 198 0
174 198 0
175 198 0
174 197 0
174 198 0
175 198 0
175 198 0
175 198 0
175 198 0
175 198 0
175 198 0
174 197 0
173 197 0
174 198 0
175 198 0
173 197 0
175 198 0
173 197 0
174 197 0
174 197 0
174 198 0
174 197 0
175 198 0
175 198 0
174 197 0
174 197 0
174 197 0
174 198 0
174 197 0
175 198 0
174 198 0
174 198 0
175 198 0
174 197 0
174 197 0
174 198 0
173 197 0
174 198 0
174 197 0
173 197 0
174 197 0
174 198 0
176 199 0
174 198 0
173 196 0
174 197 0
173 197 0
175 198 0
175 198 0
175 198 0
175 198 0
174 197 0
175 198 0
175 198 0
174 198 0
175 198 0
174 198 0
173 196 0
174 198 0
173 197 0
174 198 0
173 197 0
173 197 0
174 197 0
174 197 0
176 199 0
173 197 0
174 197 0
173 197 0
174 197 0
176 198 0
174 198 0
174 198 0
174 198 0
175 198 0
174 198 0
175 198 0
175 198 0
173 197 0
173 197 0
175 198 0
174 198 0
175 198 0
174 198 0
175 198 0
173 197 0
174 198 0
175 198 0
173 197 0
174 198 0
174 198 0
174 197 0
173 197 0
174 197 0
173 197 0
174 198 0
174 197 0
175 198 0
175 198 0
175 198 0
173 197 0
174 198 0
174 197 0
175 198 0
174 197 0
175 198 0
174 197 0
174 197 0
175 198 0
174 198 0
175 198 0
174 198 0
174 197 0
175 197 0
174 198 0
175 198 0
174 196 0
174 197 0
174 198 0
174 198 0
175 197 0
174 197 0
174 197 0
174 197 0
174 197 0
173 197 0
175 197 0
174 198 0
174 197 0
173 197 0
174 197 0
174 197 0
174 197 0
173 197 0
173 197 0
174 198 0
174 198 0
174 198 0
174 197 0
174 198 9
174 194 31
175 190 46
175 185 58
173 180 62
175 174 79
174 158 94
173 150 100
175 143 108
176 142 118
174 131 117
174 119 130
174 114 130
173 114 130
173 114 130
173 115 131
172 113 129
174 115 131
168 111 126
174 115 131
172 115 132
169 111 127
169 112 128
173 113 128
171 111 126
170 112 127
168 109 125
168 109 124
171 111 126
168 109 124
163 106 121
171 111 126
169 109 124
163 104 119
163 105 120
165 105 120
168 107 122
163 104 118
164 106 120
166 107 121
159 100 113
164 105 119
163 103 118
160 99 112
164 103 118
162 102 115
161 100 113
161 102 116
163 103 117
164 104 117
162 103 117
167 106 119
165 103 117
161 101 115
165 104 118
165 105 119
164 106 120
162 103 117
166 107 122
164 106 121
170 111 127
170 110 125
172 112 127
171 110 126
168 110 125
169 109 124
171 111 126
170 111 126
172 114 130
169 110 126
172 113 129
174 113 129
172 114 130
174 116 131
171 112 128
173 115 131
173 113 129
173 114 129
178 119 135
173 113 128
176 124 127
174 128 121
175 139 115
173 142 109
174 159 97
175 162 92
176 174 78
173 175 72
174 185 58
175 191 42
174 195 24
173 196 10
175 198 0
175 198 0
174 198 0
173 197 0
174 198 0
173 197 0
175 198 0
174 198 0
174 197 0
174 197 0
174 198 0
174 197 0
175 197 0
173 197 0
175 198 0
174 197 0
175 198 0
174 197 0
173 197 0
175 198 0
174 198 0
174 198 0
175 198 0
174 197 0
173 196 0
174 198 0
173 197 0
174 197 0
175 197 0
173 197 0
174 197 0
174 197 0
174 198 0
174 197 0
173 197 0
174 198 0
175 198 0
174 197 0
174 198 0
175 198 0
174 198 0
172 196 0
175 198 0
175 198 0
174 198 0
174 197 0
175 198 0
174 198 0
173 197 0
175 198 0
175 198 0
175 198 0
175 198 0
174 198 0
175 198 0
174 198 0
174 198 0
173 197 0
175 198 0
174 197 0
174 197 0
174 198 0
174 197 0
175 198 0
174 197 0
173 196 0
174 198 0
173 197 0
172 195 0
173 197 0
174 197 0
174 198 0
174 197 0
175 197 0
173 197 0
176 198 0
174 198 0
174 198 0
174 198 0
175 198 0
175 198 0
175 198 0
175 198 0
175 198 0
173 196 0
175 198 0
174 198 0
174 197 0
174 198 0
175 198 0
175 198 0
174 198 0
174 198 0
175 198 0
175 198 0
175 198 0
174 198 0
175 198 0
174 198 0
173 197 0
175 198 0
174 197 0
175 197 0
175 198 0
174 198 0
174 198 0
174 198 0
173 197 0
175 198 0
174 197 0
173 197 0
174 198 0
174 198 0
174 198 0
175 198 0
174 198 0
175 198 0
174 198 0
175 198 0
174 197 0
174 198 0
174 198 0
173 197 0
175 198 0
174 198 0
174 197 0
175 198 0
174 198 0
174 198 0
174 198 0
174 197 0
175 198 0
173 197 0
173 196 0
175 198 0
173 197 0
173 197 0
174 198 0
174 198 0
174 198 0
174 198 0
175 198 0
175 198 0
174 198 0
173 197 0
176 199 0
175 198 0
174 198 0
175 198 0
174 197 0
174 198 0
175 198 0
175 198 0
175 198 0
175 198 0
174 198 0
174 198 0
174 197 0
176 198 0
175 198 0
174 198 0
175 198 0
174 198 0
175 198 0
175 198 0
174 198 0
174 198 0
175 198 0
175 198 0
174 197 0
175 198 0
173 197 0
173 197 0
174 198 0
174 197 0
174 197 0
174 198 0
173 197 0
174 198 0
175 198 0
174 197 0
174 197 0
174 198 0
174 197 0
174 197 0
174 198 0
174 198 0
174 198 0
174 198 0
173 197 0
175 198 0
174 197 0
175 198 0
174 197 0
174 197 0
175 198 0
174 197 0
175 198 0
174 197 0
173 197 0
175 198 0
175 198 0
174 198 0
175 198 0
174 197 0
174 198 0
174 198 0
174 198 0
174 198 0
175 198 0
174 198 0
174 198 0
174 197 0
173 197 0
175 198 0
175 198 0
175 198 0
175 198 0
173 197 0
174 198 0
174 198 0
175 198 0
173 197 0
173 197 0
174 197 0
174 197 0
174 198 0
175 198 0
174 198 0
175 198 0
175 198 0
174 197 0
174 198 0
175 198 0
175 198 0
174 197 0
175 198 0
175 198 0
172 196 0
173 196 0
174 197 0
175 198 0
174 197 0
174 197 0
176 199 0
174 197 0
175 198 0
173 197 0
174 198 0
173 197 0
174 198 0
175 198 0
174 198 0
174 197 0
174 197 0
174 197 0
174 197 0
174 198 0
173 197 0
174 197 0
174 197 0
173 197 0
175 198 0
175 198 0
173 196 0
175 198 0
174 197 0
174 197 0
174 197 0
175 198 0
173 196 0
175 198 0
174 197 0
174 197 0
173 196 0
174 198 0
174 198 0
174 197 0
174 198 0
174 197 0
174 197 0
173 196 0
174 198 0
175 198 0
174 197 0
174 197 0
174 198 0
175 198 0
174 198 0
174 197 0
174 197 0
173 197 0
172 196 0
174 197 0
174 198 0
174 198 0
174 197 0
175 198 0
174 197 0
174 197 0
173 197 0
174 197 0
174 198 0
174 197 0
174 197 0
175 198 0
174 197 0
175 198 0
174 195 28
175 193 34
174 188 47
175 181 65
173 178 66
176 171 83
174 162 93
172 150 99
172 142 111
173 136 112
171 124 119
175 121 128
172 114 128
170 111 127
175 115 130
171 112 127
171 113 128
172 114 130
171 113 128
170 112 127
172 112 127
170 111 127
174 115 131
169 110 125
165 108 123
171 110 124
170 112 127
168 110 125
168 109 124
165 106 121
169 111 126
163 104 118
168 110 125
168 108 124
166 105 119
167 108 123
165 106 120
166 105 119
164 105 120
165 107 121
166 107 121
165 104 118
167 107 122
161 100 114
168 107 121
164 102 115
164 104 118
167 104 118
164 103 117
169 108 122
167 108 122
163 103 117
168 108 123
161 102 116
165 106 120
165 106 122
169 109 123
168 108 123
167 107 122
167 108 123
168 109 123
168 107 121
166 107 121
166 106 121
167 107 121
166 107 122
167 108 123
172 112 128
173 111 125
173 114 130
170 111 126
171 111 126
173 115 131
173 113 128
171 112 128
171 111 126
174 113 129
173 113 128
176 116 132
175 114 129
174 124 124
172 122 122
174 139 113
173 149 102
175 152 104
175 159 93
174 171 79
175 176 72
174 181 60
174 187 50
174 192 38
174 195 26
173 197 0
174 198 0
174 197 0
175 197 0
174 197 0
173 197 0
174 198 0
174 197 0
174 197 0
174 198 0
173 197 0
174 197 0
173 197 0
174 197 0
176 198 0
175 198 0
175 198 0
174 197 0
175 198 0
174 197 0
174 197 0
174 197 0
175 197 0
173 197 0
175 198 0
174 197 0
174 197 0
175 198 0
174 197 0
174 198 0
174 197 0
174 198 0
176 198 0
175 198 0
175 198 0
173 196 0
174 198 0
174 197 0
175 198 0
174 198 0
174 197 0
173 197 0
173 197 0
175 198 0
174 197 0
176 198 0
175 198 0
175 198 0
174 197 0
175 198 0
174 197 0
174 197 0
174 197 0
175 198 0
175 198 0
173 197 0
174 197 0
174 198 0
173 197 0
174 198 0
174 197 0
174 197 0
174 197 0
175 198 0
174 198 0
174 198 0
175 198 0
174 198 0
175 198 0
174 198 0
173 197 0
174 198 0
173 196 0
174 197 0
173 197 0
175 198 0
173 197 0
173 197 0
175 198 0
175 198 0
174 197 0
176 198 0
173 197 0
175 198 0
175 198 0
175 198 0
175 198 0
174 197 0
174 198 0
174 198 0
175 198 0
175 198 0
174 198 0
174 197 0
174 198 0
174 198 0
174 198 0
175 198 0
175 198 0
174 197 0
175 198 0
175 198 0
174 198 0
174 198 0
174 198 0
174 198 0
175 198 0
174 198 0
174 198 0
176 198 0
173 197 0
175 198 0
175 198 0
174 197 0
175 198 0
174 198 0
175 198 0
175 198 0
175 198 0
175 198 0
173 197 0
174 198 0
174 197 0
174 198 0
174 197 0
174 197 0
174 197 0
175 198 0
175 198 0
176 198 0
175 198 0
175 198 0
174 197 0
175 198 0
174 198 0
173 197 0
174 198 0
175 198 0
174 198 0
175 198 0
175 198 0
175 198 0
174 197 0
174 197 0
173 197 0
173 197 0
175 198 0
175 198 0
175 198 0
175 198 0
176 198 0
174 198 0
174 198 0
174 198 0
174 197 0
175 198 0
175 198 0
175 198 0
174 198 0
175 198 0
174 198 0
175 198 0
174 198 0
175 198 0
174 198 0
174 197 0
173 197 0
174 198 0
174 198 0
175 198 0
174 198 0
173 197 0
174 198 0
174 198 0
175 198 0
176 198 0
175 198 0
174 198 0
173 197 0
174 197 0
174 198 0
175 198 0
174 197 0
174 197 0
175 198 0
175 198 0
175 198 0
174 198 0
175 198 0
175 198 0
174 198 0
173 197 0
175 198 0
175 198 0
174 197 0
175 198 0
174 197 0
174 198 0
174 198 0
174 197 0
174 197 0
173 197 0
176 199 0
174 198 0
174 198 0
174 198 0
175 198 0
174 197 0
175 198 0
175 198 0
174 198 0
175 197 0
174 198 0
173 197 0
174 198 0
174 198 0
173 197 0
175 198 0
174 197 0
174 197 0
174 198 0
174 198 0
174 197 0
174 197 0
175 198 0
174 197 0
175 198 0
175 197 0
174 197 0
172 196 0
174 197 0
174 197 0
175 198 0
173 197 0
174 197 0
175 197 0
174 197 0
174 197 0
175 198 0
174 198 0
174 197 0
175 198 0
174 198 0
174 197 0
174 197 0
173 196 0
175 198 0
175 198 0
173 196 0
175 198 0
175 198 0
174 197 0
174 197 0
175 198 0
174 197 0
175 198 0
175 198 0
173 197 0
174 197 0
174 197 0
174 197 0
174 198 0
174 197 0
174 197 0
174 198 0
174 197 0
173 197 0
174 197 0
175 198 0
174 197 0
173 197 0
173 197 0
174 197 0
175 198 0
173 197 0
173 197 0
175 198 0
175 198 0
175 198 0
175 198 0
174 197 0
174 198 0
174 198 0
175 198 0
174 197 0
175 198 0
174 197 0
174 198 0
173 197 0
174 197 0
174 197 0
175 198 0
175 198 0
174 197 0
173 196 0
174 197 0
173 196 0
174 197 0
173 197 0
175 198 0
173 197 0
174 198 0
174 198 0
174 197 0
174 197 0
175 198 0
175 198 0
174 196 17
174 194 28
174 190 42
175 188 52
171 179 56
172 173 72
174 160 91
173 161 85
176 148 109
171 136 108
173 136 111
171 129 120
174 119 131
173 114 128
174 114 129
172 115 130
173 113 128
172 114 130
174 115 131
169 110 125
172 113 128
169 111 126
170 110 124
168 107 122
170 112 127
168 108 122
170 110 125
169 109 123
168 109 125
170 110 124
169 113 129
166 106 120
165 106 120
164 106 120
163 104 118
170 111 126
168 109 124
164 104 118
164 105 119
164 103 117
166 106 120
166 105 119
164 102 116
168 108 122
166 106 120
164 106 119
164 103 117
162 104 118
165 106 121
160 100 114
163 103 117
167 106 120
161 101 115
164 105 120
166 107 122
171 111 126
167 107 122
167 105 120
168 108 122
167 108 122
168 107 122
169 109 123
171 111 126
168 109 124
165 106 121
170 110 125
167 107 122
161 105 119
168 110 126
168 109 125
168 109 123
174 114 129
174 115 130
172 112 128
174 114 129
172 112 128
176 117 131
173 113 129
173 113 129
171 113 129
172 115 129
173 117 127
169 122 117
173 136 115
173 144 109
173 151 100
176 156 101
173 166 81
173 169 75
176 185 61
174 185 57
173 189 48
175 196 17
173 196 14
173 197 0
175 197 0
174 197 0
174 197 0
174 197 0
174 198 0
174 197 0
176 198 0
174 198 0
174 197 0
174 197 0
173 197 0
173 196 0
174 197 0
174 198 0
174 197 0
174 198 0
173 196 0
174 197 0
174 198 0
174 198 0
174 198 0
175 197 0
174 197 0
173 197 0
174 198 0
174 197 0
174 198 0
174 198 0
174 197 0
174 197 0
173 196 0
174 197 0
173 197 0
175 198 0
174 197 0
174 197 0
174 197 0
174 198 0
175 198 0
175 198 0
175 198 0
174 197 0
174 198 0
173 197 0
175 198 0
175 198 0
174 197 0
174 198 0
174 197 0
174 197 0
174 198 0
175 198 0
175 198 0
173 197 0
173 197 0
174 198 0
174 197 0
175 198 0
174 197 0
175 198 0
174 198 0
174 197 0
175 198 0
175 198 0
175 198 0
174 198 0
175 198 0
175 198 0
175 198 0
174 198 0
175 198 0
174 198 0
175 198 0
174 197 0
175 198 0
175 198 0
176 199 0
174 198 0
175 198 0
175 198 0
175 198 0
174 197 0
175 198 0
174 197 0
175 198 0
174 197 0
174 198 0
175 198 0
175 198 0
175 198 0
174 197 0
174 198 0
174 198 0
175 198 0
175 198 0
174 197 0
175 198 0
174 197 0
175 197 0
175 198 0
174 197 0
174 197 0
174 197 0
174 197 0
174 198 0
174 198 0
174 198 0
174 197 0
175 198 0
175 198 0
175 198 0
175 198 0
175 198 0
175 198 0
175 197 0
174 198 0
174 197 0
175 198 0
175 198 0
174 197 0
175 198 0
175 198 0
175 198 0
173 197 0
175 197 0
175 198 0
174 197 0
174 197 0
176 199 0
174 197 0
175 198 0
174 198 0
175 198 0
174 198 0
175 198 0
174 198 0
176 199 0
174 198 0
173 197 0
174 197 0
174 198 0
175 198 0
175 198 0
174 197 0
175 198 0
175 198 0
175 198 0
174 197 0
174 198 0
174 198 0
174 198 0
175 198 0
174 198 0
174 197 0
175 198 0
175 198 0
174 198 0
174 198 0
174 198 0
173 197 0
174 197 0
174 198 0
174 197 0
174 197 0
175 198 0
174 197 0
175 198 0
174 197 0
175 198 0
175 198 0
174 198 0
174 198 0
174 198 0
174 197 0
174 197 0
174 198 0
174 197 0
174 198 0
176 198 0
174 197 0
175 198 0
174 197 0
173 197 0
174 198 0
174 198 0
175 198 0
174 198 0
174 198 0
174 197 0
174 197 0
175 198 0
174 198 0
174 197 0
173 197 0
174 197 0
174 197 0
174 197 0
174 198 0
174 198 0
174 198 0
175 198 0
174 197 0
174 197 0
175 198 0
175 198 0
174 197 0
174 197 0
174 197 0
175 198 0
174 197 0
173 197 0
175 198 0
174 198 0
174 198 0
175 198 0
175 198 0
175 198 0
174 198 0
174 198 0
174 198 0
175 198 0
174 198 0
174 197 0
174 197 0
174 197 0
175 198 0
173 197 0
174 198 0
173 197 0
174 198 0
173 197 0
174 198 0
174 197 0
175 197 0
174 197 0
174 197 0
174 198 0
172 196 0
174 197 0
175 198 0
174 197 0
175 198 0
174 198 0
173 197 0
174 197 0
174 198 0
174 197 0
174 197 0
174 198 0
174 198 0
175 198 0
176 199 0
174 198 0
174 198 0
175 198 0
174 197 0
174 197 0
173 197 0
174 198 0
174 197 0
173 197 0
175 197 0
174 198 0
174 197 0
175 198 0
174 197 0
175 198 0
174 197 0
173 197 0
175 198 0
175 198 0
175 198 0
174 197 0
175 198 0
174 197 0
174 197 0
173 197 0
174 197 0
174 198 0
173 197 0
174 197 0
175 198 0
175 198 0
175 198 0
173 196 0
173 197 0
174 197 0
175 198 0
174 197 0
174 197 0
173 197 0
174 197 0
174 197 0
174 197 0
174 198 0
175 198 0
174 198 0
174 197 0
174 197 0
173 197 0
173 197 0
173 197 0
175 198 0
173 197 0
175 198 0
176 197 17
174 192 35
173 187 48
175 183 61
173 173 74
175 173 76
175 161 93
176 157 100
170 149 97
173 145 109
173 131 116
174 129 124
170 115 121
172 113 128
172 113 128
171 110 125
175 115 130
173 112 127
172 112 127
173 113 129
167 108 123
168 110 126
172 112 126
169 110 124
169 111 126
168 110 125
166 106 121
166 106 120
166 106 120
164 106 120
160 100 114
169 109 123
168 106 120
165 105 119
160 100 114
167 109 124
162 102 116
163 102 116
168 107 121
166 106 121
165 106 121
170 110 124
162 101 114
166 104 118
162 101 115
168 108 123
166 106 121
160 102 117
164 102 116
170 108 123
164 105 119
164 102 115
168 106 120
163 103 118
162 103 118
165 104 118
166 106 121
167 106 121
168 106 120
162 103 118
161 100 114
166 107 122
165 106 120
166 104 119
168 107 122
167 108 122
168 110 125
165 106 121
165 105 120
165 107 121
169 109 125
168 108 123
170 112 128
167 107 123
172 112 127
168 109 124
168 110 125
172 112 127
170 112 127
169 110 125
171 111 125
172 117 122
172 124 121
172 135 112
170 140 104
173 147 104
172 157 92
172 162 88
174 173 80
174 180 63
174 184 54
173 187 45
172 191 36
174 195 18
173 197 0
174 198 0
174 197 0
174 197 0
174 197 0
174 198 0
175 198 0
173 197 0
174 197 0
175 198 0
175 197 0
175 198 0
173 197 0
173 196 0
173 197 0
175 198 0
174 198 0
176 198 0
174 197 0
174 198 0
174 197 0
175 198 0
174 197 0
174 198 0
173 197 0
174 198 0
173 197 0
173 197 0
175 198 0
174 197 0
173 196 0
173 197 0
174 197 0
174 198 0
175 198 0
173 197 0
174 197 0
174 197 0
176 199 0
174 198 0
174 198 0
175 198 0
175 198 0
174 197 0
175 198 0
174 197 0
175 198 0
174 198 0
176 198 0
175 198 0
173 196 0
174 198 0
174 197 0
176 198 0
175 198 0
175 198 0
175 198 0
174 198 0
174 197 0
175 198 0
176 199 0
174 197 0
175 198 0
174 197 0
174 197 0
174 197 0
174 198 0
175 198 0
174 198 0
174 198 0
174 197 0
173 197 0
174 197 0
174 197 0
174 197 0
173 197 0
174 197 0
175 198 0
174 198 0
175 198 0
174 198 0
175 198 0
175 198 0
174 197 0
173 197 0
174 198 0
173 197 0
174 197 0
174 198 0
174 198 0
174 198 0
173 197 0
174 198 0
174 197 0
173 197 0
175 198 0
175 198 0
175 198 0
173 196 0
175 198 0
174 197 0
174 198 0
174 197 0
175 198 0
174 197 0
174 198 0
175 198 0
175 198 0
174 197 0
175 198 0
174 197 0
174 198 0
175 197 0
175 198 0
175 198 0
174 198 0
175 198 0
174 197 0
174 197 0
173 197 0
174 198 0
174 198 0
174 197 0
174 197 0
174 198 0
174 198 0
174 198 0
175 198 0
175 198 0
175 198 0
175 198 0
175 198 0
175 198 0
174 198 0
174 198 0
174 197 0
173 197 0
175 198 0
176 199 0
174 198 0
174 197 0
173 197 0
174 198 0
174 197 0
175 198 0
173 197 0
174 197 0
174 197 0
175 198 0
174 197 0
174 197 0
174 197 0
175 198 0
175 198 0
173 197 0
173 197 0
174 198 0
175 198 0
175 198 0
174 198 0
174 198 0
174 197 0
177 199 0
174 197 0
173 197 0
176 199 0
174 197 0
173 197 0
175 198 0
175 198 0
176 199 0
174 198 0
174 198 0
174 197 0
174 198 0
174 197 0
175 198 0
174 198 0
174 198 0
174 198 0
174 197 0
173 197 0
175 198 0
175 198 0
175 198 0
174 198 0
173 197 0
175 198 0
174 198 0
175 198 0
174 197 0
174 198 0
175 198 0
174 198 0
175 198 0
174 198 0
174 197 0
175 198 0
173 197 0
174 197 0
173 197 0
175 198 0
175 198 0
175 198 0
175 198 0
176 198 0
175 198 0
174 198 0
174 198 0
174 197 0
174 198 0
175 198 0
175 198 0
174 197 0
175 198 0
173 197 0
174 197 0
174 197 0
173 197 0
173 197 0
175 198 0
175 198 0
174 198 0
174 197 0
174 197 0
174 197 0
174 197 0
174 197 0
175 198 0
174 197 0
175 198 0
174 198 0
174 198 0
174 197 0
174 197 0
173 197 0
175 197 0
175 198 0
175 198 0
173 197 0
174 197 0
174 197 0
173 197 0
174 197 0
173 197 0
174 197 0
174 198 0
174 197 0
174 197 0
175 198 0
173 197 0
174 197 0
175 198 0
175 198 0
174 197 0
175 198 0
174 197 0
173 197 0
175 198 0
175 198 0
176 198 0
174 197 0
174 197 0
173 197 0
173 197 0
173 197 0
175 198 0
175 198 0
173 196 0
174 197 0
173 197 0
174 198 0
175 198 0
174 197 0
174 198 0
174 197 0
174 197 0
175 198 0
174 197 0
174 198 0
174 197 0
175 197 0
175 198 0
174 198 0
174 198 0
173 196 0
174 197 0
174 198 0
176 199 0
173 197 0
175 197 0
174 198 0
173 197 0
175 198 0
174 197 0
174 198 0
174 198 0
175 198 0
173 197 0
173 197 0
173 196 0
174 197 0
173 196 0
174 197 0
173 197 0
174 197 10
174 193 31
173 191 39
174 188 46
173 183 53
173 178 68
172 168 80
173 161 89
173 160 89
170 150 96
168 136 105
171 129 116
172 120 121
171 115 123
165 106 120
171 112 128
169 109 123
168 109 124
168 110 125
168 109 123
166 108 122
169 108 121
167 108 122
170 111 126
161 102 116
163 104 118
170 110 125
166 105 119
161 102 116
167 108 123
164 104 118
164 105 120
163 104 118
163 103 117
163 102 116
164 103 117
169 108 122
165 105 119
166 105 119
165 103 116
163 104 119
166 107 121
164 103 117
164 105 119
159 100 114
166 107 122
163 100 113
165 105 119
166 107 121
162 101 114
162 102 116
164 105 118
166 106 120
162 101 114
164 103 116
166 105 119
163 104 118
162 102 115
161 100 113
158 97 109
161 100 113
164 105 119
162 100 113
163 102 116
162 103 117
167 107 121
162 104 118
170 109 124
163 103 117
165 107 122
166 107 122
167 106 121
168 108 123
166 107 122
168 108 122
169 109 125
169 109 124
169 110 124
169 110 125
169 110 125
170 111 126
169 107 122
170 116 121
172 124 120
166 126 109
173 139 110
172 151 96
171 157 89
172 164 86
173 169 79
172 177 68
172 186 48
174 188 44
175 193 37
175 196 22
174 197 14
174 197 0
173 197 0
174 197 0
174 197 0
173 196 0
173 197 0
175 198 0
173 197 0
175 198 0
175 198 0
174 197 0
174 197 0
176 199 0
174 198 0
175 198 0
174 198 0
174 197 0
174 197 0
175 198 0
174 197 0
174 198 0
175 198 0
175 198 0
174 197 0
174 198 0
173 197 0
173 196 0
174 197 0
174 198 0
174 197 0
175 198 0
174 197 0
175 198 0
174 198 0
174 197 0
175 198 0
175 198 0
175 198 0
175 197 0
174 197 0
174 197 0
173 197 0
174 197 0
173 196 0
174 198 0
174 197 0
174 198 0
174 197 0
174 197 0
174 197 0
174 197 0
174 198 0
174 198 0
175 198 0
175 198 0
173 196 0
174 197 0
174 197 0
173 196 0
175 198 0
175 198 0
173 197 0
175 198 0
174 198 0
174 198 0
175 198 0
174 198 0
174 197 0
174 198 0
174 197 0
174 198 0
174 197 0
174 198 0
174 197 0
173 196 0
175 197 0
175 198 0
174 197 0
174 198 0
175 198 0
174 197 0
173 197 0
173 197 0
174 198 0
174 197 0
173 197 0
175 198 0
174 197 0
174 198 0
174 198 0
175 198 0
174 198 0
174 198 0
174 197 0
175 198 0
175 198 0
173 197 0
174 198 0
175 198 0
173 197 0
174 198 0
175 198 0
174 198 0
175 198 0
175 198 0
175 198 0
175 198 0
174 198 0
174 198 0
174 198 0
174 198 0
175 198 0
173 197 0
174 197 0
174 197 0
175 198 0
174 198 0
174 198 0
175 198 0
175 198 0
174 198 0
175 198 0
175 198 0
175 198 0
175 198 0
174 198 0
174 198 0
174 198 0
174 198 0
174 198 0
174 198 0
174 197 0
174 198 0
174 197 0
175 197 0
175 197 0
174 198 0
174 198 0
174 197 0
175 198 0
175 198 0
175 198 0
174 198 0
175 198 0
175 198 0
175 198 0
175 198 0
174 197 0
174 198 0
174 197 0
174 197 0
174 197 0
175 198 0
175 198 0
174 198 0
174 198 0
175 198 0
175 198 0
174 198 0
174 198 0
175 198 0
174 197 0
175 198 0
174 198 0
174 198 0
174 197 0
174 198 0
173 197 0
173 197 0
174 198 0
174 197 0
174 198 0
174 198 0
175 198 0
175 198 0
175 198 0
175 198 0
174 198 0
174 198 0
175 198 0
175 198 0
175 198 0
174 197 0
175 198 0
174 197 0
173 197 0
175 198 0
174 197 0
175 198 0
174 197 0
174 198 0
175 198 0
174 198 0
173 197 0
174 198 0
175 198 0
174 198 0
174 197 0
175 198 0
174 197 0
175 198 0
175 198 0
175 198 0
174 197 0
175 198 0
174 198 0
175 198 0
174 198 0
174 197 0
175 198 0
174 198 0
175 198 0
174 197 0
175 198 0
175 198 0
175 198 0
174 197 0
174 197 0
174 197 0
174 197 0
173 196 0
173 197 0
174 197 0
175 198 0
174 198 0
173 197 0
175 198 0
174 198 0
173 197 0
173 197 0
174 197 0
175 198 0
174 198 0
174 197 0
174 198 0
174 198 0
173 197 0
175 197 0
174 198 0
175 198 0
173 197 0
174 197 0
174 198 0
173 197 0
174 197 0
174 198 0
174 198 0
173 197 0
174 198 0
174 197 0
174 198 0
175 197 0
175 198 0
174 198 0
173 196 0
173 197 0
174 197 0
175 198 0
175 198 0
175 198 0
175 198 0
174 197 0
175 198 0
174 197 0
175 198 0
173 197 0
174 198 0
174 198 0
173 196 0
175 198 0
174 197 0
174 198 0
174 197 0
174 197 0
174 197 0
173 196 0
175 198 0
174 197 0
175 197 0
174 197 0
174 197 0
175 198 0
173 196 0
174 197 0
174 197 0
175 198 0
173 196 0
174 198 0
175 197 0
174 198 0
175 198 0
174 197 0
174 198 0
174 197 0
173 196 0
173 197 0
174 197 0
174 198 0
174 198 0
173 197 0
173 197 0
173 196 0
174 197 0
174 197 9
173 194 26
175 195 28
174 189 43
173 182 56
172 180 62
174 173 73
172 168 79
171 168 80
172 160 88
169 148 95
171 139 107
169 129 107
171 122 120
166 106 120
170 110 122
168 109 123
166 107 121
166 107 122
165 106 121
160 102 116
167 108 123
162 103 117
168 109 124
163 103 116
167 107 121
170 109 122
167 106 120
163 105 120
161 101 114
164 105 118
162 103 117
163 104 118
164 103 116
162 99 112
165 104 119
164 103 117
161 102 116
162 102 116
159 100 113
162 101 114
164 105 118
166 104 118
163 104 117
161 102 115
160 101 114
164 103 116
159 98 111
161 101 115
162 103 117
161 99 112
159 101 115
162 102 115
160 100 114
163 101 115
161 100 114
162 102 116
166 105 119
159 99 112
159 101 115
158 100 113
162 102 115
156 98 111
160 101 115
161 101 115
163 103 117
165 104 118
161 100 114
164 104 118
161 102 117
164 103 117
159 100 113
164 103 117
164 104 118
164 105 119
162 103 117
164 104 118
165 105 119
166 108 123
167 108 123
170 110 125
169 109 123
166 106 119
165 111 120
167 118 115
168 125 113
167 140 100
171 145 98
172 158 89
170 164 79
171 170 73
172 171 76
174 181 63
173 188 44
174 190 35
174 193 34
175 198 9
173 196 9
175 198 0
174 197 0
173 196 0
174 196 0
174 197 0
174 197 0
174 197 0
173 197 0
174 197 0
175 198 0
175 198 0
175 198 0
174 197 0
173 197 0
174 197 0
173 196 0
175 198 0
173 197 0
175 198 0
174 197 0
174 197 0
173 196 0
175 198 0
174 197 0
174 197 0
174 198 0
174 198 0
174 197 0
174 198 0
174 198 0
175 198 0
173 197 0
173 197 0
174 197 0
174 198 0
174 197 0
174 197 0
175 198 0
174 197 0
175 198 0
173 196 0
174 198 0
174 198 0
175 198 0
175 198 0
173 197 0
174 198 0
174 197 0
174 198 0
175 198 0
174 198 0
174 198 0
175 198 0
175 198 0
173 197 0
174 197 0
175 198 0
175 198 0
175 198 0
174 198 0
175 198 0
173 197 0
175 198 0
175 198 0
173 197 0
175 198 0
175 198 0
175 198 0
173 197 0
174 197 0
173 197 0
175 198 0
174 197 0
174 198 0
174 197 0
174 198 0
172 196 0
174 197 0
174 198 0
174 198 0
174 198 0
174 198 0
174 198 0
174 198 0
173 197 0
174 198 0
174 198 0
174 197 0
175 198 0
174 198 0
174 198 0
174 198 0
174 197 0
173 197 0
175 198 0
174 197 0
174 198 0
174 197 0
174 197 0
174 197 0
174 198 0
175 198 0
174 197 0
174 197 0
175 198 0
174 198 0
173 197 0
174 198 0
174 198 0
174 197 0
175 198 0
174 198 0
175 198 0
173 197 0
174 197 0
174 198 0
176 198 0
174 198 0
175 198 0
173 197 0
173 197 0
175 198 0
174 198 0
175 198 0
174 198 0
174 197 0
175 198 0
174 197 0
175 198 0
174 198 0
175 198 0
174 198 0
175 198 0
174 198 0
174 198 0
175 198 0
175 198 0
174 198 0
174 198 0
174 198 0
175 198 0
175 198 0
174 197 0
173 197 0
174 198 0
173 197 0
173 197 0
174 198 0
174 198 0
174 198 0
174 198 0
174 197 0
174 197 0
175 198 0
174 197 0
174 198 0
174 197 0
175 198 0
175 198 0
175 198 0
174 197 0
174 198 0
174 198 0
174 197 0
175 198 0
175 198 0
174 198 0
173 197 0
174 198 0
175 198 0
174 197 0
175 198 0
174 198 0
175 198 0
174 198 0
174 197 0
175 198 0
175 198 0
173 197 0
174 198 0
175 198 0
174 197 0
176 199 0
175 198 0
175 198 0
173 197 0
175 198 0
174 197 0
175 198 0
174 197 0
174 198 0
175 198 0
174 198 0
173 197 0
173 197 0
175 198 0
174 198 0
175 198 0
174 198 0
174 197 0
174 197 0
174 197 0
175 198 0
175 198 0
174 197 0
174 197 0
174 198 0
174 197 0
175 198 0
174 197 0
174 197 0
174 197 0
175 198 0
174 197 0
174 197 0
173 197 0
174 198 0
174 198 0
175 198 0
174 197 0
174 198 0
174 198 0
174 197 0
175 198 0
176 198 0
174 197 0
173 197 0
173 197 0
174 198 0
173 197 0
174 198 0
174 197 0
175 198 0
175 198 0
175 198 0
174 197 0
173 197 0
174 198 0
174 198 0
174 197 0
174 197 0
174 198 0
174 197 0
175 197 0
173 196 0
174 197 0
173 197 0
175 198 0
174 198 0
174 197 0
173 197 0
175 198 0
175 198 0
174 197 0
174 197 0
175 198 0
174 197 0
174 197 0
175 198 0
175 198 0
173 197 0
174 198 0
174 197 0
173 197 0
174 197 0
174 197 0
174 197 0
174 197 0
174 197 0
174 198 0
173 197 0
172 196 0
174 197 0
173 197 0
174 197 0
175 197 0
173 197 0
174 197 0
175 198 0
174 198 0
174 197 0
174 198 0
175 198 0
174 198 0
174 197 0
175 198 0
174 198 0
174 197 0
175 198 0
174 197 0
174 197 0
175 197 0
173 197 0
174 197 0
174 197 0
174 198 0
174 197 0
174 198 0
173 196 0
174 196 0
174 197 0
174 197 0
175 198 0
174 195 29
174 194 27
174 190 43
172 184 47
173 180 58
173 172 73
170 164 78
170 157 84
171 149 97
171 150 97
167 135 102
171 123 115
164 115 110
165 106 118
164 103 117
165 105 119
165 104 117
165 104 118
167 106 120
164 104 118
162 103 117
155 97 110
163 103 117
164 104 118
161 103 116
160 100 113
161 102 116
163 103 117
164 103 116
161 101 115
160 100 114
158 98 111
160 99 112
160 98 111
162 102 115
162 102 115
161 101 113
163 103 116
163 102 115
163 103 117
158 99 112
158 98 112
161 102 115
160 102 115
162 102 115
158 98 111
162 102 115
161 103 116
163 102 116
161 102 116
155 95 109
158 98 111
165 104 117
160 99 113
162 99 112
162 101 114
160 100 113
159 97 110
158 96 109
156 98 111
159 97 111
161 101 114
160 101 114
156 96 109
159 97 110
157 97 110
155 97 111
154 95 107
159 99 112
168 107 121
159 98 112
163 103 117
163 102 116
165 105 119
166 105 119
161 100 113
166 106 120
162 101 114
162 103 117
168 107 121
163 101 115
165 106 120
161 103 112
166 117 111
167 121 113
165 132 97
169 146 97
168 155 86
173 166 83
169 165 75
174 176 71
172 183 52
174 188 52
173 190 38
171 190 32
174 194 29
174 197 0
174 197 0
175 197 0
173 196 0
174 197 0
175 197 0
173 196 0
174 198 0
175 198 0
173 197 0
173 197 0
172 196 0
174 197 0
174 197 0
174 198 0
175 198 0
174 197 0
173 197 0
173 197 0
174 198 0
174 197 0
175 198 0
174 197 0
174 198 0
175 198 0
173 197 0
174 198 0
174 197 0
174 197 0
174 197 0
174 197 0
173 196 0
175 198 0
174 197 0
174 198 0
174 197 0
174 197 0
173 197 0
175 198 0
174 198 0
174 197 0
174 198 0
174 197 0
173 197 0
174 197 0
173 197 0
174 197 0
174 197 0
174 197 0
174 198 0
175 198 0
174 198 0
174 197 0
174 198 0
174 198 0
175 198 0
175 198 0
173 197 0
175 198 0
175 198 0
174 198 0
174 197 0
174 198 0
175 198 0
174 198 0
175 198 0
174 197 0
175 198 0
175 197 0
173 197 0
174 197 0
174 197 0
175 198 0
174 198 0
175 198 0
173 197 0
174 197 0
174 198 0
174 198 0
175 198 0
175 198 0
174 198 0
174 198 0
173 196 0
173 197 0
174 197 0
174 197 0
174 198 0
175 198 0
175 198 0
174 198 0
175 198 0
174 197 0
174 197 0
174 197 0
174 198 0
174 197 0
174 197 0
175 198 0
175 198 0
175 198 0
174 197 0
173 197 0
175 198 0
174 198 0
175 198 0
173 197 0
174 198 0
174 198 0
174 197 0
174 197 0
174 197 0
175 198 0
174 198 0
174 198 0
175 198 0
175 198 0
174 198 0
175 198 0
175 198 0
174 197 0
175 198 0
173 197 0
174 197 0
175 198 0
175 198 0
174 197 0
174 197 0
174 198 0
174 197 0
174 198 0
173 197 0
174 197 0
174 198 0
173 197 0
174 198 0
174 198 0
174 198 0
174 198 0
174 197 0
174 198 0
174 197 0
175 198 0
175 198 0
175 198 0
174 198 0
175 198 0
174 198 0
174 198 0
174 197 0
174 197 0
175 198 0
176 199 0
174 198 0
175 198 0
174 198 0
174 198 0
174 198 0
175 198 0
174 198 0
175 198 0
175 198 0
175 198 0
174 197 0
175 198 0
174 197 0
174 197 0
175 198 0
173 197 0
174 197 0
175 198 0
174 198 0
175 198 0
175 198 0
174 197 0
174 198 0
174 198 0
174 198 0
174 197 0
175 198 0
174 198 0
174 198 0
175 198 0
173 197 0
174 197 0
175 198 0
174 198 0
174 198 0
176 199 0
174 198 0
174 198 0
175 198 0
175 198 0
174 198 0
173 197 0
173 197 0
174 197 0
174 197 0
174 197 0
175 198 0
174 198 0
174 198 0
175 198 0
173 197 0
174 197 0
174 198 0
174 198 0
175 198 0
174 197 0
175 198 0
174 197 0
174 197 0
174 198 0
175 198 0
175 198 0
175 198 0
174 198 0
175 198 0
173 197 0
174 197 0
175 198 0
175 198 0
175 198 0
174 197 0
173 197 0
175 198 0
174 197 0
174 197 0
175 198 0
175 198 0
174 198 0
174 198 0
175 198 0
174 197 0
174 198 0
174 198 0
174 198 0
175 198 0
173 197 0
173 197 0
174 198 0
174 197 0
175 198 0
175 198 0
175 198 0
175 198 0
173 197 0
174 198 0
175 198 0
175 198 0
175 198 0
174 198 0
175 198 0
174 197 0
174 198 0
173 197 0
175 198 0
173 197 0
174 197 0
174 198 0
174 197 0
173 197 0
174 197 0
174 198 0
173 197 0
173 197 0
174 197 0
174 198 0
173 197 0
175 198 0
174 198 0
173 196 0
174 198 0
173 197 0
174 197 0
174 197 0
175 198 0
174 198 0
173 197 0
174 197 0
175 198 0
175 198 0
174 197 0
174 197 0
174 198 0
173 197 0
174 197 0
174 197 0
174 197 0
172 196 0
173 197 0
174 198 0
173 197 0
175 198 0
173 197 0
174 197 0
174 197 0
174 197 0
176 198 0
175 198 0
175 198 0
175 198 0
174 197 0
174 196 10
174 195 24
172 191 31
171 188 36
173 186 45
172 179 65
172 176 67
172 172 71
173 162 86
169 155 85
164 148 84
167 136 100
164 123 104
167 117 114
160 103 110
164 103 115
159 100 114
163 102 115
159 96 109
160 101 114
162 100 113
157 95 107
160 98 111
163 101 113
161 101 114
162 101 114
159 99 112
157 98 112
158 96 108
160 99 112
163 103 117
156 94 107
158 97 109
158 98 111
159 99 112
163 102 116
158 98 110
159 99 111
159 98 110
161 102 116
157 98 111
158 97 109
152 93 105
161 101 114
157 98 110
159 97 110
159 97 110
158 98 111
155 94 107
158 100 113
152 91 103
161 100 112
153 94 107
156 96 109
154 95 108
158 95 108
155 95 108
157 96 109
156 94 107
157 96 110
158 99 113
156 95 108
157 98 111
155 95 108
158 97 111
159 98 111
156 97 110
156 94 106
162 102 115
154 95 107
159 98 111
154 95 109
159 97 110
162 101 115
158 99 113
158 96 109
158 98 111
164 102 115
160 99 113
158 97 110
161 99 112
159 96 109
161 100 113
162 109 114
164 118 111
159 120 100
166 137 93
167 148 93
171 158 86
172 159 84
170 161 79
171 175 61
170 174 58
172 186 43
173 188 43
174 193 33
174 195 24
174 196 17
171 195 0
174 197 0
173 197 0
172 196 0
174 197 0
173 196 0
175 198 0
174 196 0
173 196 0
173 196 0
175 198 0
175 198 0
174 197 0
174 197 0
175 198 0
176 198 0
174 198 0
173 196 0
175 198 0
175 198 0
173 197 0
174 197 0
175 198 0
175 198 0
173 197 0
174 197 0
174 197 0
174 198 0
172 196 0
174 198 0
173 197 0
174 197 0
175 198 0
174 198 0
174 197 0
173 197 0
173 197 0
174 197 0
175 198 0
173 197 0
175 198 0
175 198 0
174 197 0
174 197 0
176 198 0
174 197 0
174 197 0
174 197 0
173 197 0
174 198 0
175 198 0
174 197 0
173 196 0
175 197 0
173 197 0
174 197 0
174 197 0
174 197 0
174 197 0
174 197 0
174 197 0
174 198 0
175 198 0
174 197 0
174 197 0
175 198 0
174 197 0
173 197 0
174 198 0
175 198 0
174 198 0
174 198 0
174 198 0
174 198 0
174 197 0
175 198 0
173 197 0
174 197 0
173 197 0
174 198 0
173 197 0
175 198 0
175 198 0
173 197 0
174 198 0
175 198 0
174 198 0
174 198 0
175 198 0
174 197 0
173 197 0
173 197 0
175 198 0
174 197 0
174 197 0
176 198 0
175 198 0
175 198 0
175 198 0
174 197 0
175 198 0
174 198 0
174 197 0
174 197 0
174 197 0
174 197 0
174 197 0
174 198 0
173 197 0
174 197 0
175 198 0
174 197 0
176 199 0
174 198 0
174 197 0
174 198 0
174 198 0
176 199 0
175 198 0
174 198 0
174 197 0
175 198 0
173 197 0
174 197 0
175 198 0
175 198 0
174 197 0
176 199 0
174 198 0
175 198 0
175 198 0
173 197 0
174 197 0
175 198 0
175 198 0
174 198 0
174 198 0
174 197 0
174 198 0
174 198 0
174 197 0
175 198 0
174 198 0
174 197 0
174 197 0
174 197 0
175 198 0
175 198 0
174 197 0
174 198 0
173 197 0
175 198 0
174 198 0
174 197 0
174 198 0
173 197 0
175 198 0
175 198 0
175 198 0
174 197 0
175 198 0
175 198 0
175 198 0
175 198 0
174 198 0
173 197 0
174 197 0
173 197 0
173 197 0
175 198 0
174 197 0
175 198 0
175 198 0
175 198 0
175 198 0
173 197 0
175 198 0
175 198 0
174 198 0
173 197 0
175 198 0
174 197 0
175 198 0
175 198 0
175 198 0
174 198 0
175 198 0
174 197 0
175 198 0
173 197 0
173 197 0
175 198 0
175 198 0
173 197 0
174 197 0
175 198 0
173 196 0
176 198 0
174 197 0
174 198 0
174 197 0
174 197 0
175 198 0
174 197 0
174 197 0
173 197 0
174 197 0
174 197 0
175 198 0
174 197 0
173 197 0
175 198 0
174 197 0
174 198 0
175 198 0
175 198 0
174 197 0
176 198 0
174 198 0
174 197 0
175 198 0
174 198 0
174 197 0
174 197 0
173 197 0
174 198 0
175 198 0
175 198 0
174 197 0
174 198 0
174 197 0
175 198 0
174 197 0
174 198 0
174 197 0
175 198 0
174 198 0
175 197 0
173 197 0
174 197 0
174 198 0
174 197 0
174 197 0
175 198 0
174 197 0
173 197 0
174 197 0
174 197 0
175 198 0
175 197 0
175 198 0
174 197 0
174 197 0
175 198 0
175 198 0
174 197 0
173 197 0
174 197 0
174 197 0
174 198 0
174 198 0
174 198 0
174 197 0
174 198 0
174 197 0
174 197 0
173 197 0
174 197 0
175 197 0
173 197 0
174 198 0
175 198 0
175 198 0
173 196 0
175 198 0
173 197 0
174 197 0
175 198 0
173 197 0
174 197 0
174 197 0
173 196 0
173 196 0
174 197 0
174 198 0
175 198 0
173 197 0
174 197 0
175 198 0
173 197 0
174 198 0
173 196 0
173 196 0
175 198 0
174 198 0
174 197 0
175 198 0
174 197 0
175 197 0
174 197 0
175 198 0
173 196 9
175 196 18
174 194 28
171 190 33
172 187 42
173 185 50
172 179 59
172 177 58
171 167 74
167 164 71
167 150 81
170 150 88
164 137 95
162 125 100
162 121 104
163 114 113
162 104 111
162 102 113
158 98 110
155 96 108
161 99 111
157 94 107
156 95 107
157 94 106
156 96 108
153 91 103
159 98 111
156 97 109
155 94 106
153 93 104
160 98 110
153 91 103
152 92 105
158 97 110
154 93 105
161 100 113
159 97 108
159 99 111
156 97 109
158 99 112
157 94 105
156 95 107
158 96 108
158 98 111
156 97 110
158 98 111
155 97 111
156 98 111
155 94 106
154 96 108
154 96 109
153 93 106
156 94 106
146 87 99
154 93 105
149 87 99
153 93 105
156 94 106
156 97 110
152 92 104
151 91 103
162 101 114
154 95 107
153 90 102
153 92 104
153 92 105
153 92 105
155 92 104
155 96 109
158 96 109
152 90 102
151 91 103
155 93 105
154 92 105
157 96 109
157 97 110
158 97 110
160 96 109
158 97 110
159 96 109
155 93 106
155 94 107
154 93 106
159 103 110
165 115 109
160 117 103
162 123 99
164 138 90
168 148 89
169 150 90
170 160 82
168 169 61
172 174 65
169 176 54
173 187 47
174 186 51
173 191 38
174 194 28
175 197 0
173 196 9
175 198 0
174 197 0
172 196 0
174 197 0
175 198 0
174 197 0
175 197 0
174 197 0
174 197 0
175 198 0
174 197 0
174 197 0
174 197 0
174 197 0
176 198 0
173 197 0
173 197 0
174 197 0
174 197 0
174 198 0
173 197 0
174 197 0
175 197 0
174 197 0
173 196 0
173 197 0
174 197 0
174 197 0
174 197 0
174 198 0
174 197 0
175 198 0
174 197 0
174 197 0
174 198 0
174 197 0
173 197 0
174 198 0
172 196 0
173 197 0
174 198 0
174 197 0
175 197 0
174 198 0
174 197 0
174 197 0
175 198 0
175 198 0
175 198 0
174 197 0
174 198 0
174 198 0
175 198 0
174 197 0
175 197 0
174 197 0
175 198 0
174 197 0
174 198 0
174 197 0
174 197 0
174 197 0
175 198 0
175 198 0
175 198 0
175 198 0
174 198 0
175 198 0
175 198 0
174 198 0
174 197 0
175 198 0
175 197 0
174 198 0
173 197 0
175 198 0
174 197 0
174 197 0
174 198 0
175 198 0
175 198 0
175 198 0
174 198 0
174 198 0
174 197 0
174 198 0
174 197 0
174 197 0
175 198 0
174 197 0
174 198 0
175 198 0
175 198 0
175 198 0
174 197 0
174 198 0
174 198 0
174 198 0
174 197 0
175 198 0
175 198 0
175 198 0
174 198 0
174 198 0
175 198 0
174 198 0
175 198 0
174 198 0
174 197 0
174 198 0
175 198 0
174 198 0
175 198 0
174 197 0
175 198 0
175 198 0
174 198 0
174 198 0
174 198 0
173 197 0
175 198 0
175 198 0
175 198 0
174 198 0
175 198 0
175 198 0
176 198 0
175 198 0
174 198 0
174 197 0
174 198 0
175 198 0
174 198 0
174 197 0
174 197 0
174 198 0
175 198 0
174 198 0
175 198 0
174 198 0
175 198 0
175 198 0
175 198 0
174 198 0
173 197 0
174 197 0
175 198 0
174 198 0
175 198 0
174 198 0
174 198 0
174 197 0
174 198 0
175 198 0
175 198 0
175 198 0
174 198 0
174 197 0
175 198 0
174 197 0
174 198 0
173 197 0
175 198 0
174 198 0
174 197 0
174 198 0
174 198 0
173 197 0
173 197 0
175 198 0
173 197 0
174 198 0
173 197 0
175 198 0
175 198 0
174 197 0
175 198 0
175 198 0
175 198 0
175 198 0
175 198 0
174 198 0
175 198 0
173 197 0
174 197 0
174 198 0
175 198 0
174 197 0
175 198 0
175 198 0
173 196 0
175 198 0
174 197 0
175 198 0
174 197 0
174 197 0
174 197 0
174 198 0
175 198 0
175 198 0
172 196 0
174 197 0
174 197 0
175 198 0
175 198 0
175 198 0
173 197 0
173 197 0
174 198 0
174 197 0
175 198 0
175 198 0
174 198 0
174 198 0
174 198 0
174 198 0
174 198 0
174 198 0
174 197 0
173 197 0
175 198 0
173 197 0
173 197 0
174 197 0
174 197 0
174 198 0
175 198 0
174 197 0
174 198 0
174 197 0
175 198 0
174 198 0
173 197 0
174 197 0
174 197 0
174 198 0
174 198 0
174 198 0
174 197 0
174 197 0
173 197 0
174 198 0
173 197 0
173 197 0
174 197 0
175 198 0
173 197 0
173 197 0
174 197 0
174 197 0
174 198 0
175 198 0
175 198 0
175 198 0
174 197 0
174 197 0
174 197 0
174 197 0
175 198 0
174 196 0
175 198 0
174 198 0
174 197 0
174 197 0
175 198 0
173 197 0
174 198 0
173 196 0
174 197 0
174 197 0
173 196 0
173 196 0
174 197 0
174 198 0
174 196 0
173 197 0
174 197 0
174 198 0
174 198 0
174 197 0
174 197 0
173 197 0
174 197 0
174 197 0
173 197 0
173 197 0
173 197 0
174 197 0
173 197 0
175 198 0
173 197 0
174 197 0
174 198 0
174 197 0
174 198 0
174 197 0
174 197 0
175 198 0
173 197 0
176 199 0
174 196 9
173 195 20
174 194 28
172 191 25
172 186 42
171 184 46
170 175 63
171 172 66
168 163 69
168 161 76
170 157 81
164 140 89
166 137 92
166 132 103
161 114 101
160 109 106
156 102 104
159 104 109
156 92 105
162 101 114
157 94 105
156 93 105
150 90 102
152 94 106
151 90 102
152 92 105
158 97 110
153 93 105
156 95 108
158 97 110
158 96 107
153 92 104
154 94 105
153 93 105
157 95 107
156 97 109
156 96 109
155 95 107
153 94 107
155 93 105
155 94 106
152 93 106
153 92 104
157 97 111
154 93 106
151 91 103
154 97 110
150 89 101
160 98 111
154 91 103
151 91 103
156 93 105
150 88 100
150 90 102
149 88 100
153 92 104
150 91 103
151 91 103
149 87 99
152 91 103
148 90 102
147 87 98
151 90 102
146 83 94
150 87 98
149 88 100
151 91 103
147 88 100
149 85 96
149 88 99
152 90 102
146 86 97
153 90 102
158 95 108
153 88 100
154 93 105
154 94 107
157 96 108
154 95 107
147 83 94
158 95 107
158 94 106
155 96 104
156 102 102
161 108 102
163 121 102
163 135 92
164 141 87
164 143 84
166 154 78
172 171 73
169 165 74
171 178 58
174 184 48
171 183 46
172 188 40
174 193 32
174 193 29
174 195 22
173 196 8
174 197 8
174 197 0
173 196 0
174 196 8
175 198 11
172 195 11
175 197 11
174 197 11
174 197 0
172 196 8
173 197 0
175 198 0
173 197 0
175 198 0
175 198 0
174 197 0
175 197 0
173 197 0
174 197 0
173 197 0
174 197 0
174 197 0
173 196 0
174 198 0
174 197 0
174 197 0
172 196 0
174 198 0
174 197 0
174 197 0
173 196 0
173 197 0
175 197 0
175 198 0
174 198 0
174 197 0
174 197 0
175 198 0
174 197 0
175 198 0
174 197 0
176 199 0
174 198 0
174 197 0
175 198 0
174 197 0
174 197 0
175 198 0
173 196 0
174 198 0
175 198 0
174 197 0
175 198 0
173 197 0
174 198 0
173 197 0
174 197 0
174 197 0
174 197 0
174 198 0
175 198 0
173 197 0
175 198 0
174 197 0
174 198 0
175 198 0
175 198 0
174 198 0
174 197 0
174 197 0
173 197 0
175 198 0
174 198 0
175 198 0
174 198 0
175 198 0
175 198 0
175 198 0
174 197 0
174 197 0
173 197 0
175 198 0
174 198 0
174 197 0
175 198 0
174 196 0
176 199 0
174 198 0
174 197 0
174 197 0
175 198 0
176 198 0
174 198 0
174 197 0
175 197 0
175 198 0
174 198 0
174 197 0
174 198 0
174 198 0
174 197 0
174 198 0
175 198 0
174 197 0
174 198 0
174 198 0
176 198 0
175 198 0
174 198 0
175 198 0
174 198 0
174 198 0
174 197 0
175 198 0
174 198 0
174 198 0
175 198 0
174 198 0
175 198 0
176 198 0
173 197 0
174 198 0
175 198 0
174 197 0
176 198 0
175 198 0
173 197 0
176 198 0
175 198 0
174 198 0
174 198 0
173 197 0
174 198 0
176 199 0
174 198 0
175 198 0
175 198 0
174 198 0
174 197 0
174 198 0
173 197 0
175 198 0
174 198 0
175 198 0
174 198 0
175 198 0
174 197 0
176 199 0
174 198 0
175 198 0
174 198 0
175 198 0
175 198 0
174 197 0
174 198 0
174 197 0
174 197 0
174 197 0
175 198 0
174 198 0
176 198 0
174 198 0
174 197 0
175 198 0
174 198 0
174 198 0
175 198 0
174 198 0
174 197 0
173 197 0
175 198 0
176 198 0
175 198 0
174 198 0
174 198 0
174 198 0
175 198 0
175 198 0
173 197 0
175 198 0
175 198 0
173 197 0
174 197 0
175 198 0
174 198 0
174 197 0
174 198 0
173 197 0
174 197 0
174 198 0
174 197 0
175 198 0
173 197 0
175 198 0
174 197 0
174 197 0
174 198 0
175 197 0
173 197 0
174 197 0
173 196 0
175 198 0
175 198 0
175 198 0
174 198 0
174 198 0
174 198 0
173 196 0
174 197 0
174 198 0
174 198 0
174 198 0
175 198 0
174 198 0
174 197 0
176 199 0
175 198 0
174 198 0
175 198 0
174 197 0
174 198 0
174 198 0
174 197 0
173 196 0
174 197 0
174 198 0
174 197 0
173 197 0
175 198 0
174 197 0
173 197 0
174 198 0
175 198 0
175 198 0
174 198 0
174 198 0
175 198 0
174 197 0
174 197 0
174 198 0
173 197 0
175 197 0
175 198 0
173 197 0
173 197 0
174 198 0
173 197 0
174 197 0
174 197 0
174 197 0
174 197 0
174 198 0
174 198 0
174 197 0
175 198 0
174 198 0
173 197 0
173 197 0
173 197 0
173 197 0
175 198 0
173 196 0
174 197 0
174 197 0
174 197 0
174 197 0
174 198 0
173 197 0
172 196 0
174 197 0
174 197 0
173 197 0
173 197 0
172 195 0
174 197 0
173 196 0
175 198 0
175 198 0
174 197 0
173 196 0
174 197 0
174 197 0
174 197 0
173 197 0
174 197 0
174 197 0
174 197 0
174 197 0
174 197 0
174 197 0
174 197 0
175 198 0
173 197 0
175 198 0
174 197 0
175 198 0
174 197 0
173 197 0
174 198 0
175 198 0
174 198 0
173 196 17
174 195 23
173 193 26
171 187 38
174 184 55
170 177 57
172 173 65
171 173 62
168 162 73
170 159 83
164 145 88
168 143 91
165 139 89
162 129 95
159 121 100
157 105 100
157 101 102
151 92 98
159 97 110
155 91 103
153 92 104
153 92 103
147 85 96
148 88 99
153 91 103
157 97 110
146 85 95
153 92 104
150 88 99
150 87 99
150 89 100
151 92 103
155 91 103
152 89 101
152 92 104
151 92 103
149 88 100
151 90 102
153 91 103
155 97 109
152 89 100
148 88 99
153 94 106
152 92 104
147 87 97
150 89 100
154 89 99
150 88 99
150 90 101
151 89 101
148 89 101
150 91 103
147 86 97
145 84 95
148 86 97
148 86 97
141 82 92
144 85 96
142 78 88
141 80 91
152 91 102
149 88 99
153 86 97
146 86 98
148 86 98
146 85 96
146 88 99
146 84 95
143 81 91
149 86 98
147 83 94
145 86 97
149 87 98
147 84 95
151 90 102
151 89 101
157 93 105
150 88 99
148 88 99
154 92 101
152 94 101
153 101 98
156 112 98
160 113 101
161 121 103
166 137 96
162 137 88
167 152 83
165 149 84
169 160 76
170 171 65
169 169 63
171 180 52
173 183 52
174 190 42
171 190 29
171 191 29
172 193 22
172 194 20
170 191 22
170 192 19
171 193 18
173 194 21
172 192 32
171 193 21
172 191 37
172 194 22
171 192 24
173 193 26
170 193 18
173 196 14
173 195 11
174 196 19
174 196 8
174 197 0
174 198 0
174 197 0
172 196 0
174 197 0
173 197 0
175 198 0
173 197 0
174 198 0
174 196 0
174 197 0
175 198 0
174 197 0
174 197 0
175 198 0
174 198 0
174 197 0
175 198 0
175 198 0
175 198 0
173 197 0
173 197 0
174 197 0
174 197 0
173 196 0
174 197 0
174 197 0
175 198 0
174 198 0
174 198 0
175 198 0
176 198 0
173 197 0
174 197 0
173 196 0
174 197 0
175 198 0
175 198 0
174 197 0
175 198 0
175 198 0
175 198 0
175 198 0
174 197 0
175 197 0
174 197 0
175 198 0
174 197 0
175 198 0
175 197 0
173 197 0
174 198 0
175 198 0
174 197 0
173 196 0
174 197 0
175 198 0
175 198 0
173 196 0
174 198 0
175 198 0
174 197 0
173 197 0
175 198 0
173 197 0
174 197 0
174 198 0
175 197 0
174 198 0
175 198 0
174 198 0
175 198 0
174 197 0
173 197 0
174 197 0
175 198 0
175 198 0
173 197 0
174 197 0
174 197 0
173 197 0
174 197 0
174 198 0
174 198 0
173 197 0
174 197 0
174 198 0
175 198 0
175 198 0
174 198 0
173 197 0
174 197 0
173 197 0
175 198 0
174 198 0
174 197 0
174 197 0
173 197 0
175 198 0
174 197 0
175 198 0
174 198 0
174 198 0
173 196 0
175 198 0
174 197 0
173 197 0
174 197 0
174 198 0
174 198 0
174 197 0
175 198 0
174 198 0
174 197 0
174 198 0
174 197 0
174 198 0
174 198 0
175 198 0
175 198 0
174 197 0
175 197 0
174 198 0
174 198 0
174 197 0
175 198 0
174 197 0
174 198 0
175 198 0
175 198 0
175 198 0
175 198 0
174 198 0
174 198 0
174 198 0
173 197 0
175 198 0
175 198 0
175 198 0
174 197 0
174 197 0
174 197 0
175 198 0
174 197 0
174 197 0
174 197 0
173 197 0
174 198 0
174 198 0
173 197 0
174 198 0
173 197 0
174 198 0
173 197 0
175 198 0
175 198 0
173 197 0
173 197 0
173 197 0
174 198 0
175 198 0
174 197 0
174 197 0
173 196 0
174 198 0
175 198 0
174 198 0
175 198 0
174 197 0
175 198 0
175 198 0
174 197 0
175 197 0
174 197 0
175 198 0
175 198 0
173 196 0
174 197 0
175 198 0
174 198 0
175 198 0
175 198 0
175 198 0
176 198 0
175 198 0
175 198 0
174 197 0
174 198 0
175 197 0
175 198 0
174 198 0
175 198 0
173 197 0
176 199 0
175 198 0
174 197 0
175 198 0
174 198 0
174 198 0
174 197 0
175 198 0
175 198 0
174 198 0
175 198 0
175 198 0
173 197 0
174 197 0
174 198 0
174 197 0
174 198 0
174 198 0
173 197 0
174 198 0
174 197 0
174 198 0
175 197 0
175 198 0
174 197 0
172 196 0
174 198 0
174 197 0
174 198 0
175 198 0
174 197 0
174 197 0
174 197 0
175 198 0
174 198 0
174 197 0
175 198 0
174 197 0
174 197 0
174 198 0
173 196 0
174 197 0
174 197 0
175 198 0
174 198 0
174 197 0
174 197 0
174 197 0
174 198 0
173 197 0
173 197 0
175 198 0
173 196 0
174 198 0
174 197 0
173 196 0
174 197 0
174 198 0
175 198 0
174 198 0
174 197 0
174 197 0
173 196 0
173 197 0
175 198 0
174 197 0
174 197 0
174 198 0
175 198 0
173 196 0
174 197 0
175 198 0
174 198 0
175 198 0
174 198 0
173 197 0
173 197 0
174 197 0
175 198 0
175 198 0
175 198 0
173 197 0
174 198 0
174 198 0
174 198 0
173 197 0
174 197 0
174 198 0
175 198 0
174 197 0
174 197 0
174 197 0
174 197 0
173 196 0
174 194 28
173 194 20
172 190 35
173 184 46
172 182 53
170 177 53
169 168 69
168 168 62
167 155 80
163 150 80
168 146 88
163 140 87
165 129 99
159 121 89
155 108 96
155 104 94
155 102 99
157 96 103
153 89 100
147 83 93
155 91 102
152 89 100
150 89 100
146 84 94
153 91 101
150 89 101
155 92 103
154 94 106
148 86 97
150 89 100
148 87 98
151 89 100
150 90 101
151 91 103
143 83 93
151 87 99
147 88 99
150 87 98
154 91 102
152 91 102
150 91 103
149 88 99
156 95 106
148 86 96
147 87 99
154 91 102
143 81 91
147 89 101
147 87 98
144 81 92
145 88 100
145 84 95
136 76 86
147 84 95
148 87 99
143 82 94
143 82 93
142 79 89
144 83 94
139 77 88
140 77 87
149 87 97
141 81 92
142 79 90
144 82 93
140 78 88
146 84 95
145 84 95
145 82 93
150 86 97
144 79 89
144 79 89
146 81 91
149 86 98
149 86 97
141 79 89
147 85 95
148 88 96
151 90 98
149 94 97
155 110 95
155 114 93
160 120 97
164 124 97
161 133 90
165 148 82
166 150 77
169 165 70
168 166 66
169 172 60
169 173 65
169 180 46
168 182 39
170 184 40
172 188 43
173 191 36
173 192 37
167 186 34
169 188 37
172 189 42
168 186 39
167 186 35
166 183 42
169 187 41
164 181 38
167 186 37
169 186 42
168 187 37
169 188 36
173 194 25
168 190 24
170 191 21
170 193 14
174 195 22
171 193 14
172 194 16
173 197 0
175 198 8
174 197 0
174 198 0
173 196 0
173 197 0
175 197 0
174 197 0
174 197 0
174 197 0
174 198 0
174 197 0
175 198 0
174 197 0
174 197 0
175 198 0
175 198 0
174 197 0
173 196 0
174 197 0
173 197 0
173 197 0
175 198 0
175 198 0
175 198 0
173 197 0
174 198 0
174 198 0
175 198 0
174 198 0
174 197 0
174 197 0
174 197 0
173 197 0
174 197 0
174 198 0
175 197 0
173 196 0
174 197 0
175 197 0
174 197 0
175 198 0
174 198 0
174 197 0
174 197 0
174 197 0
174 197 0
175 198 0
175 198 0
173 197 0
174 197 0
175 198 0
174 198 0
174 198 0
174 197 0
175 198 0
174 198 0
174 198 0
173 196 0
174 197 0
174 197 0
176 198 0
174 198 0
175 198 0
174 198 0
174 197 0
175 198 0
174 197 0
175 197 0
175 198 0
174 198 0
174 197 0
174 198 0
174 197 0
175 198 0
174 197 0
174 197 0
173 196 0
175 198 0
175 198 0
175 198 0
174 197 0
175 198 0
175 198 0
174 198 0
175 198 0
174 197 0
173 197 0
174 198 0
174 198 0
175 198 0
174 197 0
174 197 0
175 198 0
174 197 0
174 198 0
173 197 0
174 198 0
175 198 0
174 197 0
174 197 0
175 198 0
173 197 0
175 198 0
173 197 0
174 198 0
176 199 0
174 198 0
174 197 0
175 198 0
174 197 0
175 197 0
176 199 0
175 198 0
174 197 0
175 198 0
175 198 0
175 198 0
174 198 0
174 197 0
174 198 0
175 198 0
174 197 0
175 198 0
175 198 0
174 198 0
174 197 0
174 198 0
175 198 0
174 197 0
173 197 0
175 198 0
174 198 0
174 197 0
174 197 0
174 198 0
174 198 0
175 198 0
174 198 0
173 197 0
175 198 0
173 197 0
175 198 0
173 196 0
174 198 0
176 198 0
174 198 0
174 197 0
174 197 0
174 197 0
174 197 0
174 197 0
175 198 0
174 197 0
175 198 0
173 197 0
175 198 0
174 197 0
174 198 0
174 197 0
175 198 0
174 198 0
174 197 0
173 197 0
175 198 0
175 198 0
173 197 0
175 198 0
174 197 0
174 198 0
174 198 0
174 198 0
174 197 0
175 198 0
174 197 0
176 198 0
174 198 0
173 197 0
174 198 0
175 198 0
174 197 0
174 198 0
173 197 0
174 197 0
175 198 0
174 197 0
174 197 0
174 198 0
174 198 0
173 197 0
173 197 0
175 198 0
173 197 0
174 197 0
173 197 0
174 197 0
174 197 0
174 197 0
175 198 0
175 197 0
175 198 0
174 197 0
174 197 0
172 195 0
175 197 0
175 198 0
176 199 0
174 197 0
174 197 0
175 197 0
175 198 0
174 197 0
174 198 0
174 197 0
175 198 0
174 197 0
174 197 0
175 198 0
175 198 0
173 196 0
173 197 0
175 198 0
175 198 0
173 196 0
175 198 0
175 198 0
174 197 0
173 197 0
175 198 0
175 198 0
174 198 0
174 197 0
175 198 0
174 197 0
173 197 0
173 196 0
173 196 0
174 197 0
173 197 0
174 197 0
174 197 0
174 198 0
172 196 0
173 197 0
173 197 0
175 198 0
174 197 0
174 197 0
173 197 0
174 197 0
175 197 0
174 197 0
173 197 0
173 196 0
175 198 0
174 197 0
174 198 0
173 197 0
174 197 0
174 197 0
174 197 0
175 198 0
174 198 0
172 196 0
173 197 0
175 198 0
174 197 0
175 198 0
174 198 0
173 197 0
174 197 0
175 198 0
173 197 0
175 198 0
173 197 0
174 196 0
175 198 0
174 198 0
175 198 0
174 197 0
172 195 0
174 197 0
174 197 1
174 197 14
173 195 20
173 192 28
175 190 39
171 186 42
170 182 50
171 180 52
170 174 59
171 167 70
167 161 73
167 158 74
162 141 83
165 141 90
160 132 86
161 129 89
160 125 90
156 109 92
157 103 97
149 93 93
154 93 101
144 83 93
149 86 96
146 84 94
151 89 100
145 83 93
148 84 94
153 91 102
149 90 102
149 84 94
143 81 91
148 85 95
146 82 92
150 90 101
141 80 91
146 85 95
142 79 89
146 84 94
144 85 95
148 87 98
144 84 95
147 84 94
147 84 95
140 78 88
146 85 96
144 82 92
140 80 91
148 83 93
155 91 103
143 80 90
142 80 90
137 74 83
140 78 89
140 75 84
139 77 87
144 84 95
141 77 87
138 77 87
139 75 84
135 71 80
136 76 86
144 79 90
143 81 91
133 71 80
139 75 85
139 77 87
141 81 91
145 79 88
139 78 88
142 80 90
144 83 94
142 80 91
138 75 85
141 78 88
143 79 88
145 81 91
151 86 97
142 76 85
149 82 91
150 88 95
152 98 94
150 96 93
157 111 93
157 113 88
160 125 87
157 128 87
161 140 84
161 145 77
168 157 79
167 159 67
165 165 62
169 172 63
167 172 58
171 181 53
168 180 49
169 181 51
166 181 43
168 182 50
160 174 44
164 180 45
161 176 48
157 171 49
163 177 50
164 177 54
163 179 49
161 175 54
161 176 51
162 175 56
159 173 50
167 179 60
163 179 46
166 180 51
167 183 48
170 187 42
170 188 34
169 188 32
167 186 32
171 189 34
169 191 14
172 194 16
173 196 8
172 196 0
174 197 0
173 197 0
173 196 0
173 196 0
174 197 0
174 197 0
174 197 0
174 197 0
175 198 0
174 197 0
174 197 0
174 197 0
174 198 0
173 196 0
174 196 0
175 198 0
174 198 0
173 196 0
173 197 0
173 196 0
174 197 0
174 197 0
175 197 0
174 197 0
173 197 0
174 197 0
174 197 0
174 198 0
173 197 0
175 197 0
175 198 0
176 198 0
175 198 0
175 198 0
174 198 0
174 197 0
175 197 0
174 197 0
174 198 0
174 198 0
175 198 0
174 198 0
174 197 0
174 197 0
174 198 0
173 196 0
174 198 0
174 197 0
175 198 0
174 198 0
174 198 0
174 197 0
175 198 0
174 197 0
174 197 0
175 198 0
173 197 0
174 197 0
174 198 0
174 197 0
174 198 0
174 198 0
174 197 0
175 198 0
174 197 0
176 199 0
175 198 0
173 197 0
174 196 0
174 198 0
176 199 0
175 198 0
174 197 0
174 197 0
174 197 0
175 198 0
175 198 0
175 198 0
175 198 0
175 198 0
173 197 0
175 198 0
174 197 0
175 198 0
174 197 0
175 198 0
175 198 0
175 198 0
174 197 0
174 197 0
173 197 0
175 198 0
175 198 0
175 198 0
174 198 0
175 198 0
175 198 0
174 198 0
174 198 0
174 198 0
175 198 0
175 198 0
174 198 0
175 198 0
174 198 0
174 197 0
173 197 0
174 198 0
174 198 0
174 197 0
174 198 0
174 198 0
175 198 0
174 198 0
175 198 0
174 197 0
172 197 0
175 198 0
173 197 0
175 198 0
175 198 0
176 198 0
175 198 0
174 197 0
174 197 0
174 197 0
174 198 0
175 198 0
174 197 0
173 197 0
175 198 0
174 197 0
174 198 0
174 198 0
175 198 0
176 199 0
174 198 0
174 198 0
174 197 0
174 198 0
175 198 0
173 197 0
174 198 0
174 198 0
173 197 0
175 198 0
175 198 0
174 197 0
173 196 0
175 198 0
173 197 0
174 197 0
174 197 0
174 198 0
173 197 0
175 198 0
175 197 0
174 198 0
173 197 0
175 198 0
173 197 0
174 198 0
174 197 0
174 198 0
174 197 0
173 196 0
174 198 0
173 197 0
174 198 0
175 198 0
174 197 0
175 198 0
174 197 0
173 197 0
173 197 0
174 198 0
175 198 0
175 198 0
175 198 0
174 198 0
174 198 0
173 197 0
174 197 0
174 197 0
174 197 0
174 196 0
175 198 0
174 197 0
174 197 0
173 197 0
174 197 0
173 197 0
175 198 0
174 198 0
174 197 0
175 198 0
174 197 0
174 197 0
174 198 0
175 198 0
174 197 0
174 198 0
174 197 0
174 198 0
175 198 0
173 196 0
173 197 0
173 197 0
174 197 0
175 198 0
173 197 0
173 197 0
173 197 0
174 197 0
174 197 0
174 197 0
173 197 0
175 198 0
174 198 0
174 197 0
175 198 0
173 197 0
172 196 0
174 197 0
173 197 0
175 198 0
174 197 0
174 196 0
173 197 0
174 197 0
173 197 0
174 198 0
174 197 0
174 197 0
175 198 0
173 197 0
174 198 0
175 198 0
175 198 0
175 198 0
174 197 0
175 198 0
172 196 0
174 197 0
174 197 0
174 197 0
174 197 0
174 197 0
174 196 0
174 197 0
174 197 0
173 197 0
173 197 0
175 198 0
173 197 0
174 197 0
174 197 0
173 196 0
173 197 0
174 197 0
173 196 0
174 198 0
174 197 0
173 196 0
175 198 0
174 197 0
174 197 0
173 197 0
174 197 0
173 197 0
174 197 0
174 197 0
174 197 0
173 196 0
172 196 0
175 198 0
174 197 0
173 197 0
175 198 9
174 197 0
173 196 14
172 192 25
171 188 31
173 188 34
173 183 47
169 174 52
169 180 49
171 173 62
169 168 64
162 152 70
164 154 71
161 141 80
164 140 82
159 123 89
152 116 81
156 122 84
153 107 89
154 103 94
150 94 92
148 86 92
144 84 90
146 82 91
143 78 88
142 80 90
145 83 93
149 86 97
144 80 90
144 82 92
144 81 91
149 87 97
141 82 92
135 72 81
145 86 97
145 82 92
146 81 91
141 79 89
146 84 95
144 83 93
148 85 95
143 84 95
141 79 88
141 79 89
136 72 81
138 77 88
138 75 85
141 79 89
139 76 85
141 78 87
140 76 85
138 75 85
132 69 78
128 63 72
137 73 82
136 72 81
131 69 77
133 69 78
140 75 85
128 68 77
134 70 79
139 77 86
137 73 82
134 72 81
137 74 83
146 80 90
136 71 80
136 75 84
139 75 85
141 77 87
146 83 93
134 70 80
138 72 81
145 77 87
142 78 88
140 75 85
141 72 81
140 77 87
145 83 89
140 82 77
148 96 85
152 103 87
154 114 89
149 118 78
157 127 78
160 133 85
163 144 76
165 158 68
165 156 69
168 168 63
169 169 64
166 173 51
166 172 52
169 174 65
162 173 51
164 175 59
159 172 48
163 175 58
160 172 55
163 172 67
161 172 61
164 174 67
162 170 72
162 172 65
155 164 65
162 171 66
158 167 65
157 164 71
163 171 68
162 172 64
164 173 69
162 172 62
158 170 58
162 175 59
159 173 51
162 175 57
162 178 48
164 180 43
171 187 49
165 184 29
174 195 31
172 194 19
172 195 8
174 197 0
174 197 0
175 197 0
174 197 0
174 198 0
173 197 0
173 197 0
174 198 0
173 196 0
174 198 0
173 197 0
174 197 0
174 197 0
174 197 0
173 197 0
175 198 0
174 197 0
175 198 0
173 197 0
174 198 0
174 197 0
174 198 0
174 198 0
174 197 0
175 198 0
174 198 0
174 197 0
172 196 0
176 199 0
174 198 0
174 197 0
173 197 0
174 197 0
173 196 0
173 197 0
174 198 0
175 198 0
175 197 0
176 199 0
174 197 0
175 197 0
174 197 0
175 197 0
175 198 0
175 198 0
175 198 0
173 197 0
174 197 0
174 197 0
173 197 0
175 198 0
176 198 0
173 197 0
174 197 0
174 198 0
175 198 0
174 197 0
175 198 0
175 198 0
175 197 0
173 196 0
175 198 0
174 198 0
173 196 0
175 198 0
174 197 0
174 197 0
174 197 0
174 197 0
174 198 0
174 197 0
175 198 0
174 198 0
174 198 0
176 199 0
173 196 0
173 197 0
175 198 0
174 198 0
173 197 0
175 198 0
176 198 0
175 198 0
174 197 0
174 198 0
174 198 0
174 197 0
175 197 0
174 197 0
174 197 0
176 198 0
174 197 0
174 198 0
174 197 0
174 198 0
173 197 0
175 198 0
174 198 0
174 198 0
175 198 0
176 198 0
173 197 0
174 198 0
174 197 0
175 198 0
175 198 0
174 198 0
174 197 0
175 198 0
173 197 0
174 198 0
174 198 0
174 197 0
174 198 0
175 198 0
174 197 0
175 198 0
174 197 0
173 197 0
172 196 0
174 197 0
174 197 0
175 198 0
174 197 0
175 198 0
174 197 0
173 197 0
174 197 0
174 198 0
174 197 0
174 198 0
174 198 0
174 198 0
175 198 0
174 198 0
174 198 0
174 197 0
175 198 0
174 197 0
174 197 0
173 197 0
175 198 0
174 197 0
175 198 0
174 197 0
175 198 0
174 198 0
175 198 0
175 198 0
173 197 0
174 197 0
174 198 0
173 197 0
174 198 0
174 198 0
175 198 0
173 197 0
173 197 0
174 197 0
174 197 0
175 198 0
174 197 0
174 197 0
175 198 0
173 197 0
174 197 0
175 198 0
175 198 0
173 196 0
175 198 0
173 196 0
175 198 0
174 197 0
174 197 0
174 198 0
174 198 0
174 197 0
174 198 0
175 198 0
172 196 0
174 197 0
174 197 0
173 196 0
175 198 0
173 197 0
174 198 0
174 198 0
174 197 0
174 197 0
174 197 0
175 198 0
173 197 0
175 198 0
174 197 0
175 198 0
172 197 0
174 197 0
175 198 0
175 198 0
175 198 0
174 197 0
175 198 0
174 197 0
174 197 0
175 198 0
175 198 0
173 197 0
174 197 0
174 197 0
174 197 0
173 197 0
175 198 0
175 198 0
173 196 0
174 198 0
172 196 0
175 198 0
173 197 0
173 197 0
174 197 0
176 198 0
174 197 0
175 198 0
174 197 0
174 198 0
173 197 0
176 198 0
175 198 0
174 197 0
174 197 0
174 198 0
173 197 0
175 197 0
174 198 0
174 197 0
174 197 0
173 197 0
174 198 0
173 197 0
174 198 0
173 196 0
174 197 0
174 196 0
174 198 0
174 197 0
174 196 0
172 196 0
174 198 0
175 198 0
174 197 0
175 198 0
174 197 0
173 197 0
175 198 0
175 197 0
174 197 0
174 197 0
174 197 0
174 197 0
174 197 0
173 197 0
175 197 0
175 198 0
172 196 0
174 197 0
173 196 0
173 196 0
173 196 0
174 197 0
174 197 0
174 197 0
174 197 0
173 197 0
174 197 0
174 198 0
173 196 0
172 196 0
174 197 0
173 197 0
173 195 10
174 194 17
173 192 29
171 189 33
172 187 36
171 182 46
170 178 53
169 172 56
169 174 59
167 162 68
168 159 73
160 139 74
162 144 70
159 139 79
160 134 82
155 124 77
152 112 83
151 108 87
153 106 92
147 91 82
143 81 85
144 77 85
146 81 91
141 78 86
143 80 89
143 79 87
143 78 87
138 77 86
144 80 90
143 80 88
144 84 94
145 81 89
143 80 89
143 79 89
138 73 82
139 75 84
145 78 88
139 75 83
141 78 88
139 78 87
144 84 94
133 71 79
144 78 87
136 75 84
143 77 86
140 78 88
140 77 86
136 69 77
130 66 74
135 67 75
129 65 73
136 69 78
131 65 73
132 66 74
131 67 76
128 64 73
134 66 74
130 64 72
135 69 76
130 65 73
133 68 77
134 70 78
131 66 74
136 74 83
134 66 74
136 70 78
137 76 85
136 69 77
139 74 83
136 70 79
137 75 85
137 72 81
136 71 79
138 77 86
144 75 84
138 78 79
139 85 76
143 95 77
147 100 77
146 106 76
148 115 76
156 130 76
159 139 69
159 140 72
161 147 70
165 159 69
166 165 62
164 163 58
169 174 54
165 172 52
166 177 49
163 170 55
160 165 64
163 172 58
158 165 65
156 162 69
156 162 70
158 165 71
159 163 75
155 161 73
149 153 72
159 163 80
156 159 79
156 160 80
156 160 78
154 157 78
157 158 84
155 160 73
155 159 77
153 158 72
156 161 76
151 160 66
157 164 68
165 174 67
159 171 60
163 176 60
163 175 56
161 175 53
169 184 55
165 184 31
169 190 21
170 191 24
172 195 11
174 197 0
174 196 0
172 196 0
174 197 0
173 197 0
176 198 0
174 197 0
175 197 0
174 197 0
173 197 0
174 197 0
175 198 0
173 197 0
174 197 0
175 198 0
174 197 0
174 197 0
173 197 0
175 198 0
175 198 0
174 198 0
176 198 0
175 198 0
173 197 0
174 198 0
174 197 0
176 199 0
176 198 0
174 197 0
175 198 0
174 197 0
174 197 0
175 197 0
175 198 0
174 198 0
175 198 0
176 198 0
175 198 0
174 197 0
174 197 0
174 198 0
175 197 0
173 197 0
174 197 0
174 197 0
174 197 0
173 197 0
175 198 0
174 197 0
173 197 0
173 197 0
174 198 0
174 198 0
174 198 0
175 198 0
175 198 0
173 197 0
174 197 0
175 198 0
175 198 0
174 198 0
174 197 0
174 198 0
174 198 0
175 198 0
173 197 0
174 198 0
174 198 0
175 198 0
174 198 0
174 198 0
174 197 0
174 198 0
174 197 0
174 198 0
174 197 0
174 197 0
175 198 0
174 198 0
174 197 0
175 198 0
175 198 0
175 198 0
174 197 0
173 197 0
174 198 0
174 197 0
175 198 0
175 198 0
174 198 0
174 197 0
175 198 0
176 199 0
174 198 0
173 197 0
174 198 0
175 198 0
173 197 0
174 198 0
174 198 0
175 198 0
173 197 0
174 198 0
175 198 0
174 197 0
174 198 0
174 198 0
173 197 0
174 198 0
174 198 0
174 197 0
175 198 0
174 198 0
174 198 0
175 198 0
174 197 0
175 198 0
175 198 0
174 197 0
175 198 0
175 198 0
174 198 0
174 197 0
174 197 0
174 197 0
174 198 0
174 198 0
174 198 0
174 197 0
173 197 0
174 198 0
174 197 0
175 198 0
174 197 0
175 198 0
173 197 0
174 198 0
174 197 0
175 198 0
174 198 0
173 197 0
173 197 0
174 197 0
173 197 0
174 197 0
174 197 0
175 198 0
175 198 0
175 198 0
174 198 0
175 198 0
174 197 0
174 198 0
174 198 0
176 198 0
174 198 0
174 198 0
174 197 0
175 198 0
174 198 0
175 197 0
173 197 0
175 198 0
173 196 0
175 198 0
174 197 0
175 198 0
174 197 0
173 197 0
174 197 0
174 197 0
174 197 0
174 197 0
175 198 0
174 197 0
174 197 0
175 198 0
173 196 0
175 198 0
174 198 0
172 196 0
174 197 0
174 197 0
173 197 0
174 197 0
175 198 0
174 198 0
174 197 0
174 198 0
175 197 0
172 196 0
175 198 0
174 197 0
175 198 0
173 197 0
173 197 0
173 196 0
173 197 0
174 198 0
175 198 0
174 197 0
174 197 0
174 198 0
174 197 0
172 196 0
173 197 0
174 197 0
175 197 0
174 198 0
174 198 0
175 198 0
175 198 0
174 198 0
174 197 0
175 198 0
173 197 0
175 198 0
174 198 0
174 197 0
174 198 0
174 197 0
173 197 0
174 198 0
173 196 0
173 196 0
174 197 0
174 198 0
174 197 0
174 197 0
174 197 0
174 197 0
175 198 0
174 197 0
174 197 0
174 198 0
174 197 0
174 197 0
175 198 0
176 198 0
175 198 0
174 197 0
171 195 0
173 197 0
174 197 0
175 198 0
175 198 0
175 198 0
174 197 0
174 197 0
174 197 0
174 197 0
173 197 0
174 198 0
174 197 0
174 197 0
174 197 0
174 197 0
173 197 0
174 197 0
174 197 0
173 197 0
174 197 0
174 198 0
175 198 0
174 197 0
174 197 0
175 197 0
175 198 0
173 196 0
174 198 0
175 198 0
174 197 0
174 197 0
173 196 0
173 196 0
174 197 0
174 197 0
173 195 6
173 194 14
173 192 26
172 188 32
173 189 39
173 187 40
171 187 35
171 184 45
168 174 56
166 165 61
167 164 64
163 149 73
160 148 67
160 147 66
156 136 72
157 126 76
155 128 76
152 112 83
151 110 81
141 93 77
146 94 81
145 84 87
141 77 85
140 78 86
142 75 83
140 76 85
142 80 89
134 72 80
141 77 85
136 70 78
141 76 85
145 79 88
147 81 89
139 74 82
135 71 79
135 72 80
138 72 80
134 70 78
135 68 76
133 71 79
132 67 75
142 78 87
136 73 82
143 79 88
141 75 84
132 67 75
133 63 70
129 64 72
137 69 76
128 61 68
124 58 64
131 66 74
129 60 66
130 61 69
131 64 71
133 66 74
129 67 75
128 63 70
132 67 75
124 59 66
130 62 70
128 64 71
132 64 72
135 69 76
124 59 67
131 64 71
138 70 78
130 64 72
133 65 73
136 73 81
141 73 81
137 72 80
131 64 72
129 66 75
141 77 83
140 89 72
145 107 68
151 106 79
145 109 69
153 121 76
151 131 63
155 135 66
158 143 63
156 139 69
160 153 58
162 159 58
165 163 64
163 163 58
163 166 60
161 164 61
163 169 60
156 158 66
154 161 65
156 158 75
156 159 76
154 158 74
159 161 84
150 152 80
157 157 87
154 153 87
151 151 86
151 151 86
142 139 84
153 150 91
146 146 82
147 146 87
155 153 89
151 151 84
147 146 83
153 153 83
153 153 86
152 154 79
157 161 78
157 163 74
156 162 72
154 160 72
156 165 62
162 174 59
165 178 55
161 175 47
165 181 48
164 183 34
168 188 26
172 193 24
174 196 14
175 198 0
175 198 0
175 198 0
174 197 0
175 198 0
174 197 0
173 196 0
174 198 0
173 196 0
174 197 0
175 198 0
173 197 0
173 197 0
173 197 0
173 197 0
173 197 0
173 197 0
175 198 0
174 197 0
175 198 0
174 197 0
174 197 0
174 197 0
174 197 0
174 197 0
174 197 0
174 197 0
174 197 0
174 197 0
173 197 0
174 197 0
175 198 0
174 198 0
173 197 0
174 198 0
174 198 0
174 197 0
172 195 0
174 197 0
174 197 0
174 197 0
174 197 0
174 197 0
174 198 0
173 197 0
174 197 0
174 198 0
173 197 0
176 198 0
174 198 0
173 197 0
175 198 0
174 197 0
175 198 0
174 197 0
174 197 0
174 198 0
175 197 0
174 197 0
175 198 0
174 197 0
175 198 0
172 196 0
175 198 0
175 198 0
175 198 0
173 197 0
173 196 0
175 198 0
173 197 0
174 197 0
174 197 0
173 196 0
175 198 0
174 197 0
175 198 0
174 198 0
173 197 0
174 198 0
175 198 0
174 198 0
174 197 0
174 197 0
175 198 0
176 199 0
174 198 0
173 197 0
175 198 0
173 197 0
173 197 0
175 198 0
174 198 0
174 197 0
174 198 0
174 197 0
174 197 0
174 197 0
175 198 0
175 198 0
174 198 0
175 198 0
174 198 0
174 197 0
174 197 0
175 198 0
175 198 0
174 198 0
175 198 0
174 198 0
174 197 0
175 198 0
174 197 0
174 198 0
174 198 0
174 197 0
175 198 0
175 198 0
175 198 0
175 198 0
174 198 0
174 197 0
175 198 0
175 198 0
174 198 0
175 198 0
174 197 0
174 197 0
175 198 0
175 198 0
175 198 0
173 197 0
174 198 0
175 198 0
174 198 0
174 197 0
174 198 0
173 197 0
175 198 0
175 198 0
175 198 0
174 197 0
174 198 0
173 197 0
175 198 0
173 197 0
173 197 0
174 197 0
175 198 0
176 199 0
174 197 0
174 198 0
175 198 0
174 197 0
175 198 0
174 198 0
173 196 0
175 198 0
174 198 0
174 198 0
175 198 0
174 198 0
173 197 0
174 198 0
173 197 0
176 199 0
175 198 0
174 197 0
175 198 0
174 198 0
174 197 0
174 198 0
174 197 0
174 198 0
175 198 0
174 197 0
174 198 0
175 198 0
175 198 0
174 198 0
173 197 0
174 198 0
174 197 0
175 198 0
174 198 0
175 198 0
174 198 0
173 197 0
174 197 0
175 198 0
174 198 0
173 197 0
175 198 0
174 197 0
174 198 0
174 198 0
176 199 0
174 198 0
175 198 0
174 197 0
175 198 0
173 197 0
175 197 0
174 196 0
173 197 0
174 197 0
172 196 0
175 198 0
175 198 0
175 198 0
173 197 0
174 198 0
175 198 0
174 197 0
173 197 0
175 198 0
173 197 0
173 197 0
175 197 0
173 196 0
174 197 0
174 197 0
174 197 0
174 197 0
174 197 0
175 198 0
174 197 0
174 198 0
173 197 0
175 197 0
175 197 0
173 196 0
174 197 0
175 198 0
175 198 0
175 198 0
174 197 0
174 198 0
174 197 0
175 198 0
173 196 0
174 197 0
174 197 0
175 198 0
172 196 0
174 196 0
174 197 0
173 196 0
174 197 0
175 197 0
174 197 0
174 197 0
175 197 0
175 198 0
174 197 0
173 196 0
174 197 0
173 197 0
175 198 0
173 197 0
174 198 0
173 197 0
175 198 0
173 197 0
173 197 0
175 198 0
173 197 0
173 197 0
174 197 0
174 197 0
173 196 0
174 196 0
174 197 0
173 196 0
174 197 0
173 196 0
175 198 0
173 196 1
174 196 14
171 192 21
172 191 31
172 186 39
168 180 33
169 183 29
172 182 49
170 174 54
164 165 54
162 161 53
163 153 67
162 152 63
159 142 64
152 128 64
148 119 68
153 122 76
148 116 71
147 98 76
145 91 78
148 89 84
138 78 80
140 74 80
140 74 82
132 66 74
138 72 80
139 73 81
137 75 84
137 73 81
131 69 76
132 67 74
136 70 78
137 74 82
127 64 71
135 72 80
135 71 79
132 70 78
137 72 79
137 74 82
135 69 77
129 63 70
131 65 72
131 65 73
137 73 81
135 68 76
129 61 68
131 64 72
131 64 71
129 59 66
122 51 57
125 55 61
128 56 62
130 60 67
130 62 68
121 53 59
129 62 68
123 56 63
124 56 63
127 58 66
134 65 73
124 57 63
125 59 66
124 57 64
130 65 72
125 59 66
132 63 70
132 65 73
130 63 70
131 62 69
135 68 76
131 66 74
133 65 72
136 73 74
136 82 72
140 92 70
144 103 70
138 104 58
152 130 65
153 125 75
152 136 61
158 150 50
159 151 55
166 162 59
156 153 46
162 161 55
162 163 56
160 159 63
157 157 63
156 152 74
155 155 74
157 156 78
152 150 79
155 155 82
152 153 83
157 155 88
148 144 89
156 151 95
151 146 91
148 144 93
157 152 98
151 146 94
146 142 91
144 139 91
153 148 95
148 144 93
146 140 91
153 148 96
151 147 94
149 145 91
150 147 90
145 142 87
144 142 84
155 155 84
155 156 82
155 157 79
153 156 76
150 157 68
158 166 67
150 157 61
158 171 52
162 176 50
166 182 42
165 183 35
168 188 29
172 195 18
173 196 11
174 197 0
173 196 0
174 197 0
175 198 0
172 196 0
173 197 0
176 198 0
175 197 0
174 197 0
173 197 0
174 197 0
173 196 0
172 196 0
174 197 0
174 198 0
174 197 0
174 197 0
175 198 0
172 195 0
175 197 0
174 197 0
175 198 0
174 197 0
174 198 0
174 197 0
174 198 0
175 198 0
173 196 0
174 197 0
173 196 0
174 198 0
174 197 0
174 198 0
175 198 0
173 196 0
175 198 0
174 198 0
174 197 0
174 197 0
174 197 0
175 198 0
176 199 0
174 197 0
176 198 0
174 197 0
174 197 0
174 197 0
174 198 0
174 197 0
174 197 0
174 197 0
173 197 0
174 197 0
175 198 0
175 198 0
174 197 0
174 198 0
174 198 0
174 198 0
174 197 0
174 197 0
176 199 0
175 198 0
173 197 0
174 197 0
173 197 0
174 198 0
174 197 0
174 197 0
174 198 0
174 198 0
174 198 0
174 197 0
174 197 0
174 198 0
174 197 0
174 198 0
173 197 0
175 198 0
175 198 0
175 198 0
175 198 0
174 198 0
174 197 0
175 197 0
174 198 0
174 198 0
174 198 0
175 197 0
174 198 0
174 197 0
175 198 0
174 197 0
174 198 0
173 197 0
175 198 0
176 198 0
174 198 0
175 197 0
175 198 0
174 197 0
174 197 0
174 198 0
174 197 0
175 198 0
174 198 0
174 197 0
174 198 0
174 197 0
174 197 0
173 197 0
175 198 0
174 197 0
174 197 0
174 198 0
174 198 0
174 197 0
174 198 0
174 197 0
174 198 0
175 198 0
175 198 0
174 198 0
174 197 0
174 198 0
175 198 0
176 199 0
175 198 0
174 198 0
174 198 0
173 197 0
174 197 0
175 198 0
174 197 0
173 197 0
175 198 0
174 198 0
174 197 0
175 198 0
175 197 0
175 198 0
174 197 0
176 198 0
173 197 0
175 198 0
174 198 0
173 197 0
173 197 0
173 197 0
175 198 0
174 197 0
173 197 0
173 197 0
174 198 0
175 198 0
175 198 0
174 197 0
173 197 0
174 197 0
175 198 0
175 197 0
175 198 0
173 197 0
175 198 0
172 196 0
174 198 0
175 198 0
174 197 0
174 197 0
175 198 0
174 198 0
175 198 0
174 198 0
174 197 0
173 197 0
175 198 0
173 197 0
174 197 0
174 197 0
174 198 0
173 197 0
173 197 0
173 197 0
175 198 0
173 197 0
174 197 0
174 197 0
173 197 0
174 198 0
174 197 0
172 196 0
175 198 0
175 198 0
174 197 0
173 197 0
173 197 0
175 198 0
173 197 0
173 196 0
175 198 0
174 198 0
174 197 0
173 197 0
174 198 0
175 198 0
174 197 0
173 197 0
175 198 0
175 198 0
174 197 0
174 197 0
173 197 0
173 197 0
175 198 0
173 197 0
175 198 0
173 197 0
174 197 0
175 197 0
174 198 0
175 198 0
174 197 0
173 197 0
173 197 0
174 198 0
175 198 0
175 198 0
173 197 0
175 198 0
175 198 0
174 197 0
174 197 0
173 197 0
174 197 0
175 197 0
174 197 0
174 198 0
175 198 0
173 197 0
175 198 0
175 198 0
174 197 0
174 197 0
174 197 0
174 197 0
173 196 0
173 197 0
174 197 0
174 197 0
174 197 0
174 197 0
174 197 0
173 196 0
174 197 0
174 197 0
173 196 0
174 197 0
174 197 0
174 198 0
174 197 0
174 197 0
173 197 0
174 198 0
174 197 0
174 197 0
174 197 0
174 197 0
174 197 0
174 197 0
174 197 0
175 198 0
175 198 0
176 198 0
174 197 0
172 195 0
174 197 0
171 193 9
172 192 20
172 191 28
170 183 36
170 185 33
170 180 40
166 177 38
166 171 47
163 168 48
162 165 49
159 154 56
161 154 55
154 145 58
148 132 54
148 125 63
154 120 71
145 110 72
145 104 68
139 89 75
143 88 81
140 78 79
139 74 82
139 72 79
135 68 75
133 66 72
136 70 77
138 71 79
134 69 76
140 74 81
137 70 77
138 71 79
136 71 78
129 66 73
142 78 85
136 73 80
133 68 75
126 62 69
131 66 73
136 70 77
136 72 80
135 69 76
134 68 75
132 63 70
128 61 67
125 60 66
121 50 55
127 55 61
128 56 62
124 54 60
117 50 55
122 52 57
128 54 60
121 51 56
118 48 53
126 54 59
125 54 59
126 58 64
134 65 72
124 57 63
118 50 56
123 57 63
124 58 64
122 55 61
129 63 70
123 54 60
133 62 69
131 63 71
124 52 58
130 59 65
132 67 68
130 69 59
136 95 70
140 96 64
139 102 65
143 111 63
147 122 61
150 129 58
148 132 55
153 142 55
159 151 54
161 160 45
158 156 51
154 158 49
153 151 63
156 154 65
156 153 77
143 140 69
152 149 81
151 147 86
155 152 90
154 150 93
158 152 96
150 145 94
145 140 92
151 145 95
158 153 101
157 152 99
155 150 99
146 142 94
153 149 98
149 145 95
152 148 97
159 154 101
148 144 95
153 149 98
152 147 97
152 147 97
148 143 94
148 144 95
148 142 91
151 147 93
155 150 94
147 144 87
155 156 87
148 148 80
151 153 78
146 151 68
154 162 68
154 165 55
157 169 55
163 176 52
165 183 38
172 191 33
172 192 23
171 193 15
173 197 0
174 197 0
174 197 0
173 197 0
174 197 0
174 198 0
173 197 0
173 197 0
174 197 0
175 198 0
175 198 0
174 197 0
174 197 0
174 197 0
175 198 0
174 197 0
174 197 0
173 196 0
174 197 0
174 197 0
174 198 0
174 197 0
173 197 0
174 198 0
172 196 0
173 196 0
174 198 0
174 198 0
175 198 0
174 197 0
174 198 0
174 198 0
175 198 0
174 197 0
175 198 0
173 197 0
174 197 0
176 198 0
176 199 0
172 196 0
174 198 0
174 197 0
175 198 0
174 197 0
174 198 0
173 196 0
174 198 0
173 197 0
174 197 0
174 197 0
174 197 0
175 198 0
174 198 0
174 197 0
174 198 0
174 197 0
174 198 0
174 197 0
175 198 0
174 198 0
175 198 0
175 198 0
175 198 0
174 198 0
174 198 0
173 197 0
174 198 0
175 198 0
175 198 0
174 197 0
175 198 0
173 197 0
174 198 0
174 198 0
173 197 0
175 198 0
174 197 0
174 198 0
175 198 0
175 198 0
174 197 0
174 197 0
175 198 0
175 198 0
174 197 0
173 196 0
175 198 0
175 198 0
174 198 0
174 198 0
175 198 0
173 197 0
174 198 0
173 197 0
173 197 0
174 198 0
175 198 0
175 198 0
174 198 0
175 198 0
175 198 0
174 197 0
174 197 0
175 198 0
174 197 0
175 198 0
174 197 0
175 198 0
174 197 0
174 197 0
174 197 0
175 198 0
175 198 0
174 197 0
174 198 0
175 198 0
174 197 0
175 198 0
175 198 0
174 198 0
174 198 0
175 198 0
175 198 0
174 197 0
174 197 0
174 198 0
175 198 0
174 197 0
174 198 0
175 198 0
174 198 0
174 197 0
174 197 0
175 198 0
175 198 0
174 197 0
174 198 0
174 198 0
175 198 0
175 198 0
175 198 0
174 198 0
173 197 0
173 196 0
174 197 0
175 198 0
174 197 0
173 197 0
174 198 0
174 198 0
176 198 0
175 198 0
174 197 0
174 198 0
175 198 0
174 198 0
174 197 0
175 198 0
175 198 0
175 198 0
175 198 0
175 198 0
174 198 0
174 197 0
175 198 0
174 197 0
174 197 0
174 197 0
175 198 0
174 197 0
174 197 0
175 198 0
173 197 0
173 197 0
174 198 0
174 197 0
175 198 0
174 197 0
173 195 0
175 198 0
175 198 0
175 198 0
175 197 0
174 198 0
173 196 0
174 197 0
174 197 0
173 197 0
174 198 0
174 197 0
175 198 0
173 197 0
174 197 0
173 197 0
174 198 0
174 198 0
173 196 0
173 197 0
174 198 0
174 198 0
174 197 0
174 197 0
174 198 0
174 197 0
175 198 0
173 196 0
174 197 0
173 197 0
173 197 0
175 198 0
174 198 0
174 197 0
173 197 0
174 197 0
173 197 0
174 197 0
173 197 0
175 198 0
173 197 0
174 197 0
173 196 0
174 197 0
173 196 0
173 197 0
174 198 0
174 197 0
173 196 0
174 198 0
173 197 0
173 196 0
174 198 0
174 197 0
174 198 0
174 197 0
174 197 0
172 196 0
173 196 0
173 196 0
174 197 0
175 198 0
175 197 0
173 196 0
174 197 0
172 196 0
173 197 0
175 198 0
174 197 0
175 198 0
174 197 0
173 197 0
173 195 0
175 198 0
173 197 0
173 197 0
175 198 0
173 197 0
174 197 0
173 196 0
172 196 0
173 196 0
173 197 0
173 197 0
173 196 0
174 197 0
173 196 0
173 197 0
173 196 0
173 197 0
174 197 0
173 197 0
174 197 0
174 197 0
172 196 0
173 197 0
174 197 9
173 195 6
173 195 17
172 193 10
173 193 22
171 188 30
170 186 30
166 177 33
166 172 41
164 174 33
166 167 45
163 160 53
160 156 53
154 146 55
161 155 59
149 131 60
151 128 67
141 113 61
146 109 72
143 103 69
144 96 70
136 83 73
137 75 78
135 70 74
135 68 74
139 72 79
135 66 73
132 66 73
131 66 72
132 67 74
127 59 65
132 70 76
130 67 74
138 73 81
125 58 64
132 64 70
136 69 76
127 60 66
131 64 70
123 56 62
135 69 75
127 62 69
130 67 74
129 59 65
130 59 65
132 60 66
124 54 59
126 53 58
126 56 62
128 55 61
122 47 52
118 46 50
119 50 56
119 44 49
126 52 58
118 45 50
130 59 64
125 54 59
122 52 57
123 50 55
122 50 55
126 51 57
127 59 65
118 49 54
126 62 68
130 60 67
131 63 70
130 62 69
131 66 71
131 65 67
122 64 59
139 84 66
140 102 59
136 93 59
147 121 61
143 125 46
148 134 50
156 147 53
157 150 51
154 151 38
158 156 49
157 158 53
158 156 60
154 153 66
152 144 71
153 149 75
145 138 76
153 149 86
145 142 83
142 137 85
149 144 93
157 151 98
145 141 92
150 146 96
149 145 95
149 145 95
155 150 99
152 148 98
157 152 101
153 149 99
152 148 98
154 150 100
157 153 101
154 149 98
153 148 98
157 153 101
150 146 97
153 149 98
152 148 97
151 146 96
152 148 98
151 146 96
154 149 97
149 144 93
150 146 91
147 145 88
147 145 86
150 149 83
148 152 72
161 167 75
153 160 63
155 167 58
163 176 54
164 180 45
165 182 37
167 187 30
173 194 19
174 197 8
173 197 0
174 198 0
174 197 0
174 197 0
174 198 0
174 197 0
174 197 0
175 198 0
174 197 0
173 197 0
174 197 0
174 196 0
175 198 0
175 197 0
174 197 0
175 197 0
174 197 0
173 197 0
173 196 0
173 197 0
175 198 0
174 197 0
174 198 0
175 198 0
174 198 0
174 197 0
175 198 0
175 198 0
173 197 0
174 197 0
174 197 0
174 197 0
174 197 0
174 197 0
175 198 0
173 197 0
174 197 0
175 198 0
175 198 0
174 197 0
173 197 0
173 197 0
175 198 0
173 196 0
172 196 0
174 197 0
175 198 0
174 198 0
175 198 0
174 197 0
175 198 0
173 197 0
175 198 0
173 197 0
174 198 0
174 197 0
174 198 0
174 197 0
174 197 0
173 197 0
174 197 0
174 198 0
173 196 0
174 197 0
175 198 0
175 198 0
174 197 0
174 197 0
174 197 0
175 198 0
173 197 0
173 197 0
174 197 0
175 198 0
174 198 0
174 197 0
174 198 0
174 197 0
176 198 0
174 197 0
175 198 0
175 198 0
175 198 0
174 197 0
175 198 0
174 197 0
175 198 0
173 197 0
174 198 0
174 197 0
175 198 0
173 197 0
174 198 0
175 198 0
173 197 0
175 198 0
175 198 0
174 198 0
175 198 0
174 198 0
173 197 0
174 197 0
175 198 0
174 198 0
174 197 0
175 198 0
176 198 0
174 197 0
175 198 0
174 197 0
175 198 0
174 198 0
175 198 0
174 198 0
174 198 0
174 197 0
175 198 0
175 198 0
173 197 0
175 198 0
174 198 0
173 197 0
175 198 0
176 199 0
174 196 0
174 197 0
174 198 0
174 197 0
173 196 0
173 197 0
174 198 0
174 198 0
175 198 0
174 197 0
174 197 0
174 198 0
174 197 0
175 198 0
174 198 0
173 197 0
173 197 0
175 198 0
175 198 0
174 197 0
175 198 0
173 197 0
175 198 0
173 197 0
174 198 0
175 198 0
174 197 0
175 198 0
175 198 0
174 198 0
173 197 0
175 198 0
174 198 0
174 197 0
176 198 0
175 198 0
174 197 0
174 197 0
176 198 0
173 197 0
174 197 0
176 198 0
174 197 0
174 197 0
174 198 0
174 197 0
173 196 0
175 198 0
174 198 0
175 198 0
171 196 0
172 196 0
175 198 0
174 198 0
173 197 0
174 197 0
175 198 0
174 198 0
174 198 0
173 196 0
174 198 0
175 197 0
174 197 0
174 198 0
174 198 0
173 197 0
173 197 0
174 197 0
174 197 0
175 198 0
174 197 0
173 197 0
173 197 0
172 196 0
174 197 0
173 197 0
175 198 0
173 196 0
175 198 0
175 198 0
173 197 0
175 197 0
172 196 0
174 197 0
175 198 0
174 197 0
174 197 0
174 197 0
174 198 0
175 198 0
173 197 0
174 197 0
172 196 0
175 198 0
173 196 0
174 197 0
175 197 0
174 197 0
175 197 0
174 198 0
172 196 0
175 198 0
173 197 0
173 197 0
174 198 0
175 198 0
173 196 0
173 196 0
173 196 0
174 197 0
173 197 0
173 197 0
173 196 0
173 197 0
175 198 0
174 196 0
174 197 0
174 197 0
172 195 0
174 198 0
174 198 0
174 198 0
176 198 0
175 198 0
173 196 0
174 197 0
174 197 0
173 196 0
174 197 0
172 196 0
173 197 0
175 197 0
174 197 0
173 197 0
174 197 0
173 197 0
174 197 0
175 198 0
173 196 0
173 196 0
173 197 0
172 196 0
173 196 0
172 196 0
173 196 0
173 196 0
173 196 0
174 197 0
172 195 0
173 196 0
173 196 0
174 196 9
171 191 11
172 193 10
173 192 22
171 184 34
168 183 27
167 176 37
165 175 27
165 173 37
164 165 48
164 166 51
157 149 49
160 148 60
151 132 62
152 127 65
149 123 67
146 113 64
141 100 68
146 93 80
136 84 69
129 69 69
139 72 77
136 70 78
132 66 73
137 70 76
130 59 65
133 66 73
133 69 76
129 58 64
125 62 67
134 68 74
129 60 66
130 61 67
129 64 71
132 64 70
135 69 76
130 63 69
131 67 74
129 65 71
135 68 74
128 61 67
122 55 60
122 52 57
127 56 62
126 55 60
119 45 49
122 51 56
116 43 48
123 52 58
127 51 56
121 49 54
130 62 68
119 46 51
124 52 57
125 55 61
125 55 61
122 54 60
119 51 56
126 58 64
129 62 69
125 53 59
121 54 60
129 60 66
125 57 63
126 56 60
134 75 72
136 81 66
136 89 64
135 98 56
135 96 53
146 125 57
145 127 56
151 137 49
153 142 50
152 142 45
156 153 49
153 145 50
152 149 57
153 150 57
150 147 66
146 140 75
153 150 82
142 134 81
142 136 81
152 146 93
155 148 95
154 149 98
150 145 94
146 141 93
155 150 98
152 147 97
154 149 98
150 146 96
157 154 102
151 147 97
156 153 101
152 148 98
157 153 101
150 146 97
162 158 104
153 149 99
153 149 99
154 150 99
158 154 102
152 148 98
154 149 99
153 150 99
150 146 96
156 151 99
150 144 95
148 144 94
148 143 93
153 147 96
143 139 89
149 146 88
149 146 86
151 153 80
157 162 71
157 162 77
154 162 61
157 170 55
165 180 48
166 184 38
167 186 29
171 192 18
172 195 11
175 198 0
175 198 0
174 197 0
174 197 0
175 198 0
174 197 0
175 198 0
174 197 0
174 197 0
174 196 0
174 197 0
175 198 0
173 197 0
174 198 0
175 197 0
174 197 0
174 197 0
175 198 0
173 196 0
175 198 0
173 197 0
174 198 0
174 197 0
174 197 0
174 197 0
174 197 0
175 198 0
175 198 0
174 197 0
174 197 0
172 196 0
175 198 0
175 198 0
174 197 0
174 197 0
174 197 0
174 197 0
174 197 0
174 197 0
175 198 0
174 197 0
173 196 0
174 197 0
175 198 0
174 197 0
174 197 0
173 197 0
173 197 0
174 197 0
174 197 0
175 198 0
176 198 0
175 198 0
175 198 0
173 196 0
175 198 0
174 198 0
175 198 0
174 197 0
174 198 0
174 197 0
175 198 0
175 198 0
175 198 0
174 197 0
174 197 0
175 198 0
174 198 0
175 198 0
175 198 0
174 197 0
174 198 0
174 197 0
174 197 0
175 198 0
173 197 0
174 197 0
174 197 0
174 197 0
174 198 0
175 198 0
174 198 0
174 198 0
174 198 0
174 198 0
174 197 0
173 196 0
173 197 0
175 198 0
175 198 0
174 198 0
175 198 0
174 197 0
173 197 0
174 197 0
174 197 0
175 198 0
174 197 0
174 197 0
175 198 0
174 197 0
175 198 0
175 198 0
174 197 0
175 198 0
175 198 0
174 198 0
175 198 0
174 197 0
174 197 0
174 198 0
174 197 0
174 198 0
174 196 0
176 198 0
175 198 0
175 198 0
173 197 0
174 198 0
173 197 0
174 198 0
175 198 0
174 198 0
175 198 0
174 198 0
174 197 0
175 198 0
174 197 0
173 197 0
174 197 0
173 197 0
174 197 0
175 198 0
175 198 0
174 198 0
174 198 0
174 197 0
174 198 0
174 198 0
174 198 0
174 197 0
174 198 0
173 197 0
174 198 0
173 197 0
174 198 0
175 197 0
174 197 0
175 198 0
175 198 0
174 198 0
175 197 0
174 198 0
173 197 0
175 198 0
173 197 0
175 198 0
174 197 0
174 198 0
173 197 0
174 197 0
175 197 0
174 198 0
174 197 0
175 198 0
175 198 0
173 197 0
175 198 0
174 197 0
175 198 0
174 197 0
173 197 0
174 197 0
175 198 0
174 197 0
173 197 0
174 197 0
173 196 0
174 198 0
174 198 0
174 198 0
175 198 0
174 197 0
173 196 0
173 197 0
174 197 0
173 196 0
173 196 0
174 197 0
175 198 0
173 196 0
173 197 0
175 198 0
174 197 0
174 197 0
174 197 0
175 198 0
174 197 0
173 197 0
174 197 0
174 197 0
175 198 0
173 196 0
175 198 0
174 197 0
173 197 0
174 198 0
174 197 0
173 197 0
174 198 0
174 198 0
175 197 0
174 197 0
175 197 0
172 195 0
175 197 0
173 197 0
174 197 0
174 197 0
174 197 0
173 197 0
174 197 0
174 197 0
175 197 0
174 197 0
174 196 0
174 197 0
175 198 0
174 197 0
174 197 0
174 197 0
173 196 0
175 197 0
174 198 0
175 197 0
173 196 0
174 198 0
174 198 0
173 196 0
173 196 0
174 197 0
173 197 0
173 196 0
173 196 0
173 197 0
174 197 0
174 197 0
174 197 0
173 196 0
173 197 0
173 196 0
172 195 0
173 197 0
174 197 0
173 196 0
173 197 0
173 196 0
174 198 0
173 197 0
174 197 0
172 195 0
175 198 0
174 197 0
174 197 0
175 198 0
173 196 0
174 197 0
174 197 0
173 197 0
173 197 0
172 195 0
171 195 0
173 197 0
174 197 0
173 197 0
173 196 1
172 193 26
172 192 18
170 189 22
169 186 26
168 183 24
166 178 34
169 175 42
166 169 47
160 164 40
161 162 46
158 157 46
160 150 58
159 142 63
155 129 66
154 135 66
149 121 69
145 105 74
143 95 72
137 84 70
132 68 69
135 70 77
125 61 67
139 73 80
130 66 73
132 67 75
134 68 75
134 68 75
134 69 75
126 59 65
132 66 73
136 66 73
136 69 76
131 64 70
137 70 77
135 70 77
133 66 72
135 65 71
133 65 72
134 66 73
124 58 64
131 59 65
126 56 61
125 53 58
120 49 54
123 49 54
122 53 59
122 50 55
120 51 57
117 43 48
120 46 50
120 48 53
122 54 59
124 56 62
124 54 60
123 55 61
122 51 56
121 50 56
119 47 51
129 65 73
125 55 60
127 59 65
134 63 68
133 70 66
133 76 67
135 92 61
137 99 58
134 110 43
146 120 62
146 135 49
152 141 49
152 147 43
160 152 54
161 160 52
156 153 57
155 154 59
158 158 67
147 141 72
152 144 80
148 142 84
155 146 93
145 139 89
142 136 88
154 148 95
150 144 94
152 147 95
155 151 99
154 150 98
153 150 99
163 158 104
157 153 102
152 148 98
160 156 103
154 150 99
153 150 100
155 152 101
155 151 101
149 146 97
154 150 100
156 152 101
158 155 103
160 156 103
155 152 101
153 149 99
156 152 101
149 146 97
156 152 101
157 153 101
157 153 101
152 148 98
152 148 97
151 146 96
150 144 94
152 147 96
150 145 94
154 149 91
151 150 83
156 158 82
160 163 79
156 161 70
164 174 63
162 175 56
162 177 45
166 185 30
171 192 25
173 196 8
174 197 0
173 197 0
173 196 0
175 197 0
174 197 0
174 197 0
173 196 0
173 196 0
173 196 0
175 197 0
174 198 0
174 197 0
174 197 0
174 198 0
175 197 0
173 197 0
174 197 0
174 197 0
174 197 0
174 197 0
175 198 0
174 198 0
173 197 0
173 197 0
175 198 0
175 198 0
173 197 0
174 197 0
175 198 0
175 197 0
175 197 0
174 197 0
174 198 0
174 197 0
173 197 0
174 197 0
175 198 0
174 197 0
174 197 0
173 197 0
174 198 0
174 197 0
175 198 0
173 197 0
175 198 0
175 198 0
174 197 0
175 198 0
175 198 0
174 197 0
173 197 0
176 199 0
174 198 0
174 197 0
173 197 0
173 197 0
175 198 0
173 197 0
174 197 0
173 197 0
173 196 0
173 197 0
174 198 0
174 197 0
175 198 0
175 198 0
174 197 0
174 198 0
174 197 0
175 197 0
173 197 0
175 198 0
175 198 0
173 197 0
173 197 0
174 198 0
175 198 0
175 198 0
174 198 0
174 197 0
174 198 0
173 197 0
174 197 0
174 197 0
175 198 0
175 197 0
175 198 0
174 198 0
175 198 0
174 198 0
175 198 0
174 198 0
174 197 0
174 198 0
173 197 0
174 197 0
174 197 0
174 198 0
174 198 0
174 197 0
175 198 0
175 198 0
174 198 0
175 198 0
174 197 0
174 197 0
174 198 0
175 198 0
174 197 0
174 197 0
175 198 0
174 198 0
174 197 0
175 198 0
174 197 0
173 197 0
175 198 0
173 197 0
175 198 0
174 198 0
174 197 0
173 197 0
175 198 0
175 198 0
174 197 0
175 198 0
174 198 0
173 197 0
175 198 0
174 197 0
174 197 0
174 198 0
174 198 0
174 198 0
173 197 0
175 198 0
174 197 0
175 198 0
175 198 0
175 198 0
173 197 0
175 198 0
174 197 0
176 199 0
174 197 0
175 198 0
174 198 0
173 197 0
174 197 0
174 198 0
175 198 0
174 197 0
174 197 0
174 198 0
174 197 0
175 198 0
173 197 0
175 198 0
174 198 0
174 197 0
173 196 0
175 198 0
173 197 0
174 198 0
174 198 0
177 199 0
175 198 0
175 198 0
175 198 0
173 197 0
175 198 0
174 197 0
174 197 0
173 196 0
174 198 0
174 197 0
174 198 0
174 197 0
174 197 0
174 197 0
174 198 0
174 197 0
173 197 0
174 197 0
173 197 0
173 197 0
174 198 0
175 198 0
175 198 0
174 198 0
174 198 0
174 197 0
175 198 0
174 197 0
174 197 0
174 197 0
173 196 0
175 198 0
175 198 0
174 197 0
174 197 0
174 197 0
173 197 0
175 198 0
174 196 0
174 197 0
174 197 0
175 198 0
174 197 0
174 197 0
174 197 0
173 196 0
172 196 0
174 197 0
173 196 0
174 197 0
174 197 0
174 198 0
174 197 0
174 197 0
174 198 0
174 196 0
173 196 0
174 197 0
174 198 0
173 196 0
174 197 0
174 197 0
174 198 0
174 197 0
174 197 0
174 197 0
174 198 0
174 197 0
173 197 0
174 197 0
174 196 0
173 196 0
172 195 0
173 196 0
173 197 0
174 198 0
172 197 0
174 197 0
172 196 0
174 196 0
173 196 0
173 196 0
174 197 0
173 196 0
171 195 0
172 195 0
174 197 0
173 197 0
174 197 0
173 196 0
172 196 0
173 197 0
173 196 0
174 197 0
173 196 0
173 197 0
171 195 0
172 195 0
174 197 0
174 198 0
173 196 0
174 197 0
173 196 0
175 197 0
175 198 0
173 196 0
174 197 0
172 196 0
174 197 0
174 197 0
173 195 3
172 194 6
173 195 11
170 188 21
170 188 23
167 184 23
168 178 34
163 170 43
165 170 43
162 157 53
161 158 49
157 150 50
151 144 50
151 134 54
153 132 65
154 115 77
143 111 65
143 97 73
138 88 73
137 77 71
138 72 79
136 71 79
132 65 71
140 76 84
128 64 71
129 62 68
131 66 72
129 62 68
138 72 80
130 65 72
131 65 71
134 64 71
140 73 80
129 62 68
137 70 76
129 59 65
130 63 69
129 60 66
133 63 69
128 63 69
119 48 52
130 57 63
128 55 61
118 47 52
126 52 57
124 52 57
121 50 55
119 48 53
119 48 53
125 52 57
123 55 61
121 52 58
126 56 62
122 52 57
130 60 67
121 51 56
123 53 59
125 58 64
124 59 65
128 63 70
134 71 69
136 81 68
138 86 71
135 92 61
142 109 62
141 111 53
147 134 54
155 142 53
154 145 47
154 152 46
156 151 49
151 148 48
153 152 59
155 152 66
149 147 69
151 146 79
156 150 89
150 142 89
154 147 93
153 148 96
145 141 92
149 145 93
157 152 99
156 152 100
151 146 96
161 156 103
150 146 97
153 149 99
156 152 100
159 155 103
155 151 101
155 152 101
155 151 100
157 153 101
156 153 102
160 157 104
158 155 103
155 151 101
156 153 101
157 154 102
151 149 99
154 150 99
153 150 100
154 151 100
150 146 97
154 150 100
151 148 98
153 149 98
154 149 98
154 150 97
151 146 96
157 152 98
143 138 89
148 142 92
154 149 93
144 142 83
155 153 86
148 150 73
152 157 68
153 161 65
161 175 50
158 173 42
167 187 30
171 192 28
172 195 11
174 197 0
173 197 0
174 197 0
174 197 0
173 197 0
175 198 0
174 197 0
175 197 0
174 197 0
174 197 0
175 197 0
173 196 0
175 197 0
173 197 0
174 197 0
175 198 0
174 198 0
174 197 0
174 197 0
175 198 0
174 198 0
173 197 0
174 197 0
174 197 0
174 197 0
173 196 0
174 197 0
175 197 0
174 197 0
173 197 0
174 197 0
173 197 0
174 197 0
175 198 0
173 196 0
173 197 0
174 197 0
174 197 0
175 198 0
173 197 0
174 198 0
174 197 0
175 198 0
173 197 0
174 197 0
174 197 0
173 197 0
175 198 0
174 197 0
174 197 0
174 197 0
174 197 0
175 198 0
174 197 0
173 197 0
176 198 0
175 197 0
174 197 0
173 197 0
175 198 0
174 197 0
174 197 0
173 197 0
174 197 0
174 198 0
175 198 0
174 198 0
175 198 0
174 198 0
174 197 0
175 198 0
174 197 0
174 197 0
175 198 0
174 197 0
173 197 0
174 198 0
175 198 0
174 198 0
174 197 0
175 198 0
174 198 0
173 197 0
175 198 0
174 197 0
175 198 0
175 198 0
174 197 0
176 198 0
175 198 0
173 197 0
174 197 0
174 198 0
175 198 0
174 197 0
175 198 0
174 198 0
175 198 0
174 198 0
175 198 0
174 197 0
174 198 0
176 199 0
175 198 0
174 198 0
176 198 0
174 197 0
174 197 0
176 198 0
173 197 0
175 198 0
174 198 0
175 198 0
176 198 0
174 197 0
174 198 0
173 197 0
175 198 0
174 197 0
174 198 0
174 198 0
174 197 0
174 198 0
174 198 0
175 198 0
174 198 0
173 197 0
175 198 0
174 197 0
173 197 0
174 197 0
173 197 0
173 197 0
174 197 0
174 197 0
174 197 0
175 198 0
174 197 0
174 197 0
175 198 0
175 198 0
174 198 0
173 196 0
175 198 0
172 196 0
174 198 0
175 198 0
173 196 0
175 198 0
174 198 0
173 197 0
175 198 0
174 198 0
174 197 0
175 198 0
176 198 0
174 197 0
174 197 0
175 198 0
174 198 0
174 197 0
174 197 0
173 197 0
176 198 0
174 198 0
174 198 0
174 197 0
175 198 0
174 197 0
174 197 0
175 198 0
174 197 0
175 198 0
175 198 0
174 197 0
174 198 0
173 196 0
175 198 0
173 197 0
174 197 0
175 198 0
174 198 0
174 198 0
174 197 0
174 197 0
174 197 0
174 197 0
174 197 0
173 196 0
174 197 0
173 197 0
174 197 0
174 198 0
174 197 0
173 196 0
176 199 0
174 197 0
174 198 0
173 197 0
174 198 0
173 197 0
174 197 0
174 197 0
173 196 0
174 196 0
173 195 0
175 198 0
173 197 0
175 198 0
175 198 0
173 197 0
173 197 0
174 197 0
173 196 0
174 197 0
174 198 0
173 197 0
173 196 0
173 196 0
173 197 0
174 197 0
174 197 0
174 198 0
173 197 0
174 197 0
174 197 0
175 198 0
173 196 0
174 197 0
174 197 0
174 197 0
175 198 0
174 197 0
174 197 0
173 196 0
174 197 0
174 197 0
174 197 0
172 196 0
175 198 0
174 197 0
173 197 0
173 196 0
174 198 0
173 196 0
174 197 0
173 197 0
173 196 0
172 196 0
174 197 0
173 196 0
174 198 0
174 196 0
174 197 0
173 197 0
174 196 0
172 195 0
174 196 0
174 197 0
173 197 0
173 196 0
174 197 0
174 197 0
174 197 0
173 196 0
174 197 0
173 197 0
172 195 0
173 196 0
173 196 0
172 196 0
173 196 0
173 196 0
173 197 0
173 197 0
175 198 0
173 196 0
172 196 0
172 194 11
173 193 20
172 190 19
168 181 34
165 175 37
165 175 34
158 161 46
161 167 40
157 156 43
159 153 58
155 145 58
149 130 57
149 130 57
151 124 70
139 99 62
144 106 72
143 96 77
139 76 76
135 70 74
128 60 66
138 70 77
134 67 73
136 69 77
133 70 77
138 70 77
136 71 78
135 69 76
132 65 72
139 71 79
128 64 71
136 71 78
128 63 70
136 70 78
130 63 69
132 66 72
130 62 69
125 55 61
128 61 67
120 46 51
115 45 49
121 49 54
126 53 58
121 52 57
123 50 55
121 51 57
122 51 56
125 54 60
123 53 59
125 55 61
123 55 61
126 59 65
129 55 61
132 63 70
125 56 62
126 60 67
123 59 65
126 62 60
135 83 63
139 94 68
134 103 50
140 111 50
141 118 52
150 133 53
149 133 51
151 144 49
152 144 48
155 156 41
154 150 52
153 150 63
147 144 63
153 149 79
147 141 82
151 143 86
154 147 93
150 144 91
152 147 93
154 149 96
153 147 95
153 148 97
159 154 101
154 149 97
152 148 97
151 147 97
154 150 99
152 149 99
153 150 99
161 157 104
153 149 99
156 153 102
160 156 104
158 155 103
159 156 104
153 149 99
158 155 103
157 154 103
156 152 101
158 155 104
154 151 100
150 147 98
154 151 100
158 154 103
151 148 99
158 154 103
156 152 101
152 148 98
150 146 97
155 150 98
152 147 95
149 145 95
155 150 98
150 145 94
157 150 98
150 145 93
150 146 88
150 148 82
154 154 80
151 156 67
157 165 62
161 173 53
164 178 47
168 187 33
171 192 20
174 196 8
173 196 0
174 197 0
173 197 0
174 197 0
174 197 0
174 197 0
174 197 0
174 198 0
174 198 0
174 197 0
172 196 0
174 198 0
174 198 0
174 197 0
173 196 0
175 197 0
174 197 0
174 198 0
175 198 0
173 197 0
175 198 0
174 198 0
173 197 0
173 196 0
175 198 0
174 197 0
175 198 0
173 196 0
174 197 0
174 197 0
174 198 0
173 197 0
175 198 0
174 197 0
174 197 0
174 198 0
174 197 0
174 198 0
174 197 0
174 198 0
174 197 0
174 197 0
174 198 0
173 197 0
174 197 0
175 198 0
174 197 0
174 197 0
175 198 0
175 198 0
175 197 0
174 197 0
175 198 0
173 197 0
174 197 0
174 198 0
175 198 0
173 196 0
173 197 0
175 198 0
174 198 0
174 197 0
174 198 0
173 197 0
175 198 0
174 197 0
174 198 0
174 198 0
174 197 0
174 198 0
174 198 0
174 198 0
174 198 0
174 198 0
174 198 0
174 197 0
174 197 0
174 198 0
174 197 0
175 198 0
174 198 0
173 197 0
175 198 0
175 198 0
175 198 0
174 198 0
174 197 0
174 198 0
174 198 0
174 197 0
173 197 0
174 198 0
175 198 0
174 198 0
174 198 0
174 197 0
174 197 0
176 199 0
175 198 0
174 198 0
174 198 0
174 197 0
174 197 0
174 198 0
175 198 0
174 197 0
175 198 0
173 197 0
175 198 0
175 198 0
175 198 0
174 198 0
175 198 0
175 198 0
173 197 0
173 197 0
174 198 0
173 196 0
175 198 0
175 198 0
174 197 0
174 197 0
174 197 0
174 197 0
173 197 0
175 198 0
174 198 0
174 197 0
175 198 0
174 198 0
173 197 0
173 197 0
174 197 0
175 198 0
173 197 0
174 198 0
173 196 0
175 198 0
175 198 0
174 198 0
174 197 0
174 198 0
174 197 0
175 198 0
174 198 0
175 198 0
174 197 0
174 197 0
175 198 0
175 198 0
174 197 0
173 197 0
174 197 0
175 198 0
175 198 0
174 197 0
173 197 0
174 198 0
174 198 0
174 197 0
174 197 0
174 197 0
175 198 0
174 197 0
173 196 0
174 198 0
174 198 0
174 197 0
174 198 0
174 198 0
174 197 0
175 198 0
174 197 0
174 197 0
174 197 0
173 197 0
175 198 0
174 198 0
173 197 0
175 198 0
173 197 0
173 197 0
174 197 0
173 197 0
175 198 0
174 197 0
175 197 0
174 197 0
174 197 0
173 197 0
174 197 0
175 198 0
173 196 0
174 198 0
175 198 0
174 198 0
173 197 0
174 197 0
173 196 0
174 197 0
174 197 0
174 198 0
173 197 0
174 197 0
174 197 0
174 198 0
175 198 0
174 198 0
174 198 0
173 196 0
175 198 0
173 197 0
174 197 0
174 197 0
174 197 0
173 196 0
174 197 0
173 196 0
174 197 0
174 197 0
174 197 0
174 198 0
173 197 0
174 197 0
174 197 0
175 198 0
175 198 0
173 197 0
174 197 0
173 196 0
174 197 0
173 196 0
172 196 0
175 198 0
174 197 0
173 196 0
175 197 0
175 198 0
172 196 0
174 197 0
172 196 0
173 197 0
173 196 0
174 197 0
173 196 0
173 196 0
174 197 0
173 196 0
174 197 0
173 197 0
174 197 0
173 196 0
172 195 0
174 197 0
173 196 0
173 197 0
173 197 0
173 197 0
172 195 0
173 196 0
173 197 0
173 197 0
173 196 0
174 197 0
174 196 0
172 195 0
173 196 0
172 196 0
174 197 0
174 196 0
174 197 0
174 197 0
174 197 0
175 197 0
174 197 0
173 196 0
174 197 0
171 194 2
172 194 14
170 191 10
170 186 29
168 184 23
169 184 27
166 172 37
165 173 42
165 168 49
161 159 49
155 146 51
156 148 51
148 128 61
149 132 53
144 118 61
150 112 69
141 95 73
135 84 67
142 82 81
137 69 76
138 72 80
131 65 72
129 65 71
134 67 74
136 73 81
134 70 77
131 67 74
129 62 69
134 69 76
131 67 73
127 58 64
137 70 77
133 65 72
134 67 74
128 59 65
126 57 63
131 61 67
124 50 56
131 59 65
123 50 55
120 49 55
124 49 54
121 46 50
124 52 58
122 52 58
125 55 61
128 59 65
130 59 65
123 58 64
124 58 65
126 60 67
123 52 58
125 58 64
123 57 63
125 61 66
129 66 64
133 82 64
139 98 67
146 108 63
145 115 57
152 133 60
147 134 51
154 144 50
156 151 50
155 155 48
154 154 44
157 152 63
150 145 65
151 144 75
147 144 74
147 140 83
145 138 87
151 144 91
148 143 90
151 147 94
155 150 97
155 150 96
149 144 94
159 153 101
152 147 96
159 154 101
157 153 101
153 149 99
154 148 98
147 143 95
152 149 100
152 149 99
161 158 105
155 150 99
151 149 100
158 155 103
155 153 102
159 156 104
163 160 106
156 153 102
158 155 104
159 157 104
161 158 105
155 153 102
158 154 103
155 152 101
158 155 103
158 155 103
156 154 102
157 153 102
157 154 101
157 153 100
153 148 98
152 148 97
159 155 101
154 149 97
151 146 95
150 145 94
148 143 92
150 144 89
147 143 80
154 153 82
148 152 70
158 166 64
165 178 53
165 182 41
163 180 35
170 191 19
172 195 14
174 197 0
173 197 0
174 196 0
175 198 0
174 197 0
173 196 0
174 198 0
174 197 0
173 196 0
173 197 0
173 197 0
175 198 0
174 196 0
174 197 0
174 197 0
174 197 0
174 198 0
173 197 0
174 197 0
174 197 0
174 197 0
174 197 0
174 197 0
174 197 0
175 198 0
174 197 0
175 197 0
175 198 0
175 198 0
175 197 0
174 197 0
174 198 0
174 197 0
174 197 0
173 197 0
174 197 0
175 198 0
173 197 0
173 196 0
174 198 0
174 197 0
175 198 0
174 197 0
174 197 0
173 197 0
175 198 0
173 197 0
174 197 0
175 198 0
173 197 0
174 197 0
175 198 0
174 197 0
174 198 0
174 197 0
175 198 0
174 197 0
174 198 0
174 197 0
174 197 0
176 198 0
175 198 0
175 198 0
175 198 0
174 197 0
173 197 0
174 197 0
176 198 0
173 197 0
174 197 0
175 198 0
173 197 0
174 198 0
173 197 0
174 197 0
174 198 0
173 197 0
175 198 0
174 197 0
174 198 0
174 197 0
174 197 0
174 198 0
174 198 0
175 198 0
174 198 0
174 197 0
174 197 0
172 197 0
174 198 0
174 197 0
174 197 0
175 198 0
174 198 0
175 198 0
174 198 0
173 197 0
175 198 0
174 197 0
174 198 0
175 198 0
174 197 0
175 198 0
175 198 0
174 198 0
175 198 0
174 198 0
174 198 0
175 198 0
173 196 0
174 197 0
174 198 0
175 198 0
175 198 0
175 198 0
174 198 0
174 198 0
175 198 0
174 198 0
174 198 0
175 198 0
174 197 0
175 198 0
173 197 0
174 198 0
173 197 0
174 197 0
174 197 0
174 197 0
176 199 0
174 197 0
174 197 0
175 198 0
172 196 0
174 198 0
173 197 0
174 197 0
174 197 0
174 197 0
175 198 0
173 197 0
174 197 0
174 198 0
174 197 0
173 197 0
176 199 0
174 197 0
174 197 0
174 197 0
173 197 0
174 198 0
174 197 0
174 198 0
174 198 0
174 197 0
174 198 0
174 197 0
174 198 0
174 198 0
174 197 0
174 197 0
174 198 0
174 197 0
174 197 0
173 197 0
174 197 0
174 197 0
174 197 0
174 198 0
174 197 0
175 198 0
175 198 0
173 197 0
174 196 0
175 198 0
172 195 0
174 197 0
174 198 0
174 197 0
173 197 0
173 197 0
174 198 0
175 198 0
174 198 0
174 197 0
174 197 0
174 197 0
174 198 0
175 198 0
173 197 0
174 198 0
173 197 0
174 197 0
175 198 0
173 197 0
175 198 0
174 197 0
175 198 0
173 196 0
174 197 0
175 198 0
173 197 0
173 197 0
173 197 0
174 198 0
172 197 0
173 196 0
174 197 0
174 197 0
174 197 0
174 197 0
174 197 0
174 198 0
173 197 0
175 198 0
173 196 0
173 197 0
174 197 0
172 195 0
174 197 0
174 196 0
174 196 0
174 197 0
172 196 0
173 197 0
174 197 0
173 197 0
174 197 0
172 195 0
172 195 0
173 196 0
174 196 0
173 197 0
174 197 0
174 197 0
173 197 0
173 196 0
174 197 0
173 196 0
173 196 0
174 197 0
173 196 0
174 197 0
174 198 0
174 197 0
174 197 0
173 197 0
173 196 0
171 194 0
172 196 0
172 195 0
173 197 0
173 196 0
174 197 0
173 197 0
173 197 0
174 197 0
173 196 0
173 197 0
174 197 0
174 197 0
174 197 0
173 197 0
174 197 0
174 197 0
172 195 0
175 198 0
173 195 0
174 197 0
173 196 0
173 195 0
174 197 0
171 195 0
174 197 0
173 196 0
173 196 0
174 197 0
173 196 0
174 197 0
173 192 18
171 191 20
171 185 32
166 181 31
170 186 29
164 175 32
164 170 37
162 161 47
160 157 48
157 152 52
157 143 57
150 135 58
147 125 61
150 112 77
136 97 65
140 85 78
131 74 73
140 75 81
132 67 74
131 63 70
141 73 80
136 71 78
133 66 73
128 61 67
132 68 75
136 71 78
134 67 74
135 68 75
129 62 68
129 62 68
134 63 69
131 62 68
132 63 70
132 63 69
131 59 65
122 49 55
120 50 55
127 56 62
125 47 52
125 52 58
127 58 65
130 58 64
131 60 66
126 53 58
126 54 60
126 55 61
130 60 67
126 61 68
128 57 64
127 61 68
128 58 64
136 70 72
134 86 61
143 100 66
144 106 66
145 116 59
148 124 60
150 137 52
153 146 44
157 154 46
158 157 49
156 155 50
145 140 56
155 158 66
150 146 75
146 141 76
148 142 85
148 142 86
156 149 93
155 149 95
154 150 96
156 151 96
156 150 96
153 148 95
160 154 100
160 155 101
151 146 96
158 152 100
159 153 101
153 146 97
160 155 103
156 151 100
153 149 99
160 156 104
157 152 102
158 156 104
159 156 104
160 156 104
157 154 103
157 152 101
158 154 103
160 156 104
159 155 104
159 156 104
165 161 107
159 155 103
158 155 103
157 154 103
156 152 101
162 158 105
162 158 105
155 152 101
163 159 105
160 156 103
158 154 101
153 150 99
153 149 97
153 149 98
150 146 94
148 143 93
151 146 94
158 151 96
152 146 92
146 141 86
150 151 76
153 156 70
154 163 57
162 174 55
163 177 44
166 184 31
170 190 29
175 196 14
174 197 0
173 197 0
173 196 0
173 196 0
173 196 0
172 196 0
173 197 0
175 198 0
174 197 0
173 196 0
174 197 0
174 198 0
174 197 0
174 197 0
174 198 0
175 198 0
174 198 0
173 196 0
174 197 0
174 197 0
174 197 0
174 197 0
173 196 0
173 196 0
172 196 0
172 196 0
174 197 0
173 197 0
176 199 0
175 198 0
174 197 0
175 198 0
175 197 0
173 197 0
174 197 0
173 196 0
174 197 0
174 198 0
174 197 0
174 197 0
174 197 0
173 197 0
173 197 0
174 197 0
175 198 0
174 198 0
174 198 0
173 196 0
174 197 0
176 198 0
174 197 0
175 197 0
174 197 0
174 197 0
174 198 0
174 197 0
174 198 0
174 197 0
174 198 0
175 198 0
174 198 0
175 198 0
174 197 0
173 197 0
175 198 0
173 197 0
175 198 0
173 197 0
173 197 0
175 198 0
174 197 0
175 198 0
173 197 0
174 198 0
173 196 0
173 197 0
174 198 0
175 198 0
173 197 0
174 198 0
174 197 0
174 197 0
174 197 0
175 198 0
174 198 0
175 198 0
174 197 0
175 198 0
174 196 0
175 198 0
174 198 0
174 197 0
173 197 0
175 198 0
175 198 0
174 198 0
175 198 0
174 197 0
175 198 0
175 198 0
173 197 0
174 198 0
174 198 0
173 197 0
175 198 0
174 197 0
175 198 0
175 198 0
174 198 0
175 198 0
174 197 0
174 197 0
175 198 0
174 197 0
175 198 0
175 198 0
173 197 0
173 197 0
174 198 0
174 197 0
174 198 0
172 196 0
174 197 0
174 197 0
173 197 0
175 198 0
174 198 0
175 198 0
174 198 0
173 197 0
174 197 0
175 198 0
174 198 0
174 197 0
174 198 0
174 197 0
175 198 0
173 197 0
175 198 0
175 198 0
175 198 0
174 197 0
174 197 0
175 198 0
174 197 0
174 197 0
175 198 0
174 197 0
174 198 0
174 196 0
174 197 0
174 197 0
176 199 0
174 198 0
175 198 0
174 197 0
173 197 0
175 198 0
175 198 0
174 198 0
174 197 0
172 195 0
174 197 0
174 197 0
173 197 0
174 197 0
176 198 0
174 197 0
174 197 0
174 197 0
174 197 0
174 197 0
172 196 0
176 198 0
174 197 0
176 198 0
172 197 0
173 196 0
174 198 0
174 196 0
175 198 0
173 197 0
173 196 0
174 198 0
174 197 0
174 197 0
174 197 0
175 198 0
174 197 0
174 198 0
173 197 0
174 197 0
174 198 0
175 198 0
174 197 0
173 197 0
173 197 0
173 197 0
172 196 0
173 197 0
174 198 0
174 198 0
175 198 0
174 197 0
175 197 0
175 198 0
173 196 0
174 197 0
173 196 0
174 197 0
173 196 0
174 197 0
175 198 0
172 196 0
174 198 0
175 198 0
173 196 0
174 197 0
173 196 0
173 196 0
173 196 0
174 197 0
173 196 0
174 197 0
172 196 0
173 197 0
174 197 0
174 197 0
172 195 0
173 196 0
174 197 0
173 196 0
174 198 0
173 196 0
173 195 0
172 195 0
174 197 0
174 198 0
173 196 0
173 197 0
174 197 0
173 197 0
173 196 0
174 197 0
175 198 0
173 196 0
172 196 0
174 197 0
173 196 0
171 195 0
173 197 0
173 196 0
173 196 0
172 195 0
175 198 0
173 196 0
172 196 0
173 197 0
174 198 0
174 197 0
174 197 0
173 196 0
172 195 0
173 196 0
174 197 0
173 197 0
173 196 0
173 196 0
171 195 0
173 197 0
174 197 0
174 197 0
174 197 0
172 195 0
172 195 0
174 196 0
174 197 0
174 197 0
172 196 0
173 195 0
171 191 24
173 192 19
170 188 16
171 185 34
168 182 34
167 171 48
159 159 48
160 158 50
158 152 52
161 149 59
148 123 61
143 119 58
144 120 58
140 99 68
140 96 73
140 77 75
134 70 76
126 62 68
135 68 75
131 66 73
130 65 72
133 67 73
137 68 75
130 61 67
140 70 77
130 65 71
131 64 70
133 67 74
135 64 71
129 61 68
133 62 68
132 61 67
126 56 62
124 54 60
125 50 55
127 56 62
126 52 57
123 51 56
130 60 67
125 54 60
124 55 60
130 61 67
126 53 59
124 55 61
128 59 65
126 60 67
128 60 67
130 59 65
131 68 67
131 84 60
139 98 62
140 109 63
144 128 46
150 126 56
152 142 50
153 151 40
158 156 43
161 162 45
155 153 51
151 151 55
152 150 65
146 143 70
149 143 78
147 141 83
157 151 92
155 149 93
153 148 94
151 146 94
153 148 95
163 157 103
157 150 97
154 150 97
156 152 100
155 150 98
155 149 98
157 150 99
159 152 100
152 148 98
161 156 104
160 154 102
153 149 99
155 149 99
159 155 103
158 154 103
158 155 103
156 150 100
157 153 102
157 153 103
165 162 108
162 159 106
157 154 103
160 156 104
157 154 103
158 156 104
160 157 105
161 158 106
160 157 105
158 155 103
155 152 101
159 155 103
157 153 101
158 155 102
161 156 102
161 156 102
152 148 96
157 152 99
150 146 95
160 155 102
157 151 98
152 147 95
155 149 95
149 144 90
150 145 87
149 149 78
154 159 69
156 165 55
161 172 56
162 177 43
168 188 32
170 192 8
175 198 11
173 197 0
174 197 0
174 197 0
174 197 0
175 198 0
173 195 0
173 197 0
173 197 0
175 198 0
173 197 0
174 198 0
174 197 0
173 196 0
174 197 0
172 196 0
175 198 0
174 197 0
174 197 0
173 196 0
174 197 0
173 196 0
174 197 0
173 196 0
173 196 0
174 197 0
174 197 0
173 197 0
174 197 0
173 196 0
174 197 0
174 197 0
175 198 0
174 198 0
174 197 0
174 197 0
174 198 0
174 197 0
174 198 0
174 197 0
175 198 0
175 198 0
175 198 0
175 198 0
175 198 0
174 197 0
174 198 0
175 198 0
173 197 0
174 197 0
175 198 0
174 197 0
173 197 0
175 198 0
175 198 0
174 198 0
174 197 0
173 196 0
174 197 0
175 198 0
175 198 0
175 198 0
174 197 0
175 198 0
174 197 0
174 198 0
174 197 0
175 198 0
175 198 0
172 196 0
175 198 0
175 198 0
173 197 0
174 198 0
175 198 0
175 198 0
175 198 0
174 198 0
174 197 0
173 197 0
175 198 0
174 198 0
174 197 0
174 197 0
174 198 0
175 198 0
174 198 0
174 198 0
174 197 0
174 197 0
175 198 0
173 196 0
174 197 0
176 198 0
174 198 0
175 198 0
173 197 0
175 198 0
174 198 0
175 198 0
174 198 0
175 198 0
174 197 0
174 198 0
175 198 0
174 198 0
174 198 0
174 197 0
173 197 0
175 198 0
173 196 0
174 197 0
174 198 0
174 198 0
175 198 0
175 198 0
174 197 0
174 197 0
174 197 0
174 198 0
174 197 0
174 197 0
174 198 0
174 197 0
174 197 0
174 197 0
175 198 0
174 198 0
174 197 0
173 197 0
176 198 0
176 198 0
174 198 0
174 197 0
173 197 0
174 198 0
174 197 0
175 198 0
175 198 0
175 198 0
175 198 0
174 198 0
175 197 0
173 197 0
175 198 0
174 198 0
174 197 0
174 198 0
174 197 0
174 197 0
173 197 0
174 197 0
174 197 0
174 198 0
174 197 0
174 198 0
174 197 0
173 197 0
173 197 0
174 197 0
175 198 0
172 196 0
173 197 0
175 198 0
174 197 0
173 197 0
175 198 0
174 197 0
173 197 0
175 198 0
174 197 0
175 198 0
173 196 0
173 197 0
173 196 0
173 196 0
174 197 0
174 197 0
174 197 0
174 197 0
174 196 0
174 198 0
174 197 0
174 198 0
175 198 0
174 197 0
173 196 0
175 198 0
174 197 0
174 197 0
175 198 0
174 197 0
174 197 0
173 197 0
174 197 0
175 198 0
173 197 0
174 198 0
174 197 0
175 198 0
174 197 0
174 197 0
174 197 0
174 197 0
175 198 0
173 197 0
175 198 0
174 197 0
173 197 0
174 197 0
175 198 0
173 197 0
174 198 0
175 198 0
173 197 0
173 197 0
174 198 0
174 197 0
174 197 0
174 197 0
173 196 0
172 196 0
174 198 0
173 197 0
175 197 0
175 197 0
172 196 0
174 197 0
173 197 0
174 197 0
174 197 0
173 196 0
173 196 0
174 197 0
175 198 0
173 196 0
175 198 0
173 196 0
174 198 0
173 196 0
172 196 0
173 196 0
173 196 0
172 195 0
173 196 0
172 196 0
173 196 0
173 196 0
174 197 0
173 196 0
174 197 0
172 196 0
172 196 0
174 197 0
172 196 0
174 197 0
174 196 0
174 197 0
173 196 0
173 196 0
175 197 0
173 197 0
173 196 0
173 196 0
174 197 0
174 197 0
172 195 0
174 198 0
174 197 0
174 197 0
173 197 0
174 197 0
173 196 0
173 196 0
172 195 0
173 196 0
171 194 0
174 197 0
173 197 0
171 194 0
175 197 0
171 191 21
171 193 17
170 187 26
169 182 33
168 180 31
163 170 39
162 164 47
158 162 44
163 160 51
152 144 52
149 129 59
152 130 63
145 111 67
144 103 70
148 91 79
140 79 75
134 67 73
137 73 81
138 74 82
139 72 80
131 64 70
134 66 72
134 70 76
128 61 67
134 66 72
141 73 81
131 64 71
137 69 76
128 61 68
132 64 71
129 60 66
128 54 60
133 58 64
124 52 57
134 60 66
130 57 63
120 49 54
123 51 56
127 58 65
120 50 56
129 55 61
125 57 63
132 64 71
126 53 58
132 62 69
126 57 62
131 66 63
136 86 59
146 103 71
140 108 61
146 121 62
147 130 55
155 149 46
156 150 49
154 154 40
162 170 40
154 161 42
158 159 62
151 148 66
151 147 75
148 143 79
147 141 85
152 147 91
154 149 92
157 151 96
153 147 92
156 150 95
154 150 97
149 143 93
162 157 102
158 151 98
160 155 101
155 150 99
156 149 97
163 157 104
159 155 102
151 146 97
157 151 100
160 154 103
160 156 104
158 153 102
159 153 102
160 155 103
157 153 103
155 151 101
157 153 102
160 156 104
163 159 106
159 156 104
154 150 100
156 153 102
161 158 106
156 153 102
161 157 105
158 155 103
163 160 106
163 160 107
159 156 104
156 153 101
159 156 104
155 151 100
162 158 104
157 153 101
160 156 102
158 153 100
156 152 99
159 154 100
158 153 98
152 146 94
145 140 88
147 142 89
144 139 85
146 142 82
147 146 76
156 158 73
161 170 61
159 172 50
162 179 30
169 190 27
171 193 14
173 197 0
174 197 0
175 197 0
174 197 0
174 198 0
174 197 0
174 197 0
173 196 0
174 197 0
173 197 0
174 198 0
174 197 0
172 196 0
174 198 0
174 197 0
173 196 0
172 195 0
175 198 0
175 198 0
175 198 0
173 196 0
175 198 0
173 196 0
174 196 0
173 197 0
174 197 0
173 197 0
174 197 0
174 197 0
173 196 0
175 198 0
175 198 0
174 197 0
174 197 0
174 198 0
175 198 0
173 196 0
175 198 0
174 197 0
174 197 0
174 197 0
174 197 0
175 198 0
174 197 0
175 198 0
174 197 0
174 197 0
174 196 0
174 197 0
173 196 0
173 197 0
174 197 0
173 197 0
174 197 0
174 197 0
173 197 0
174 197 0
174 197 0
175 197 0
173 197 0
174 198 0
174 197 0
175 198 0
173 196 0
175 198 0
174 197 0
175 198 0
174 197 0
174 197 0
174 198 0
175 198 0
174 197 0
173 196 0
174 197 0
174 198 0
174 198 0
174 197 0
174 197 0
174 197 0
174 197 0
175 198 0
174 197 0
174 198 0
172 196 0
174 197 0
175 198 0
174 198 0
176 198 0
175 198 0
174 197 0
174 197 0
174 197 0
175 198 0
175 198 0
174 197 0
174 197 0
174 197 0
174 197 0
175 198 0
175 198 0
176 199 0
174 197 0
175 198 0
174 197 0
175 198 0
174 198 0
175 198 0
174 198 0
175 198 0
176 198 0
175 198 0
174 197 0
175 198 0
174 197 0
173 197 0
173 197 0
176 198 0
174 198 0
174 197 0
174 197 0
175 198 0
175 198 0
173 197 0
175 198 0
174 198 0
174 198 0
173 197 0
174 197 0
174 197 0
175 198 0
174 197 0
175 198 0
175 198 0
174 197 0
174 198 0
174 198 0
173 197 0
174 197 0
175 197 0
174 197 0
174 197 0
174 197 0
174 197 0
175 198 0
174 197 0
175 198 0
174 197 0
175 198 0
175 198 0
174 198 0
173 197 0
174 198 0
174 197 0
175 198 0
174 198 0
175 198 0
175 198 0
174 197 0
174 197 0
173 197 0
173 197 0
174 197 0
174 197 0
175 197 0
174 197 0
173 196 0
174 197 0
174 198 0
174 198 0
173 197 0
173 197 0
174 197 0
174 197 0
174 197 0
173 197 0
173 197 0
174 197 0
174 197 0
174 197 0
174 197 0
173 196 0
175 197 0
175 198 0
175 198 0
175 198 0
173 197 0
173 196 0
175 197 0
174 197 0
175 198 0
174 197 0
175 198 0
174 197 0
174 197 0
175 198 0
174 197 0
174 198 0
173 196 0
174 198 0
173 196 0
174 197 0
173 196 0
175 198 0
175 198 0
174 197 0
174 197 0
173 196 0
174 197 0
174 197 0
175 197 0
175 198 0
173 196 0
171 194 0
174 197 0
175 198 0
174 197 0
174 197 0
173 196 0
174 197 0
173 197 0
174 197 0
173 197 0
172 195 0
175 197 0
174 197 0
174 197 0
174 197 0
175 198 0
174 197 0
174 198 0
174 197 0
173 196 0
173 196 0
173 197 0
173 196 0
174 196 0
173 196 0
173 197 0
174 198 0
172 195 0
173 197 0
173 197 0
172 196 0
172 196 0
173 196 0
173 195 0
172 195 0
173 196 0
173 197 0
173 196 0
175 197 0
172 195 0
172 196 0
174 197 0
174 197 0
173 196 0
173 196 0
174 197 0
174 197 0
173 195 0
174 196 0
172 196 0
174 197 0
173 196 0
173 196 0
172 195 0
173 196 0
172 195 0
174 197 0
174 197 0
173 197 0
172 196 0
174 197 0
173 196 0
173 197 0
172 196 0
173 196 0
172 195 0
173 196 0
173 197 0
173 196 0
173 194 10
172 193 17
169 188 24
171 185 33
171 183 37
166 181 28
159 162 40
159 160 47
159 157 47
158 148 55
154 136 62
151 132 59
147 111 68
144 107 68
140 94 77
134 76 70
134 71 78
140 72 79
131 61 67
131 64 71
129 63 70
127 61 68
138 69 76
130 63 69
139 70 77
135 69 76
133 68 75
135 66 73
130 62 68
125 56 62
136 65 71
118 48 53
127 55 61
128 53 58
131 58 64
128 58 64
129 55 61
124 56 63
127 56 63
132 62 69
134 65 72
129 60 66
130 59 66
123 58 64
132 80 63
131 84 59
138 98 59
143 115 62
148 121 62
150 135 55
153 144 53
158 151 55
159 160 42
158 165 37
155 155 49
152 150 60
150 151 62
144 141 70
146 143 74
155 149 88
149 144 89
152 146 92
148 143 89
151 144 91
153 147 94
157 151 95
149 144 95
157 150 98
157 153 99
161 154 101
156 151 98
160 153 100
157 151 99
152 147 97
157 152 101
161 156 103
156 150 100
154 147 98
155 149 99
158 154 103
157 151 101
156 149 99
155 151 101
158 154 103
162 157 105
157 153 103
160 157 105
162 158 106
158 156 104
158 155 104
165 161 108
161 157 105
159 156 104
161 157 105
164 161 108
163 159 105
157 155 103
158 155 103
157 154 102
160 156 103
150 147 97
158 154 102
156 153 101
161 157 103
155 149 96
159 153 99
156 150 97
153 148 94
152 147 94
154 147 95
152 145 90
153 145 92
156 152 89
151 152 75
158 160 70
162 173 59
156 169 47
163 182 29
170 191 27
173 195 14
173 197 0
174 198 0
174 197 0
173 196 0
174 197 0
175 197 0
174 197 0
173 196 0
175 198 0
174 197 0
173 197 0
174 197 0
173 196 0
174 198 0
174 197 0
173 196 0
175 198 0
173 196 0
174 197 0
175 198 0
174 198 0
173 197 0
174 197 0
175 198 0
175 198 0
174 197 0
172 196 0
172 196 0
174 197 0
173 197 0
173 197 0
174 197 0
174 197 0
174 197 0
174 197 0
173 197 0
174 197 0
174 197 0
174 197 0
173 197 0
173 196 0
174 198 0
174 197 0
174 197 0
174 197 0
172 197 0
174 197 0
174 197 0
172 196 0
174 197 0
175 198 0
173 197 0
174 198 0
175 197 0
173 197 0
174 197 0
173 197 0
175 197 0
174 198 0
174 197 0
175 198 0
176 198 0
174 197 0
174 198 0
175 198 0
173 197 0
175 198 0
173 196 0
175 198 0
175 198 0
174 197 0
174 197 0
174 197 0
175 198 0
174 197 0
174 197 0
174 197 0
173 197 0
175 198 0
175 198 0
175 198 0
173 196 0
175 198 0
174 197 0
174 198 0
174 197 0
174 197 0
175 198 0
174 198 0
175 198 0
173 197 0
174 198 0
173 197 0
173 197 0
174 197 0
174 198 0
175 198 0
174 197 0
175 198 0
173 197 0
175 198 0
174 198 0
174 198 0
174 197 0
174 198 0
173 197 0
173 197 0
175 198 0
175 198 0
174 198 0
175 198 0
174 197 0
174 198 0
174 198 0
173 197 0
174 198 0
173 197 0
175 198 0
173 197 0
173 197 0
174 198 0
175 198 0
175 198 0
174 197 0
174 198 0
174 198 0
175 198 0
174 198 0
175 198 0
174 198 0
174 198 0
174 197 0
175 198 0
174 197 0
174 198 0
174 198 0
173 196 0
174 197 0
175 198 0
174 197 0
174 197 0
175 198 0
175 198 0
173 197 0
173 196 0
174 197 0
174 197 0
174 198 0
173 197 0
174 196 0
174 197 0
173 197 0
174 197 0
173 197 0
173 197 0
174 198 0
174 197 0
175 198 0
175 198 0
172 196 0
174 197 0
174 197 0
174 198 0
173 197 0
173 196 0
173 197 0
174 197 0
174 198 0
174 197 0
174 197 0
175 198 0
175 198 0
173 197 0
174 197 0
173 197 0
173 197 0
174 197 0
174 197 0
173 196 0
175 198 0
173 196 0
173 197 0
174 198 0
174 197 0
174 197 0
173 196 0
174 197 0
174 198 0
174 197 0
174 197 0
174 197 0
174 197 0
174 197 0
173 196 0
174 197 0
174 197 0
173 196 0
174 197 0
174 197 0
174 197 0
175 198 0
174 197 0
174 197 0
173 196 0
174 198 0
174 197 0
173 197 0
174 197 0
174 198 0
173 197 0
173 195 0
174 198 0
172 196 0
174 197 0
174 197 0
174 197 0
174 197 0
174 197 0
173 197 0
173 196 0
175 198 0
174 197 0
173 197 0
173 196 0
174 197 0
175 198 0
174 197 0
174 197 0
173 196 0
172 196 0
174 197 0
174 197 0
174 197 0
173 196 0
172 195 0
173 197 0
175 198 0
174 197 0
172 195 0
173 197 0
173 196 0
173 196 0
171 195 0
175 198 0
174 197 0
174 196 0
172 195 0
174 198 0
173 195 0
173 197 0
174 197 0
175 198 0
173 196 0
172 195 0
173 196 0
172 196 0
172 195 0
175 197 0
173 196 0
173 196 0
174 197 0
171 194 0
172 195 0
172 195 0
174 197 0
173 195 0
173 197 0
173 197 0
171 193 0
175 198 0
173 195 0
174 197 0
173 197 0
172 194 0
173 196 0
174 197 0
174 197 0
174 196 0
174 196 0
173 195 0
173 196 0
173 196 0
172 194 3
173 193 23
173 190 29
170 184 35
167 181 32
162 170 33
163 162 54
161 162 46
155 148 57
150 141 51
150 133 59
147 121 63
139 98 68
139 90 69
142 85 78
139 74 76
139 72 80
134 65 71
133 67 73
137 69 76
133 65 72
136 70 78
134 67 74
136 68 75
132 64 71
126 60 67
127 59 65
139 69 76
130 62 69
123 52 57
131 61 68
127 54 61
129 57 64
124 50 56
126 54 60
121 55 61
126 57 63
121 53 59
131 58 64
126 57 64
125 60 65
127 62 59
137 88 64
139 99 64
145 119 59
145 124 54
147 131 56
159 155 50
160 158 46
158 162 38
163 172 43
156 159 49
156 161 57
152 155 60
152 151 73
151 147 82
146 141 80
154 148 90
146 141 86
147 141 88
151 145 90
160 154 100
154 148 96
156 150 97
154 146 95
147 141 90
155 150 99
154 148 97
158 152 100
156 150 99
160 154 101
161 154 102
159 154 103
159 155 103
154 149 100
159 154 103
155 149 100
158 152 101
157 153 102
160 154 103
158 153 103
160 153 102
159 155 103
164 159 107
160 156 104
162 157 105
164 161 108
163 159 106
162 158 105
163 160 107
157 154 103
166 162 108
161 158 105
161 158 105
160 157 104
157 154 102
165 161 107
160 157 104
163 159 104
161 157 104
162 157 103
164 160 105
162 157 102
161 156 102
157 153 100
156 151 97
160 154 99
151 145 92
153 147 93
145 139 88
141 134 83
145 141 81
150 150 77
155 160 65
158 168 59
162 174 54
165 181 36
171 193 16
172 194 11
174 197 0
174 197 0
172 196 0
174 197 0
175 198 0
173 196 0
174 197 0
174 197 0
174 197 0
174 197 0
174 197 0
174 196 0
174 197 0
173 196 0
175 198 0
173 196 0
176 198 0
175 198 0
175 198 0
173 196 0
174 197 0
174 196 0
174 197 0
175 198 0
174 197 0
173 196 0
174 198 0
174 197 0
174 197 0
173 196 0
174 197 0
175 197 0
174 197 0
173 197 0
174 197 0
172 196 0
174 198 0
174 197 0
173 197 0
174 198 0
174 197 0
173 196 0
174 197 0
173 196 0
174 197 0
175 198 0
173 197 0
174 198 0
174 197 0
174 198 0
173 196 0
174 196 0
174 197 0
175 198 0
176 198 0
174 197 0
175 197 0
174 198 0
175 198 0
175 198 0
175 198 0
173 197 0
174 197 0
175 198 0
173 197 0
175 197 0
173 197 0
174 198 0
174 197 0
175 198 0
174 198 0
174 198 0
175 198 0
174 198 0
175 198 0
174 197 0
174 197 0
174 197 0
175 198 0
174 197 0
173 197 0
174 198 0
173 197 0
174 198 0
174 198 0
174 197 0
174 198 0
175 198 0
176 198 0
174 197 0
175 198 0
175 198 0
175 198 0
175 198 0
174 197 0
174 196 0
175 198 0
175 198 0
174 198 0
174 198 0
174 198 0
176 198 0
174 197 0
174 198 0
175 198 0
174 197 0
173 197 0
174 197 0
174 197 0
175 198 0
174 197 0
174 197 0
174 197 0
173 197 0
175 198 0
175 198 0
174 197 0
173 197 0
173 197 0
173 197 0
175 198 0
174 197 0
174 197 0
175 198 0
173 197 0
175 198 0
173 197 0
174 197 0
175 198 0
174 197 0
174 197 0
174 197 0
174 198 0
175 198 0
173 197 0
174 198 0
173 197 0
174 197 0
174 198 0
174 197 0
174 197 0
174 197 0
174 198 0
174 197 0
173 197 0
174 198 0
176 198 0
174 197 0
174 198 0
174 198 0
173 197 0
173 197 0
174 197 0
176 198 0
174 197 0
174 197 0
174 197 0
174 198 0
174 198 0
175 198 0
175 198 0
174 197 0
175 198 0
173 197 0
175 198 0
174 198 0
175 198 0
174 197 0
176 199 0
174 197 0
173 197 0
174 196 0
173 196 0
173 197 0
174 197 0
173 197 0
175 198 0
174 197 0
174 197 0
174 198 0
172 196 0
174 197 0
174 196 0
175 198 0
173 197 0
173 197 0
172 196 0
174 198 0
174 197 0
173 196 0
174 198 0
173 196 0
175 198 0
175 198 0
173 197 0
174 196 0
174 196 0
174 197 0
173 196 0
173 197 0
172 196 0
174 197 0
173 196 0
173 197 0
174 198 0
174 196 0
175 198 0
174 197 0
173 196 0
173 195 0
174 197 0
175 198 0
175 198 0
174 197 0
172 196 0
172 195 0
174 196 0
173 195 0
172 195 0
174 195 0
172 196 0
175 197 0
173 197 0
173 197 0
174 197 0
174 197 0
173 196 0
173 197 0
175 197 0
174 197 0
174 197 0
173 196 0
174 196 0
173 196 0
174 197 0
174 197 0
174 197 0
173 196 0
174 196 0
173 196 0
173 196 0
174 197 0
173 196 0
174 197 0
172 194 0
173 196 0
174 196 0
171 195 0
173 196 0
174 197 0
172 195 0
172 195 0
174 197 0
174 196 0
173 195 0
172 195 0
173 196 0
173 196 0
173 196 0
172 195 0
174 197 0
171 195 0
173 196 0
172 194 0
173 195 0
173 196 0
173 196 0
174 196 0
172 196 0
172 195 0
172 196 0
174 197 0
174 197 0
175 197 0
173 197 0
172 195 0
173 195 0
173 196 0
173 196 0
173 197 0
174 197 0
172 195 0
172 194 10
173 194 17
173 192 24
171 188 21
166 178 31
164 174 35
166 172 40
155 154 43
157 150 55
152 138 53
153 129 66
148 119 65
142 99 73
147 99 83
135 77 72
133 68 73
136 73 80
139 73 81
131 65 71
140 73 81
132 64 70
136 66 73
134 68 75
135 67 74
131 62 68
140 69 76
135 65 71
130 57 63
135 60 66
119 47 53
125 54 60
131 61 67
130 57 63
127 51 57
123 56 62
131 62 69
127 57 63
136 66 73
133 66 71
128 65 63
140 90 71
141 103 66
147 117 60
148 124 56
152 136 59
152 146 47
153 152 38
163 169 45
163 169 43
157 163 45
153 158 49
152 154 61
150 154 65
156 155 82
147 142 79
148 142 88
150 145 90
153 148 92
148 142 90
154 148 92
151 145 94
159 152 97
155 151 98
153 147 95
153 147 96
157 151 98
159 152 99
155 148 98
158 151 100
152 146 97
159 153 101
153 144 95
156 151 100
161 156 103
154 149 99
161 156 104
159 154 103
156 149 100
157 152 101
161 156 105
161 154 103
159 154 103
164 159 106
160 157 105
160 155 104
161 157 105
159 156 104
165 161 108
161 157 104
162 158 105
161 157 105
159 155 104
163 161 108
164 159 106
161 157 103
163 160 106
164 160 105
163 159 105
161 157 103
161 157 103
161 157 101
164 160 104
161 156 102
157 153 98
161 155 100
155 151 95
156 151 96
149 143 90
156 151 96
147 141 89
147 141 86
143 142 77
152 154 76
155 160 65
165 177 54
165 180 42
166 186 26
172 193 21
175 198 8
173 196 0
175 198 0
175 198 0
175 198 0
175 198 0
174 197 0
173 196 0
174 196 0
174 197 0
174 197 0
174 197 0
174 197 0
172 194 0
173 196 0
173 197 0
174 197 0
175 198 0
173 197 0
175 198 0
174 197 0
174 198 0
175 197 0
175 198 0
173 196 0
172 196 0
173 197 0
174 197 0
174 197 0
173 197 0
173 197 0
174 197 0
173 196 0
175 198 0
173 196 0
175 198 0
174 197 0
174 197 0
174 198 0
173 197 0
174 197 0
175 198 0
174 197 0
174 198 0
174 196 0
173 197 0
173 197 0
175 198 0
175 198 0
175 198 0
174 198 0
174 198 0
175 198 0
174 198 0
173 197 0
174 197 0
175 198 0
173 197 0
174 197 0
174 197 0
175 198 0
174 198 0
174 198 0
174 197 0
174 197 0
175 198 0
175 198 0
173 197 0
174 198 0
173 196 0
174 197 0
174 198 0
173 197 0
174 197 0
174 198 0
175 198 0
174 197 0
174 197 0
175 198 0
174 197 0
173 197 0
175 198 0
174 198 0
175 198 0
174 197 0
176 198 0
174 197 0
174 198 0
176 199 0
175 198 0
174 197 0
175 198 0
175 198 0
174 198 0
174 197 0
176 199 0
174 197 0
174 198 0
174 197 0
176 198 0
175 198 0
174 197 0
174 197 0
174 197 0
173 197 0
173 197 0
175 198 0
174 198 0
176 198 0
174 197 0
174 197 0
174 198 0
175 198 0
175 198 0
175 198 0
174 197 0
174 198 0
174 197 0
174 197 0
175 198 0
174 198 0
174 198 0
175 198 0
173 197 0
175 198 0
175 198 0
175 198 0
173 197 0
175 198 0
174 197 0
174 197 0
175 198 0
175 198 0
174 197 0
174 198 0
174 197 0
174 197 0
174 198 0
174 197 0
173 197 0
175 198 0
174 197 0
174 198 0
175 198 0
174 197 0
174 198 0
174 197 0
174 197 0
175 198 0
174 198 0
174 197 0
175 198 0
175 198 0
174 197 0
174 197 0
174 197 0
174 197 0
174 198 0
173 197 0
173 197 0
175 198 0
174 197 0
173 197 0
174 197 0
175 198 0
174 197 0
174 198 0
174 197 0
173 197 0
174 197 0
174 197 0
174 197 0
174 198 0
174 198 0
174 197 0
174 197 0
175 198 0
174 197 0
173 196 0
173 197 0
174 197 0
175 197 0
173 197 0
174 197 0
173 196 0
173 196 0
173 197 0
173 196 0
174 197 0
174 197 0
174 197 0
173 197 0
173 197 0
174 197 0
174 197 0
173 196 0
174 197 0
174 197 0
173 197 0
174 198 0
173 196 0
174 197 0
173 196 0
174 198 0
174 197 0
175 197 0
174 197 0
174 197 0
174 197 0
174 196 0
174 197 0
173 197 0
174 196 0
175 198 0
173 196 0
174 197 0
173 196 0
173 196 0
173 197 0
173 196 0
173 196 0
174 197 0
173 197 0
173 196 0
173 196 0
174 197 0
175 197 0
173 196 0
173 196 0
173 196 0
173 196 0
173 196 0
173 196 0
173 197 0
172 196 0
173 196 0
173 197 0
173 196 0
173 196 0
173 196 0
173 195 0
172 195 0
173 196 0
172 196 0
172 196 0
173 196 0
174 197 0
171 195 0
172 195 0
172 194 0
173 195 0
173 196 0
173 196 0
172 195 0
173 196 0
172 194 0
172 195 0
175 198 0
173 196 0
175 198 0
172 195 0
172 196 0
172 195 0
173 196 0
171 194 0
173 195 0
172 195 0
172 195 0
173 196 0
173 196 0
171 193 0
172 195 0
173 195 0
172 195 0
173 196 0
172 195 0
172 196 0
174 196 0
173 196 0
172 195 0
173 197 0
174 197 0
173 195 0
172 195 0
172 194 0
173 192 28
171 188 35
169 182 29
168 177 40
162 169 38
159 160 43
160 150 59
157 148 52
150 128 62
145 114 64
141 108 64
147 105 75
139 81 78
138 73 74
142 75 82
142 73 81
134 66 73
138 68 75
137 74 81
130 62 68
130 60 66
146 77 85
131 59 65
133 60 66
134 64 71
126 51 57
126 53 59
129 57 64
132 59 66
120 52 58
123 52 58
131 61 68
133 64 71
128 59 66
131 65 70
133 75 68
134 79 65
142 105 67
147 123 59
156 136 59
155 147 47
157 158 34
159 156 51
162 171 31
163 170 37
164 177 39
156 164 49
154 162 52
143 146 64
144 145 72
148 146 81
146 140 83
145 139 84
144 140 87
149 144 88
148 144 93
155 149 94
154 148 95
156 150 98
148 142 90
154 148 96
155 147 96
155 148 97
153 147 97
153 145 95
157 150 99
159 153 101
160 153 102
157 151 100
159 152 101
159 154 102
156 150 100
158 152 102
158 152 101
159 152 102
159 152 101
159 153 103
158 152 102
161 154 103
160 157 105
162 157 105
162 157 105
162 159 106
163 159 106
163 158 105
165 160 107
160 155 104
165 161 107
163 159 106
167 164 110
165 161 107
160 156 103
162 159 106
164 160 105
161 158 104
162 158 104
162 159 104
161 157 103
162 157 102
160 156 101
152 148 95
161 156 99
154 149 96
159 154 99
154 148 95
157 151 96
154 148 93
150 144 91
145 139 82
146 144 78
152 155 68
157 167 56
162 173 48
161 179 32
169 190 26
171 194 11
174 196 0
173 196 0
174 197 0
173 196 0
173 197 0
174 196 0
173 197 0
172 195 0
173 196 0
173 196 0
174 197 0
174 197 0
174 197 0
174 197 0
173 196 0
174 197 0
174 198 0
174 197 0
174 197 0
174 197 0
174 197 0
173 197 0
173 196 0
173 196 0
173 196 0
173 196 0
174 197 0
174 197 0
173 197 0
174 197 0
175 198 0
174 197 0
174 197 0
175 198 0
175 198 0
174 197 0
173 197 0
173 196 0
174 198 0
173 196 0
174 197 0
174 197 0
174 197 0
174 196 0
174 198 0
174 197 0
174 197 0
174 198 0
174 197 0
174 197 0
175 198 0
174 197 0
174 197 0
175 198 0
174 197 0
174 197 0
173 197 0
173 197 0
174 197 0
174 198 0
174 197 0
173 197 0
175 198 0
172 196 0
175 198 0
175 198 0
174 197 0
174 197 0
175 198 0
173 197 0
174 197 0
174 197 0
174 197 0
174 197 0
173 196 0
173 197 0
174 197 0
174 198 0
175 198 0
176 198 0
174 197 0
174 197 0
174 198 0
174 197 0
174 198 0
174 197 0
173 197 0
175 198 0
175 198 0
174 197 0
174 197 0
175 198 0
174 198 0
174 197 0
174 198 0
175 198 0
174 197 0
174 197 0
175 198 0
174 197 0
173 197 0
174 198 0
174 198 0
175 197 0
174 197 0
173 197 0
175 198 0
176 198 0
175 198 0
175 198 0
174 198 0
175 198 0
174 198 0
174 198 0
174 197 0
174 197 0
176 199 0
174 197 0
175 198 0
175 198 0
175 198 0
175 198 0
175 198 0
175 198 0
174 197 0
174 197 0
174 198 0
174 197 0
174 197 0
175 198 0
174 197 0
174 197 0
173 197 0
175 198 0
173 197 0
175 198 0
173 197 0
174 197 0
174 198 0
173 197 0
174 198 0
174 197 0
174 197 0
175 198 0
173 197 0
174 197 0
176 199 0
173 197 0
173 197 0
174 197 0
173 197 0
173 197 0
173 197 0
173 196 0
174 198 0
173 197 0
173 197 0
173 197 0
173 197 0
173 196 0
174 198 0
174 197 0
173 196 0
174 198 0
173 197 0
174 197 0
174 197 0
175 197 0
174 197 0
174 197 0
174 197 0
174 197 0
174 197 0
174 197 0
174 197 0
174 197 0
174 197 0
173 197 0
175 198 0
174 197 0
173 197 0
174 197 0
174 197 0
174 198 0
174 197 0
173 197 0
173 196 0
174 197 0
173 197 0
174 197 0
175 198 0
173 197 0
172 195 0
174 197 0
174 197 0
174 197 0
174 197 0
173 197 0
172 196 0
172 195 0
171 195 0
173 196 0
174 197 0
172 196 0
173 196 0
174 197 0
174 197 0
173 197 0
172 196 0
174 197 0
175 197 0
173 196 0
174 198 0
172 195 0
173 197 0
174 198 0
174 197 0
173 196 0
174 197 0
173 197 0
173 195 0
173 196 0
174 197 0
173 197 0
172 196 0
172 196 0
172 195 0
174 197 0
175 198 0
174 197 0
176 198 0
174 197 0
171 194 0
173 196 0
173 196 0
173 196 0
173 196 0
173 197 0
174 198 0
173 196 0
174 197 0
172 195 0
171 194 0
173 196 0
173 196 0
174 197 0
173 197 0
172 195 0
172 196 0
174 197 0
173 195 0
174 197 0
172 195 0
173 195 0
173 196 0
173 196 0
172 196 0
174 197 0
173 195 0
174 197 0
173 195 0
172 195 0
174 197 0
174 197 0
173 197 0
174 196 0
172 194 0
173 195 0
174 196 0
173 197 0
171 194 0
172 194 0
173 196 0
174 197 0
172 195 0
172 195 0
174 196 0
173 196 0
173 196 0
173 195 0
171 194 0
172 195 0
172 196 0
172 195 0
173 195 14
171 192 17
169 189 20
168 185 17
166 180 26
162 172 30
162 167 44
160 157 56
161 153 60
156 138 61
154 125 72
147 111 68
137 85 73
139 81 76
138 72 76
133 69 76
138 73 80
134 70 77
136 67 74
140 73 81
131 64 70
135 69 77
128 60 67
134 67 74
132 64 71
136 64 71
125 48 54
133 60 66
124 53 59
131 63 69
128 54 61
132 62 69
127 59 66
137 65 72
137 72 70
136 87 66
138 102 61
144 118 60
149 133 57
152 143 46
154 149 45
160 163 39
159 167 36
162 171 39
160 170 46
162 173 49
154 161 57
149 155 56
150 152 72
148 145 77
146 142 81
146 141 87
148 142 88
145 139 87
158 152 96
151 145 89
151 146 95
153 147 95
157 151 96
157 149 96
154 146 97
150 144 95
156 150 98
156 150 98
157 150 100
158 153 101
154 148 99
156 150 100
154 148 99
156 148 99
152 145 97
157 146 97
160 152 102
159 153 102
157 151 101
156 149 99
162 155 103
162 158 106
160 155 104
161 155 104
160 155 104
161 157 105
161 158 106
165 160 107
164 159 106
160 155 103
164 159 105
166 161 107
164 160 106
163 160 106
158 155 103
161 157 104
163 159 104
162 158 105
164 160 106
165 161 105
161 156 101
163 159 103
163 159 104
160 155 100
158 153 100
159 155 100
160 155 99
152 147 94
151 147 93
156 151 95
152 145 89
147 141 90
147 140 84
147 142 80
152 150 78
149 154 63
153 164 48
159 175 38
164 183 32
169 190 14
173 196 8
173 196 0
173 196 0
173 196 0
173 196 0
174 197 0
173 196 0
174 197 0
173 195 0
173 196 0
174 197 0
174 197 0
174 197 0
175 197 0
174 197 0
173 197 0
174 197 0
173 196 0
176 198 0
173 197 0
172 195 0
175 198 0
174 197 0
174 197 0
173 197 0
174 197 0
173 197 0
174 197 0
174 197 0
174 198 0
174 197 0
174 197 0
174 197 0
174 197 0
175 198 0
174 197 0
174 198 0
175 198 0
175 198 0
175 198 0
174 197 0
173 197 0
174 197 0
174 197 0
172 196 0
174 197 0
175 197 0
174 198 0
174 196 0
174 198 0
174 197 0
174 197 0
174 198 0
174 197 0
174 196 0
172 196 0
174 198 0
174 197 0
174 197 0
175 197 0
173 197 0
174 197 0
173 196 0
173 196 0
174 197 0
174 197 0
174 197 0
174 197 0
173 197 0
173 197 0
175 198 0
174 197 0
174 198 0
175 198 0
174 198 0
173 196 0
176 198 0
174 197 0
174 198 0
173 197 0
174 197 0
174 198 0
174 198 0
175 198 0
174 198 0
175 197 0
175 197 0
175 198 0
175 198 0
174 198 0
173 196 0
174 197 0
175 198 0
174 198 0
175 198 0
174 197 0
174 197 0
176 199 0
174 198 0
174 197 0
174 197 0
174 197 0
175 198 0
173 197 0
174 198 0
173 197 0
174 197 0
174 198 0
175 198 0
175 198 0
174 198 0
173 196 0
174 197 0
174 197 0
173 197 0
175 198 0
173 197 0
174 198 0
174 197 0
175 198 0
173 197 0
173 197 0
172 196 0
174 197 0
175 198 0
174 197 0
174 197 0
175 198 0
175 198 0
174 197 0
175 198 0
174 197 0
175 198 0
174 198 0
174 197 0
174 197 0
173 197 0
175 198 0
175 198 0
173 197 0
174 198 0
176 198 0
174 198 0
174 197 0
175 198 0
174 197 0
175 197 0
175 198 0
174 197 0
172 196 0
173 196 0
174 197 0
174 197 0
175 198 0
173 197 0
172 196 0
174 197 0
174 197 0
174 197 0
174 197 0
174 197 0
174 198 0
175 198 0
174 197 0
175 198 0
174 197 0
174 197 0
174 197 0
174 197 0
174 197 0
173 197 0
173 197 0
172 196 0
174 197 0
174 197 0
173 197 0
173 196 0
174 197 0
175 197 0
174 198 0
174 197 0
173 197 0
175 198 0
173 196 0
174 197 0
174 197 0
173 196 0
174 197 0
173 197 0
174 197 0
175 198 0
175 198 0
174 196 0
174 198 0
174 197 0
173 197 0
173 196 0
173 197 0
172 196 0
175 198 0
175 198 0
174 197 0
175 198 0
173 196 0
173 197 0
176 198 0
174 198 0
175 198 0
173 196 0
175 198 0
173 196 0
173 196 0
174 198 0
173 197 0
174 197 0
173 197 0
172 196 0
173 197 0
174 196 0
173 196 0
174 197 0
173 197 0
173 196 0
174 197 0
173 196 0
174 197 0
172 195 0
172 195 0
173 196 0
173 195 0
174 197 0
172 195 0
174 197 0
172 195 0
174 197 0
174 197 0
172 195 0
172 195 0
174 197 0
174 196 0
174 197 0
174 197 0
174 197 0
173 197 0
173 196 0
174 197 0
174 197 0
172 195 0
171 195 0
175 197 0
173 196 0
171 194 0
173 195 0
173 197 0
173 196 0
173 196 0
175 198 0
173 196 0
174 196 0
172 195 0
173 195 0
173 196 0
172 196 0
172 194 0
175 197 0
174 197 0
173 196 0
173 196 0
173 195 0
172 196 0
173 195 0
174 197 0
172 195 0
172 195 0
172 196 0
173 195 0
172 195 0
172 195 0
171 193 0
172 196 0
174 197 0
172 195 0
172 195 0
172 195 0
174 197 0
174 196 0
170 192 20
168 190 26
167 183 46
160 174 56
152 164 70
155 160 71
154 158 66
140 131 75
147 134 66
145 118 76
146 104 74
136 86 69
135 79 74
135 70 77
132 67 74
138 67 74
134 66 72
131 65 72
138 71 78
131 64 70
131 61 68
132 61 68
129 54 59
132 57 63
132 58 65
128 55 62
128 61 67
127 55 61
135 64 71
138 64 71
135 65 69
136 76 71
144 96 71
145 111 60
147 121 56
153 135 56
157 151 50
155 155 38
164 167 39
164 173 34
164 177 39
161 174 36
156 170 37
157 166 55
149 157 56
154 157 68
151 149 82
148 144 80
148 143 87
145 141 89
153 146 92
152 146 92
154 148 93
144 138 88
149 143 93
148 143 93
152 144 93
153 146 95
150 144 94
154 147 98
156 148 96
158 151 100
148 141 94
156 149 99
157 148 98
157 148 99
158 150 100
155 147 98
162 155 103
160 153 102
157 151 101
160 152 102
159 153 102
161 154 103
162 157 105
164 160 107
163 157 105
159 152 102
163 158 105
162 158 105
165 158 105
166 161 107
168 163 109
163 159 106
161 157 105
162 156 104
162 157 105
167 163 108
162 158 105
163 159 105
163 159 105
166 162 107
161 158 103
164 159 105
162 158 103
166 161 104
158 154 101
161 156 100
157 153 98
161 157 103
164 159 102
152 146 92
157 151 96
152 147 93
153 148 93
150 143 88
152 146 90
143 135 81
146 144 77
149 148 71
155 164 52
159 169 55
164 180 40
168 187 30
173 195 8
172 194 8
173 196 0
173 197 0
174 197 0
173 197 0
173 196 0
173 196 0
175 198 0
175 198 0
174 196 0
173 196 0
175 197 0
174 197 0
174 197 0
173 196 0
172 195 0
175 198 0
173 197 0
174 197 0
175 198 0
173 196 0
173 197 0
173 197 0
175 198 0
174 198 0
174 197 0
174 197 0
173 196 0
174 197 0
174 197 0
174 197 0
173 197 0
174 197 0
172 196 0
174 197 0
175 198 0
174 197 0
174 197 0
174 198 0
175 198 0
174 198 0
174 198 0
175 198 0
174 197 0
174 197 0
174 197 0
174 197 0
174 197 0
174 198 0
174 197 0
174 197 0
174 198 0
175 198 0
175 198 0
175 198 0
175 198 0
175 198 0
173 197 0
173 196 0
175 198 0
174 197 0
173 197 0
174 198 0
174 197 0
175 198 0
173 197 0
173 196 0
175 198 0
174 197 0
174 197 0
175 198 0
173 196 0
173 197 0
174 197 0
174 197 0
174 198 0
174 197 0
174 197 0
174 198 0
174 197 0
174 198 0
173 197 0
174 198 0
173 197 0
173 197 0
175 198 0
175 198 0
175 198 0
174 197 0
173 197 0
175 198 0
174 198 0
174 197 0
174 197 0
175 198 0
176 198 0
175 198 0
174 197 0
174 197 0
175 198 0
174 197 0
174 198 0
174 198 0
174 197 0
174 197 0
175 198 0
175 198 0
174 198 0
174 198 0
175 198 0
174 197 0
172 196 0
175 197 0
174 198 0
174 197 0
175 198 0
175 198 0
174 197 0
174 197 0
175 197 0
174 197 0
173 197 0
173 197 0
175 198 0
174 197 0
173 197 0
173 197 0
176 199 0
174 198 0
175 198 0
174 198 0
174 197 0
174 198 0
174 197 0
174 198 0
175 198 0
173 197 0
173 197 0
173 197 0
174 197 0
174 197 0
174 197 0
174 197 0
175 198 0
174 197 0
174 197 0
173 196 0
174 197 0
175 198 0
176 199 0
174 197 0
174 196 0
173 197 0
173 197 0
172 196 0
173 197 0
175 198 0
174 196 0
175 198 0
173 197 0
175 198 0
174 197 0
173 197 0
175 198 0
175 198 0
174 197 0
174 197 0
174 197 0
173 196 0
175 198 0
174 197 0
174 197 0
175 198 0
174 197 0
174 197 0
174 197 0
173 196 0
174 197 0
173 197 0
173 196 0
173 197 0
174 197 0
175 198 0
174 197 0
173 196 0
174 197 0
175 197 0
174 197 0
173 196 0
174 197 0
174 197 0
173 197 0
175 198 0
174 197 0
174 197 0
173 197 0
173 197 0
173 195 0
172 195 0
173 197 0
174 197 0
173 196 0
174 197 0
173 196 0
174 198 0
174 198 0
173 196 0
174 197 0
173 196 0
173 196 0
172 195 0
173 196 0
173 196 0
175 197 0
173 197 0
174 197 0
173 196 0
173 196 0
173 196 0
172 195 0
175 198 0
175 197 0
174 197 0
175 197 0
173 196 0
172 195 0
173 196 0
174 197 0
173 196 0
174 197 0
172 195 0
173 196 0
173 196 0
172 195 0
173 196 0
174 196 0
172 195 0
174 197 0
173 196 0
174 197 0
174 197 0
173 196 0
172 195 0
173 195 0
171 194 0
174 196 0
171 194 0
172 196 0
173 195 0
174 197 0
172 195 0
173 195 0
174 197 0
174 197 0
173 196 0
174 197 0
174 196 0
174 196 0
172 196 0
174 196 0
172 195 0
172 195 0
174 196 0
172 195 0
171 194 0
171 195 0
172 196 0
172 195 0
171 194 0
174 196 0
172 195 0
174 197 0
173 194 0
173 196 0
173 195 0
173 196 0
171 194 0
172 196 0
172 196 0
172 195 0
173 195 0
171 194 12
170 193 28
162 185 56
147 171 92
137 159 105
121 145 124
102 125 134
95 111 135
96 106 132
91 95 135
100 98 140
92 87 131
111 88 123
109 78 112
120 77 92
121 81 97
133 82 89
135 71 83
135 68 74
131 66 73
135 65 73
132 64 71
137 69 76
133 62 69
145 75 83
133 63 71
134 67 74
132 58 65
128 55 61
127 54 61
130 59 66
128 58 65
136 62 69
129 61 67
136 75 68
138 87 66
142 107 66
149 128 56
152 137 55
159 156 47
161 161 44
165 176 30
165 177 32
167 182 35
165 178 36
159 173 40
155 169 37
151 157 58
153 155 68
148 150 74
149 147 80
138 133 76
150 144 87
152 147 91
147 142 88
148 143 89
149 143 91
157 149 94
150 142 91
155 148 94
151 145 94
152 146 96
150 142 95
152 144 94
153 144 95
146 139 92
152 146 96
148 142 96
154 146 98
154 147 98
156 148 100
158 153 102
155 147 98
159 152 102
155 147 98
160 153 102
159 153 102
165 159 106
161 157 105
163 157 104
160 153 103
161 155 103
164 159 106
160 152 101
162 154 102
163 158 105
163 158 105
164 160 107
165 160 106
166 162 107
162 157 105
166 161 107
167 163 108
163 160 106
167 163 109
168 163 107
161 158 103
161 157 103
162 159 103
169 164 108
167 162 105
163 159 103
161 156 101
159 154 99
159 155 100
156 150 95
156 151 95
159 153 98
148 142 88
150 145 92
150 143 88
148 141 87
142 137 78
143 143 73
151 156 62
156 165 54
162 178 43
167 184 34
171 192 14
173 196 0
173 195 0
174 197 0
174 197 0
173 197 0
174 197 0
173 196 0
173 196 0
173 196 0
172 195 0
174 197 0
174 198 0
173 197 0
173 195 0
174 198 0
173 196 0
173 196 0
174 197 0
175 197 0
174 197 0
173 196 0
174 197 0
174 197 0
175 197 0
174 197 0
175 197 0
173 197 0
174 197 0
174 197 0
174 198 0
173 196 0
174 197 0
174 197 0
174 197 0
174 198 0
174 197 0
174 197 0
174 197 0
174 197 0
175 198 0
175 197 0
174 197 0
173 196 0
174 197 0
174 198 0
175 198 0
174 197 0
175 197 0
174 197 0
174 197 0
175 198 0
175 197 0
174 196 0
174 197 0
174 197 0
174 197 0
174 197 0
174 197 0
174 198 0
175 198 0
174 197 0
174 197 0
173 197 0
173 197 0
175 198 0
175 197 0
173 197 0
174 198 0
173 196 0
175 198 0
174 198 0
174 197 0
174 197 0
175 198 0
173 196 0
174 197 0
174 197 0
174 198 0
175 198 0
174 197 0
174 198 0
174 197 0
174 197 0
175 198 0
174 197 0
174 198 0
174 197 0
175 198 0
175 198 0
174 198 0
174 197 0
173 197 0
175 198 0
174 197 0
174 198 0
173 197 0
175 198 0
174 197 0
173 197 0
175 198 0
173 197 0
174 197 0
173 197 0
174 197 0
175 198 0
175 197 0
174 197 0
174 198 0
174 197 0
175 198 0
173 197 0
173 197 0
174 197 0
175 198 0
175 198 0
174 197 0
173 197 0
175 198 0
175 198 0
175 198 0
174 197 0
173 197 0
175 198 0
175 197 0
174 198 0
174 197 0
175 198 0
174 197 0
174 197 0
174 198 0
174 198 0
173 196 0
173 197 0
173 197 0
174 197 0
174 198 0
174 197 0
174 197 0
174 197 0
174 197 0
175 198 0
174 197 0
175 197 0
174 197 0
175 198 0
174 198 0
173 197 0
174 197 0
173 197 0
175 198 0
176 198 0
173 197 0
174 198 0
173 197 0
174 198 0
173 196 0
173 197 0
174 197 0
173 196 0
173 196 0
174 197 0
175 198 0
174 197 0
173 197 0
175 198 0
172 196 0
174 197 0
173 197 0
174 197 0
173 197 0
174 197 0
174 197 0
174 197 0
174 198 0
174 197 0
173 197 0
175 198 0
173 196 0
175 198 0
173 196 0
175 198 0
173 196 0
171 195 0
174 197 0
174 197 0
172 196 0
173 196 0
172 195 0
174 197 0
172 196 0
175 197 0
173 197 0
174 197 0
172 196 0
174 197 0
174 197 0
173 196 0
173 196 0
174 198 0
173 196 0
174 198 0
174 197 0
174 197 0
174 197 0
174 197 0
174 196 0
173 197 0
174 198 0
174 197 0
174 197 0
174 198 0
173 196 0
174 196 0
172 196 0
173 196 0
172 196 0
173 197 0
174 197 0
173 196 0
173 196 0
174 196 0
173 197 0
172 196 0
173 196 0
173 195 0
172 195 0
172 195 0
173 197 0
174 197 0
173 196 0
172 196 0
173 196 0
173 195 0
174 197 0
173 196 0
175 198 0
173 197 0
172 195 0
174 197 0
173 197 0
173 196 0
171 194 0
171 194 0
173 196 0
173 196 0
173 195 0
172 196 0
173 196 0
174 197 0
173 196 0
174 197 0
174 196 0
172 196 0
171 194 0
174 196 0
173 197 0
174 197 0
173 196 0
172 195 0
173 196 0
174 196 0
172 195 0
172 196 0
172 196 0
173 195 0
172 194 0
172 196 0
173 196 0
171 194 0
174 197 0
173 196 0
174 197 0
174 196 0
173 196 0
173 196 0
172 195 0
172 196 0
173 195 0
173 195 18
168 191 34
159 182 65
137 160 99
113 138 134
90 118 151
78 104 152
59 89 157
56 84 152
56 84 152
56 84 152
61 83 149
70 81 143
75 83 145
85 80 137
89 79 131
100 80 128
105 75 117
123 78 108
119 75 102
129 73 95
133 72 87
136 68 75
143 74 82
137 69 76
137 66 73
141 75 82
133 66 73
138 68 76
131 62 69
134 60 67
126 52 58
127 56 62
128 57 64
133 62 69
130 64 66
130 67 71
139 97 65
142 110 59
157 141 62
152 143 47
156 152 45
164 168 46
163 177 27
167 181 30
169 187 24
167 185 26
164 181 30
160 175 41
156 164 56
153 160 58
150 152 70
149 147 77
138 134 77
143 138 82
149 144 87
142 137 84
146 140 86
151 144 92
146 141 91
150 145 93
147 141 92
149 143 95
146 139 92
152 143 93
152 144 95
152 145 95
152 145 96
156 147 97
154 144 95
160 149 98
155 147 97
153 145 97
157 148 99
153 148 98
159 150 100
162 152 101
157 148 99
157 149 99
164 158 106
166 160 107
159 154 103
163 155 103
161 154 102
163 155 104
164 159 106
165 159 106
168 163 109
166 160 106
165 159 106
166 161 107
163 159 106
167 162 107
167 163 108
165 161 107
169 164 107
169 166 109
165 161 106
163 159 104
165 161 106
167 162 106
163 159 103
165 160 103
160 156 99
163 159 103
165 161 103
166 161 104
157 152 95
155 150 95
161 156 98
157 152 97
155 149 94
155 148 93
144 138 84
152 146 88
144 138 82
146 142 79
147 147 71
151 158 59
160 172 48
161 176 37
167 188 19
173 195 16
173 197 0
174 197 0
172 195 0
173 197 0
174 197 0
174 197 0
173 196 0
175 198 0
173 196 0
174 197 0
175 197 0
174 197 0
174 197 0
175 198 0
173 196 0
173 196 0
174 198 0
174 197 0
175 198 0
174 198 0
173 196 0
172 195 0
175 198 0
175 198 0
174 197 0
174 197 0
173 196 0
174 197 0
175 198 0
174 196 0
174 197 0
175 197 0
174 197 0
174 197 0
174 197 0
174 197 0
174 197 0
173 197 0
175 198 0
173 197 0
174 197 0
173 196 0
174 197 0
174 197 0
174 197 0
174 198 0
174 197 0
173 197 0
174 198 0
175 198 0
174 197 0
174 197 0
174 197 0
173 197 0
174 197 0
174 197 0
174 197 0
175 198 0
175 198 0
174 198 0
174 197 0
173 197 0
174 198 0
173 197 0
174 198 0
172 196 0
175 198 0
175 198 0
175 198 0
174 196 0
174 198 0
174 198 0
175 198 0
175 198 0
174 197 0
174 198 0
175 198 0
174 197 0
173 197 0
174 197 0
174 197 0
175 198 0
175 198 0
174 197 0
174 198 0
174 198 0
174 197 0
174 197 0
173 196 0
174 198 0
174 198 0
175 198 0
173 197 0
174 198 0
175 198 0
174 197 0
174 197 0
174 197 0
174 198 0
175 198 0
173 197 0
174 198 0
174 198 0
175 198 0
174 197 0
175 198 0
174 197 0
174 197 0
174 197 0
174 197 0
174 198 0
174 197 0
174 197 0
174 198 0
174 198 0
174 197 0
174 198 0
174 197 0
173 197 0
174 197 0
174 197 0
174 198 0
175 198 0
173 197 0
174 197 0
174 198 0
174 198 0
174 197 0
175 198 0
175 198 0
174 197 0
174 197 0
174 197 0
173 197 0
175 198 0
175 198 0
175 198 0
173 196 0
173 197 0
173 197 0
174 197 0
174 198 0
174 197 0
174 197 0
174 198 0
173 197 0
173 197 0
175 198 0
175 197 0
174 198 0
173 196 0
174 198 0
173 196 0
174 197 0
174 197 0
174 197 0
173 196 0
174 198 0
174 197 0
174 196 0
175 198 0
174 197 0
173 196 0
173 197 0
174 197 0
174 197 0
174 197 0
173 197 0
173 197 0
175 198 0
174 197 0
175 198 0
174 197 0
174 197 0
173 196 0
174 198 0
172 195 0
174 197 0
173 197 0
174 197 0
174 197 0
172 196 0
174 197 0
174 197 0
173 197 0
174 197 0
173 197 0
172 195 0
174 196 0
173 197 0
174 197 0
174 197 0
173 197 0
173 197 0
173 196 0
173 196 0
174 197 0
174 197 0
173 196 0
174 197 0
174 197 0
175 197 0
174 196 0
173 197 0
174 197 0
173 196 0
174 196 0
174 197 0
172 196 0
175 197 0
173 196 0
174 197 0
174 197 0
174 197 0
173 196 0
173 197 0
173 196 0
172 195 0
173 195 0
174 198 0
173 196 0
173 196 0
173 196 0
173 197 0
173 196 0
174 197 0
172 195 0
172 196 0
172 196 0
172 196 0
172 196 0
173 196 0
171 194 0
173 196 0
172 196 0
174 197 0
173 196 0
173 196 0
173 196 0
174 197 0
173 196 0
174 197 0
174 197 0
173 196 0
173 197 0
173 195 0
172 195 0
172 194 0
173 196 0
173 196 0
172 195 0
172 195 0
172 196 0
174 197 0
171 194 0
172 195 0
172 195 0
172 195 0
172 195 0
171 195 0
172 195 0
173 197 0
173 196 0
173 196 0
171 193 0
175 197 0
173 196 0
171 196 0
173 196 0
172 195 0
173 196 0
172 195 0
172 195 0
172 195 0
172 195 0
171 194 12
160 183 55
144 167 100
116 141 133
85 112 154
73 99 150
57 88 159
57 86 156
56 85 155
57 86 155
56 84 153
56 85 154
55 80 147
56 83 151
58 80 144
59 77 137
72 78 136
76 75 127
88 77 128
96 76 119
107 71 106
115 74 102
116 67 91
128 72 90
136 74 88
140 71 78
133 66 73
141 70 78
132 63 70
132 64 71
133 64 71
133 64 71
136 67 74
136 65 72
133 61 68
133 65 72
144 73 78
136 76 67
143 92 69
145 110 68
148 132 52
158 139 57
155 152 45
160 163 42
166 181 22
168 182 33
169 187 20
165 184 22
167 183 36
161 178 33
156 168 46
153 160 54
156 159 66
146 146 72
148 144 78
146 141 86
145 140 86
148 142 85
144 139 86
147 141 90
139 134 83
148 142 89
140 134 84
148 141 92
152 145 95
150 142 92
145 137 90
150 143 94
153 145 95
149 140 93
152 143 94
154 144 95
151 142 96
154 146 97
152 143 96
155 146 97
157 144 96
160 154 103
158 150 100
158 152 102
160 150 100
159 152 101
158 151 101
159 151 101
162 156 104
163 157 104
162 156 104
165 157 105
165 158 105
162 157 105
162 156 104
166 161 107
168 163 108
165 160 106
166 161 107
168 163 108
168 164 109
170 165 108
167 162 106
161 157 103
169 165 108
170 165 108
167 162 105
161 157 102
163 159 103
165 161 103
163 158 101
158 153 98
161 157 99
163 157 100
162 158 101
161 156 98
159 152 96
152 146 92
152 147 89
148 142 88
151 144 88
146 140 80
142 138 78
145 143 72
148 152 61
158 167 50
159 174 37
165 182 35
172 193 19
173 196 8
174 197 0
174 197 0
173 197 0
171 195 0
173 197 0
173 197 0
173 196 0
174 198 0
174 197 0
174 197 0
174 196 0
172 196 0
174 197 0
175 197 0
174 197 0
174 197 0
175 198 0
175 197 0
173 197 0
174 197 0
174 197 0
174 197 0
172 196 0
173 197 0
175 198 0
174 197 0
174 197 0
175 198 0
173 197 0
176 198 0
174 197 0
174 198 0
174 197 0
173 197 0
173 196 0
173 197 0
174 197 0
173 196 0
172 196 0
174 197 0
174 197 0
175 198 0
175 198 0
174 198 0
174 197 0
175 198 0
175 197 0
175 198 0
174 197 0
174 198 0
174 197 0
173 196 0
174 197 0
175 198 0
174 198 0
173 197 0
174 197 0
173 197 0
174 198 0
173 197 0
174 197 0
173 197 0
174 197 0
174 197 0
174 197 0
173 197 0
173 196 0
173 197 0
175 198 0
173 197 0
173 196 0
173 197 0
175 198 0
175 198 0
174 197 0
174 197 0
173 197 0
174 197 0
175 198 0
173 197 0
174 197 0
175 198 0
174 197 0
174 197 0
175 198 0
174 197 0
173 196 0
175 198 0
174 198 0
174 198 0
174 197 0
174 198 0
175 198 0
175 198 0
173 197 0
173 197 0
173 197 0
175 198 0
175 198 0
175 198 0
173 197 0
175 198 0
174 197 0
174 198 0
175 198 0
174 197 0
174 197 0
175 198 0
175 198 0
175 198 0
174 198 0
174 197 0
174 197 0
175 198 0
174 197 0
175 198 0
176 198 0
174 197 0
174 198 0
173 197 0
173 197 0
175 198 0
175 198 0
173 196 0
174 197 0
173 197 0
174 198 0
175 198 0
173 196 0
173 197 0
175 198 0
174 197 0
174 197 0
174 197 0
174 197 0
174 197 0
174 197 0
174 197 0
175 198 0
173 197 0
174 197 0
174 198 0
174 198 0
175 198 0
174 197 0
174 197 0
173 197 0
174 197 0
175 198 0
175 197 0
174 197 0
174 198 0
174 197 0
175 198 0
174 197 0
174 197 0
174 197 0
174 197 0
175 198 0
174 197 0
175 198 0
174 198 0
174 197 0
173 196 0
175 198 0
173 197 0
173 197 0
173 196 0
174 197 0
174 197 0
174 197 0
175 198 0
172 196 0
173 197 0
174 197 0
174 197 0
173 197 0
174 197 0
174 198 0
174 197 0
174 197 0
174 197 0
175 197 0
173 197 0
174 198 0
174 198 0
174 196 0
174 197 0
173 197 0
173 196 0
172 196 0
173 197 0
174 197 0
173 197 0
174 197 0
174 197 0
172 194 0
173 197 0
174 197 0
172 196 0
174 197 0
172 195 0
175 198 0
171 195 0
173 197 0
172 196 0
174 197 0
173 196 0
173 196 0
172 196 0
172 195 0
174 197 0
175 197 0
174 197 0
172 196 0
173 196 0
172 195 0
173 196 0
174 197 0
173 196 0
173 196 0
173 196 0
174 197 0
171 194 0
174 196 0
174 197 0
173 196 0
173 196 0
174 197 0
172 195 0
172 195 0
172 195 0
172 195 0
173 196 0
173 196 0
174 196 0
174 197 0
172 196 0
173 196 0
171 194 0
174 197 0
172 195 0
174 196 0
173 196 0
172 195 0
172 196 0
173 196 0
172 195 0
173 196 0
172 194 0
172 195 0
173 196 0
174 197 0
175 198 0
172 195 0
173 196 0
174 197 0
173 196 0
173 196 0
174 196 0
173 196 0
172 195 0
173 196 0
171 194 0
173 196 0
173 196 0
172 195 0
173 196 0
172 195 0
172 195 0
172 195 0
172 195 0
169 193 31
158 182 73
135 159 106
100 125 144
71 102 165
60 93 168
59 90 164
58 89 161
58 89 161
57 87 158
55 83 150
56 83 151
56 85 154
54 81 147
57 85 154
55 82 148
54 80 145
54 76 137
61 82 146
62 78 140
77 76 130
82 77 132
85 70 118
107 78 118
112 74 109
118 72 101
129 74 94
132 72 87
133 66 73
138 72 80
136 68 75
135 66 73
138 64 71
133 63 70
134 60 67
132 59 65
134 65 72
129 59 68
132 68 65
144 100 71
141 114 53
151 133 57
156 144 52
165 171 42
166 174 42
168 180 34
169 186 20
171 191 13
171 190 17
168 188 19
166 182 37
161 172 46
157 166 53
147 154 55
147 149 64
144 142 77
141 136 80
146 141 86
143 138 83
148 143 88
139 134 84
143 138 87
142 137 86
144 137 88
141 132 85
143 137 91
147 138 89
149 142 94
144 137 91
149 143 95
150 141 94
149 139 92
150 140 94
152 145 97
149 142 95
152 144 97
159 150 100
161 154 103
156 148 98
155 147 98
159 151 101
162 157 105
160 151 102
165 158 105
162 154 103
163 155 104
159 150 100
164 156 104
169 162 107
159 153 102
166 158 105
167 160 106
170 165 109
165 157 104
166 159 106
169 163 108
168 163 108
169 163 109
168 164 108
167 163 108
166 162 107
167 162 105
164 159 105
165 160 104
169 164 106
169 165 108
166 162 105
163 158 102
164 160 102
161 157 100
160 156 100
165 159 100
160 155 98
160 155 98
163 156 96
159 153 94
154 148 92
152 145 88
150 144 87
148 141 88
143 136 79
151 145 80
146 147 68
148 154 58
160 171 52
162 179 32
169 190 21
173 196 11
172 196 0
173 196 0
173 195 0
173 196 0
172 195 0
171 194 0
173 197 0
173 196 0
174 197 0
173 197 0
174 197 0
173 196 0
173 196 0
174 197 0
174 196 0
174 197 0
174 197 0
175 197 0
174 197 0
174 197 0
175 198 0
175 198 0
174 197 0
172 195 0
174 197 0
173 196 0
174 197 0
174 197 0
173 196 0
173 197 0
175 198 0
173 196 0
175 198 0
174 197 0
174 197 0
174 197 0
174 197 0
174 197 0
175 198 0
175 197 0
174 197 0
174 197 0
175 198 0
174 197 0
175 197 0
173 197 0
174 197 0
174 196 0
173 196 0
174 197 0
172 196 0
174 197 0
175 198 0
175 198 0
175 198 0
173 197 0
174 197 0
174 197 0
173 197 0
174 197 0
174 197 0
174 197 0
172 196 0
173 196 0
175 198 0
173 197 0
175 198 0
173 197 0
174 197 0
174 197 0
173 196 0
175 198 0
175 198 0
174 197 0
175 198 0
174 198 0
174 197 0
174 198 0
175 198 0
173 196 0
175 198 0
175 198 0
174 198 0
176 198 0
173 197 0
173 196 0
174 197 0
174 198 0
174 196 0
174 197 0
173 197 0
174 197 0
175 198 0
174 197 0
174 198 0
174 197 0
174 197 0
173 197 0
173 196 0
174 197 0
175 197 0
174 197 0
172 196 0
175 198 0
174 198 0
174 197 0
173 197 0
174 197 0
173 197 0
174 197 0
173 197 0
174 197 0
175 198 0
173 196 0
174 197 0
173 197 0
174 197 0
174 197 0
174 197 0
174 197 0
172 196 0
174 197 0
175 198 0
173 196 0
173 197 0
173 197 0
174 198 0
173 197 0
172 196 0
173 196 0
174 197 0
175 198 0
174 197 0
172 196 0
174 197 0
175 198 0
174 197 0
174 197 0
174 198 0
175 198 0
174 197 0
174 197 0
173 197 0
173 197 0
175 198 0
174 197 0
175 198 0
173 197 0
174 197 0
174 198 0
174 198 0
175 198 0
174 197 0
173 197 0
175 198 0
174 197 0
174 197 0
174 197 0
173 197 0
173 197 0
174 198 0
174 196 0
174 198 0
174 196 0
175 198 0
175 198 0
174 197 0
174 197 0
174 197 0
174 198 0
173 197 0
174 197 0
174 197 0
173 196 0
174 197 0
173 196 0
173 197 0
173 196 0
175 197 0
173 196 0
173 197 0
173 196 0
174 197 0
173 197 0
173 196 0
173 197 0
174 197 0
173 197 0
173 197 0
173 197 0
174 197 0
174 197 0
173 196 0
174 197 0
173 196 0
173 197 0
173 197 0
174 197 0
172 196 0
174 196 0
173 196 0
172 196 0
173 196 0
172 195 0
173 196 0
173 197 0
173 197 0
173 197 0
173 196 0
174 197 0
174 196 0
172 195 0
171 195 0
172 195 0
174 197 0
173 196 0
173 196 0
174 196 0
173 196 0
172 195 0
172 196 0
174 197 0
172 195 0
173 196 0
172 196 0
174 197 0
173 196 0
173 196 0
173 197 0
172 196 0
174 197 0
173 196 0
174 197 0
174 197 0
173 196 0
174 197 0
170 193 0
172 195 0
173 196 0
173 195 0
172 195 0
172 195 0
174 197 0
173 195 0
173 197 0
173 196 0
173 197 0
172 194 0
172 195 0
173 196 0
175 198 0
173 196 0
170 194 0
172 195 0
173 196 0
173 196 0
173 196 0
173 196 0
171 194 0
172 195 0
172 195 0
171 194 0
173 196 0
174 197 0
172 194 0
172 196 0
173 196 0
172 195 0
171 194 0
173 195 0
169 192 33
160 182 67
125 151 126
93 121 150
63 95 166
58 90 163
59 92 166
58 88 159
57 86 156
57 86 156
55 82 148
57 87 157
57 87 157
55 80 144
56 83 151
56 81 147
54 80 144
53 76 138
54 80 145
56 81 148
53 76 137
54 78 141
65 73 130
69 74 130
85 72 120
92 74 119
100 70 109
108 70 101
123 71 94
132 72 89
141 74 86
140 71 79
137 69 76
135 66 73
137 70 77
131 58 64
132 54 61
131 59 65
130 61 72
129 62 75
122 68 87
128 94 95
141 112 75
153 150 63
157 162 51
164 172 37
168 187 20
169 183 24
173 194 2
172 194 8
167 188 14
165 183 25
163 179 33
159 170 53
152 161 57
150 154 63
142 143 64
140 139 70
136 132 76
142 137 85
141 137 83
141 136 81
145 140 89
136 132 81
147 141 89
144 139 91
146 139 92
141 132 85
143 136 90
144 135 91
143 136 91
145 135 89
142 132 90
147 139 92
148 139 93
147 141 95
144 136 91
149 140 94
156 148 98
151 142 95
158 150 101
154 147 98
160 152 102
154 146 98
158 151 101
163 153 102
161 151 100
166 159 106
165 160 106
165 156 104
165 158 106
165 158 105
164 156 102
164 158 104
165 157 103
167 160 106
167 161 106
167 161 107
164 159 105
171 166 109
170 166 109
163 158 104
166 161 106
168 163 106
167 162 105
164 159 103
167 162 105
169 163 105
164 159 105
170 165 105
172 167 108
160 155 98
162 158 100
165 160 100
161 155 97
161 155 96
163 157 98
153 148 92
158 151 92
155 149 93
148 141 84
150 144 88
146 139 83
140 135 75
147 146 72
150 155 64
159 171 51
158 175 38
167 187 30
170 191 14
172 196 0
173 196 0
173 196 0
173 196 0
173 196 0
174 196 0
174 197 0
172 195 0
174 198 0
173 196 0
174 197 0
173 197 0
173 197 0
174 197 0
173 197 0
173 197 0
174 197 0
173 196 0
175 198 0
173 196 0
174 197 0
174 197 0
174 196 0
173 197 0
172 196 0
173 197 0
174 197 0
174 197 0
174 197 0
175 198 0
173 197 0
173 197 0
173 197 0
173 196 0
174 198 0
174 197 0
174 196 0
172 195 0
173 197 0
174 197 0
176 198 0
175 197 0
173 196 0
172 196 0
173 197 0
175 197 0
173 196 0
174 197 0
174 197 0
174 197 0
174 198 0
174 198 0
175 198 0
174 197 0
175 197 0
175 197 0
172 196 0
174 197 0
174 197 0
175 198 0
175 197 0
174 198 0
174 197 0
174 197 0
174 198 0
174 197 0
174 197 0
174 197 0
174 197 0
173 197 0
174 198 0
174 198 0
173 197 0
174 198 0
174 197 0
174 197 0
175 198 0
173 197 0
174 198 0
174 197 0
175 198 0
175 198 0
174 197 0
173 197 0
175 198 0
175 198 0
174 197 0
174 197 0
174 198 0
174 197 0
174 197 0
174 197 0
173 197 0
174 197 0
174 197 0
174 197 0
174 198 0
176 198 0
173 197 0
174 197 0
174 197 0
174 197 0
175 198 0
174 198 0
175 198 0
173 197 0
174 198 0
175 198 0
175 198 0
174 198 0
174 197 0
174 198 0
175 198 0
175 198 0
174 197 0
173 197 0
174 197 0
173 197 0
174 198 0
173 196 0
174 197 0
173 197 0
174 197 0
173 197 0
173 197 0
174 197 0
174 197 0
173 197 0
175 198 0
174 198 0
175 198 0
175 198 0
173 196 0
174 197 0
175 197 0
173 197 0
174 197 0
175 198 0
175 197 0
173 197 0
175 198 0
174 197 0
173 197 0
173 197 0
175 197 0
174 197 0
173 197 0
175 197 0
175 198 0
174 197 0
173 197 0
174 197 0
174 198 0
174 197 0
174 198 0
174 198 0
174 197 0
174 198 0
174 198 0
173 196 0
173 197 0
174 197 0
174 198 0
175 197 0
176 198 0
173 196 0
172 196 0
173 197 0
174 197 0
173 197 0
175 198 0
174 197 0
175 198 0
173 196 0
172 196 0
172 196 0
172 196 0
174 197 0
175 197 0
174 197 0
174 197 0
173 197 0
174 197 0
174 196 0
174 197 0
173 197 0
175 198 0
174 197 0
173 197 0
173 196 0
173 196 0
175 198 0
174 197 0
174 197 0
173 196 0
173 196 0
173 197 0
173 195 0
174 197 0
172 196 0
174 197 0
174 197 0
173 196 0
174 196 0
174 197 0
175 198 0
174 197 0
173 197 0
174 197 0
173 196 0
173 196 0
172 195 0
173 195 0
172 195 0
174 196 0
175 197 0
173 197 0
174 198 0
174 196 0
174 197 0
173 196 0
173 196 0
172 195 0
173 196 0
173 196 0
173 196 0
172 195 0
172 195 0
175 198 0
173 196 0
171 195 0
172 195 0
172 195 0
175 198 0
172 195 0
173 196 0
174 197 0
172 195 0
174 196 0
173 195 0
172 195 0
174 198 0
171 195 0
173 196 0
171 193 0
173 195 0
173 195 0
174 197 0
171 194 0
172 195 0
171 196 0
173 196 0
173 196 0
173 196 0
173 196 0
173 196 0
173 196 0
173 196 0
172 195 0
173 195 0
173 196 0
173 197 0
173 196 0
171 193 0
171 194 0
172 195 0
172 195 0
172 195 0
171 194 12
164 187 61
129 153 117
97 123 148
62 94 165
59 90 163
59 92 166
60 94 170
58 88 157
58 89 161
57 86 155
57 87 157
59 89 161
55 81 147
55 80 145
55 82 148
56 83 151
53 76 137
56 82 148
55 82 147
54 79 143
53 76 138
54 78 142
54 77 140
54 78 141
59 75 133
65 75 132
69 74 128
84 75 124
104 76 113
108 74 110
117 70 98
129 73 93
133 68 79
137 69 77
139 70 77
131 60 67
124 52 58
130 62 69
135 67 77
130 69 87
123 65 88
116 74 108
108 76 118
95 86 132
112 115 116
139 149 93
159 177 66
168 188 32
170 192 0
171 194 0
170 191 14
167 188 18
158 175 28
159 174 37
155 167 46
146 153 52
144 146 63
140 137 73
145 140 84
131 126 75
141 137 82
137 132 81
142 138 86
145 140 88
146 140 87
138 132 86
143 138 90
141 135 89
146 140 93
142 136 91
142 134 89
142 133 88
150 141 93
152 145 96
150 142 95
147 135 89
145 136 93
143 133 90
150 139 93
151 145 97
156 147 98
153 144 96
153 145 96
158 150 100
154 145 97
158 150 100
156 147 98
162 155 103
162 156 104
163 156 103
164 157 104
162 155 103
166 158 105
166 158 104
165 159 106
169 161 106
168 162 107
167 161 106
171 166 109
166 160 106
168 162 106
172 166 109
166 161 106
167 162 106
170 165 108
168 164 107
170 165 108
168 163 105
168 164 107
169 164 105
166 162 104
163 159 101
169 164 103
162 157 99
165 159 99
164 159 100
161 155 98
160 154 95
154 147 92
154 148 90
151 145 88
150 144 87
156 148 89
147 140 85
144 138 79
145 143 72
154 157 69
155 162 54
161 177 40
166 183 37
171 191 24
171 195 0
174 197 0
173 196 0
174 197 0
174 197 0
173 195 0
173 196 0
173 196 0
174 197 0
175 197 0
172 196 0
174 197 0
173 196 0
173 196 0
173 197 0
173 197 0
174 196 0
174 197 0
173 196 0
174 197 0
174 197 0
174 197 0
174 197 0
174 197 0
174 197 0
174 196 0
174 197 0
173 197 0
175 198 0
172 196 0
174 197 0
174 197 0
173 196 0
174 197 0
174 197 0
174 197 0
173 196 0
174 197 0
174 198 0
175 197 0
173 197 0
174 197 0
173 196 0
174 197 0
175 197 0
174 197 0
174 197 0
174 197 0
174 197 0
174 197 0
174 197 0
173 196 0
175 198 0
174 196 0
174 197 0
173 196 0
173 196 0
174 198 0
175 197 0
174 197 0
174 198 0
173 197 0
174 197 0
174 197 0
173 197 0
174 197 0
174 197 0
174 197 0
174 197 0
175 198 0
173 197 0
175 198 0
174 198 0
174 197 0
174 197 0
175 198 0
174 197 0
174 198 0
174 197 0
174 197 0
175 198 0
174 197 0
174 198 0
173 197 0
174 197 0
174 197 0
174 197 0
175 198 0
175 198 0
174 198 0
175 198 0
174 197 0
174 197 0
175 197 0
174 198 0
175 198 0
174 197 0
175 198 0
174 198 0
175 198 0
173 197 0
174 197 0
175 198 0
174 197 0
174 197 0
174 197 0
174 198 0
173 197 0
175 197 0
173 197 0
175 198 0
175 198 0
175 198 0
175 198 0
176 198 0
174 197 0
173 197 0
174 198 0
173 197 0
174 198 0
173 197 0
175 198 0
175 198 0
173 196 0
174 197 0
173 197 0
173 196 0
173 197 0
173 196 0
174 197 0
174 198 0
175 198 0
173 197 0
173 197 0
175 198 0
173 196 0
173 197 0
173 197 0
175 198 0
174 197 0
174 197 0
174 198 0
173 197 0
173 197 0
173 196 0
173 197 0
173 197 0
175 198 0
174 197 0
173 197 0
174 197 0
174 197 0
174 198 0
172 196 0
174 197 0
175 198 0
173 196 0
174 197 0
175 198 0
173 197 0
175 198 0
173 197 0
173 197 0
174 197 0
173 196 0
174 198 0
174 197 0
174 198 0
174 197 0
173 197 0
174 197 0
173 196 0
172 196 0
173 196 0
173 196 0
174 197 0
174 198 0
174 197 0
174 197 0
174 197 0
174 197 0
174 198 0
174 197 0
173 197 0
174 197 0
173 196 0
174 196 0
174 197 0
173 197 0
174 198 0
174 197 0
171 195 0
173 196 0
173 196 0
174 197 0
173 196 0
174 197 0
173 196 0
174 198 0
173 196 0
172 196 0
172 195 0
172 195 0
173 196 0
173 196 0
172 195 0
173 196 0
174 197 0
174 197 0
173 196 0
173 196 0
174 197 0
173 197 0
170 194 0
173 196 0
174 196 0
173 197 0
172 195 0
175 198 0
173 196 0
173 197 0
173 196 0
172 195 0
172 195 0
173 196 0
175 196 0
172 195 0
173 197 0
174 197 0
173 196 0
171 194 0
173 196 0
172 195 0
173 196 0
171 193 0
171 194 0
172 195 0
173 196 0
173 196 0
174 196 0
172 196 0
173 196 0
173 196 0
173 196 0
173 195 0
171 193 0
172 195 0
173 196 0
173 196 0
173 197 0
172 196 0
172 195 0
174 197 0
174 197 0
172 195 0
172 195 0
174 197 0
172 194 0
173 196 0
173 196 0
173 196 0
172 195 0
172 195 0
173 196 0
173 195 0
172 194 0
173 196 0
169 193 25
152 175 86
100 127 146
67 100 172
59 92 167
60 92 165
59 92 166
57 89 160
59 90 163
59 89 161
57 87 159
57 86 156
55 81 147
56 82 148
56 83 150
55 81 147
56 82 150
54 79 142
55 80 145
57 85 152
54 79 143
54 79 143
54 79 142
55 79 143
53 75 136
54 76 138
52 73 132
56 77 139
58 74 133
75 76 130
81 69 116
97 73 116
106 70 106
116 72 98
124 72 97
131 72 86
146 79 88
133 61 68
133 59 65
135 62 71
125 61 78
126 68 93
116 70 102
96 75 119
92 76 124
84 79 133
67 85 150
76 95 146
109 132 132
146 168 89
167 190 38
170 193 0
169 190 18
163 182 22
162 178 34
159 172 52
150 158 49
147 154 56
141 143 60
141 138 75
137 133 77
138 134 78
140 135 84
137 133 82
146 142 89
144 138 87
143 138 89
140 135 89
138 134 88
140 134 88
141 135 89
144 137 92
146 138 92
138 132 88
143 135 91
138 131 89
147 137 93
150 140 94
150 142 94
153 143 95
147 137 92
152 140 94
151 141 94
155 147 99
154 145 97
160 151 100
156 148 99
158 149 98
162 155 103
163 155 102
162 154 102
168 160 105
162 154 101
167 160 106
168 161 107
167 158 104
168 161 106
166 161 106
165 158 103
167 161 106
164 157 104
171 166 109
168 162 106
171 164 107
168 163 107
169 164 106
174 168 109
173 168 109
169 163 106
169 164 105
166 161 102
165 161 104
168 162 102
167 163 104
164 159 99
164 158 99
162 157 99
165 160 99
168 162 101
162 156 95
158 153 95
154 148 90
152 146 89
155 149 93
153 146 87
146 139 84
145 137 80
145 140 74
143 144 62
154 160 60
158 168 52
163 180 37
170 190 20
172 194 16
173 195 0
173 196 0
174 197 0
174 197 0
173 196 0
175 197 0
173 197 0
173 196 0
174 196 0
174 196 0
175 197 0
174 197 0
174 198 0
174 197 0
174 196 0
174 197 0
172 195 0
173 195 0
173 196 0
174 197 0
174 197 0
173 197 0
174 197 0
174 197 0
173 196 0
175 197 0
174 197 0
174 197 0
175 198 0
173 197 0
174 197 0
172 196 0
173 197 0
174 197 0
174 197 0
172 195 0
173 196 0
174 197 0
173 196 0
173 197 0
174 197 0
174 196 0
173 196 0
174 197 0
175 198 0
173 197 0
175 198 0
173 197 0
173 197 0
173 196 0
173 196 0
174 197 0
174 198 0
174 197 0
174 197 0
174 197 0
173 196 0
173 196 0
174 197 0
174 197 0
174 197 0
174 197 0
174 197 0
176 199 0
176 198 0
175 198 0
175 198 0
174 197 0
174 197 0
175 198 0
174 197 0
175 198 0
174 198 0
174 197 0
175 198 0
173 197 0
174 198 0
175 198 0
174 197 0
172 196 0
174 197 0
174 197 0
174 197 0
174 197 0
173 197 0
174 197 0
174 198 0
174 197 0
175 198 0
175 198 0
173 197 0
172 197 0
174 198 0
174 197 0
173 197 0
173 197 0
173 197 0
173 197 0
174 197 0
174 197 0
174 198 0
174 197 0
175 198 0
175 198 0
174 197 0
173 197 0
175 198 0
174 198 0
174 198 0
174 197 0
175 198 0
175 198 0
175 197 0
174 198 0
173 197 0
174 197 0
173 197 0
174 197 0
174 198 0
174 197 0
173 197 0
174 197 0
174 198 0
174 197 0
174 197 0
175 198 0
174 197 0
174 197 0
174 197 0
173 196 0
175 198 0
173 196 0
174 197 0
173 196 0
175 198 0
174 197 0
173 196 0
174 197 0
175 198 0
174 197 0
173 196 0
173 197 0
174 197 0
174 198 0
174 197 0
174 197 0
174 198 0
173 197 0
173 197 0
174 197 0
174 196 0
175 198 0
173 196 0
174 197 0
174 198 0
175 197 0
174 197 0
173 196 0
174 197 0
175 198 0
174 197 0
174 198 0
174 197 0
174 197 0
173 196 0
175 197 0
172 195 0
174 197 0
176 198 0
173 197 0
175 197 0
173 196 0
174 197 0
174 197 0
174 197 0
174 197 0
173 197 0
174 197 0
173 196 0
174 197 0
171 195 0
173 197 0
175 198 0
172 195 0
174 197 0
174 197 0
173 195 0
174 196 0
174 198 0
174 197 0
173 197 0
174 196 0
173 196 0
174 197 0
174 197 0
174 197 0
172 195 0
174 197 0
173 196 0
173 196 0
174 197 0
172 196 0
173 196 0
173 195 0
172 196 0
174 196 0
173 196 0
175 198 0
173 197 0
173 196 0
171 194 0
173 195 0
174 196 0
174 197 0
173 196 0
174 197 0
174 197 0
172 195 0
174 197 0
170 193 0
173 196 0
174 196 0
173 196 0
173 196 0
172 196 0
174 197 0
172 196 0
173 196 0
174 197 0
173 196 0
173 197 0
174 197 0
174 197 0
173 197 0
173 196 0
173 196 0
171 194 0
172 195 0
172 195 0
173 195 0
172 195 0
172 195 0
174 197 0
173 196 0
172 195 0
173 196 0
172 195 0
171 194 0
173 195 0
173 196 0
171 195 0
173 196 0
172 195 0
173 196 0
172 194 0
173 196 0
171 194 0
173 196 0
174 196 0
172 196 0
173 196 0
171 194 0
172 194 0
174 198 0
172 195 12
166 188 40
128 152 122
76 105 157
59 92 165
60 93 168
59 91 165
59 91 164
59 91 164
58 90 162
57 86 156
57 87 158
58 89 161
58 88 158
54 80 145
56 82 149
57 84 153
55 80 144
55 81 147
54 78 141
57 83 150
55 79 143
55 80 143
54 79 144
54 76 138
53 76 138
53 76 138
54 76 138
51 71 129
54 73 131
53 71 127
55 73 130
65 75 131
78 71 121
92 72 116
100 74 113
114 69 102
125 75 102
128 67 84
134 64 71
142 71 79
122 56 70
129 72 96
112 70 106
97 74 120
86 76 128
80 83 141
66 85 149
61 85 151
59 86 153
59 88 156
86 111 141
127 151 111
159 181 59
164 184 23
166 183 29
158 174 34
157 167 48
148 155 54
147 152 61
134 134 66
140 136 78
144 138 80
140 135 79
144 137 86
147 141 89
140 134 86
132 128 82
133 127 84
133 128 83
140 134 90
142 135 90
140 134 90
139 130 86
139 130 89
136 129 86
141 134 91
141 133 90
146 136 91
143 132 90
144 135 91
144 135 91
148 140 94
152 143 96
151 143 95
153 144 97
153 144 98
154 143 96
160 151 101
161 153 101
157 149 99
160 151 100
161 151 99
163 153 99
163 156 103
164 158 105
166 156 102
168 158 102
167 160 105
168 159 104
168 161 105
170 162 105
167 160 104
168 162 106
168 162 105
171 166 108
168 162 105
169 163 105
172 165 106
169 163 105
170 165 106
167 162 104
171 166 107
170 165 106
167 162 103
171 165 104
167 162 102
165 160 100
163 158 98
169 164 101
165 160 100
160 156 96
162 156 96
157 150 91
158 151 93
150 144 86
152 144 89
145 138 80
145 139 80
144 138 77
143 142 67
150 154 60
158 167 53
166 182 37
168 188 22
172 193 8
172 195 0
173 196 0
173 196 0
173 196 0
174 197 0
174 196 0
173 196 0
173 197 0
174 197 0
174 197 0
174 196 0
173 197 0
173 196 0
172 195 0
173 196 0
173 196 0
174 197 0
172 195 0
173 196 0
174 196 0
173 197 0
173 197 0
173 195 0
174 197 0
174 197 0
174 197 0
174 197 0
173 197 0
174 197 0
174 196 0
171 194 0
174 196 0
174 197 0
173 196 0
174 197 0
173 196 0
173 197 0
173 196 0
174 197 0
173 196 0
175 198 0
173 197 0
175 197 0
173 197 0
174 197 0
174 197 0
174 197 0
173 197 0
174 197 0
174 197 0
173 196 0
173 196 0
175 197 0
173 197 0
174 197 0
173 197 0
174 197 0
174 197 0
173 196 0
173 197 0
174 197 0
173 197 0
174 197 0
175 198 0
174 196 0
174 197 0
173 196 0
174 197 0
175 198 0
174 197 0
174 197 0
174 197 0
175 198 0
174 197 0
175 198 0
174 198 0
173 196 0
175 197 0
174 197 0
174 197 0
175 198 0
174 197 0
175 198 0
174 197 0
173 197 0
174 197 0
174 197 0
175 198 0
175 198 0
174 198 0
174 198 0
173 197 0
175 197 0
173 197 0
173 197 0
174 197 0
174 197 0
174 198 0
173 197 0
173 196 0
174 197 0
173 197 0
174 198 0
173 197 0
175 198 0
174 198 0
174 198 0
174 197 0
175 198 0
174 197 0
173 197 0
173 196 0
174 198 0
175 198 0
174 198 0
174 198 0
173 196 0
174 197 0
174 198 0
175 198 0
174 197 0
173 197 0
174 197 0
173 197 0
173 197 0
175 198 0
174 198 0
174 197 0
175 198 0
173 197 0
174 198 0
173 197 0
174 198 0
174 197 0
175 198 0
174 198 0
173 196 0
174 197 0
173 197 0
174 197 0
174 197 0
173 197 0
174 197 0
174 198 0
175 198 0
175 198 0
174 198 0
174 197 0
173 196 0
175 197 0
173 197 0
174 198 0
174 197 0
173 197 0
173 197 0
174 197 0
175 198 0
174 197 0
174 198 0
172 195 0
173 196 0
173 197 0
174 197 0
173 197 0
174 197 0
174 196 0
173 196 0
175 198 0
172 196 0
173 197 0
174 197 0
173 197 0
173 196 0
174 197 0
172 196 0
174 197 0
172 196 0
173 196 0
175 198 0
171 195 0
173 197 0
175 197 0
174 197 0
172 195 0
173 197 0
173 196 0
173 196 0
172 195 0
172 196 0
175 197 0
174 196 0
174 197 0
171 195 0
174 196 0
172 196 0
173 195 0
173 196 0
174 197 0
173 196 0
174 197 0
172 195 0
172 195 0
173 196 0
174 197 0
173 195 0
173 196 0
173 196 0
173 197 0
171 194 0
171 194 0
172 196 0
173 196 0
172 195 0
173 196 0
170 193 0
172 196 0
171 195 0
173 196 0
173 196 0
172 195 0
174 197 0
173 196 0
173 196 0
173 197 0
172 196 0
174 197 0
173 196 0
173 197 0
173 197 0
170 193 0
171 194 0
173 196 0
173 195 0
173 196 0
171 194 0
172 195 0
171 195 0
172 194 0
173 196 0
173 195 0
173 196 0
172 195 0
172 195 0
172 195 0
174 197 0
172 195 0
172 196 0
170 193 0
172 195 0
172 195 0
173 195 0
171 193 0
173 196 0
171 194 0
169 193 0
173 196 0
171 194 0
172 195 0
172 195 0
172 195 0
171 193 0
171 193 0
172 196 0
171 194 31
157 180 75
105 132 142
66 98 165
61 96 171
59 91 164
60 93 168
59 92 164
60 92 166
59 90 161
57 86 155
57 87 157
58 87 157
55 83 150
56 83 149
55 82 148
56 81 146
56 82 148
54 79 144
55 80 145
56 81 147
54 79 144
53 77 138
55 80 145
54 76 138
53 73 131
53 76 138
51 70 126
53 74 133
53 74 133
53 75 134
52 72 130
52 69 124
56 73 130
60 74 131
77 77 132
78 69 116
90 68 112
115 70 101
121 70 94
120 61 79
122 62 77
117 63 89
101 64 98
93 74 118
85 75 123
76 80 139
62 81 143
58 84 150
57 83 148
58 86 153
58 87 155
58 88 153
70 98 150
108 131 130
145 164 76
159 176 40
159 174 41
149 161 48
149 156 53
143 145 63
144 142 73
136 131 71
126 122 73
144 139 84
130 126 78
137 133 85
129 126 79
137 131 85
137 133 84
132 127 84
134 128 85
142 135 90
132 127 85
138 132 89
142 134 89
134 126 86
140 133 90
143 136 92
142 134 90
142 136 92
155 148 98
148 141 95
148 141 95
153 143 96
155 146 97
149 139 94
153 145 97
153 145 96
154 144 96
157 148 98
158 151 99
159 148 98
158 148 98
166 159 103
165 155 101
164 158 104
164 155 100
166 158 103
162 153 100
170 162 105
169 163 104
169 163 106
170 163 105
167 159 104
173 166 108
169 163 106
172 167 107
171 165 107
172 167 108
171 164 104
168 162 105
169 164 106
171 166 104
170 164 107
167 161 101
170 164 104
164 159 99
165 160 100
164 159 98
161 156 95
165 159 98
156 150 93
158 152 93
157 151 89
151 144 84
155 148 88
146 139 84
149 143 83
143 136 82
148 142 80
144 141 69
156 158 71
156 164 55
157 170 39
165 184 28
169 190 14
173 195 0
174 197 0
174 197 0
174 197 0
172 196 0
174 197 0
174 197 0
173 196 0
172 195 0
174 197 0
173 196 0
173 196 0
173 196 0
174 196 0
174 197 0
174 197 0
173 196 0
174 197 0
172 194 0
173 196 0
174 197 0
173 196 0
174 197 0
172 196 0
173 197 0
173 197 0
174 196 0
175 198 0
174 196 0
175 198 0
173 196 0
175 197 0
174 197 0
173 196 0
175 197 0
173 196 0
175 197 0
174 198 0
174 198 0
173 197 0
173 196 0
173 196 0
173 197 0
174 197 0
174 197 0
174 197 0
174 198 0
174 197 0
175 198 0
174 197 0
174 197 0
174 198 0
174 197 0
174 197 0
174 197 0
172 196 0
175 198 0
173 196 0
173 197 0
173 197 0
173 197 0
175 198 0
174 197 0
173 196 0
174 197 0
174 197 0
174 197 0
174 197 0
174 198 0
174 197 0
173 197 0
173 197 0
175 198 0
175 198 0
175 198 0
174 197 0
175 198 0
174 197 0
173 196 0
175 197 0
174 197 0
174 197 0
173 196 0
174 197 0
174 198 0
174 198 0
175 198 0
175 198 0
174 197 0
174 197 0
173 196 0
175 198 0
174 198 0
174 198 0
174 198 0
173 196 0
173 197 0
174 198 0
173 197 0
174 198 0
174 197 0
173 196 0
174 198 0
173 197 0
175 198 0
173 196 0
175 197 0
173 197 0
174 197 0
174 197 0
175 197 0
173 197 0
174 197 0
174 198 0
174 197 0
175 198 0
174 198 0
173 197 0
175 197 0
174 197 0
174 198 0
174 198 0
175 198 0
175 197 0
175 198 0
176 199 0
174 197 0
175 198 0
173 196 0
174 197 0
175 198 0
175 198 0
174 198 0
173 196 0
173 197 0
176 198 0
174 198 0
174 197 0
174 198 0
174 198 0
174 197 0
175 197 0
173 197 0
174 198 0
173 196 0
174 198 0
174 197 0
174 197 0
175 197 0
173 197 0
173 197 0
171 194 0
172 196 0
174 197 0
173 197 0
174 197 0
173 197 0
174 197 0
173 196 0
174 198 0
174 197 0
173 197 0
172 196 0
174 197 0
174 197 0
173 197 0
173 197 0
174 197 0
174 198 0
173 196 0
175 197 0
173 197 0
173 196 0
174 197 0
173 197 0
173 196 0
173 196 0
173 196 0
174 197 0
175 198 0
174 197 0
173 196 0
172 195 0
174 198 0
173 196 0
173 196 0
172 196 0
171 195 0
172 196 0
174 197 0
174 197 0
174 196 0
173 196 0
174 198 0
174 197 0
172 196 0
172 196 0
172 196 0
174 197 0
173 196 0
175 198 0
174 197 0
172 195 0
173 195 0
174 197 0
172 195 0
173 196 0
172 195 0
172 196 0
172 195 0
173 196 0
174 197 0
174 196 0
174 197 0
173 196 0
173 196 0
172 195 0
174 197 0
174 196 0
174 197 0
173 196 0
172 195 0
174 197 0
173 196 0
170 192 0
173 196 0
173 195 0
174 197 0
173 196 0
173 196 0
171 194 0
173 197 0
173 196 0
171 194 0
171 194 0
172 195 0
173 196 0
172 196 0
173 196 0
171 194 0
172 196 0
172 195 0
171 194 0
170 193 0
172 194 0
172 195 0
174 197 0
172 196 0
173 193 0
173 196 0
172 195 0
171 195 0
172 195 0
173 196 0
170 194 0
171 193 0
170 193 0
170 191 0
172 195 0
172 195 0
173 196 0
171 194 0
171 194 28
146 170 96
100 127 151
60 94 164
61 94 166
60 94 170
59 91 163
58 89 160
60 92 166
58 88 157
58 89 159
58 88 159
58 89 160
57 88 159
57 85 154
57 88 158
56 83 151
57 84 151
58 88 158
55 80 145
55 82 149
56 82 148
55 81 147
55 81 146
55 80 144
55 79 142
55 81 147
52 73 131
53 76 136
54 77 138
53 76 137
53 75 135
53 74 134
55 80 144
53 75 135
52 72 129
55 74 131
71 76 131
84 77 128
98 73 117
105 67 102
112 72 108
111 70 105
106 72 110
90 71 119
80 77 133
69 83 145
61 86 153
56 83 145
57 86 154
58 86 152
57 85 151
57 84 147
57 84 149
58 86 150
60 90 155
101 121 134
132 147 98
150 160 60
146 155 50
144 150 55
139 140 65
144 142 76
136 132 75
125 121 73
132 128 79
131 127 79
137 134 86
138 133 85
130 124 78
133 127 83
131 128 86
132 126 84
131 126 86
136 131 89
138 129 86
140 132 89
136 128 87
134 123 84
140 132 89
140 129 87
141 136 92
147 137 93
146 137 92
150 142 96
151 140 93
150 140 93
153 144 95
148 139 92
161 150 98
161 151 100
159 152 100
161 153 101
162 155 102
163 155 100
168 161 105
167 158 103
167 160 105
168 160 104
167 159 103
167 160 104
168 160 104
168 160 105
169 162 103
169 164 106
171 164 105
174 167 107
170 164 107
171 166 107
170 163 104
174 168 108
169 163 105
170 165 105
169 163 104
166 161 101
164 158 99
167 161 100
167 161 101
170 163 103
165 160 98
167 161 100
160 155 95
167 161 97
164 157 95
159 154 94
161 155 94
152 146 87
157 149 88
147 142 84
141 135 78
146 139 81
138 132 77
148 145 74
145 148 63
157 165 58
159 171 45
167 183 40
169 191 12
170 193 0
174 196 0
171 194 0
172 195 0
173 197 0
172 195 0
173 196 0
173 197 0
174 196 0
174 197 0
173 196 0
173 196 0
172 195 0
173 196 0
175 197 0
173 196 0
173 196 0
173 197 0
172 196 0
174 197 0
171 194 0
174 197 0
173 196 0
174 196 0
173 196 0
174 197 0
173 196 0
173 195 0
174 197 0
174 196 0
174 197 0
175 197 0
174 197 0
174 197 0
174 197 0
174 197 0
175 198 0
174 196 0
174 197 0
172 196 0
174 198 0
174 198 0
175 197 0
172 195 0
173 196 0
174 197 0
173 196 0
175 197 0
173 197 0
174 197 0
172 196 0
174 197 0
173 196 0
173 196 0
174 197 0
173 197 0
174 197 0
175 198 0
175 198 0
174 197 0
174 198 0
172 196 0
173 197 0
175 198 0
173 196 0
173 196 0
175 198 0
173 197 0
174 197 0
174 197 0
175 198 0
174 197 0
174 197 0
174 197 0
174 197 0
174 197 0
174 197 0
175 198 0
174 196 0
173 197 0
174 197 0
172 196 0
175 198 0
174 198 0
175 198 0
173 197 0
175 198 0
173 197 0
175 198 0
175 198 0
174 197 0
174 198 0
174 197 0
175 198 0
175 198 0
174 197 0
174 197 0
175 198 0
174 198 0
173 197 0
174 197 0
174 197 0
175 198 0
174 197 0
174 198 0
173 197 0
173 196 0
174 197 0
174 197 0
174 197 0
174 198 0
175 198 0
175 198 0
174 197 0
175 198 0
174 198 0
173 197 0
174 197 0
174 197 0
176 198 0
174 197 0
172 196 0
174 197 0
175 197 0
174 197 0
174 197 0
174 198 0
174 197 0
174 197 0
175 198 0
174 198 0
175 197 0
174 198 0
173 196 0
174 198 0
174 197 0
172 197 0
173 196 0
173 196 0
174 198 0
174 197 0
174 197 0
173 197 0
174 198 0
174 197 0
173 196 0
174 197 0
174 197 0
173 197 0
174 197 0
173 197 0
176 198 0
172 196 0
174 197 0
172 196 0
173 197 0
174 196 0
173 197 0
173 197 0
174 197 0
175 198 0
173 196 0
175 197 0
174 197 0
174 198 0
174 197 0
172 196 0
173 197 0
173 196 0
173 197 0
173 197 0
173 196 0
173 196 0
174 197 0
174 197 0
174 197 0
174 197 0
172 195 0
173 196 0
173 195 0
173 196 0
175 198 0
172 195 0
174 197 0
174 197 0
174 197 0
173 197 0
174 198 0
172 195 0
174 197 0
174 197 0
174 197 0
175 197 0
173 196 0
173 196 0
173 196 0
173 196 0
173 196 0
173 196 0
173 196 0
174 197 0
173 196 0
173 196 0
173 197 0
173 196 0
174 197 0
171 195 0
173 196 0
172 195 0
173 196 0
170 193 0
173 196 0
173 196 0
171 194 0
174 197 0
172 195 0
172 195 0
173 195 0
174 197 0
174 197 0
171 194 0
174 196 0
172 195 0
172 195 0
172 195 0
172 195 0
173 196 0
173 195 0
171 193 0
175 198 0
175 197 0
171 195 0
174 197 0
170 194 0
171 194 0
173 196 0
173 196 0
172 195 0
172 195 0
171 194 0
171 193 0
173 196 0
172 194 0
171 194 0
171 194 0
173 196 0
173 195 0
172 196 0
172 195 0
171 195 0
172 196 0
173 195 0
172 195 0
169 193 0
170 193 0
171 193 0
173 195 0
172 195 0
171 194 0
173 196 0
173 196 0
170 192 33
143 167 99
84 114 157
60 94 167
61 97 173
61 95 169
59 92 165
59 91 163
59 90 162
58 88 157
58 89 161
60 92 164
58 88 158
58 89 161
59 89 159
56 83 151
56 84 152
56 85 154
57 84 152
55 82 150
56 83 150
57 83 150
57 84 152
56 84 151
56 81 146
55 81 146
54 78 142
54 75 134
53 77 138
56 81 146
54 75 134
54 76 137
54 77 139
52 74 134
53 73 132
53 74 132
53 73 132
53 75 134
56 77 139
66 79 137
76 75 129
82 76 128
84 73 120
88 74 122
85 77 129
75 80 139
61 81 144
57 82 146
57 84 149
57 84 148
57 85 152
57 83 148
59 86 152
58 87 153
58 86 151
57 86 154
58 87 155
59 88 151
86 108 145
122 134 110
144 152 64
149 153 61
142 144 66
140 138 74
131 128 75
131 127 76
130 127 81
130 126 78
127 124 77
129 126 81
128 123 80
131 126 83
131 125 83
129 124 84
133 128 87
123 118 80
128 121 83
131 124 85
134 127 87
137 130 89
137 130 87
138 129 87
138 128 86
152 143 96
145 136 90
146 140 94
153 144 96
153 143 94
155 143 96
155 147 97
155 147 98
159 151 100
157 149 98
155 142 93
158 151 98
163 153 99
165 156 102
162 153 99
166 159 103
169 161 104
167 159 102
170 162 104
168 161 104
165 157 99
172 164 106
170 163 104
172 166 108
171 165 104
169 164 106
173 166 105
172 165 105
169 163 104
168 163 103
172 166 104
170 164 102
170 165 105
168 163 102
169 164 101
166 162 100
164 158 99
163 158 97
166 161 97
163 157 95
165 158 96
163 157 96
161 155 93
161 155 94
156 150 88
159 152 90
157 150 88
150 142 85
144 136 83
141 134 76
144 139 75
144 145 63
150 157 55
153 166 41
160 175 33
169 189 20
175 196 14
173 196 0
173 195 0
171 195 0
173 196 0
171 194 0
174 197 0
174 197 0
174 197 0
173 196 0
173 196 0
173 197 0
174 196 0
173 196 0
173 196 0
173 196 0
173 196 0
172 195 0
173 196 0
173 196 0
173 197 0
173 195 0
176 198 0
172 196 0
173 196 0
173 196 0
173 197 0
172 195 0
175 198 0
173 196 0
173 197 0
174 197 0
174 196 0
174 196 0
173 196 0
175 197 0
174 197 0
173 195 0
173 196 0
175 198 0
173 196 0
174 197 0
174 197 0
176 198 0
174 197 0
174 198 0
174 198 0
174 197 0
174 197 0
173 196 0
174 197 0
175 198 0
175 198 0
173 197 0
174 197 0
174 197 0
176 198 0
175 198 0
173 196 0
174 197 0
174 197 0
174 196 0
175 198 0
174 197 0
174 196 0
174 197 0
174 197 0
173 197 0
174 197 0
174 197 0
174 198 0
174 197 0
174 198 0
173 197 0
174 198 0
174 197 0
174 198 0
174 198 0
174 197 0
173 197 0
173 196 0
174 197 0
175 198 0
174 197 0
174 196 0
174 198 0
175 198 0
175 198 0
174 198 0
174 197 0
175 198 0
174 197 0
174 197 0
173 197 0
174 198 0
175 198 0
174 198 0
174 197 0
174 197 0
175 198 0
174 197 0
175 198 0
174 197 0
174 197 0
174 198 0
173 197 0
174 198 0
174 197 0
173 197 0
173 197 0
172 195 0
175 198 0
174 197 0
174 197 0
175 198 0
174 198 0
174 198 0
174 197 0
175 198 0
175 198 0
174 198 0
174 196 0
173 197 0
175 198 0
175 198 0
174 197 0
174 197 0
174 197 0
174 197 0
175 198 0
175 198 0
174 197 0
173 196 0
174 197 0
174 198 0
174 197 0
172 196 0
175 198 0
173 197 0
175 198 0
174 197 0
174 197 0
173 197 0
175 198 0
174 198 0
175 198 0
173 197 0
173 197 0
172 195 0
174 197 0
174 198 0
173 197 0
172 196 0
174 196 0
173 196 0
174 197 0
174 196 0
174 197 0
174 197 0
174 197 0
173 197 0
173 196 0
173 197 0
174 196 0
173 197 0
173 197 0
174 197 0
173 196 0
173 197 0
172 196 0
173 197 0
174 197 0
173 196 0
176 198 0
174 197 0
174 197 0
174 197 0
173 196 0
173 196 0
174 197 0
174 197 0
174 197 0
175 198 0
174 198 0
174 197 0
174 197 0
173 195 0
174 197 0
173 196 0
175 198 0
174 195 0
174 197 0
173 196 0
175 198 0
174 197 0
173 196 0
172 196 0
174 197 0
172 195 0
172 195 0
173 196 0
171 194 0
174 197 0
173 197 0
174 197 0
174 197 0
173 196 0
171 195 0
173 196 0
173 196 0
173 196 0
171 195 0
173 196 0
171 195 0
172 195 0
174 197 0
173 196 0
172 195 0
173 196 0
172 196 0
172 195 0
173 197 0
173 195 0
172 196 0
172 195 0
172 195 0
171 194 0
174 196 0
172 195 0
172 195 0
171 193 0
171 193 0
174 197 0
174 196 0
172 195 0
172 196 0
172 195 0
172 194 0
172 195 0
171 194 0
173 196 0
171 195 0
172 195 0
173 195 0
172 196 0
173 195 0
174 196 0
173 195 0
171 194 0
170 193 0
170 193 0
173 196 0
171 193 0
174 197 0
173 196 0
172 195 0
175 197 0
173 195 0
171 194 0
174 196 0
169 192 31
136 161 110
78 109 162
62 97 173
61 95 169
60 94 170
59 93 167
59 91 163
59 92 165
57 88 159
59 92 165
58 89 159
59 91 165
58 90 162
58 88 159
57 87 158
58 86 155
59 89 161
57 85 154
57 84 153
58 87 157
55 83 150
56 84 153
55 81 147
55 82 148
56 83 149
53 76 137
55 79 143
54 78 140
56 81 146
55 80 143
53 76 137
56 81 147
54 76 137
56 80 143
57 81 145
56 78 139
54 76 135
57 82 147
55 76 137
53 77 137
56 79 141
64 83 147
78 81 140
67 80 139
64 81 142
59 83 149
59 88 158
59 86 154
57 83 149
55 80 142
58 85 150
56 82 145
56 82 144
58 87 155
58 87 153
58 87 156
60 91 157
57 85 152
58 88 156
75 99 148
108 120 117
131 136 68
134 134 63
132 129 66
137 132 78
129 125 73
130 126 76
122 118 75
122 117 77
115 113 72
114 114 75
124 122 82
132 127 85
124 118 82
124 120 83
125 121 83
132 121 83
133 125 84
129 121 84
134 128 88
138 131 90
140 133 90
148 137 92
141 130 88
148 139 93
146 136 91
153 144 95
152 141 92
152 144 95
154 145 95
155 146 95
154 147 95
154 143 95
162 153 100
164 156 102
162 152 98
165 156 102
167 159 102
168 160 104
168 161 103
167 158 101
169 162 104
169 163 105
168 160 101
170 164 106
171 164 104
171 164 106
170 165 105
174 167 108
171 164 104
172 165 105
172 167 106
171 164 104
172 165 102
172 165 105
173 167 104
171 165 103
168 163 101
171 166 103
171 166 103
167 161 97
166 161 98
161 156 96
166 160 94
163 156 95
165 159 94
158 151 92
162 155 92
152 147 89
157 150 89
157 150 88
140 134 79
150 142 83
148 143 75
149 150 72
149 153 57
156 166 44
162 179 38
169 188 25
172 193 8
171 195 0
172 194 0
174 197 0
173 196 0
172 195 0
174 197 0
174 196 0
172 195 0
175 197 0
173 196 0
174 197 0
173 196 0
173 196 0
174 196 0
173 196 0
173 196 0
174 196 0
173 196 0
174 197 0
174 197 0
174 197 0
172 195 0
174 197 0
175 198 0
174 197 0
174 197 0
173 196 0
172 196 0
175 197 0
174 197 0
173 195 0
174 196 0
173 196 0
174 196 0
174 197 0
174 196 0
174 197 0
174 197 0
174 197 0
173 197 0
174 197 0
175 198 0
174 197 0
174 196 0
174 197 0
174 197 0
173 196 0
173 197 0
173 196 0
175 197 0
174 197 0
174 197 0
174 198 0
174 197 0
173 196 0
174 197 0
174 197 0
173 197 0
173 197 0
174 197 0
174 196 0
174 198 0
175 198 0
174 197 0
174 197 0
174 197 0
174 198 0
175 198 0
173 196 0
174 197 0
174 197 0
173 196 0
175 198 0
174 197 0
175 198 0
174 197 0
174 197 0
174 197 0
175 198 0
175 198 0
174 197 0
173 197 0
174 197 0
175 197 0
174 197 0
174 197 0
174 197 0
174 197 0
175 198 0
174 197 0
175 197 0
173 196 0
175 197 0
174 197 0
174 198 0
175 198 0
174 197 0
174 197 0
174 198 0
175 198 0
174 198 0
175 198 0
175 198 0
175 198 0
174 197 0
174 196 0
173 197 0
173 196 0
174 197 0
174 198 0
174 198 0
175 198 0
174 197 0
173 196 0
173 197 0
175 198 0
174 197 0
174 198 0
173 197 0
176 198 0
174 198 0
175 198 0
175 198 0
175 197 0
174 198 0
174 197 0
173 197 0
173 197 0
174 197 0
175 198 0
174 197 0
175 198 0
172 196 0
174 197 0
174 197 0
173 196 0
174 197 0
173 196 0
173 197 0
173 196 0
175 198 0
173 196 0
174 197 0
173 196 0
173 196 0
173 196 0
174 197 0
173 196 0
175 198 0
174 197 0
174 197 0
174 198 0
174 197 0
174 197 0
175 198 0
174 197 0
174 198 0
173 197 0
176 198 0
174 197 0
174 198 0
174 197 0
174 198 0
173 197 0
174 197 0
173 196 0
175 197 0
175 198 0
174 198 0
174 197 0
172 196 0
174 197 0
173 196 0
173 196 0
173 196 0
173 196 0
174 197 0
175 197 0
172 195 0
171 195 0
173 196 0
172 195 0
173 196 0
172 196 0
173 196 0
173 196 0
171 195 0
173 196 0
173 197 0
175 197 0
173 196 0
174 197 0
172 196 0
173 196 0
173 196 0
172 196 0
174 196 0
173 197 0
173 196 0
173 195 0
173 196 0
174 197 0
172 196 0
173 196 0
173 195 0
172 195 0
173 196 0
174 197 0
172 195 0
172 195 0
173 196 0
172 195 0
171 195 0
173 196 0
172 196 0
171 194 0
173 195 0
173 196 0
172 195 0
173 196 0
173 196 0
172 195 0
173 196 0
173 196 0
174 197 0
170 194 0
172 195 0
174 197 0
172 194 0
172 194 0
172 195 0
174 197 0
172 195 0
171 194 0
173 196 0
173 196 0
171 194 0
171 194 0
173 196 0
172 195 0
170 192 0
173 196 0
171 194 0
171 194 0
172 194 0
172 195 0
172 195 0
171 194 0
170 193 0
171 195 0
172 195 0
170 193 0
171 193 0
171 194 0
172 194 0
170 193 0
172 195 0
171 194 0
162 185 47
134 158 110
74 106 161
60 93 165
60 94 168
59 93 166
59 92 166
59 92 166
59 91 163
59 91 164
59 91 163
59 91 165
60 92 165
57 87 157
58 89 162
59 91 164
58 87 156
57 87 157
57 85 154
57 85 154
57 83 151
57 83 149
56 83 150
55 82 148
56 81 147
57 84 153
55 80 144
57 82 148
55 78 140
55 80 144
56 82 146
55 78 140
55 78 140
56 83 149
56 81 146
55 79 142
55 78 141
55 79 141
55 78 140
56 79 143
54 77 137
56 82 147
56 81 146
57 84 151
59 83 146
57 85 151
56 83 147
58 84 150
57 84 150
57 84 149
56 80 142
57 82 146
57 82 145
58 87 153
58 87 153
57 84 149
59 89 157
58 84 147
57 86 148
59 89 157
58 89 154
58 88 153
75 99 149
107 116 117
130 130 84
118 116 68
129 125 76
129 126 77
125 121 75
130 126 79
118 114 72
117 114 73
126 121 80
118 116 78
122 116 79
122 119 81
121 118 82
122 118 80
128 122 85
130 121 84
133 126 85
133 127 88
130 122 84
134 127 86
144 137 93
141 132 88
143 135 90
142 134 91
146 140 93
145 137 91
153 144 93
154 144 95
148 139 93
158 152 100
154 144 93
159 151 97
159 148 97
159 150 97
160 151 97
166 157 102
166 158 102
167 158 101
167 159 102
170 163 105
168 160 101
172 164 104
170 163 103
169 162 102
173 167 108
171 165 104
172 165 103
174 168 106
174 167 105
171 165 103
174 168 105
167 162 101
169 163 101
169 164 101
169 164 103
170 164 102
168 163 99
167 162 97
170 164 99
165 160 96
167 161 98
169 162 98
162 155 94
160 154 90
155 149 90
158 152 88
157 151 86
148 141 84
153 146 85
148 140 79
148 140 78
146 140 76
142 139 70
153 154 62
152 160 51
158 173 39
166 186 25
171 193 14
173 197 0
174 197 0
173 197 0
174 196 0
173 196 0
173 196 0
174 197 0
174 196 0
174 197 0
175 197 0
172 195 0
173 196 0
175 197 0
173 196 0
173 196 0
173 196 0
174 197 0
173 196 0
174 197 0
173 196 0
172 195 0
174 197 0
174 197 0
174 197 0
172 194 0
174 197 0
174 197 0
174 197 0
174 197 0
173 197 0
174 197 0
174 197 0
174 196 0
173 196 0
174 198 0
174 197 0
173 196 0
174 198 0
175 197 0
174 196 0
174 197 0
173 196 0
174 197 0
173 197 0
174 197 0
173 196 0
173 196 0
175 197 0
174 197 0
173 196 0
174 197 0
174 197 0
174 197 0
173 196 0
174 197 0
173 197 0
173 196 0
175 198 0
174 197 0
174 197 0
174 197 0
175 198 0
174 197 0
174 198 0
174 197 0
174 197 0
173 196 0
174 197 0
174 197 0
173 196 0
175 198 0
173 197 0
173 197 0
174 197 0
174 198 0
174 197 0
174 197 0
172 196 0
174 198 0
175 198 0
173 197 0
173 197 0
175 198 0
175 198 0
174 198 0
174 197 0
175 198 0
173 197 0
174 197 0
173 197 0
174 197 0
174 198 0
174 197 0
174 197 0
175 198 0
175 198 0
173 197 0
175 198 0
174 197 0
174 197 0
174 197 0
174 197 0
175 198 0
174 198 0
175 198 0
175 198 0
174 198 0
174 197 0
174 198 0
174 197 0
174 198 0
174 197 0
174 198 0
174 198 0
173 197 0
174 197 0
174 198 0
173 197 0
175 198 0
174 197 0
173 197 0
174 197 0
174 198 0
174 198 0
175 198 0
174 197 0
172 195 0
173 196 0
173 197 0
174 197 0
175 197 0
174 198 0
175 198 0
174 197 0
173 197 0
173 197 0
176 198 0
173 197 0
174 197 0
174 197 0
175 198 0
173 197 0
173 196 0
173 196 0
173 197 0
174 197 0
174 197 0
172 196 0
173 196 0
173 197 0
175 198 0
174 197 0
174 197 0
173 197 0
174 197 0
175 198 0
174 198 0
173 197 0
173 196 0
174 197 0
174 197 0
174 197 0
173 197 0
173 197 0
174 197 0
173 197 0
173 197 0
175 198 0
174 197 0
172 196 0
173 195 0
173 197 0
173 196 0
172 196 0
173 197 0
173 197 0
175 198 0
171 195 0
174 197 0
173 196 0
173 196 0
173 196 0
174 198 0
172 195 0
173 197 0
172 195 0
172 196 0
173 196 0
173 196 0
172 196 0
173 196 0
173 195 0
173 196 0
173 195 0
173 196 0
173 196 0
172 195 0
173 197 0
173 195 0
170 194 0
172 195 0
174 196 0
172 195 0
174 196 0
174 197 0
174 197 0
172 195 0
173 196 0
170 194 0
172 196 0
172 195 0
172 195 0
173 196 0
171 194 0
172 195 0
173 195 0
174 197 0
172 196 0
171 195 0
173 196 0
172 195 0
172 195 0
172 195 0
174 196 0
172 194 0
173 195 0
172 195 0
174 197 0
169 192 0
174 196 0
172 195 0
173 195 0
172 195 0
172 195 0
171 194 0
171 194 0
171 194 0
171 194 0
171 195 0
171 194 0
172 196 0
173 196 0
173 196 0
171 194 0
170 193 0
172 195 0
172 195 0
168 192 0
173 196 0
173 196 0
172 194 0
171 193 0
172 195 0
171 195 0
170 193 0
171 194 0
172 195 0
167 191 31
141 165 98
81 111 161
60 93 163
61 96 169
61 94 168
60 93 165
60 95 170
60 93 164
59 92 164
61 95 171
59 91 163
60 93 168
59 90 162
58 89 162
58 89 160
59 88 158
58 89 160
59 90 163
58 87 157
57 87 157
58 87 157
57 84 152
57 85 155
56 84 152
57 85 154
57 84 151
56 84 152
55 80 145
56 83 149
59 87 157
55 79 143
57 83 148
54 77 138
56 81 145
54 76 136
55 79 142
54 77 138
56 80 144
56 81 145
55 78 140
56 82 147
57 81 146
55 79 141
57 85 153
56 81 145
58 84 151
56 81 146
57 86 153
55 79 141
57 83 148
57 85 152
57 82 148
58 86 152
58 87 152
58 85 151
58 87 155
58 84 149
59 89 157
58 87 153
58 89 156
59 88 156
58 89 154
59 91 156
72 94 147
105 112 116
117 116 78
122 119 71
118 117 69
119 116 69
120 117 75
123 121 79
112 110 74
117 116 80
124 117 79
119 115 79
120 117 79
119 113 78
124 115 79
124 120 82
125 118 81
127 118 80
128 123 86
128 120 82
139 131 88
136 127 87
135 128 87
147 140 93
145 136 92
146 138 91
139 130 85
154 144 95
154 145 95
158 150 96
156 145 94
156 147 95
156 146 93
159 148 94
164 155 100
163 152 99
164 155 97
167 156 99
168 159 103
167 159 101
166 159 101
169 162 101
168 160 101
170 162 104
171 163 104
168 160 99
172 164 103
173 165 105
171 165 102
173 166 105
172 167 105
172 165 102
172 167 106
171 165 102
165 160 99
170 164 101
168 162 100
170 164 101
167 161 99
169 162 99
171 165 103
166 160 98
165 158 94
165 159 96
162 156 92
161 155 93
160 154 90
152 144 81
154 148 84
147 141 81
151 145 80
143 134 76
138 133 72
145 142 65
146 148 59
155 165 50
157 171 38
168 186 23
170 191 12
173 195 0
172 196 0
172 195 0
172 195 0
173 196 0
173 196 0
174 196 0
173 197 0
172 196 0
174 196 0
173 196 0
174 196 0
175 196 0
174 197 0
173 196 0
174 196 0
173 195 0
174 197 0
174 197 0
175 197 0
172 195 0
174 196 0
174 196 0
173 196 0
173 197 0
172 196 0
174 196 0
175 197 0
174 197 0
174 197 0
174 197 0
172 195 0
174 197 0
174 196 0
173 196 0
174 197 0
174 197 0
172 196 0
173 197 0
174 197 0
173 197 0
174 198 0
174 197 0
174 197 0
174 197 0
175 198 0
173 195 0
173 196 0
175 198 0
174 197 0
172 196 0
173 196 0
174 197 0
174 197 0
173 196 0
173 197 0
173 195 0
174 197 0
174 196 0
174 198 0
173 197 0
171 195 0
174 197 0
174 197 0
174 198 0
173 196 0
173 197 0
174 197 0
173 197 0
174 197 0
174 197 0
174 197 0
173 197 0
174 197 0
175 198 0
174 198 0
175 197 0
174 197 0
174 197 0
175 198 0
174 197 0
174 198 0
174 198 0
174 197 0
175 197 0
174 197 0
173 197 0
173 196 0
174 197 0
173 196 0
174 197 0
175 198 0
174 198 0
174 197 0
174 197 0
174 197 0
173 196 0
173 196 0
175 198 0
174 198 0
174 198 0
174 198 0
175 198 0
174 198 0
175 198 0
174 198 0
173 197 0
175 198 0
175 198 0
175 198 0
175 197 0
175 197 0
173 197 0
173 197 0
174 197 0
174 197 0
173 197 0
175 197 0
174 197 0
174 197 0
174 197 0
174 198 0
174 197 0
172 196 0
174 197 0
174 198 0
174 197 0
173 196 0
173 196 0
174 198 0
174 197 0
174 197 0
175 198 0
173 197 0
173 197 0
174 198 0
174 197 0
173 196 0
173 196 0
174 197 0
174 197 0
174 197 0
171 194 0
174 197 0
173 197 0
174 197 0
172 196 0
173 197 0
174 197 0
174 197 0
174 197 0
175 198 0
173 196 0
174 196 0
173 195 0
175 198 0
174 197 0
173 197 0
175 198 0
174 197 0
174 197 0
174 197 0
174 197 0
173 195 0
173 195 0
173 196 0
173 197 0
174 196 0
174 197 0
174 197 0
174 198 0
173 195 0
174 197 0
173 195 0
174 197 0
175 198 0
174 197 0
172 196 0
174 197 0
173 197 0
173 196 0
172 196 0
173 196 0
173 196 0
172 196 0
173 196 0
173 197 0
173 195 0
173 196 0
174 197 0
173 195 0
172 195 0
172 195 0
172 195 0
174 197 0
173 197 0
173 197 0
172 195 0
172 196 0
173 195 0
174 197 0
172 195 0
174 197 0
172 195 0
172 195 0
174 197 0
174 197 0
173 196 0
172 196 0
172 194 0
173 195 0
173 196 0
173 196 0
174 196 0
171 194 0
174 196 0
174 197 0
172 195 0
173 196 0
170 194 0
172 196 0
172 196 0
171 195 0
172 195 0
173 196 0
172 195 0
171 194 0
173 197 0
170 194 0
171 195 0
173 196 0
171 195 0
170 193 0
171 195 0
172 195 0
172 196 0
173 195 0
171 193 0
172 194 0
170 192 0
171 195 0
170 192 0
171 194 0
171 194 0
171 194 0
169 192 0
171 194 0
172 195 0
171 194 0
171 192 0
172 195 0
171 193 0
170 193 0
171 193 0
171 195 0
171 194 0
169 191 22
138 163 108
80 110 159
62 97 168
61 95 168
60 94 166
60 93 166
59 91 161
60 93 167
61 94 168
60 92 166
58 90 161
60 93 169
60 92 165
59 90 162
59 90 162
58 89 161
58 87 156
59 90 160
58 88 158
58 87 157
58 87 157
57 84 152
56 85 153
57 87 157
58 86 155
56 81 145
56 84 152
55 80 145
58 85 153
55 81 147
56 81 145
55 78 141
56 83 149
55 82 146
56 80 144
56 82 147
56 82 147
55 80 143
54 76 136
57 82 147
56 81 145
56 82 147
55 78 139
57 84 150
57 85 151
55 80 143
56 82 147
56 82 148
57 83 149
58 85 152
57 82 144
56 82 146
57 84 150
56 83 148
58 86 151
57 85 152
57 85 150
58 87 152
57 86 153
58 87 153
60 91 160
57 86 152
59 92 160
58 87 147
59 90 156
75 97 147
107 113 115
123 121 80
121 118 72
116 114 72
111 109 70
115 112 73
118 114 75
110 105 71
115 110 75
112 110 76
112 108 75
108 103 72
117 112 79
122 116 80
124 119 82
127 121 81
126 119 83
134 127 88
133 125 84
134 128 86
133 126 86
142 136 91
150 142 95
143 136 90
145 138 93
145 132 87
151 141 93
150 141 92
157 150 97
157 147 94
153 145 94
159 151 97
161 150 97
162 153 97
171 163 103
168 160 100
169 163 104
166 158 100
166 156 99
170 162 101
172 164 101
174 166 104
172 166 101
172 165 104
173 165 100
173 164 102
174 166 103
174 167 101
175 169 105
171 164 100
170 165 100
165 160 100
169 163 98
169 163 103
170 164 100
168 162 99
167 161 96
163 157 92
168 162 96
168 161 97
161 154 90
161 155 93
161 155 92
160 154 91
163 157 91
157 150 90
154 146 85
148 140 77
154 146 80
151 144 81
145 137 74
146 142 70
146 148 62
151 158 49
158 173 30
165 181 31
169 190 14
171 194 0
172 195 0
173 196 0
172 195 0
172 195 0
172 194 0
173 196 0
173 196 0
173 195 0
173 196 0
172 195 0
172 195 0
173 196 0
175 197 0
173 196 0
173 196 0
173 196 0
173 197 0
174 196 0
173 195 0
173 196 0
174 197 0
173 196 0
174 197 0
174 197 0
175 198 0
174 196 0
174 197 0
173 197 0
173 196 0
174 195 0
174 197 0
174 197 0
172 196 0
174 197 0
173 197 0
173 196 0
174 197 0
174 197 0
174 197 0
174 197 0
174 197 0
174 197 0
173 196 0
174 197 0
173 197 0
174 197 0
175 198 0
176 198 0
174 197 0
174 198 0
175 198 0
175 198 0
175 197 0
173 197 0
173 196 0
173 196 0
175 198 0
175 198 0
174 197 0
174 196 0
174 196 0
174 197 0
175 198 0
174 197 0
175 197 0
175 197 0
174 198 0
174 197 0
173 196 0
174 197 0
174 197 0
174 197 0
174 197 0
174 198 0
173 197 0
173 196 0
173 196 0
174 197 0
175 198 0
175 198 0
175 198 0
173 197 0
175 198 0
174 197 0
175 198 0
174 197 0
174 198 0
174 198 0
173 196 0
174 197 0
173 197 0
174 196 0
173 196 0
174 197 0
175 198 0
174 197 0
174 198 0
174 197 0
173 197 0
174 197 0
175 198 0
174 198 0
174 197 0
174 197 0
175 198 0
174 197 0
173 196 0
174 197 0
173 197 0
173 197 0
175 198 0
173 197 0
174 198 0
175 198 0
174 198 0
175 198 0
174 197 0
174 197 0
173 197 0
174 198 0
173 197 0
173 197 0
174 197 0
175 197 0
173 197 0
173 196 0
173 197 0
174 197 0
174 197 0
173 196 0
173 196 0
174 197 0
174 197 0
174 196 0
174 196 0
172 196 0
174 197 0
174 197 0
174 197 0
174 198 0
172 195 0
175 198 0
173 196 0
173 196 0
172 195 0
174 198 0
174 197 0
174 198 0
173 197 0
174 197 0
173 196 0
173 197 0
174 197 0
173 197 0
173 197 0
173 196 0
174 196 0
174 197 0
174 197 0
173 196 0
174 197 0
173 197 0
175 197 0
174 197 0
173 196 0
174 198 0
173 196 0
173 195 0
173 196 0
173 197 0
172 195 0
174 197 0
173 196 0
173 196 0
173 195 0
173 197 0
174 197 0
174 197 0
174 197 0
173 196 0
174 197 0
173 196 0
173 196 0
174 196 0
172 194 0
174 197 0
172 195 0
172 195 0
172 196 0
173 197 0
173 196 0
173 195 0
173 196 0
172 195 0
174 197 0
172 196 0
173 196 0
173 197 0
173 196 0
172 195 0
174 196 0
172 195 0
173 197 0
171 194 0
173 196 0
173 196 0
172 195 0
173 196 0
173 196 0
171 194 0
174 197 0
173 195 0
173 196 0
172 195 0
172 196 0
173 196 0
172 195 0
172 196 0
172 195 0
172 195 0
173 196 0
173 194 0
173 196 0
172 194 0
173 195 0
173 196 0
173 196 0
169 191 0
172 194 0
172 196 0
172 196 0
173 195 0
172 195 0
172 195 0
172 194 0
171 194 0
171 194 0
171 193 0
170 194 0
172 194 0
173 196 0
172 194 0
171 194 0
171 193 0
168 191 0
172 195 0
172 195 0
171 195 0
168 191 0
173 196 0
172 195 0
172 194 0
168 191 0
170 193 0
170 193 12
152 175 81
78 110 163
61 97 169
61 97 171
60 95 170
60 95 167
60 93 163
59 93 166
60 92 164
60 93 167
60 93 167
59 91 162
59 92 163
59 90 161
59 91 163
60 92 164
57 87 157
59 90 162
59 90 162
58 88 158
58 87 157
58 88 158
57 86 155
56 85 153
57 86 155
56 84 153
58 87 156
56 84 150
56 82 148
58 86 155
57 84 150
57 86 155
56 81 146
56 83 150
56 82 148
56 81 144
56 81 145
55 78 140
55 80 143
55 81 145
56 80 143
57 82 146
56 82 145
56 83 148
56 82 147
58 86 154
56 84 150
58 84 150
57 84 150
58 86 154
58 88 156
58 88 157
58 85 149
58 87 152
58 84 148
57 86 151
57 86 152
58 87 152
58 88 154
59 90 158
58 87 152
58 88 156
57 85 150
58 88 153
59 90 159
60 92 159
59 90 157
78 98 141
105 111 111
105 104 67
111 110 69
125 122 77
104 104 70
113 109 72
111 108 74
111 107 74
111 106 74
116 112 77
108 105 76
106 103 74
128 121 83
116 111 78
118 113 78
122 116 81
131 123 85
137 129 88
134 125 85
143 135 89
132 124 83
141 135 89
147 138 91
149 138 90
150 141 91
148 141 93
152 142 93
160 150 96
157 149 97
160 151 97
166 158 101
160 151 94
165 156 98
167 158 99
165 156 99
170 162 102
168 160 100
167 160 100
171 162 101
170 161 102
169 160 98
172 165 102
173 167 103
173 166 101
171 164 102
173 166 101
173 167 103
169 164 101
173 166 103
172 165 100
172 165 101
173 167 100
173 167 103
174 167 103
173 166 100
169 162 96
164 158 96
167 161 97
162 156 93
167 161 96
159 153 94
164 157 95
159 152 87
157 150 85
159 152 89
152 145 83
149 143 81
151 144 80
138 131 70
139 132 70
143 138 67
145 149 55
155 165 47
164 178 43
160 178 26
167 188 22
173 196 0
172 194 0
172 195 0
173 195 0
173 195 0
171 194 0
174 197 0
172 194 0
174 196 0
171 193 0
171 193 0
173 196 0
173 195 0
173 196 0
173 196 0
174 197 0
174 197 0
173 196 0
174 196 0
173 197 0
172 195 0
173 197 0
174 196 0
172 196 0
174 196 0
173 196 0
172 195 0
172 195 0
175 197 0
173 197 0
173 196 0
174 197 0
173 197 0
174 196 0
174 197 0
172 196 0
173 196 0
173 197 0
174 196 0
174 196 0
175 197 0
174 197 0
175 198 0
173 196 0
173 197 0
174 197 0
173 195 0
173 197 0
174 197 0
172 196 0
175 198 0
175 198 0
173 197 0
174 197 0
175 198 0
173 196 0
175 197 0
174 197 0
174 197 0
174 197 0
173 196 0
173 196 0
175 197 0
174 197 0
174 198 0
174 197 0
173 196 0
173 197 0
174 197 0
174 197 0
174 197 0
175 198 0
174 197 0
174 197 0
175 198 0
174 197 0
174 197 0
175 198 0
175 198 0
175 198 0
174 197 0
175 198 0
173 197 0
173 196 0
173 197 0
174 198 0
173 197 0
173 197 0
174 197 0
175 197 0
175 198 0
174 197 0
173 197 0
174 197 0
174 197 0
173 197 0
174 198 0
173 197 0
174 197 0
174 197 0
175 198 0
173 196 0
173 196 0
173 197 0
173 197 0
173 197 0
173 196 0
174 197 0
174 197 0
175 198 0
174 197 0
174 198 0
174 197 0
174 197 0
174 198 0
174 198 0
174 197 0
174 197 0
174 198 0
175 198 0
173 196 0
174 197 0
174 197 0
174 197 0
174 197 0
174 197 0
174 197 0
174 197 0
174 197 0
173 197 0
174 197 0
175 198 0
174 198 0
173 197 0
174 197 0
174 196 0
174 197 0
174 197 0
173 196 0
173 196 0
173 197 0
172 196 0
174 197 0
175 198 0
174 197 0
175 198 0
173 197 0
174 197 0
174 197 0
174 197 0
175 198 0
176 198 0
173 196 0
172 195 0
173 196 0
173 196 0
172 195 0
174 198 0
174 197 0
172 195 0
173 196 0
173 197 0
173 197 0
174 197 0
175 198 0
173 196 0
174 196 0
172 196 0
173 196 0
173 196 0
174 197 0
175 198 0
173 196 0
174 197 0
173 196 0
173 197 0
172 196 0
175 198 0
173 196 0
172 195 0
174 198 0
173 196 0
174 197 0
173 197 0
173 197 0
174 197 0
173 196 0
173 196 0
173 196 0
175 197 0
172 196 0
172 195 0
174 197 0
173 195 0
173 196 0
172 196 0
172 195 0
172 196 0
172 196 0
173 196 0
173 196 0
173 196 0
174 196 0
174 196 0
172 194 0
172 195 0
173 196 0
173 196 0
173 196 0
171 194 0
174 196 0
173 196 0
170 193 0
172 195 0
172 195 0
173 196 0
172 196 0
173 196 0
171 194 0
172 196 0
171 194 0
170 194 0
168 192 0
170 193 0
173 196 0
173 196 0
174 196 0
171 194 0
173 196 0
172 194 0
171 193 0
172 196 0
171 195 0
173 196 0
172 195 0
172 194 0
171 194 0
169 192 0
170 191 0
173 196 0
172 195 0
172 194 0
170 194 0
172 195 0
173 196 0
167 190 0
170 192 0
173 196 0
170 193 0
173 195 0
170 193 0
172 195 0
171 194 0
169 193 0
168 192 12
158 181 60
94 121 148
62 97 168
62 97 169
61 97 170
60 95 167
61 94 164
60 95 167
60 93 164
60 94 168
60 92 163
59 92 164
59 92 165
58 90 163
58 90 162
58 90 161
58 90 160
60 92 164
59 88 158
59 90 163
57 87 157
59 91 163
58 90 162
58 88 157
56 83 150
57 85 153
55 83 149
57 84 151
56 84 152
56 83 150
56 82 147
55 80 145
57 85 152
56 82 147
56 83 148
55 82 145
56 80 142
56 83 149
55 80 141
56 81 145
55 79 139
57 84 149
58 87 154
54 78 140
58 84 148
56 82 145
57 85 150
57 84 149
57 84 148
56 81 144
57 83 148
57 83 147
58 85 152
58 87 152
58 86 152
59 88 156
57 84 147
58 86 151
57 86 152
58 86 152
59 88 151
58 86 152
59 89 155
59 90 156
60 92 160
59 89 156
58 89 154
59 91 160
59 91 156
76 96 135
104 106 94
108 107 73
116 115 72
103 100 65
103 101 66
100 97 66
102 98 69
104 101 71
106 102 74
110 106 76
113 109 78
121 116 79
123 119 82
120 112 77
124 118 81
122 116 80
133 127 86
136 128 86
132 124 84
136 127 86
137 129 85
143 135 90
139 131 86
148 139 90
150 141 92
151 143 92
152 144 94
156 148 95
159 150 94
161 153 97
163 154 97
162 154 95
166 160 101
168 161 100
164 157 100
165 156 97
171 164 103
171 164 101
172 165 102
172 166 103
173 165 102
170 163 99
171 162 99
172 165 100
172 166 100
173 166 101
175 168 104
175 168 103
172 167 101
172 166 100
168 162 99
170 165 100
168 162 97
167 161 98
168 162 97
169 163 95
170 164 98
165 159 94
169 163 93
162 154 90
159 151 87
157 150 88
156 149 84
160 153 87
152 146 85
155 147 84
142 135 69
144 137 71
144 137 75
139 136 65
140 140 55
154 161 53
160 174 42
168 186 34
171 192 18
174 196 8
174 197 0
171 193 0
174 196 0
172 195 0
173 196 0
173 196 0
172 195 0
171 194 0
172 195 0
171 195 0
174 196 0
173 196 0
173 196 0
174 197 0
173 196 0
173 196 0
173 196 0
172 195 0
173 196 0
173 196 0
173 195 0
171 193 0
173 195 0
173 196 0
175 198 0
173 197 0
174 197 0
173 196 0
172 196 0
173 196 0
175 198 0
174 196 0
174 197 0
173 196 0
174 197 0
173 196 0
172 195 0
174 198 0
172 196 0
174 197 0
174 197 0
175 198 0
173 197 0
174 197 0
174 197 0
173 197 0
173 196 0
173 196 0
173 196 0
173 197 0
173 196 0
173 197 0
174 197 0
173 196 0
175 198 0
173 197 0
175 197 0
173 197 0
173 197 0
173 196 0
174 197 0
173 196 0
175 197 0
173 197 0
174 198 0
174 197 0
173 197 0
174 197 0
174 197 0
174 197 0
173 197 0
175 197 0
174 198 0
175 198 0
174 197 0
175 198 0
174 197 0
174 198 0
174 197 0
175 197 0
174 197 0
174 197 0
174 197 0
174 198 0
173 197 0
173 196 0
174 198 0
174 197 0
174 197 0
175 198 0
175 198 0
175 198 0
174 197 0
175 198 0
173 197 0
173 196 0
174 197 0
174 198 0
175 197 0
174 197 0
174 197 0
175 198 0
174 197 0
175 198 0
175 197 0
173 197 0
175 198 0
173 196 0
173 197 0
175 198 0
175 198 0
173 196 0
173 196 0
175 198 0
174 197 0
173 196 0
175 197 0
175 198 0
175 198 0
174 198 0
174 198 0
174 197 0
172 196 0
174 197 0
175 198 0
175 198 0
174 197 0
174 197 0
175 197 0
174 197 0
173 197 0
173 197 0
174 198 0
174 198 0
174 198 0
173 196 0
174 197 0
173 196 0
174 197 0
175 197 0
173 197 0
173 197 0
173 196 0
174 197 0
173 197 0
174 197 0
173 196 0
173 196 0
173 196 0
175 198 0
174 197 0
173 196 0
173 196 0
174 197 0
173 197 0
174 197 0
173 197 0
172 195 0
172 195 0
174 197 0
173 196 0
173 196 0
174 197 0
173 197 0
173 197 0
173 196 0
174 198 0
174 197 0
172 196 0
173 196 0
174 197 0
174 197 0
175 198 0
173 196 0
175 198 0
174 197 0
174 197 0
174 198 0
173 197 0
172 195 0
174 198 0
173 197 0
173 196 0
173 196 0
172 195 0
174 197 0
173 196 0
173 196 0
174 197 0
174 197 0
172 195 0
172 195 0
174 197 0
173 196 0
172 195 0
172 195 0
174 195 0
172 195 0
173 196 0
173 196 0
174 196 0
173 196 0
172 195 0
173 197 0
173 197 0
172 194 0
172 195 0
172 195 0
171 194 0
172 195 0
174 197 0
172 194 0
173 196 0
173 196 0
174 197 0
172 195 0
173 196 0
174 197 0
174 196 0
172 195 0
172 195 0
170 193 0
172 195 0
171 194 0
173 196 0
172 195 0
172 194 0
171 194 0
174 196 0
170 193 0
172 195 0
170 193 0
171 194 0
173 195 0
172 194 0
172 195 0
173 196 0
172 195 0
171 193 0
172 195 0
171 194 0
170 192 0
171 193 0
171 194 0
172 195 0
172 195 0
172 194 0
172 195 0
170 193 0
172 195 0
172 194 0
171 194 0
172 194 0
164 186 53
116 142 133
64 98 163
60 94 163
61 97 169
61 95 168
61 95 170
61 95 168
60 94 167
61 95 168
61 94 166
60 93 166
61 94 170
59 91 163
59 90 161
57 88 156
60 92 164
58 88 157
59 90 161
58 90 161
56 84 150
58 89 160
59 89 160
57 87 155
57 87 157
58 88 158
57 84 151
57 84 150
56 81 144
58 86 155
57 85 150
56 82 147
55 81 144
56 83 150
57 84 148
56 83 150
56 82 148
55 80 143
55 81 144
57 84 150
55 80 142
55 80 143
55 81 144
57 84 149
57 86 153
57 83 148
56 83 146
58 85 149
57 84 150
56 82 145
57 84 147
58 87 152
57 83 146
58 88 154
57 84 149
58 86 152
57 85 150
58 86 151
58 86 150
58 88 154
58 87 153
59 88 154
60 90 156
58 87 151
60 91 155
59 91 158
60 92 158
60 91 159
60 92 160
59 92 155
60 91 153
81 97 126
103 103 81
99 99 64
102 101 68
97 96 67
96 95 68
107 104 68
108 104 72
105 103 72
96 90 64
104 100 71
106 102 73
111 105 76
113 109 76
120 116 81
119 113 79
128 123 82
135 128 83
130 124 84
139 131 85
140 132 86
133 124 79
141 134 88
149 141 91
145 137 84
150 143 92
151 144 92
158 148 93
159 150 96
162 154 97
158 151 93
165 156 98
165 158 99
165 158 100
166 158 96
163 156 97
171 164 104
170 163 99
166 159 94
172 165 102
166 158 95
173 166 101
172 164 100
170 163 98
174 167 100
174 167 103
173 167 102
171 165 97
173 167 102
174 166 101
169 163 95
170 164 99
170 164 97
168 162 93
168 161 90
166 158 94
165 159 93
163 157 90
165 158 92
159 153 90
157 151 86
162 156 88
159 153 89
156 150 85
152 144 78
150 143 80
154 146 81
146 139 74
141 135 72
147 143 69
153 156 64
154 163 50
160 174 41
163 181 31
170 192 14
171 193 8
171 193 0
172 196 0
174 196 0
173 196 0
172 194 0
173 196 0
172 195 0
174 196 0
174 197 0
171 195 0
174 197 0
172 195 0
174 196 0
173 196 0
170 194 0
173 197 0
173 196 0
173 196 0
173 196 0
173 196 0
173 195 0
172 196 0
173 196 0
173 196 0
173 195 0
175 197 0
174 196 0
175 198 0
173 196 0
172 195 0
172 195 0
172 196 0
174 197 0
174 196 0
174 197 0
172 196 0
174 197 0
173 196 0
173 197 0
172 196 0
173 196 0
173 196 0
175 198 0
174 197 0
175 198 0
173 197 0
172 196 0
174 197 0
172 196 0
174 198 0
174 197 0
174 198 0
173 196 0
174 197 0
174 197 0
174 197 0
174 198 0
174 197 0
174 197 0
174 197 0
174 197 0
173 197 0
173 196 0
174 197 0
175 198 0
173 197 0
173 197 0
174 198 0
174 197 0
173 197 0
174 196 0
174 197 0
175 198 0
175 198 0
175 198 0
173 197 0
174 197 0
175 198 0
174 197 0
174 197 0
174 197 0
174 197 0
174 197 0
173 197 0
174 197 0
174 197 0
173 197 0
174 197 0
173 196 0
174 198 0
174 197 0
175 198 0
174 197 0
174 197 0
174 198 0
175 197 0
174 197 0
173 197 0
174 198 0
174 197 0
174 197 0
176 198 0
173 197 0
174 197 0
176 198 0
175 198 0
175 198 0
175 198 0
174 196 0
174 197 0
175 198 0
173 197 0
174 197 0
173 197 0
174 198 0
173 197 0
173 197 0
174 198 0
175 198 0
175 198 0
173 197 0
173 197 0
175 198 0
175 198 0
173 197 0
175 198 0
174 198 0
173 197 0
174 196 0
173 197 0
173 196 0
174 197 0
173 197 0
175 198 0
173 196 0
174 197 0
173 197 0
173 197 0
174 197 0
174 197 0
174 197 0
173 197 0
172 196 0
174 197 0
172 196 0
173 197 0
173 197 0
174 197 0
173 197 0
174 197 0
173 196 0
173 197 0
173 197 0
175 198 0
172 195 0
172 196 0
172 196 0
174 197 0
173 197 0
174 197 0
173 196 0
174 196 0
173 197 0
173 196 0
174 197 0
173 196 0
174 197 0
173 197 0
173 197 0
175 198 0
172 196 0
173 196 0
172 196 0
173 196 0
172 196 0
173 196 0
173 195 0
173 196 0
174 197 0
174 197 0
173 196 0
172 195 0
173 196 0
172 196 0
173 196 0
171 194 0
173 196 0
173 196 0
174 196 0
173 197 0
173 196 0
173 196 0
172 195 0
173 196 0
173 195 0
172 195 0
173 196 0
172 195 0
173 195 0
173 195 0
173 195 0
174 196 0
173 196 0
174 196 0
174 196 0
173 195 0
173 196 0
172 195 0
171 194 0
173 196 0
172 195 0
173 196 0
172 194 0
173 196 0
171 194 0
173 196 0
172 195 0
172 195 0
172 196 0
171 194 0
171 194 0
170 193 0
171 194 0
174 197 0
171 195 0
171 193 0
172 195 0
172 195 0
172 195 0
170 193 0
172 195 0
171 194 0
171 194 0
171 195 0
172 195 0
172 195 0
173 196 0
171 194 0
172 195 0
171 194 0
172 196 0
171 193 0
169 191 0
171 194 0
169 192 0
172 195 0
168 190 0
170 193 0
173 196 0
171 193 0
170 192 0
171 194 0
168 191 22
140 163 97
69 103 166
61 96 165
61 97 173
61 96 171
61 96 169
61 95 167
61 96 172
61 94 166
61 95 169
60 93 164
60 93 163
60 93 166
60 93 167
60 93 164
60 92 164
59 90 163
59 90 162
59 90 161
59 91 162
57 87 156
58 88 158
58 86 155
58 87 156
56 84 150
58 87 156
57 84 150
58 86 154
59 88 156
55 81 146
57 85 153
58 85 151
57 84 150
55 82 146
56 83 148
56 83 147
57 84 148
57 83 148
57 85 149
57 85 150
56 82 146
57 84 149
56 83 147
56 82 145
56 82 148
58 86 152
59 89 157
58 86 154
57 83 148
57 85 151
57 84 150
57 84 149
58 87 153
58 86 153
59 89 154
57 86 150
60 90 159
58 87 152
59 88 154
59 89 155
58 86 152
58 89 156
58 88 152
57 86 150
60 91 160
58 89 153
60 92 158
60 91 156
59 91 157
60 92 159
59 91 154
62 91 149
84 94 114
102 103 77
92 93 66
87 88 62
98 98 68
93 92 66
100 98 68
103 101 72
100 99 71
104 100 71
95 91 67
112 109 77
101 95 68
122 115 79
122 118 78
118 112 75
130 123 81
132 125 85
141 133 86
140 133 86
141 136 88
141 134 86
140 132 83
145 139 88
146 137 86
157 150 96
150 142 89
158 149 93
159 150 90
160 151 93
168 158 98
164 155 94
167 159 98
163 156 95
168 159 98
171 162 101
171 163 102
170 163 100
169 161 96
170 162 95
171 162 96
170 164 99
175 169 103
173 166 101
173 166 101
171 164 96
173 167 98
174 167 101
172 166 99
171 165 99
171 165 97
168 161 97
170 163 99
171 164 98
167 160 91
165 160 93
168 162 92
161 154 89
161 154 85
160 154 89
161 154 88
159 151 87
155 148 82
153 146 84
151 144 80
146 139 77
143 136 76
131 124 64
144 140 68
147 148 63
153 160 46
156 168 39
163 181 24
168 189 24
172 195 0
171 194 0
174 197 0
173 196 0
172 193 0
174 196 0
175 197 0
173 196 0
173 195 0
172 194 0
174 196 0
172 194 0
172 195 0
174 197 0
173 196 0
172 195 0
174 197 0
174 197 0
173 196 0
173 196 0
173 195 0
173 196 0
173 196 0
173 196 0
174 196 0
172 196 0
172 196 0
173 195 0
174 197 0
175 197 0
173 196 0
173 196 0
173 196 0
174 197 0
172 195 0
174 197 0
174 197 0
174 197 0
174 197 0
173 196 0
173 196 0
173 196 0
174 197 0
172 195 0
173 197 0
173 196 0
174 197 0
174 198 0
173 196 0
175 197 0
173 197 0
173 196 0
174 196 0
175 198 0
175 198 0
173 196 0
174 197 0
174 198 0
174 197 0
176 198 0
174 197 0
173 196 0
173 197 0
174 197 0
174 197 0
173 196 0
174 197 0
174 197 0
174 197 0
174 197 0
174 197 0
174 198 0
174 198 0
175 198 0
175 198 0
173 197 0
174 197 0
174 197 0
175 197 0
174 197 0
174 197 0
173 197 0
174 198 0
173 196 0
174 197 0
175 197 0
173 197 0
174 197 0
175 198 0
174 197 0
174 197 0
175 197 0
175 198 0
173 196 0
173 197 0
173 197 0
173 197 0
174 197 0
173 196 0
175 198 0
174 197 0
176 198 0
173 197 0
173 196 0
174 198 0
174 198 0
173 196 0
174 197 0
174 198 0
174 198 0
174 197 0
174 197 0
173 196 0
174 197 0
174 197 0
175 198 0
174 197 0
172 196 0
174 197 0
172 196 0
175 198 0
173 197 0
174 198 0
174 198 0
174 196 0
174 197 0
174 198 0
172 196 0
173 196 0
174 198 0
173 196 0
175 198 0
174 197 0
174 197 0
175 198 0
173 195 0
172 195 0
173 197 0
174 197 0
173 196 0
174 198 0
173 196 0
174 197 0
173 197 0
173 197 0
173 197 0
173 197 0
174 198 0
174 197 0
174 197 0
174 197 0
174 197 0
172 195 0
173 196 0
174 196 0
172 196 0
173 196 0
173 197 0
173 196 0
174 197 0
174 197 0
174 196 0
173 196 0
175 197 0
173 196 0
174 198 0
173 196 0
174 197 0
172 196 0
173 196 0
173 196 0
175 197 0
174 197 0
173 196 0
172 195 0
174 197 0
174 197 0
174 197 0
174 196 0
172 196 0
175 198 0
172 195 0
174 197 0
174 197 0
174 197 0
173 197 0
173 196 0
173 195 0
172 194 0
171 195 0
172 195 0
173 196 0
172 195 0
173 197 0
172 194 0
172 195 0
171 194 0
173 195 0
174 197 0
171 194 0
172 194 0
173 196 0
172 195 0
171 194 0
171 193 0
174 197 0
173 196 0
172 196 0
173 196 0
173 195 0
173 196 0
170 193 0
173 196 0
170 194 0
173 196 0
173 195 0
174 197 0
172 196 0
171 194 0
171 194 0
172 196 0
171 194 0
172 193 0
172 195 0
172 194 0
172 194 0
172 195 0
172 195 0
169 191 0
172 195 0
170 193 0
170 194 0
170 193 0
170 193 0
171 194 0
169 192 0
173 196 0
173 195 0
171 194 0
171 194 0
170 192 0
171 193 0
170 192 0
172 194 0
170 193 0
171 194 0
170 192 0
171 194 0
170 193 0
172 194 0
172 194 0
169 192 0
172 196 0
154 177 79
81 112 159
61 95 169
61 96 166
60 95 165
62 98 170
60 96 170
61 97 170
60 94 166
61 96 170
60 91 162
61 95 169
60 94 168
59 92 165
60 93 167
58 89 162
58 90 161
57 88 158
59 91 163
60 92 164
59 91 164
58 88 157
59 90 161
58 87 156
58 87 157
59 91 162
58 89 159
57 87 157
56 83 150
57 86 153
58 87 156
57 86 154
58 88 158
56 84 150
56 80 143
57 86 154
57 85 150
57 83 147
56 82 145
55 82 145
56 81 144
57 84 148
57 84 150
57 87 155
58 87 155
57 84 147
58 86 154
56 83 147
57 84 148
59 90 159
58 86 152
57 84 149
58 86 151
58 87 152
59 88 155
57 85 150
58 87 156
58 87 152
59 89 156
58 85 150
58 87 152
59 89 156
58 87 154
58 88 155
60 91 159
59 90 155
58 88 152
60 92 156
59 90 155
59 92 159
59 91 156
60 93 160
59 91 154
75 97 146
83 91 94
87 88 63
80 80 56
86 87 60
99 97 67
98 95 67
91 90 66
95 91 64
100 92 67
107 103 72
109 107 75
108 103 70
112 107 76
117 114 77
113 110 77
129 125 84
127 120 78
128 120 78
134 127 85
142 135 86
140 132 85
145 138 88
144 138 84
151 142 89
155 148 93
150 142 88
159 150 90
158 147 92
160 152 95
162 155 95
164 155 93
166 158 99
170 162 99
169 161 98
167 160 98
168 159 97
171 163 98
167 160 99
175 168 99
172 164 97
173 167 99
170 164 98
170 163 94
170 163 97
171 164 99
170 164 98
172 165 98
171 165 98
169 163 96
167 161 94
170 164 97
167 161 94
166 159 92
166 160 91
163 156 89
163 156 90
159 153 86
157 151 85
160 153 86
157 150 87
153 146 83
153 145 83
146 139 78
148 140 77
149 141 79
144 137 73
144 137 69
149 144 72
147 147 64
152 159 45
153 166 35
162 178 32
167 187 16
173 195 11
173 196 0
172 194 0
172 195 0
173 195 0
173 194 0
174 196 0
173 196 0
173 195 0
171 193 0
175 197 0
172 195 0
171 193 0
174 196 0
174 197 0
173 197 0
173 196 0
172 195 0
173 196 0
173 195 0
171 194 0
174 197 0
173 196 0
173 195 0
173 196 0
173 196 0
172 195 0
173 196 0
173 196 0
173 196 0
173 195 0
172 195 0
173 196 0
173 196 0
173 196 0
173 196 0
173 196 0
173 196 0
174 196 0
174 196 0
172 196 0
173 196 0
175 197 0
172 195 0
173 196 0
174 197 0
174 196 0
174 197 0
174 197 0
174 196 0
173 197 0
173 197 0
174 197 0
173 196 0
174 197 0
174 197 0
174 197 0
174 197 0
174 197 0
174 197 0
175 197 0
173 197 0
175 198 0
174 197 0
173 196 0
174 197 0
173 196 0
174 197 0
174 198 0
173 197 0
175 198 0
173 196 0
174 197 0
174 196 0
173 197 0
171 195 0
173 197 0
173 196 0
173 197 0
174 198 0
173 195 0
174 198 0
174 197 0
175 198 0
174 197 0
175 197 0
174 197 0
174 197 0
175 198 0
174 198 0
173 196 0
175 197 0
174 198 0
174 197 0
174 197 0
174 197 0
174 197 0
175 198 0
173 197 0
174 198 0
174 197 0
173 196 0
175 198 0
174 198 0
173 196 0
174 198 0
173 196 0
174 197 0
174 197 0
174 197 0
172 195 0
175 198 0
173 196 0
173 196 0
174 198 0
173 197 0
175 198 0
174 196 0
174 197 0
173 196 0
173 197 0
174 197 0
174 197 0
174 197 0
173 196 0
174 198 0
172 196 0
173 197 0
173 197 0
174 197 0
174 196 0
174 197 0
174 198 0
173 196 0
173 197 0
174 197 0
174 197 0
173 195 0
172 197 0
173 196 0
174 197 0
173 197 0
173 196 0
174 197 0
172 196 0
173 197 0
174 197 0
173 196 0
174 197 0
174 197 0
174 197 0
172 195 0
174 197 0
173 196 0
173 196 0
174 197 0
172 195 0
173 197 0
172 196 0
174 197 0
175 197 0
173 197 0
173 196 0
173 197 0
173 197 0
173 197 0
173 197 0
174 195 0
173 197 0
174 197 0
173 195 0
171 194 0
173 196 0
173 196 0
173 196 0
172 195 0
172 195 0
173 195 0
172 195 0
171 196 0
174 197 0
172 195 0
172 195 0
174 196 0
174 197 0
173 196 0
173 196 0
175 197 0
173 195 0
173 196 0
172 194 0
172 194 0
171 194 0
173 196 0
173 195 0
173 197 0
172 196 0
173 197 0
172 195 0
174 197 0
173 196 0
172 195 0
171 194 0
171 194 0
173 196 0
173 196 0
173 195 0
173 196 0
172 195 0
171 194 0
173 196 0
173 196 0
171 195 0
173 196 0
172 195 0
172 195 0
172 196 0
173 194 0
172 195 0
172 195 0
172 194 0
172 195 0
171 194 0
172 195 0
171 193 0
171 193 0
168 191 0
172 194 0
171 192 0
173 195 0
172 193 0
171 194 0
171 194 0
172 194 0
171 195 0
171 194 0
170 193 0
172 194 0
173 195 0
170 193 0
172 195 0
170 193 0
168 192 0
171 194 0
169 191 0
171 195 0
170 193 0
169 191 0
171 194 0
171 193 0
169 191 0
171 194 0
164 187 47
111 137 131
63 99 169
62 98 167
61 96 167
61 96 166
61 96 169
62 96 168
61 95 168
61 95 167
60 94 166
59 92 162
60 93 165
60 91 160
60 93 166
60 94 166
59 91 161
59 91 163
59 91 161
60 91 164
60 92 164
59 89 159
59 90 162
58 89 159
59 90 160
58 87 155
57 87 157
58 89 160
59 90 163
57 85 152
57 83 149
59 89 161
56 83 147
56 84 150
57 85 152
58 87 155
58 87 156
56 83 148
56 83 150
56 82 146
57 85 148
56 80 141
57 85 151
57 86 152
58 86 153
59 88 156
58 86 154
58 89 158
55 82 145
59 87 156
59 88 156
60 91 159
59 89 156
59 87 152
57 87 154
57 85 150
58 87 151
59 86 148
58 85 149
57 85 150
58 87 150
58 87 155
59 89 151
58 87 155
59 90 153
60 92 156
60 92 155
59 89 156
59 89 156
60 92 157
59 91 156
58 89 151
59 91 157
59 91 152
59 91 153
72 90 125
79 84 71
89 88 58
84 84 59
90 88 63
86 86 60
91 92 66
88 86 64
104 100 72
106 103 72
112 106 73
109 105 73
115 111 76
113 109 74
126 121 79
124 118 77
130 124 81
132 126 83
125 120 75
132 126 83
142 132 86
147 140 86
149 140 87
145 139 87
152 145 92
149 141 87
158 150 95
159 153 93
158 151 88
159 152 93
157 150 90
164 156 93
167 160 97
164 157 92
168 161 96
170 161 98
171 164 99
168 160 94
170 163 96
171 165 97
173 165 100
175 168 101
175 168 102
168 162 93
171 164 97
167 161 95
171 164 96
171 165 94
171 165 93
171 164 96
168 161 95
168 162 94
170 163 94
167 160 93
165 158 87
162 155 87
163 156 87
159 152 83
165 157 88
159 152 85
158 150 85
155 147 81
146 139 73
150 143 80
146 138 74
136 129 70
142 134 71
143 138 64
148 151 55
156 163 55
156 170 36
165 182 31
169 191 16
172 193 0
173 195 0
173 195 0
171 193 0
172 194 0
173 195 0
173 196 0
173 196 0
170 193 0
173 196 0
172 195 0
173 195 0
173 195 0
172 195 0
172 194 0
173 196 0
175 196 0
174 197 0
173 195 0
175 197 0
172 195 0
173 196 0
173 196 0
172 196 0
174 196 0
173 196 0
175 198 0
173 196 0
174 196 0
173 196 0
173 196 0
174 197 0
171 194 0
174 197 0
173 197 0
172 196 0
173 196 0
174 197 0
174 197 0
173 197 0
174 197 0
174 197 0
174 196 0
173 197 0
173 196 0
174 196 0
174 196 0
174 196 0
173 196 0
174 197 0
173 196 0
173 196 0
174 197 0
175 198 0
174 196 0
173 196 0
174 197 0
173 197 0
173 197 0
174 197 0
174 196 0
172 196 0
173 197 0
174 197 0
173 197 0
173 197 0
173 197 0
174 198 0
173 196 0
172 196 0
174 196 0
174 197 0
174 198 0
173 196 0
174 197 0
173 197 0
174 197 0
174 197 0
174 196 0
174 197 0
174 197 0
173 197 0
173 197 0
174 197 0
173 197 0
173 196 0
174 197 0
173 196 0
174 197 0
175 198 0
174 198 0
174 197 0
174 197 0
173 197 0
173 197 0
175 198 0
175 198 0
174 197 0
176 198 0
174 197 0
174 197 0
174 197 0
174 196 0
173 197 0
173 197 0
173 196 0
174 197 0
174 198 0
173 197 0
174 197 0
174 197 0
175 198 0
174 198 0
175 198 0
173 197 0
174 198 0
174 197 0
174 197 0
174 197 0
174 198 0
173 197 0
173 197 0
173 196 0
174 197 0
173 196 0
174 197 0
175 198 0
173 196 0
175 197 0
175 198 0
175 198 0
174 197 0
175 198 0
174 197 0
173 197 0
173 196 0
174 197 0
174 197 0
173 195 0
174 197 0
174 198 0
174 197 0
174 197 0
174 198 0
174 197 0
171 195 0
173 197 0
173 197 0
173 197 0
173 195 0
173 196 0
173 196 0
172 195 0
174 196 0
173 196 0
174 197 0
172 195 0
173 196 0
174 198 0
174 197 0
174 196 0
172 196 0
173 197 0
174 197 0
174 197 0
173 196 0
174 197 0
173 196 0
172 195 0
173 197 0
174 197 0
174 197 0
173 196 0
173 196 0
173 195 0
172 195 0
173 196 0
174 196 0
173 196 0
173 196 0
172 195 0
170 194 0
174 197 0
171 194 0
171 195 0
174 197 0
173 196 0
174 197 0
172 196 0
172 196 0
173 196 0
174 197 0
173 196 0
173 196 0
172 195 0
172 196 0
174 196 0
173 196 0
171 194 0
173 196 0
173 195 0
174 197 0
173 195 0
171 194 0
172 196 0
173 196 0
172 196 0
171 194 0
173 197 0
172 195 0
173 196 0
173 196 0
172 194 0
173 196 0
173 196 0
173 196 0
174 196 0
173 194 0
170 193 0
170 193 0
173 196 0
173 196 0
171 193 0
172 196 0
170 193 0
172 194 0
173 196 0
171 194 0
172 195 0
172 195 0
171 194 0
172 195 0
171 194 0
171 194 0
171 192 0
171 193 0
169 192 0
170 193 0
172 194 0
173 196 0
169 192 0
172 195 0
168 191 0
172 195 0
169 192 0
171 194 0
172 194 0
171 193 0
169 193 0
171 195 0
169 191 0
171 194 18
143 167 96
74 106 160
62 97 168
61 97 166
61 95 167
62 97 170
60 96 168
61 95 167
61 96 169
61 96 171
61 95 168
59 93 165
60 94 166
59 92 164
60 92 163
61 95 168
59 92 164
60 94 169
60 92 165
59 90 161
58 88 156
58 89 158
59 89 159
57 87 155
59 91 164
58 88 157
57 87 153
59 89 159
57 86 153
58 87 156
57 85 152
57 85 153
58 88 158
58 87 157
55 83 147
57 85 150
57 84 151
57 83 148
57 84 151
57 84 150
58 87 154
55 79 139
57 86 153
58 87 156
58 85 150
58 86 151
57 85 148
55 80 142
57 85 150
57 86 149
57 84 150
59 89 159
58 88 153
57 86 148
59 87 154
59 89 158
59 89 154
59 89 154
59 89 155
59 89 155
59 90 156
58 87 151
59 90 154
59 88 151
59 89 154
60 93 159
59 89 154
60 91 157
60 91 156
60 91 155
59 91 159
59 90 154
59 89 151
59 91 156
59 92 157
62 91 147
75 85 101
85 85 65
81 81 58
78 79 57
79 81 59
82 82 59
90 87 64
93 90 64
98 94 67
89 87 64
105 103 74
100 98 70
110 108 73
121 117 76
124 115 73
124 121 79
134 128 80
130 124 78
124 119 76
136 128 83
143 136 85
133 129 83
149 140 85
153 145 90
151 144 88
157 149 93
157 150 91
161 151 91
163 154 94
161 155 94
166 156 94
166 158 96
166 159 94
169 162 96
167 159 94
168 161 92
168 160 96
171 163 95
172 163 96
172 165 96
172 165 100
173 166 98
170 163 97
171 164 100
167 161 95
171 165 95
170 164 93
171 165 94
169 163 98
170 164 95
166 160 90
168 161 94
164 157 90
163 156 87
166 159 93
154 148 81
158 151 87
155 149 77
156 149 84
157 151 84
152 145 76
149 141 72
143 137 72
144 137 73
143 136 69
146 138 71
143 140 65
150 151 58
149 159 40
160 170 42
164 183 9
168 188 16
173 195 0
172 194 0
170 192 0
173 195 0
173 195 0
174 197 0
173 195 0
172 195 0
172 194 0
173 196 0
172 195 0
171 194 0
173 196 0
173 196 0
173 196 0
173 195 0
172 196 0
173 196 0
174 197 0
172 195 0
172 195 0
173 196 0
173 196 0
173 196 0
174 197 0
174 197 0
174 197 0
174 197 0
173 196 0
173 196 0
173 195 0
174 196 0
173 196 0
173 196 0
173 196 0
173 196 0
174 197 0
174 196 0
173 196 0
173 196 0
174 197 0
173 196 0
173 196 0
172 196 0
174 197 0
175 198 0
174 197 0
174 197 0
174 197 0
173 195 0
173 196 0
173 196 0
174 198 0
173 196 0
172 196 0
175 197 0
175 198 0
174 197 0
173 196 0
173 196 0
174 197 0
174 197 0
173 195 0
173 196 0
173 196 0
174 197 0
173 196 0
173 197 0
173 196 0
174 197 0
174 197 0
174 197 0
175 198 0
175 198 0
174 198 0
175 198 0
174 197 0
172 195 0
174 198 0
174 197 0
174 198 0
173 196 0
173 197 0
175 198 0
173 197 0
174 197 0
174 197 0
173 197 0
173 196 0
174 197 0
173 197 0
174 197 0
175 198 0
174 197 0
174 197 0
174 197 0
174 197 0
173 197 0
174 198 0
173 197 0
175 198 0
174 196 0
172 196 0
174 197 0
175 198 0
173 197 0
174 198 0
175 198 0
174 197 0
174 198 0
173 197 0
174 196 0
174 197 0
173 196 0
174 197 0
174 197 0
174 198 0
173 196 0
173 197 0
173 196 0
174 197 0
174 197 0
174 196 0
175 198 0
174 197 0
174 197 0
173 196 0
175 197 0
175 198 0
173 197 0
175 198 0
174 197 0
172 197 0
173 197 0
174 197 0
175 198 0
174 197 0
174 197 0
173 196 0
173 197 0
174 198 0
174 197 0
174 196 0
174 197 0
173 196 0
173 197 0
172 195 0
173 196 0
173 197 0
173 196 0
174 198 0
173 196 0
173 196 0
174 197 0
173 196 0
174 197 0
174 197 0
172 196 0
173 197 0
172 195 0
173 196 0
173 197 0
174 197 0
172 196 0
172 197 0
174 197 0
172 196 0
175 198 0
173 196 0
174 196 0
174 197 0
173 196 0
174 196 0
173 197 0
173 196 0
174 196 0
172 196 0
172 195 0
173 196 0
174 196 0
173 197 0
172 194 0
169 193 0
173 197 0
170 194 0
172 195 0
173 195 0
172 195 0
174 196 0
173 196 0
171 194 0
171 194 0
173 196 0
173 196 0
173 195 0
172 195 0
174 196 0
172 195 0
173 196 0
173 196 0
173 196 0
173 197 0
172 195 0
173 196 0
172 195 0
173 196 0
173 195 0
171 194 0
172 195 0
171 194 0
172 195 0
172 195 0
172 195 0
171 193 0
173 195 0
172 195 0
172 195 0
170 193 0
171 194 0
172 195 0
172 195 0
170 193 0
171 194 0
173 196 0
173 195 0
170 192 0
171 193 0
172 196 0
172 195 0
171 195 0
171 194 0
172 195 0
171 194 0
172 195 0
169 192 0
173 196 0
170 194 0
171 193 0
173 195 0
172 194 0
171 193 0
171 193 0
172 194 0
172 195 0
172 194 0
169 191 0
171 194 0
172 194 0
170 192 0
169 192 0
171 195 0
159 182 60
108 135 141
62 97 168
61 97 167
62 97 170
62 97 168
61 95 168
60 95 167
61 95 168
61 96 167
61 95 168
61 95 167
60 93 165
61 94 168
61 96 172
61 96 171
60 93 165
59 90 159
58 90 161
59 91 162
60 93 165
59 89 160
58 89 158
59 91 164
58 90 161
59 90 160
57 86 155
58 89 158
59 89 157
59 89 159
58 87 155
56 85 152
58 88 156
57 86 155
58 86 152
58 88 155
57 84 149
58 86 153
57 86 153
57 85 150
58 86 154
58 87 154
57 86 153
56 83 147
59 86 153
58 86 153
56 82 144
58 87 155
58 84 148
58 86 150
59 86 152
58 87 153
56 83 147
60 91 158
58 85 149
58 86 148
59 89 157
58 87 152
59 90 155
60 91 158
60 92 160
58 88 154
60 91 158
58 88 152
60 91 158
60 92 157
58 89 155
60 91 156
61 94 162
59 90 156
60 91 156
60 91 156
60 92 162
60 94 158
59 93 159
60 91 154
60 93 155
62 85 129
83 85 74
74 76 54
90 89 62
74 74 54
82 82 58
82 82 61
87 86 60
94 92 64
93 89 64
100 97 67
105 100 67
116 112 75
120 114 73
127 120 80
126 118 76
126 121 80
135 129 82
136 129 80
143 136 83
141 134 83
140 131 75
149 141 87
152 145 89
147 140 86
160 153 92
158 151 92
161 153 93
161 153 89
161 152 90
168 160 96
169 160 95
165 158 93
169 161 94
169 162 92
169 162 94
169 161 93
170 162 93
173 165 98
169 163 91
174 167 101
175 168 99
168 161 92
167 161 93
170 164 95
170 164 90
167 161 91
171 165 96
171 164 95
171 164 91
168 162 90
168 161 91
167 160 90
162 156 85
162 155 83
163 156 89
158 152 80
159 152 84
155 149 82
158 151 85
152 144 79
155 147 78
146 138 72
146 138 72
147 139 72
141 134 64
143 140 60
142 145 48
151 158 46
158 172 38
166 183 27
170 190 18
172 194 0
172 194 0
171 194 0
169 192 0
172 193 0
170 192 0
173 195 0
172 194 0
171 193 0
171 193 0
172 195 0
172 195 0
172 195 0
174 195 0
171 195 0
174 197 0
173 196 0
173 195 0
172 195 0
173 196 0
172 194 0
174 196 0
173 195 0
175 197 0
172 196 0
173 196 0
173 195 0
173 196 0
175 196 0
173 196 0
174 197 0
174 197 0
173 196 0
173 196 0
174 197 0
172 195 0
173 196 0
174 197 0
173 196 0
175 198 0
173 196 0
174 196 0
174 197 0
173 196 0
173 196 0
173 197 0
173 196 0
175 197 0
173 197 0
173 197 0
173 196 0
173 197 0
174 196 0
174 197 0
173 196 0
174 197 0
173 197 0
174 197 0
173 197 0
175 197 0
174 197 0
172 195 0
173 196 0
174 197 0
173 196 0
173 197 0
175 198 0
174 197 0
173 196 0
173 196 0
175 198 0
173 196 0
174 197 0
175 197 0
174 197 0
174 197 0
173 196 0
173 196 0
174 198 0
174 198 0
173 196 0
174 198 0
174 197 0
175 198 0
174 197 0
174 198 0
173 196 0
173 197 0
173 197 0
175 198 0
174 197 0
173 197 0
174 197 0
174 197 0
174 197 0
175 197 0
173 197 0
174 197 0
173 197 0
173 196 0
175 198 0
175 198 0
173 197 0
174 197 0
174 198 0
175 198 0
174 197 0
174 197 0
174 197 0
175 198 0
174 197 0
173 196 0
173 197 0
173 196 0
175 198 0
174 198 0
172 196 0
175 197 0
174 197 0
173 197 0
174 197 0
174 197 0
174 197 0
174 197 0
174 197 0
175 197 0
174 197 0
174 197 0
173 197 0
173 197 0
175 198 0
174 197 0
174 197 0
175 198 0
173 196 0
174 197 0
174 197 0
174 197 0
174 197 0
173 196 0
172 195 0
173 196 0
174 197 0
175 198 0
172 195 0
173 196 0
174 196 0
172 196 0
174 197 0
173 196 0
172 196 0
174 198 0
172 196 0
173 196 0
173 196 0
173 196 0
174 197 0
173 196 0
173 196 0
173 197 0
174 196 0
174 197 0
174 196 0
174 197 0
174 197 0
172 196 0
173 195 0
173 196 0
174 197 0
172 196 0
174 197 0
172 196 0
173 196 0
173 197 0
174 196 0
172 195 0
173 196 0
173 195 0
172 195 0
171 194 0
173 196 0
173 197 0
173 196 0
173 196 0
173 196 0
171 194 0
173 197 0
172 195 0
173 196 0
175 198 0
173 196 0
171 195 0
172 195 0
172 195 0
173 196 0
173 196 0
172 195 0
171 194 0
172 195 0
172 194 0
172 196 0
172 195 0
173 196 0
175 197 0
172 195 0
174 196 0
171 194 0
171 193 0
172 195 0
172 195 0
171 194 0
174 197 0
173 196 0
172 195 0
172 195 0
171 194 0
171 193 0
172 195 0
172 195 0
173 196 0
171 193 0
170 193 0
173 195 0
172 195 0
171 194 0
170 193 0
171 193 0
171 193 0
169 191 0
170 193 0
171 194 0
171 195 0
172 195 0
171 193 0
169 192 0
170 193 0
169 193 0
169 191 0
171 194 0
171 193 0
168 191 0
169 193 0
171 193 0
169 192 0
169 192 0
169 191 0
169 191 0
168 191 0
172 193 0
169 192 0
169 192 0
140 165 99
67 102 166
61 97 168
61 97 167
62 97 169
61 97 166
61 97 171
61 96 168
61 96 168
61 95 167
61 96 170
60 94 168
60 94 166
61 94 168
60 93 163
60 94 169
59 91 162
60 92 163
59 92 162
60 93 165
59 91 163
60 92 163
59 91 163
57 88 154
58 87 155
58 88 157
58 89 160
58 89 157
58 88 159
57 86 151
56 85 151
58 88 156
58 87 156
57 86 151
58 88 156
57 87 155
56 84 151
57 86 153
57 85 150
58 87 155
56 84 149
58 87 153
57 86 152
57 85 152
58 86 152
59 90 158
58 86 152
57 85 151
59 89 158
59 89 157
58 87 152
59 88 155
58 88 155
58 86 150
58 86 153
59 89 156
59 90 158
59 90 157
59 89 156
59 89 154
59 90 159
59 89 153
59 89 155
59 90 154
60 91 157
59 89 153
60 91 159
60 93 164
59 89 154
61 92 159
60 92 157
60 92 154
60 92 160
60 94 161
60 91 155
60 91 152
60 92 157
62 92 150
69 84 111
65 69 56
73 76 54
66 68 51
69 70 52
85 83 59
84 83 61
90 88 61
99 97 68
99 98 65
107 104 68
106 101 69
120 116 75
126 121 77
121 116 73
131 127 81
129 124 79
135 129 81
140 132 83
142 134 81
142 135 82
146 139 83
148 140 85
154 147 86
155 146 89
152 146 85
158 152 90
160 153 89
161 154 93
164 155 91
163 155 91
164 155 91
168 162 92
166 159 94
170 162 94
169 161 92
166 158 89
172 164 94
170 164 94
173 165 97
173 166 96
171 165 94
171 164 93
168 162 93
171 164 93
167 161 87
167 160 90
167 161 90
168 162 91
166 160 87
170 163 93
163 156 87
163 156 84
161 154 83
160 154 84
161 154 83
156 150 78
153 146 78
153 146 79
147 141 74
149 141 74
146 138 74
139 131 65
143 136 68
142 137 65
138 138 56
145 151 49
149 159 37
161 175 39
163 182 28
172 193 8
171 192 0
171 194 0
173 195 0
171 194 0
173 195 0
173 195 0
171 194 0
172 194 0
171 195 0
174 197 0
173 196 0
172 195 0
172 194 0
172 194 0
172 195 0
172 194 0
172 195 0
175 198 0
172 194 0
172 196 0
173 195 0
173 196 0
173 196 0
174 198 0
172 195 0
174 196 0
174 197 0
172 195 0
172 196 0
171 193 0
174 197 0
172 195 0
172 195 0
174 197 0
174 197 0
172 195 0
173 196 0
173 197 0
174 197 0
173 196 0
172 194 0
173 196 0
175 198 0
173 196 0
173 196 0
174 197 0
174 197 0
174 197 0
173 196 0
173 196 0
173 196 0
173 196 0
172 196 0
173 196 0
174 197 0
173 197 0
173 197 0
173 196 0
174 197 0
173 197 0
174 197 0
172 195 0
174 197 0
174 197 0
173 197 0
175 197 0
173 196 0
174 198 0
174 197 0
173 197 0
172 196 0
174 197 0
175 197 0
174 197 0
174 197 0
173 196 0
173 195 0
174 197 0
174 197 0
174 197 0
175 198 0
174 198 0
173 197 0
174 198 0
174 197 0
174 197 0
174 197 0
175 198 0
175 198 0
174 198 0
174 196 0
174 197 0
174 197 0
174 197 0
174 198 0
174 198 0
173 196 0
173 197 0
173 196 0
174 198 0
174 197 0
175 198 0
174 197 0
174 197 0
172 195 0
174 197 0
174 197 0
174 197 0
172 196 0
174 197 0
175 198 0
173 195 0
172 196 0
175 198 0
174 197 0
175 197 0
174 198 0
174 197 0
175 198 0
173 197 0
174 197 0
174 198 0
173 197 0
173 197 0
171 195 0
174 197 0
174 197 0
173 197 0
173 196 0
173 196 0
172 196 0
173 196 0
174 197 0
174 197 0
174 198 0
174 197 0
174 197 0
173 197 0
174 197 0
173 197 0
174 197 0
174 197 0
174 197 0
173 196 0
173 196 0
174 197 0
174 197 0
174 197 0
174 198 0
173 197 0
173 196 0
174 197 0
174 197 0
175 198 0
173 196 0
173 196 0
172 196 0
173 196 0
173 197 0
172 195 0
172 195 0
173 195 0
173 197 0
173 197 0
173 197 0
174 197 0
174 197 0
175 198 0
171 194 0
174 196 0
173 196 0
174 197 0
173 196 0
171 194 0
174 197 0
173 196 0
172 196 0
172 194 0
171 194 0
173 195 0
172 195 0
172 194 0
172 195 0
170 192 0
174 196 0
172 195 0
172 194 0
173 196 0
172 194 0
172 196 0
171 195 0
174 197 0
174 197 0
173 196 0
173 196 0
170 193 0
172 196 0
173 196 0
172 195 0
173 196 0
170 194 0
174 197 0
173 196 0
172 195 0
172 196 0
173 196 0
173 195 0
171 194 0
169 192 0
172 195 0
172 194 0
173 197 0
172 194 0
173 195 0
172 195 0
171 194 0
171 193 0
172 195 0
171 194 0
172 195 0
171 195 0
168 192 0
171 194 0
172 195 0
170 194 0
172 195 0
171 194 0
172 195 0
172 195 0
172 195 0
170 194 0
170 193 0
169 192 0
170 193 0
172 195 0
170 193 0
170 192 0
171 193 0
171 194 0
171 193 0
172 194 0
172 194 0
170 193 0
169 192 0
171 193 0
170 193 0
171 193 0
168 189 0
168 191 0
172 195 0
158 180 60
92 122 149
61 95 164
61 96 164
61 96 163
61 96 167
60 94 164
62 97 170
61 95 168
61 96 164
62 96 169
60 95 167
60 93 166
61 95 168
61 94 167
60 93 163
61 93 164
61 94 167
60 92 165
60 92 165
60 94 168
59 92 161
59 90 160
60 92 162
59 91 163
58 88 157
58 89 156
59 89 159
58 88 157
58 89 159
57 86 152
59 90 160
58 87 155
59 88 158
59 90 160
59 89 158
57 87 155
56 84 151
57 86 153
55 83 147
58 86 154
56 84 145
58 88 156
59 90 160
58 86 152
58 88 154
59 90 154
57 85 151
58 88 155
59 88 155
59 91 160
59 87 152
58 88 152
58 87 149
59 89 155
58 86 152
59 89 154
59 91 156
59 90 156
59 90 157
58 88 156
59 90 157
59 89 155
60 92 157
60 92 159
60 92 157
59 91 157
59 90 154
59 91 158
60 92 158
61 94 162
59 91 154
60 92 157
59 91 153
61 93 159
60 94 158
60 92 155
59 91 151
59 92 150
55 81 132
71 76 72
70 72 53
69 71 52
67 68 51
71 74 53
82 80 57
93 92 63
85 82 58
93 92 63
101 99 68
112 109 69
108 108 72
112 110 71
119 117 74
125 122 77
128 123 74
133 128 79
129 121 78
138 133 81
146 140 85
140 132 80
144 138 82
151 145 81
155 147 87
159 153 91
158 151 86
156 151 86
162 154 90
164 155 86
166 159 92
162 155 88
166 159 93
167 160 89
168 162 93
171 163 91
168 161 96
171 164 94
170 164 89
167 161 94
173 166 99
171 164 94
172 165 95
170 163 91
171 163 91
168 161 90
170 163 92
166 159 87
162 155 83
164 157 88
166 159 87
159 152 84
163 156 85
160 154 81
159 152 82
158 151 79
152 146 74
150 144 74
151 145 71
146 139 70
143 137 71
140 133 64
145 137 71
145 138 70
136 129 61
146 145 59
146 153 43
152 161 39
164 179 42
163 182 21
170 192 4
173 197 0
172 193 0
173 196 0
173 194 0
172 194 0
171 193 0
172 193 0
172 195 0
173 195 0
173 196 0
171 195 0
172 195 0
174 197 0
170 193 0
170 193 0
173 196 0
172 194 0
172 194 0
172 195 0
173 196 0
174 196 0
173 195 0
174 197 0
174 196 0
174 197 0
172 195 0
173 196 0
174 196 0
172 194 0
172 195 0
174 197 0
174 197 0
173 196 0
174 197 0
174 198 0
174 197 0
174 197 0
171 194 0
172 195 0
173 196 0
173 196 0
173 196 0
173 196 0
172 196 0
175 197 0
174 197 0
173 197 0
173 195 0
173 196 0
172 196 0
174 197 0
173 196 0
173 197 0
173 197 0
174 197 0
173 195 0
174 197 0
174 196 0
174 197 0
174 196 0
173 197 0
174 198 0
173 197 0
173 195 0
174 197 0
174 197 0
173 196 0
174 197 0
173 196 0
174 197 0
174 197 0
175 196 0
174 197 0
173 197 0
173 197 0
174 197 0
175 197 0
173 196 0
174 197 0
174 198 0
173 197 0
175 198 0
174 197 0
174 197 0
174 197 0
173 197 0
176 198 0
173 197 0
173 197 0
173 196 0
175 198 0
174 197 0
174 197 0
173 197 0
175 197 0
174 197 0
172 196 0
175 198 0
174 198 0
173 197 0
174 196 0
175 197 0
174 198 0
173 197 0
174 198 0
174 197 0
174 197 0
174 197 0
173 197 0
173 197 0
176 198 0
174 198 0
174 197 0
173 197 0
175 198 0
174 197 0
174 197 0
174 197 0
174 198 0
175 197 0
174 197 0
174 197 0
175 198 0
173 196 0
173 197 0
172 196 0
174 197 0
172 196 0
174 197 0
175 198 0
173 196 0
174 198 0
174 197 0
175 198 0
173 196 0
174 196 0
173 196 0
174 196 0
174 197 0
175 198 0
174 197 0
174 197 0
175 197 0
175 198 0
173 196 0
173 197 0
175 198 0
174 197 0
172 195 0
175 198 0
173 196 0
174 197 0
174 197 0
173 196 0
176 198 0
173 196 0
173 196 0
174 197 0
173 196 0
174 196 0
174 196 0
172 195 0
173 196 0
172 195 0
172 195 0
173 196 0
172 195 0
174 197 0
172 195 0
174 197 0
174 197 0
172 196 0
174 197 0
174 197 0
173 196 0
174 196 0
173 195 0
172 196 0
174 197 0
174 197 0
172 195 0
172 195 0
173 195 0
173 196 0
172 195 0
172 196 0
172 195 0
172 195 0
172 196 0
173 196 0
174 196 0
173 196 0
171 195 0
172 195 0
172 194 0
173 196 0
172 196 0
173 195 0
172 195 0
174 198 0
174 197 0
173 196 0
173 196 0
173 196 0
169 191 0
171 194 0
172 195 0
171 193 0
171 193 0
171 195 0
174 197 0
173 195 0
171 194 0
171 194 0
172 195 0
171 195 0
172 195 0
171 194 0
173 195 0
170 191 0
170 192 0
170 193 0
171 194 0
172 195 0
172 195 0
170 194 0
169 193 0
169 191 0
170 192 0
171 193 0
169 191 0
170 193 0
170 193 0
171 194 0
169 192 0
171 194 0
170 193 0
171 195 0
170 192 0
170 193 0
169 193 0
172 195 0
171 193 0
171 194 0
170 192 0
171 194 0
167 190 0
170 194 0
170 193 0
168 191 0
144 168 97
70 103 162
62 98 169
62 98 167
61 95 166
61 96 166
62 97 164
62 98 170
61 96 170
61 96 169
61 96 168
60 95 167
61 96 171
61 95 167
61 95 168
61 96 168
60 94 165
60 95 171
60 93 165
61 95 169
60 92 163
59 92 164
60 94 169
60 92 165
58 90 158
57 88 158
58 91 163
59 90 160
58 89 158
59 89 157
57 88 156
57 85 153
57 86 154
58 88 157
58 88 157
57 86 154
57 86 153
58 87 152
56 84 147
58 88 155
59 88 156
57 85 151
58 87 154
57 85 151
57 88 153
58 88 155
58 85 150
58 87 154
59 89 157
59 89 155
59 89 157
59 89 156
59 89 156
59 90 154
59 90 155
58 88 153
60 90 157
60 91 160
59 89 155
60 92 160
58 88 153
59 90 152
59 91 156
59 90 156
59 90 156
60 92 159
60 92 155
60 91 157
60 92 158
61 93 160
60 93 156
59 91 155
59 91 157
62 96 162
59 91 154
60 93 157
60 93 155
60 94 158
59 92 154
63 91 143
59 73 100
51 56 48
64 66 48
73 74 52
69 70 53
82 82 56
84 84 59
90 89 64
96 94 63
90 88 58
100 96 65
109 106 69
106 103 65
116 114 71
132 127 79
130 126 75
137 130 79
140 135 79
142 135 79
141 135 82
143 135 82
144 138 82
155 148 87
155 149 85
150 145 83
155 149 84
159 153 88
161 154 88
167 158 90
164 158 91
166 158 91
168 161 91
169 163 95
168 161 89
166 160 88
171 164 90
170 162 88
171 164 91
168 161 89
170 163 92
168 162 92
173 165 93
166 160 89
171 164 91
166 160 87
168 161 90
163 157 85
163 158 86
165 159 83
157 151 74
163 157 85
158 152 82
158 151 82
157 150 82
159 152 85
148 141 71
157 150 77
147 139 73
152 144 75
144 137 63
150 142 77
144 136 64
138 130 68
141 136 62
145 145 53
149 156 43
155 166 37
161 179 25
166 186 19
170 192 11
170 192 0
172 194 0
173 195 0
171 193 0
173 195 0
170 192 0
172 194 0
173 196 0
172 195 0
171 192 0
172 194 0
174 196 0
171 193 0
170 192 0
171 194 0
173 196 0
173 197 0
174 197 0
171 194 0
172 195 0
173 196 0
172 194 0
172 194 0
173 195 0
173 196 0
172 195 0
173 196 0
174 196 0
173 196 0
173 194 0
173 196 0
173 196 0
172 195 0
173 196 0
173 196 0
174 197 0
174 196 0
174 197 0
173 197 0
174 196 0
174 196 0
174 196 0
173 196 0
173 196 0
175 197 0
173 195 0
173 196 0
173 196 0
172 195 0
173 196 0
173 197 0
173 196 0
175 198 0
174 197 0
173 196 0
175 198 0
173 197 0
174 197 0
173 197 0
173 196 0
173 196 0
174 197 0
174 197 0
173 197 0
175 198 0
174 197 0
174 197 0
174 197 0
175 197 0
174 196 0
174 197 0
173 196 0
173 196 0
174 197 0
174 197 0
174 197 0
174 196 0
174 198 0
174 196 0
174 197 0
175 198 0
174 197 0
174 197 0
175 198 0
174 196 0
172 196 0
173 196 0
173 197 0
174 197 0
174 197 0
173 196 0
175 198 0
174 197 0
174 197 0
175 198 0
175 198 0
174 197 0
175 198 0
175 198 0
172 196 0
174 197 0
172 196 0
174 197 0
175 198 0
174 198 0
174 197 0
174 197 0
174 197 0
173 197 0
174 197 0
173 196 0
173 196 0
173 197 0
174 197 0
173 197 0
172 196 0
174 197 0
174 198 0
173 197 0
175 198 0
173 197 0
174 197 0
172 196 0
174 198 0
174 197 0
174 197 0
174 198 0
173 197 0
172 196 0
174 197 0
174 198 0
174 198 0
172 196 0
174 197 0
174 197 0
175 198 0
174 197 0
174 197 0
174 197 0
175 198 0
175 197 0
173 196 0
175 198 0
173 196 0
174 197 0
173 197 0
175 198 0
174 197 0
171 195 0
174 197 0
173 196 0
173 196 0
173 197 0
173 196 0
173 196 0
173 196 0
173 197 0
173 197 0
173 196 0
174 197 0
174 197 0
174 197 0
173 196 0
175 197 0
172 195 0
174 197 0
173 196 0
172 195 0
172 195 0
172 195 0
174 197 0
174 196 0
173 196 0
174 196 0
173 196 0
173 196 0
172 195 0
174 197 0
174 197 0
172 195 0
172 195 0
173 196 0
173 195 0
173 196 0
173 196 0
172 195 0
173 195 0
173 195 0
173 196 0
172 195 0
172 196 0
173 195 0
171 194 0
173 197 0
174 197 0
172 195 0
173 196 0
174 197 0
173 196 0
172 195 0
170 193 0
170 192 0
171 193 0
172 195 0
171 195 0
171 194 0
172 195 0
171 194 0
172 196 0
172 196 0
171 194 0
171 194 0
172 195 0
170 194 0
171 195 0
171 194 0
170 192 0
172 194 0
172 196 0
171 194 0
173 195 0
171 194 0
172 194 0
172 195 0
171 194 0
172 194 0
170 193 0
173 196 0
171 194 0
170 191 0
170 192 0
168 192 0
171 194 0
171 193 0
172 194 0
170 193 0
169 191 0
168 191 0
170 193 0
170 193 0
169 190 0
169 192 0
168 192 0
167 190 0
169 192 0
169 192 0
168 190 0
168 191 0
167 190 0
167 190 33
109 134 135
61 96 159
61 95 160
62 97 165
61 97 165
62 98 168
61 96 168
62 96 170
60 95 166
61 96 165
61 95 171
61 96 168
61 95 167
61 96 170
60 94 164
61 93 166
60 94 167
60 94 168
60 94 167
59 90 158
60 92 164
59 91 161
59 92 164
59 91 162
60 94 167
59 90 159
58 89 157
59 91 161
59 91 161
57 87 155
59 90 159
58 89 159
58 90 159
59 90 161
58 87 155
58 89 159
58 88 159
59 90 159
58 88 154
58 88 153
58 88 157
57 85 151
59 91 160
59 89 157
58 88 153
57 86 149
59 89 151
59 90 157
57 85 149
59 90 156
59 90 161
59 90 156
60 92 158
60 92 162
59 90 157
59 89 156
59 88 156
59 89 155
58 87 152
58 88 154
58 90 155
60 92 160
58 88 152
58 87 147
59 90 154
59 90 155
60 92 158
60 93 159
60 93 156
61 95 162
60 93 161
59 91 156
60 93 162
60 93 157
60 93 158
59 92 155
61 94 152
60 93 157
59 92 151
58 90 149
55 79 122
52 62 68
56 60 46
68 69 46
67 67 48
71 72 51
80 81 55
84 83 58
91 91 57
93 92 59
106 103 63
104 100 61
121 116 69
120 117 72
121 116 69
119 116 70
123 119 75
133 127 76
140 134 82
149 141 81
146 140 80
145 140 78
150 143 83
150 144 79
152 146 83
155 150 85
158 151 83
161 154 89
163 156 89
167 158 90
161 154 87
168 161 89
166 158 86
169 161 91
166 160 89
169 162 92
168 161 88
169 162 90
170 163 91
170 162 89
170 163 92
171 164 89
167 161 86
165 159 86
169 163 90
164 157 89
165 158 88
162 155 80
162 155 83
163 155 85
161 154 83
160 153 81
160 153 81
160 153 83
155 149 78
153 146 73
158 151 80
145 138 69
149 141 73
146 139 72
141 133 62
149 142 67
138 132 64
146 142 62
144 145 53
148 157 44
160 170 43
155 172 22
163 182 14
168 190 0
171 192 0
171 193 0
172 194 0
171 192 0
173 194 0
172 195 0
173 195 0
173 196 0
173 196 0
171 194 0
172 195 0
171 195 0
171 193 0
172 196 0
173 196 0
172 195 0
172 195 0
174 196 0
173 194 0
172 195 0
173 195 0
173 195 0
172 195 0
171 193 0
172 194 0
173 195 0
171 194 0
172 195 0
173 195 0
174 196 0
174 197 0
174 196 0
173 196 0
173 196 0
173 195 0
173 196 0
173 195 0
174 196 0
173 196 0
172 196 0
173 196 0
175 197 0
172 195 0
172 194 0
172 195 0
175 197 0
172 195 0
174 196 0
174 196 0
173 195 0
174 196 0
174 197 0
174 197 0
173 196 0
174 196 0
174 197 0
174 197 0
174 196 0
172 195 0
173 196 0
173 196 0
174 197 0
172 195 0
172 196 0
174 197 0
172 196 0
174 197 0
172 196 0
174 197 0
174 197 0
174 197 0
174 197 0
173 196 0
173 196 0
175 198 0
175 198 0
173 197 0
175 198 0
174 197 0
174 197 0
175 198 0
173 197 0
174 197 0
175 198 0
173 197 0
174 198 0
173 197 0
174 197 0
174 197 0
175 198 0
173 197 0
175 198 0
174 197 0
174 197 0
174 197 0
175 198 0
174 197 0
174 197 0
174 197 0
175 198 0
174 197 0
173 196 0
175 197 0
174 197 0
175 198 0
175 197 0
174 197 0
174 198 0
174 197 0
174 197 0
173 197 0
173 197 0
174 197 0
173 197 0
174 197 0
175 198 0
174 197 0
174 197 0
174 197 0
173 196 0
173 197 0
174 197 0
173 197 0
174 197 0
173 196 0
174 197 0
174 197 0
174 197 0
174 197 0
173 196 0
174 198 0
173 196 0
173 196 0
174 196 0
174 198 0
172 196 0
174 197 0
172 196 0
174 197 0
174 197 0
173 196 0
173 197 0
172 195 0
173 196 0
173 197 0
172 195 0
175 198 0
172 195 0
174 197 0
174 197 0
174 197 0
173 196 0
173 196 0
173 196 0
174 197 0
174 197 0
173 196 0
173 197 0
173 195 0
175 197 0
173 197 0
170 194 0
174 197 0
172 196 0
174 197 0
172 195 0
175 198 0
174 197 0
172 196 0
173 196 0
173 196 0
173 196 0
172 194 0
172 196 0
174 197 0
173 195 0
171 194 0
173 196 0
174 197 0
173 196 0
173 196 0
173 196 0
174 197 0
174 197 0
170 193 0
172 195 0
173 196 0
173 196 0
171 194 0
173 196 0
172 195 0
173 196 0
174 197 0
170 193 0
171 194 0
173 195 0
172 194 0
172 195 0
171 194 0
175 197 0
173 196 0
171 194 0
170 193 0
172 194 0
172 196 0
169 192 0
174 197 0
172 194 0
172 196 0
170 194 0
171 193 0
171 195 0
174 196 0
170 193 0
173 196 0
170 192 0
171 194 0
172 194 0
170 194 0
172 194 0
169 193 0
172 194 0
172 194 0
171 193 0
168 191 0
171 194 0
171 193 0
171 193 0
169 191 0
171 193 0
170 192 0
171 193 0
168 191 0
170 192 0
169 192 0
171 194 0
172 195 0
165 189 0
167 189 0
171 193 0
172 194 0
171 194 0
169 192 0
171 193 0
169 191 0
170 193 0
170 193 0
172 194 0
170 194 12
148 171 77
76 108 160
61 97 163
62 97 167
61 96 166
61 96 165
60 95 163
60 96 167
61 96 171
61 96 170
60 94 167
61 95 170
61 95 169
61 96 173
62 97 171
60 94 165
61 95 165
60 95 167
60 94 167
60 94 169
59 92 163
61 93 161
60 92 162
60 93 166
58 91 162
60 92 161
59 91 160
58 89 156
59 90 156
60 92 163
58 88 155
59 91 161
57 88 155
60 92 165
58 88 158
59 91 161
57 87 153
58 88 154
58 89 158
60 92 162
58 88 155
58 88 153
59 90 161
58 89 158
59 91 159
59 88 155
59 90 155
59 90 155
60 90 157
58 89 154
59 90 157
58 87 154
58 88 152
60 90 154
59 90 157
59 90 155
60 90 158
60 90 153
60 92 158
58 88 149
59 89 154
58 89 150
60 92 160
59 89 153
60 91 158
59 90 157
60 93 160
59 91 156
60 93 160
59 92 157
60 92 160
61 93 161
60 91 153
61 94 161
60 92 158
61 94 158
60 92 156
60 93 159
61 95 161
59 93 158
59 92 154
55 84 128
50 65 85
54 59 44
58 62 43
57 63 47
69 71 49
72 74 51
85 85 58
84 85 56
92 93 60
101 99 60
114 108 68
110 109 67
114 112 69
131 127 76
129 124 74
131 126 77
136 131 79
140 136 79
135 129 74
142 135 75
143 136 80
152 146 81
150 144 79
156 150 86
150 143 77
152 146 80
159 153 84
166 159 88
163 156 88
162 157 87
165 157 85
168 159 90
167 159 86
163 156 85
170 162 88
166 160 87
168 160 89
168 162 86
168 161 87
168 161 88
170 162 90
168 161 88
164 157 83
165 159 86
166 159 84
164 158 82
166 159 85
163 156 85
164 156 81
155 149 76
159 151 83
159 152 78
155 147 74
152 145 78
158 151 77
147 141 72
144 137 69
146 140 71
141 134 67
147 139 70
142 135 69
139 133 62
145 142 58
147 150 50
149 158 43
147 160 31
162 177 28
168 189 14
171 192 8
172 193 0
172 194 0
174 196 0
171 191 0
172 193 0
170 192 0
170 193 0
170 191 0
171 193 0
173 195 0
172 195 0
172 194 0
171 193 0
169 192 0
173 197 0
172 194 0
171 194 0
172 195 0
173 196 0
171 193 0
174 196 0
174 195 0
174 196 0
173 195 0
172 194 0
171 194 0
174 196 0
172 195 0
173 196 0
171 195 0
173 195 0
173 196 0
172 195 0
173 195 0
172 195 0
173 195 0
174 196 0
173 196 0
173 196 0
174 196 0
173 196 0
174 196 0
173 195 0
174 197 0
174 197 0
173 196 0
173 197 0
173 196 0
173 196 0
173 196 0
173 196 0
172 196 0
174 197 0
174 197 0
174 196 0
174 197 0
172 196 0
174 198 0
173 196 0
174 197 0
172 196 0
174 197 0
173 195 0
175 197 0
172 196 0
174 197 0
174 196 0
174 197 0
174 197 0
175 197 0
173 197 0
173 197 0
174 196 0
175 198 0
174 197 0
174 197 0
174 197 0
174 197 0
174 198 0
173 196 0
175 198 0
173 197 0
173 196 0
174 197 0
173 196 0
173 196 0
175 197 0
174 198 0
175 197 0
173 197 0
174 197 0
174 198 0
174 197 0
173 196 0
173 196 0
174 197 0
174 197 0
174 197 0
174 197 0
174 198 0
173 197 0
173 197 0
173 197 0
173 197 0
175 198 0
175 198 0
174 197 0
174 197 0
174 197 0
172 196 0
173 196 0
174 197 0
173 197 0
172 196 0
174 197 0
174 197 0
173 197 0
175 198 0
174 197 0
174 198 0
173 197 0
174 197 0
174 197 0
173 196 0
174 197 0
174 196 0
172 195 0
175 198 0
173 197 0
173 196 0
173 196 0
173 196 0
174 197 0
173 197 0
174 198 0
173 197 0
174 197 0
174 198 0
173 197 0
174 197 0
173 196 0
173 196 0
174 197 0
172 195 0
173 197 0
173 197 0
173 196 0
174 197 0
173 196 0
174 197 0
172 195 0
173 197 0
175 197 0
174 196 0
172 195 0
172 195 0
174 197 0
174 197 0
175 197 0
173 197 0
173 196 0
174 197 0
174 197 0
172 196 0
173 196 0
174 197 0
174 196 0
172 195 0
170 194 0
174 196 0
173 196 0
173 196 0
173 196 0
173 196 0
174 195 0
172 196 0
174 196 0
173 196 0
172 196 0
172 195 0
172 196 0
173 195 0
172 195 0
172 196 0
171 195 0
173 196 0
174 196 0
172 195 0
171 194 0
173 195 0
173 196 0
174 197 0
173 196 0
173 196 0
173 196 0
173 196 0
173 196 0
172 194 0
173 196 0
171 194 0
171 194 0
172 194 0
172 194 0
170 192 0
169 192 0
171 194 0
173 196 0
171 194 0
173 196 0
173 196 0
172 195 0
172 195 0
170 192 0
173 196 0
173 196 0
171 195 0
170 193 0
171 193 0
172 194 0
171 195 0
172 195 0
169 191 0
171 194 0
168 190 0
171 193 0
171 194 0
168 192 0
171 193 0
171 193 0
172 196 0
169 192 0
169 193 0
171 194 0
170 194 0
169 191 0
173 196 0
170 193 0
171 194 0
172 195 0
170 192 0
169 191 0
170 193 0
167 190 0
168 191 0
172 194 0
168 191 0
169 192 0
169 191 0
166 189 33
124 150 116
63 99 166
61 96 161
61 97 169
62 98 168
62 97 166
61 96 164
61 97 166
61 96 166
61 96 166
61 96 168
62 96 169
61 96 168
61 95 166
61 96 170
61 96 168
62 96 170
61 94 166
61 95 167
61 94 166
60 94 166
58 91 160
59 91 162
59 91 164
60 93 164
60 93 165
59 92 163
59 90 158
60 93 167
58 90 159
57 86 150
58 89 156
58 88 153
58 89 156
58 88 157
59 89 157
58 88 155
57 86 152
59 91 160
58 88 156
60 91 162
58 89 157
59 88 156
56 85 148
58 88 152
57 87 153
59 90 156
59 90 154
59 89 156
59 90 159
60 92 158
58 88 153
59 90 155
58 90 155
59 90 154
59 90 155
60 90 156
60 92 158
59 90 154
60 90 158
60 91 158
61 93 162
60 91 161
60 93 162
60 92 156
59 90 150
60 92 157
60 93 161
60 92 159
59 91 152
59 91 157
60 93 156
60 93 159
61 94 162
59 90 151
60 92 156
59 92 155
60 93 157
59 93 155
61 94 158
59 92 149
58 90 144
59 78 112
49 56 54
56 60 44
68 70 47
62 66 44
78 78 51
80 81 53
91 89 57
89 87 53
96 93 56
106 104 63
109 106 61
121 115 68
119 115 67
128 124 69
127 124 77
131 124 74
130 125 75
136 131 75
143 133 79
144 138 77
138 133 74
146 139 78
155 148 83
152 146 80
147 141 80
157 150 83
160 154 86
159 153 82
164 157 84
163 157 83
163 157 86
166 159 85
173 166 94
165 160 85
170 163 90
169 162 89
163 157 84
172 164 89
167 160 86
166 160 84
166 160 84
164 158 82
167 160 86
161 154 80
165 158 82
157 152 75
161 155 76
159 153 77
160 154 78
159 150 77
158 150 76
156 148 77
157 150 80
149 142 69
151 142 71
150 143 75
152 145 71
147 140 68
141 134 67
141 135 63
138 133 60
144 142 56
149 151 48
145 153 32
153 168 31
161 179 24
169 190 11
169 191 0
173 194 0
171 193 0
172 194 0
171 192 0
171 194 0
171 194 0
173 195 0
171 194 0
170 191 0
173 194 0
172 194 0
172 193 0
171 193 0
170 192 0
173 195 0
172 192 0
172 195 0
172 195 0
172 194 0
171 195 0
172 195 0
173 196 0
171 192 0
172 194 0
172 195 0
173 196 0
173 196 0
173 196 0
172 195 0
173 195 0
174 196 0
173 196 0
172 195 0
173 196 0
173 195 0
175 197 0
173 196 0
174 197 0
172 196 0
173 196 0
174 197 0
173 196 0
173 196 0
173 197 0
173 195 0
173 196 0
173 195 0
173 196 0
173 196 0
173 195 0
173 196 0
173 195 0
173 196 0
173 196 0
173 196 0
173 197 0
173 197 0
174 197 0
174 197 0
171 194 0
172 195 0
173 197 0
173 197 0
174 197 0
174 197 0
173 196 0
175 198 0
173 196 0
173 197 0
175 198 0
173 197 0
175 198 0
174 197 0
173 196 0
172 196 0
174 197 0
174 197 0
173 196 0
173 197 0
173 196 0
174 197 0
172 196 0
174 197 0
174 197 0
175 198 0
173 197 0
174 197 0
174 197 0
172 196 0
173 197 0
174 197 0
174 197 0
174 197 0
174 197 0
174 197 0
175 198 0
174 197 0
173 197 0
173 196 0
175 198 0
175 197 0
173 197 0
173 197 0
175 198 0
174 197 0
175 198 0
173 196 0
174 197 0
174 196 0
173 197 0
174 196 0
174 197 0
173 196 0
172 195 0
173 196 0
174 197 0
174 197 0
173 196 0
173 197 0
173 197 0
174 197 0
174 197 0
174 198 0
173 197 0
173 197 0
174 197 0
173 197 0
173 197 0
174 197 0
175 198 0
173 197 0
174 197 0
172 195 0
174 197 0
174 197 0
173 195 0
174 196 0
173 196 0
174 197 0
173 196 0
174 197 0
174 197 0
172 196 0
174 197 0
171 195 0
173 196 0
174 197 0
174 197 0
173 196 0
171 195 0
171 194 0
173 196 0
173 196 0
174 197 0
172 195 0
172 196 0
173 195 0
172 195 0
172 195 0
173 197 0
173 197 0
174 197 0
174 197 0
172 195 0
173 197 0
173 196 0
173 196 0
173 197 0
174 197 0
173 196 0
173 196 0
174 197 0
174 197 0
173 196 0
172 195 0
173 196 0
173 196 0
174 197 0
172 194 0
172 195 0
172 196 0
172 195 0
171 193 0
172 196 0
172 195 0
173 196 0
173 195 0
172 195 0
171 194 0
171 193 0
172 195 0
172 196 0
171 195 0
173 196 0
174 197 0
171 194 0
170 193 0
173 196 0
172 194 0
172 195 0
171 194 0
171 193 0
171 194 0
172 195 0
171 194 0
174 197 0
172 194 0
171 194 0
171 194 0
172 195 0
170 193 0
171 194 0
171 194 0
172 196 0
170 193 0
171 193 0
171 194 0
170 193 0
172 195 0
170 193 0
170 192 0
171 193 0
170 193 0
169 191 0
170 193 0
169 191 0
170 194 0
169 192 0
170 193 0
171 194 0
171 193 0
171 193 0
171 194 0
170 192 0
172 194 0
172 194 0
169 191 0
171 193 0
170 192 0
173 196 0
168 190 0
170 192 0
168 190 0
171 193 0
170 192 0
171 193 0
167 189 0
169 191 0
161 183 61
96 124 145
62 98 167
61 97 167
61 97 164
61 97 167
61 95 165
61 96 166
62 97 166
61 96 166
61 96 167
61 95 168
62 97 170
61 96 167
60 94 165
61 95 164
61 94 166
60 93 161
62 97 170
60 93 164
60 92 162
60 93 164
60 92 164
59 90 157
59 93 161
59 91 163
59 91 160
59 91 160
60 91 161
59 91 160
58 88 155
58 90 157
60 92 164
56 85 151
60 92 164
59 90 160
59 91 161
58 89 157
60 91 160
60 92 162
59 90 159
59 90 155
59 90 156
60 93 163
58 88 153
60 91 156
58 87 153
59 91 162
59 90 159
60 92 160
59 90 156
60 91 159
60 93 160
58 89 152
59 90 156
59 90 157
59 89 155
59 91 158
59 90 159
59 90 155
60 91 156
60 91 158
61 94 160
61 93 159
59 91 158
60 92 158
60 91 155
60 93 159
61 94 161
62 96 164
60 92 158
60 92 157
61 93 157
60 94 159
61 94 159
61 94 159
60 94 162
60 93 154
60 94 154
61 95 156
60 94 155
59 93 157
59 92 155
59 85 127
57 66 72
51 57 35
57 60 40
60 65 44
78 80 49
70 73 44
88 88 57
83 83 53
103 103 63
105 103 60
103 102 63
110 109 58
115 112 66
122 117 65
129 125 69
131 127 71
142 136 75
131 127 71
141 136 72
139 134 77
150 145 79
152 146 82
155 148 82
155 148 79
154 149 79
158 151 83
153 148 78
165 158 84
166 158 86
159 152 81
163 157 83
163 157 85
163 156 79
165 158 83
165 158 84
168 161 90
169 162 85
167 160 86
167 160 80
162 155 82
162 156 77
170 163 87
168 160 87
162 157 82
163 156 84
164 156 80
164 157 81
158 153 75
163 155 83
160 152 82
154 147 70
155 147 75
155 149 76
151 144 70
148 139 67
154 147 71
150 143 70
145 136 67
139 132 63
143 136 62
135 132 55
141 145 44
149 155 43
152 167 25
159 172 30
164 182 19
172 192 16
171 192 0
173 196 0
171 193 0
170 191 0
170 190 0
172 194 0
172 193 0
170 192 0
171 194 0
173 195 0
173 195 0
173 195 0
172 195 0
172 194 0
173 195 0
172 194 0
173 195 0
171 193 0
172 195 0
173 194 0
173 195 0
173 194 0
172 194 0
171 193 0
173 195 0
172 195 0
172 195 0
172 194 0
173 195 0
173 196 0
171 194 0
172 195 0
173 196 0
172 195 0
174 197 0
174 196 0
173 195 0
172 195 0
174 196 0
173 196 0
173 196 0
171 194 0
172 195 0
173 196 0
174 197 0
173 196 0
172 195 0
174 197 0
173 196 0
173 196 0
174 196 0
174 197 0
174 196 0
171 194 0
174 196 0
172 195 0
174 197 0
173 196 0
175 198 0
175 198 0
172 195 0
173 197 0
174 197 0
174 197 0
174 197 0
173 197 0
174 197 0
173 196 0
175 197 0
175 198 0
174 197 0
174 197 0
174 197 0
173 196 0
172 196 0
174 197 0
173 195 0
174 196 0
173 196 0
174 197 0
173 197 0
176 198 0
175 198 0
175 198 0
174 197 0
174 198 0
176 198 0
174 197 0
174 197 0
173 196 0
175 198 0
174 197 0
173 197 0
175 198 0
175 197 0
174 197 0
174 197 0
174 197 0
174 197 0
175 198 0
174 197 0
173 197 0
173 197 0
173 196 0
173 197 0
174 197 0
174 197 0
174 197 0
175 198 0
174 197 0
173 197 0
174 197 0
174 197 0
174 197 0
174 197 0
174 197 0
173 197 0
173 197 0
174 197 0
174 197 0
173 197 0
175 198 0
173 197 0
174 197 0
173 196 0
174 197 0
175 197 0
174 197 0
174 197 0
174 197 0
173 197 0
174 198 0
174 198 0
173 196 0
173 197 0
172 195 0
173 196 0
174 197 0
173 196 0
172 195 0
173 197 0
174 198 0
173 196 0
172 195 0
173 197 0
172 196 0
172 195 0
174 197 0
173 196 0
170 193 0
173 196 0
174 197 0
172 196 0
174 197 0
173 196 0
171 195 0
173 196 0
172 196 0
173 195 0
174 197 0
173 196 0
174 197 0
173 197 0
173 196 0
174 197 0
174 196 0
172 196 0
173 195 0
174 197 0
173 196 0
173 196 0
174 196 0
172 195 0
172 196 0
173 195 0
173 196 0
173 196 0
172 195 0
172 195 0
173 196 0
174 197 0
173 195 0
171 195 0
174 197 0
173 196 0
172 194 0
174 197 0
173 196 0
173 196 0
173 196 0
172 195 0
172 194 0
172 195 0
173 196 0
170 193 0
171 193 0
173 197 0
173 196 0
172 195 0
171 194 0
173 196 0
172 195 0
172 195 0
171 195 0
171 194 0
170 194 0
172 195 0
172 194 0
171 195 0
171 195 0
171 194 0
172 195 0
172 193 0
170 192 0
171 193 0
172 195 0
170 193 0
172 195 0
169 192 0
170 194 0
171 194 0
168 190 0
172 195 0
169 191 0
171 193 0
170 192 0
169 192 0
171 194 0
170 193 0
170 193 0
168 191 0
170 192 0
171 194 0
167 190 0
170 192 0
169 193 0
169 192 0
166 188 0
169 191 0
170 192 0
169 191 0
171 194 0
168 192 0
167 189 0
169 191 0
169 192 0
170 193 0
165 187 0
168 191 0
147 170 73
67 100 150
61 96 160
61 96 163
61 96 165
61 96 164
61 97 167
62 97 169
62 97 168
61 96 164
61 96 165
60 96 166
60 95 166
61 96 169
61 96 168
61 95 166
59 92 161
61 96 171
61 94 165
61 95 168
60 93 166
61 94 164
61 94 168
59 92 161
60 92 161
60 92 159
60 92 163
59 91 161
57 87 152
59 91 161
60 91 162
58 88 156
58 88 154
57 87 153
58 88 154
57 88 154
58 88 153
58 88 154
60 92 162
59 89 156
60 92 162
59 91 160
58 87 153
60 91 160
61 92 161
59 90 157
59 90 155
59 91 156
60 92 159
60 92 159
58 88 151
60 93 159
59 91 158
59 89 155
58 88 150
59 91 156
59 89 157
59 92 157
61 94 164
59 91 158
58 89 152
59 90 155
59 90 152
60 93 160
60 92 158
61 94 160
60 93 160
61 94 161
60 93 158
60 93 158
60 93 159
60 92 154
61 94 161
61 94 158
60 94 160
61 95 162
61 95 159
60 94 154
61 95 157
60 93 153
61 94 158
59 92 146
60 94 153
60 90 138
57 72 90
51 58 40
57 61 39
52 59 41
79 77 47
86 85 52
87 89 52
98 96 55
94 94 57
101 99 56
113 109 57
110 108 63
117 114 68
127 124 70
128 124 65
129 123 70
135 131 68
130 127 71
134 129 72
140 135 75
141 135 71
151 144 75
151 146 75
153 146 79
152 147 80
150 143 78
156 149 77
160 153 79
164 156 83
165 158 83
166 159 82
163 158 82
166 159 82
166 160 85
170 162 87
166 160 81
164 157 85
166 160 85
164 158 78
163 156 77
165 158 79
161 154 79
163 157 82
160 154 76
163 156 80
164 156 82
158 151 75
159 152 81
156 149 75
158 151 78
156 148 72
156 149 71
155 148 71
152 144 70
149 143 71
142 135 61
144 138 66
145 137 68
137 129 57
133 128 58
138 137 51
142 141 50
152 161 42
162 173 35
157 173 24
165 184 21
170 191 11
170 191 0
171 194 0
169 190 0
171 193 0
168 189 0
171 192 0
171 193 0
171 194 0
174 196 0
173 195 0
169 191 0
171 193 0
171 194 0
172 195 0
171 192 0
173 194 0
172 194 0
172 194 0
169 192 0
173 195 0
172 195 0
172 194 0
173 195 0
172 195 0
171 194 0
172 195 0
172 194 0
170 193 0
172 194 0
172 194 0
172 195 0
173 195 0
172 194 0
172 195 0
173 196 0
173 195 0
173 196 0
173 196 0
173 195 0
171 195 0
172 195 0
171 194 0
173 196 0
173 196 0
175 197 0
172 195 0
173 197 0
174 197 0
173 196 0
174 197 0
173 195 0
173 196 0
174 197 0
172 195 0
172 195 0
173 196 0
174 196 0
173 197 0
172 195 0
173 196 0
173 196 0
174 197 0
175 198 0
174 196 0
172 195 0
172 196 0
172 196 0
175 198 0
172 196 0
172 196 0
173 196 0
174 197 0
173 195 0
175 198 0
175 197 0
174 197 0
173 196 0
173 196 0
173 196 0
173 196 0
171 195 0
174 197 0
175 198 0
174 197 0
175 198 0
173 196 0
175 198 0
175 197 0
175 198 0
174 196 0
174 197 0
173 197 0
174 197 0
175 198 0
174 197 0
175 198 0
173 196 0
174 197 0
174 197 0
175 198 0
175 197 0
173 197 0
173 196 0
174 197 0
174 198 0
174 197 0
175 197 0
173 196 0
173 196 0
174 198 0
173 197 0
173 197 0
174 197 0
173 196 0
173 197 0
174 197 0
172 196 0
174 197 0
174 197 0
172 196 0
173 197 0
174 197 0
174 197 0
174 197 0
174 197 0
173 197 0
173 197 0
173 196 0
172 195 0
173 197 0
173 197 0
173 196 0
174 197 0
172 196 0
173 197 0
174 198 0
173 196 0
173 196 0
175 198 0
172 195 0
174 197 0
174 197 0
173 197 0
174 197 0
174 197 0
174 197 0
174 196 0
172 195 0
173 197 0
173 197 0
173 197 0
172 195 0
175 198 0
172 195 0
173 196 0
173 195 0
173 197 0
172 195 0
173 196 0
173 195 0
174 197 0
172 196 0
173 197 0
173 197 0
172 196 0
173 196 0
173 196 0
173 196 0
173 196 0
174 197 0
174 197 0
172 195 0
172 195 0
173 197 0
174 196 0
174 197 0
174 197 0
173 197 0
173 196 0
171 195 0
172 195 0
173 196 0
172 195 0
171 194 0
172 195 0
172 195 0
172 194 0
173 196 0
172 195 0
173 196 0
173 194 0
171 193 0
172 195 0
173 197 0
172 195 0
172 195 0
172 195 0
173 196 0
171 194 0
171 194 0
173 196 0
172 196 0
173 196 0
175 198 0
172 194 0
173 196 0
172 195 0
169 192 0
172 195 0
172 195 0
170 192 0
172 195 0
170 193 0
173 195 0
171 194 0
172 195 0
172 195 0
171 193 0
170 192 0
169 192 0
169 192 0
171 194 0
173 195 0
171 194 0
171 193 0
172 194 0
169 193 0
170 192 0
168 191 0
168 191 0
170 192 0
169 193 0
169 191 0
169 191 0
168 191 0
168 191 0
169 191 0
172 195 0
168 190 0
171 195 0
168 191 0
169 190 0
170 193 0
170 193 0
170 193 0
171 194 0
170 193 0
166 188 0
167 190 22
120 145 117
65 100 158
61 96 162
61 97 162
60 95 161
62 98 169
62 97 167
60 95 160
62 96 165
61 95 167
61 96 168
61 97 171
61 95 166
61 95 165
61 95 165
61 96 166
61 95 165
61 97 169
61 96 171
61 96 168
61 95 167
61 95 166
59 91 160
60 94 168
61 95 165
59 92 162
60 93 162
59 90 156
60 93 164
60 92 162
59 91 159
59 91 163
60 92 162
59 90 157
59 90 159
59 91 157
59 89 157
59 90 157
59 89 156
60 91 161
59 91 160
60 92 164
59 91 157
57 89 156
60 91 158
61 94 164
60 92 161
59 91 157
59 90 157
60 93 160
60 92 156
60 92 160
60 93 161
60 92 160
60 90 155
60 93 160
60 92 160
60 91 157
58 89 154
58 89 151
59 91 154
60 93 161
61 92 161
61 94 158
61 93 160
60 93 159
60 92 156
61 94 158
60 93 157
61 94 159
60 92 158
61 95 164
60 94 158
60 92 155
60 92 155
60 94 161
61 95 159
61 94 155
60 93 155
61 95 158
60 94 155
61 95 158
59 93 150
58 90 149
57 74 103
64 68 45
52 57 36
66 69 36
75 76 44
85 86 52
78 79 44
91 91 52
94 92 55
102 102 58
111 110 64
110 109 63
117 114 67
123 117 66
125 122 61
126 123 68
124 121 65
133 128 66
138 132 71
142 137 67
143 136 69
145 140 75
149 142 73
146 140 74
159 154 79
154 148 75
155 149 77
159 152 81
160 154 81
165 158 85
166 158 83
163 156 80
165 158 84
167 159 82
163 155 76
165 159 84
166 160 78
165 159 86
161 154 80
166 158 81
162 155 76
163 156 80
167 160 83
160 154 79
164 157 79
161 155 78
159 152 74
155 148 74
156 149 69
153 146 70
153 145 71
148 140 69
147 141 68
148 140 70
149 141 70
147 140 69
149 141 71
140 132 58
141 134 61
142 137 62
135 135 45
141 147 44
149 159 32
160 175 30
157 173 18
165 185 20
170 190 0
171 192 0
170 191 0
168 190 0
170 192 0
172 193 0
170 191 0
171 193 0
170 192 0
169 191 0
171 194 0
170 191 0
171 192 0
172 195 0
173 195 0
171 193 0
172 194 0
172 194 0
173 195 0
171 194 0
172 195 0
172 194 0
173 195 0
172 194 0
173 196 0
171 194 0
172 195 0
173 196 0
172 195 0
173 195 0
172 195 0
172 195 0
172 195 0
174 196 0
174 196 0
173 195 0
173 196 0
172 195 0
173 196 0
175 197 0
170 193 0
175 196 0
174 197 0
174 197 0
172 194 0
174 196 0
172 195 0
172 195 0
172 194 0
175 196 0
174 197 0
174 197 0
174 196 0
172 195 0
173 197 0
174 197 0
172 195 0
174 197 0
174 197 0
173 196 0
173 196 0
174 197 0
173 196 0
173 196 0
173 196 0
174 197 0
174 197 0
174 197 0
173 196 0
173 196 0
174 197 0
173 196 0
174 197 0
174 197 0
173 196 0
174 197 0
173 196 0
173 196 0
175 198 0
173 197 0
175 197 0
173 196 0
174 197 0
174 196 0
175 197 0
173 197 0
174 197 0
174 196 0
174 197 0
173 197 0
174 197 0
174 197 0
174 197 0
174 197 0
174 196 0
173 196 0
173 197 0
174 196 0
174 197 0
174 198 0
174 196 0
173 197 0
174 197 0
174 197 0
175 197 0
174 197 0
174 197 0
173 197 0
173 196 0
174 197 0
174 197 0
174 198 0
173 197 0
174 197 0
174 197 0
174 198 0
173 197 0
174 197 0
174 197 0
174 197 0
173 197 0
174 197 0
173 197 0
174 197 0
173 197 0
175 197 0
174 197 0
173 197 0
174 197 0
174 197 0
173 197 0
174 197 0
175 198 0
172 196 0
173 196 0
172 195 0
175 198 0
173 196 0
174 197 0
172 196 0
173 196 0
173 197 0
171 194 0
174 197 0
174 197 0
174 197 0
172 195 0
172 195 0
173 196 0
174 197 0
174 197 0
174 197 0
173 195 0
173 196 0
172 195 0
173 195 0
173 197 0
173 196 0
172 195 0
173 196 0
172 195 0
174 197 0
173 196 0
173 196 0
172 195 0
174 197 0
173 196 0
173 196 0
173 197 0
173 197 0
173 196 0
173 195 0
174 197 0
173 196 0
174 197 0
173 195 0
174 197 0
174 196 0
173 195 0
173 196 0
173 197 0
173 196 0
172 196 0
173 196 0
173 196 0
171 194 0
171 194 0
171 194 0
172 195 0
173 196 0
172 196 0
171 193 0
171 194 0
171 193 0
174 197 0
172 196 0
171 194 0
172 195 0
171 194 0
173 196 0
172 195 0
171 195 0
171 194 0
173 195 0
170 193 0
172 195 0
169 192 0
171 194 0
171 194 0
172 195 0
172 194 0
173 195 0
171 194 0
172 195 0
172 195 0
170 193 0
171 194 0
171 195 0
171 193 0
170 192 0
170 193 0
170 193 0
169 193 0
170 193 0
171 195 0
172 194 0
170 192 0
170 192 0
173 195 0
166 189 0
171 193 0
168 192 0
170 193 0
171 193 0
168 190 0
168 190 0
168 190 0
170 193 0
168 191 0
174 196 0
169 191 0
168 191 0
169 191 0
169 191 0
168 191 0
168 190 0
167 190 0
165 188 0
168 190 0
162 185 42
99 127 140
61 96 160
62 97 164
61 97 163
60 95 161
62 97 166
61 96 167
61 97 166
61 95 164
61 96 165
62 97 169
61 96 166
62 97 167
61 96 169
60 95 166
61 97 169
61 95 168
60 93 163
60 94 167
60 93 164
60 96 167
60 94 166
60 94 168
59 93 163
60 94 166
61 95 168
61 94 165
59 91 156
59 92 160
59 91 158
60 92 162
59 90 157
59 91 159
59 89 157
58 88 154
59 90 159
59 91 158
58 89 155
59 91 157
59 91 158
59 91 156
60 92 164
59 91 156
60 91 156
60 93 159
60 91 157
61 95 167
59 90 157
59 90 155
60 91 159
60 91 157
60 92 161
60 91 159
59 91 157
59 90 154
61 92 159
60 93 161
59 89 152
61 93 160
60 93 160
60 92 158
60 93 160
60 92 158
60 92 157
61 94 160
61 94 161
61 94 160
61 93 158
61 94 160
60 94 161
60 93 155
60 92 154
62 95 162
61 95 162
61 95 157
60 93 157
61 95 157
61 94 155
60 93 149
60 93 154
61 95 155
60 94 151
59 92 151
60 92 150
57 83 121
54 63 61
51 55 30
66 67 32
73 74 40
68 72 38
84 85 46
94 93 46
91 90 55
97 99 53
109 108 59
116 112 60
118 115 63
123 120 70
124 121 63
128 124 67
128 126 65
135 132 71
138 132 71
141 136 70
144 138 74
147 142 75
152 146 74
151 146 76
154 148 75
154 148 77
158 151 74
159 153 78
154 148 71
159 152 78
162 156 78
160 153 76
167 160 83
164 157 79
158 152 74
161 154 78
163 156 79
166 159 79
159 152 71
165 157 83
162 155 76
161 154 75
161 154 80
165 157 84
161 154 78
158 151 74
160 154 76
158 152 75
153 146 73
155 147 68
154 147 71
148 142 66
144 136 59
149 142 66
151 144 73
140 133 60
142 135 63
139 131 61
139 132 55
141 136 55
141 144 43
142 146 39
155 165 38
162 177 28
166 185 19
167 189 8
168 190 0
172 193 0
171 192 0
171 191 0
170 191 0
170 191 0
169 190 0
170 192 0
172 194 0
171 193 0
172 194 0
171 192 0
170 191 0
170 192 0
172 193 0
171 193 0
173 195 0
170 191 0
170 193 0
173 195 0
172 194 0
171 194 0
172 194 0
172 195 0
173 197 0
172 194 0
173 195 0
173 195 0
172 195 0
172 193 0
171 192 0
173 195 0
173 196 0
173 196 0
172 195 0
173 196 0
174 196 0
173 195 0
171 193 0
173 195 0
173 196 0
171 194 0
174 196 0
172 195 0
173 196 0
174 196 0
173 196 0
172 194 0
172 194 0
172 195 0
173 196 0
172 195 0
172 196 0
173 196 0
172 196 0
174 197 0
173 196 0
175 198 0
173 196 0
173 196 0
173 195 0
174 197 0
172 195 0
171 194 0
173 196 0
174 197 0
173 196 0
173 197 0
174 197 0
172 195 0
174 197 0
175 197 0
173 197 0
174 197 0
174 197 0
172 195 0
174 196 0
174 196 0
174 197 0
174 198 0
173 197 0
175 197 0
174 197 0
174 196 0
174 197 0
174 197 0
174 196 0
173 195 0
174 197 0
175 198 0
173 197 0
174 197 0
173 196 0
175 198 0
173 197 0
175 197 0
173 196 0
173 196 0
172 196 0
173 197 0
173 196 0
174 197 0
173 196 0
174 197 0
174 197 0
174 197 0
174 197 0
173 197 0
174 197 0
174 196 0
173 196 0
173 196 0
174 197 0
175 197 0
174 197 0
174 197 0
173 197 0
173 196 0
173 197 0
172 195 0
174 197 0
173 196 0
173 196 0
174 197 0
173 196 0
174 198 0
173 197 0
175 198 0
173 196 0
173 197 0
173 196 0
174 197 0
173 196 0
174 197 0
174 196 0
175 198 0
174 197 0
174 197 0
174 197 0
174 197 0
172 194 0
173 197 0
174 197 0
173 196 0
172 195 0
173 196 0
173 196 0
172 196 0
172 196 0
172 196 0
173 197 0
172 195 0
173 196 0
174 197 0
174 197 0
174 196 0
172 195 0
172 195 0
171 194 0
172 196 0
171 194 0
174 196 0
171 194 0
173 196 0
171 194 0
174 197 0
174 197 0
172 196 0
171 194 0
172 195 0
174 196 0
172 196 0
172 195 0
174 197 0
173 195 0
173 197 0
173 196 0
174 196 0
172 195 0
171 195 0
173 196 0
171 195 0
171 195 0
172 195 0
173 197 0
171 195 0
173 196 0
171 195 0
173 195 0
172 195 0
171 194 0
172 195 0
171 195 0
171 195 0
170 192 0
172 195 0
170 193 0
173 196 0
172 196 0
171 195 0
172 195 0
171 195 0
170 194 0
172 195 0
172 194 0
171 194 0
171 195 0
171 194 0
171 194 0
170 193 0
173 195 0
173 195 0
173 196 0
171 194 0
170 192 0
169 191 0
171 194 0
170 193 0
169 193 0
168 189 0
169 191 0
171 193 0
171 194 0
170 194 0
172 194 0
170 193 0
168 190 0
170 192 0
169 192 0
169 192 0
169 192 0
172 195 0
168 189 0
168 191 0
171 194 0
173 196 0
168 191 0
170 193 0
165 187 0
171 193 0
171 194 0
168 190 0
170 192 0
168 190 0
170 191 0
169 191 0
170 193 0
165 187 0
163 184 0
156 179 65
88 117 143
61 96 162
60 95 156
62 98 170
61 97 167
62 97 166
61 96 162
61 96 163
61 95 163
61 96 168
61 96 167
61 96 168
61 95 166
60 94 164
61 96 169
60 94 165
62 97 168
60 94 164
61 96 168
61 95 166
61 95 168
60 92 161
59 91 160
61 95 166
61 93 162
60 93 161
60 93 163
57 88 154
60 93 164
58 91 160
60 92 162
59 91 160
61 95 166
59 90 157
60 92 159
60 93 161
60 93 160
60 93 163
59 91 156
61 93 162
59 89 153
59 90 155
60 93 160
60 92 161
59 90 157
59 91 157
58 88 153
60 91 156
59 92 159
60 93 159
60 92 162
60 93 161
59 92 158
61 93 160
60 92 159
60 93 161
60 92 159
60 93 161
60 92 160
60 92 159
60 94 159
60 93 159
61 93 160
62 95 161
61 94 164
61 94 159
60 93 152
59 91 154
61 95 162
60 93 153
61 95 159
61 94 159
60 93 151
61 96 160
61 94 157
61 95 160
61 95 159
61 94 156
60 94 156
60 93 155
60 94 151
60 93 153
59 92 147
59 92 147
56 84 130
54 66 78
59 63 33
63 66 36
67 71 39
80 81 43
86 87 43
89 89 47
98 98 50
95 96 54
98 97 49
108 106 55
108 106 54
115 113 59
124 120 62
124 122 63
126 122 64
135 131 71
133 128 64
140 136 69
142 138 74
142 138 71
150 144 79
151 146 69
155 149 77
158 150 79
152 146 74
156 150 70
158 151 79
156 150 70
159 152 74
164 158 81
159 153 71
158 152 76
158 151 72
165 158 80
158 152 74
166 159 80
162 156 74
159 153 72
162 154 74
162 155 72
155 148 69
157 150 73
154 148 70
153 146 65
147 141 68
153 146 70
157 149 75
150 143 64
154 146 68
149 142 64
148 140 68
148 141 65
147 139 67
143 136 63
139 131 60
135 128 58
128 123 45
130 130 45
139 142 42
152 159 42
151 164 24
158 173 22
168 188 11
168 189 8
170 191 0
171 192 0
169 190 0
170 191 0
172 193 0
172 193 0
170 191 0
171 192 0
170 191 0
171 192 0
172 193 0
170 190 0
170 191 0
170 192 0
171 194 0
172 195 0
171 193 0
172 194 0
170 192 0
171 194 0
171 193 0
173 195 0
172 195 0
171 194 0
173 195 0
173 196 0
172 194 0
171 193 0
172 194 0
172 195 0
172 194 0
173 196 0
173 195 0
170 194 0
173 195 0
173 196 0
171 194 0
172 193 0
172 195 0
173 196 0
172 195 0
172 195 0
173 195 0
174 197 0
173 196 0
173 195 0
174 197 0
172 196 0
173 196 0
172 195 0
174 197 0
171 194 0
172 193 0
174 197 0
174 196 0
173 196 0
173 196 0
174 197 0
172 196 0
173 196 0
173 196 0
174 197 0
172 195 0
174 197 0
172 195 0
173 197 0
174 197 0
173 195 0
174 197 0
173 197 0
173 197 0
172 196 0
173 196 0
175 197 0
174 197 0
173 196 0
172 194 0
173 197 0
173 197 0
172 195 0
174 196 0
175 196 0
174 197 0
175 197 0
174 197 0
173 197 0
173 196 0
174 197 0
173 197 0
174 197 0
174 197 0
172 196 0
174 198 0
174 197 0
174 198 0
173 197 0
174 197 0
175 198 0
174 197 0
174 197 0
174 197 0
174 197 0
174 197 0
173 196 0
174 196 0
173 196 0
174 196 0
173 197 0
174 197 0
174 197 0
174 197 0
172 195 0
173 197 0
175 198 0
173 196 0
173 197 0
174 197 0
175 198 0
173 197 0
175 197 0
174 197 0
174 197 0
173 196 0
175 198 0
173 197 0
174 197 0
173 196 0
174 197 0
174 197 0
173 196 0
175 198 0
173 195 0
172 196 0
174 197 0
174 196 0
172 195 0
174 198 0
173 196 0
172 196 0
173 197 0
174 197 0
174 196 0
174 197 0
173 196 0
173 197 0
173 196 0
174 197 0
173 196 0
173 196 0
174 196 0
174 196 0
175 198 0
174 197 0
173 196 0
174 197 0
173 197 0
174 197 0
174 197 0
173 195 0
172 196 0
175 197 0
174 197 0
173 196 0
173 197 0
173 196 0
173 195 0
174 196 0
171 194 0
171 195 0
173 196 0
174 197 0
171 194 0
172 194 0
173 196 0
174 197 0
172 196 0
171 194 0
170 193 0
171 194 0
171 194 0
170 193 0
171 195 0
172 195 0
174 196 0
172 196 0
173 195 0
170 193 0
173 197 0
172 195 0
173 196 0
172 195 0
171 194 0
172 195 0
173 195 0
173 195 0
171 194 0
170 193 0
173 195 0
173 197 0
172 195 0
171 194 0
170 192 0
171 194 0
172 195 0
172 194 0
171 192 0
173 195 0
172 195 0
171 192 0
172 194 0
170 194 0
172 195 0
169 192 0
171 194 0
170 192 0
172 195 0
170 192 0
173 195 0
172 195 0
172 194 0
172 195 0
171 194 0
171 194 0
169 191 0
170 192 0
170 194 0
171 194 0
170 193 0
170 193 0
170 193 0
169 192 0
170 193 0
169 191 0
166 188 0
169 192 0
171 193 0
170 192 0
170 194 0
166 188 0
166 188 0
169 191 0
167 190 0
167 190 0
166 188 0
168 190 0
167 188 0
169 191 0
167 189 0
170 192 0
144 167 85
68 101 150
61 96 161
62 98 166
61 96 164
60 95 159
61 95 160
61 95 164
61 96 162
61 96 165
61 96 165
61 95 164
62 97 167
61 95 161
62 97 168
62 98 172
60 94 164
61 95 163
61 95 164
61 96 169
60 94 164
60 94 162
59 93 163
60 94 164
61 94 163
60 94 166
59 91 160
61 95 167
59 92 160
59 90 159
60 92 162
59 91 162
60 93 161
59 91 158
58 90 156
59 91 160
59 91 158
59 90 157
60 93 160
61 96 164
60 93 162
60 92 158
60 94 160
59 91 159
60 91 156
60 92 160
59 91 160
60 93 157
59 92 157
60 91 158
59 90 151
61 94 161
59 91 157
59 91 156
59 91 155
59 91 158
59 91 154
61 93 160
59 91 152
61 94 163
60 92 155
61 94 159
60 92 155
61 94 162
60 94 160
60 91 156
60 94 157
60 92 156
61 94 158
60 94 157
60 92 153
61 95 162
60 94 160
60 93 158
60 93 157
60 95 160
61 94 158
60 94 152
60 94 153
61 94 155
61 95 159
60 94 151
60 94 154
60 93 152
59 92 144
60 90 141
59 74 85
57 61 32
61 63 28
72 75 39
80 82 42
76 77 41
86 87 39
92 92 45
96 96 47
106 105 54
108 106 55
111 108 59
120 116 60
119 115 58
121 118 62
130 125 64
132 128 61
134 128 71
136 132 62
138 134 68
146 142 71
148 142 73
149 144 70
150 144 73
149 143 69
148 143 71
157 151 73
154 147 75
152 146 70
158 151 73
165 157 81
161 155 70
160 154 77
158 152 69
163 156 73
163 156 78
160 154 71
160 154 73
157 151 71
160 154 73
165 158 80
161 153 76
158 151 70
157 150 70
154 146 72
151 144 67
153 146 67
154 146 71
149 142 65
146 140 66
153 146 70
146 138 65
142 134 65
140 134 57
136 130 56
137 130 56
132 126 52
139 134 52
139 139 49
144 151 38
148 158 32
156 170 19
159 174 24
168 187 11
170 189 0
171 192 0
170 191 0
170 190 0
168 189 0
172 194 0
171 191 0
169 190 0
169 190 0
171 192 0
169 190 0
171 192 0
171 193 0
171 193 0
171 193 0
172 194 0
173 194 0
172 194 0
173 194 0
173 195 0
172 193 0
171 194 0
170 192 0
173 195 0
171 193 0
172 195 0
173 195 0
172 194 0
173 194 0
173 195 0
173 195 0
172 195 0
172 194 0
174 196 0
172 195 0
173 195 0
172 194 0
172 195 0
171 193 0
174 197 0
174 196 0
173 196 0
174 196 0
173 195 0
174 196 0
172 195 0
173 195 0
173 195 0
174 197 0
174 197 0
172 195 0
173 196 0
173 195 0
173 195 0
175 197 0
173 196 0
173 196 0
172 194 0
174 196 0
172 194 0
173 197 0
174 196 0
173 195 0
174 197 0
173 196 0
173 195 0
173 196 0
173 196 0
174 197 0
173 197 0
173 195 0
174 197 0
173 195 0
173 196 0
173 196 0
174 197 0
174 196 0
174 197 0
174 197 0
174 197 0
174 197 0
172 195 0
173 197 0
174 197 0
174 197 0
175 198 0
173 195 0
173 196 0
174 197 0
174 196 0
172 196 0
174 197 0
173 197 0
174 197 0
174 197 0
173 196 0
175 198 0
172 195 0
174 197 0
174 197 0
173 196 0
174 196 0
175 198 0
175 198 0
173 197 0
173 197 0
174 197 0
173 197 0
174 197 0
171 195 0
174 197 0
174 197 0
174 198 0
174 198 0
174 197 0
174 197 0
173 196 0
173 197 0
173 197 0
173 196 0
174 197 0
173 197 0
174 197 0
173 195 0
172 196 0
175 198 0
173 196 0
174 197 0
174 197 0
173 195 0
174 196 0
174 198 0
174 197 0
173 197 0
173 195 0
174 197 0
173 197 0
173 196 0
172 195 0
174 197 0
173 197 0
173 197 0
173 195 0
175 198 0
174 197 0
172 195 0
173 196 0
173 197 0
173 196 0
172 196 0
174 197 0
172 195 0
173 196 0
173 195 0
173 196 0
173 196 0
173 196 0
171 194 0
174 196 0
173 196 0
172 195 0
173 195 0
174 197 0
172 196 0
174 197 0
174 197 0
173 196 0
173 195 0
173 197 0
174 197 0
173 196 0
172 195 0
173 196 0
173 196 0
173 196 0
172 195 0
172 196 0
171 195 0
171 195 0
172 195 0
173 196 0
174 197 0
172 196 0
172 194 0
170 192 0
171 193 0
173 196 0
173 196 0
175 197 0
172 195 0
174 196 0
171 193 0
171 194 0
173 196 0
171 193 0
172 196 0
172 195 0
172 195 0
172 195 0
170 194 0
174 197 0
172 195 0
173 195 0
172 194 0
172 195 0
170 193 0
171 194 0
172 194 0
171 194 0
171 194 0
169 192 0
173 196 0
171 194 0
170 193 0
171 194 0
169 190 0
172 194 0
172 195 0
171 192 0
171 193 0
171 194 0
169 191 0
169 191 0
169 193 0
169 192 0
171 193 0
169 191 0
169 191 0
170 193 0
168 190 0
170 193 0
170 193 0
167 189 0
169 192 0
166 188 0
168 191 0
168 191 0
169 191 0
169 192 0
170 193 0
169 191 0
170 192 0
168 190 0
169 191 0
168 192 0
169 192 0
169 191 0
167 189 0
170 191 0
163 185 28
129 154 101
63 97 153
61 96 159
62 97 163
61 97 162
61 96 165
61 97 166
61 97 164
61 96 166
62 97 169
61 96 163
61 97 169
60 95 160
61 96 166
61 96 167
61 95 167
61 97 167
61 95 167
60 96 166
61 95 167
62 97 168
61 94 163
60 94 165
60 94 161
60 94 162
60 93 162
60 94 166
60 92 159
60 94 164
61 95 164
59 91 159
58 91 158
60 91 161
59 91 156
60 93 159
59 92 159
60 93 160
60 94 164
59 90 154
60 92 160
60 93 163
59 90 157
60 91 158
60 93 158
61 94 164
61 94 164
61 93 164
60 92 159
60 93 156
59 92 156
59 91 154
59 91 157
60 92 154
60 93 161
60 92 155
60 90 152
60 92 157
61 94 164
59 91 158
61 94 161
60 93 162
61 94 159
61 94 161
60 93 159
60 93 156
60 94 158
60 93 158
60 94 157
61 94 158
61 96 160
60 94 159
60 94 155
60 93 157
61 95 158
61 95 157
61 94 155
60 94 158
61 95 156
60 94 157
60 93 151
60 94 154
60 94 154
61 95 152
60 94 151
59 91 147
58 90 139
62 79 105
55 59 41
63 66 31
71 72 30
82 83 36
84 82 44
88 89 44
93 93 48
97 98 51
98 98 43
104 104 49
113 111 54
126 122 56
115 113 55
117 114 54
127 125 63
129 125 64
128 124 61
145 140 71
135 130 60
142 137 70
151 144 72
149 144 74
145 140 72
151 145 74
150 144 65
158 152 74
154 148 76
155 149 74
157 150 73
156 150 75
157 150 74
159 152 69
157 152 69
161 154 75
157 151 70
162 156 76
161 154 72
158 152 70
160 153 71
156 150 66
162 154 70
155 149 70
152 146 66
155 146 68
155 146 69
152 144 67
147 140 68
153 145 67
150 142 65
145 137 60
145 137 66
143 137 58
140 133 60
143 135 58
134 129 52
142 136 57
134 132 44
139 142 49
148 157 34
150 159 32
161 175 20
166 185 11
171 190 0
170 191 0
168 189 0
170 192 0
169 190 0
170 191 0
172 193 0
170 191 0
170 191 0
168 187 0
168 189 0
173 194 0
171 193 0
168 190 0
170 191 0
173 194 0
170 192 0
170 191 0
171 193 0
171 193 0
171 192 0
171 193 0
169 191 0
171 194 0
170 193 0
172 194 0
171 194 0
171 193 0
174 196 0
172 194 0
173 195 0
173 195 0
170 193 0
172 195 0
173 196 0
170 192 0
172 195 0
173 195 0
174 195 0
173 195 0
173 195 0
174 197 0
173 195 0
174 197 0
173 196 0
172 194 0
173 195 0
171 194 0
172 195 0
171 194 0
173 195 0
174 197 0
173 197 0
171 193 0
173 196 0
173 196 0
173 196 0
173 195 0
173 196 0
171 194 0
174 196 0
173 196 0
172 195 0
170 195 0
172 194 0
174 197 0
174 197 0
172 195 0
173 196 0
173 196 0
174 197 0
173 196 0
172 195 0
174 196 0
174 196 0
174 197 0
173 196 0
173 196 0
173 196 0
175 198 0
174 196 0
174 197 0
173 196 0
173 197 0
173 197 0
174 197 0
175 198 0
173 196 0
174 197 0
174 197 0
174 196 0
174 198 0
174 197 0
173 197 0
174 197 0
175 198 0
173 196 0
173 196 0
172 195 0
173 197 0
174 197 0
174 197 0
174 196 0
174 197 0
175 198 0
175 198 0
174 197 0
174 197 0
176 198 0
173 197 0
174 197 0
175 197 0
174 196 0
175 198 0
174 197 0
173 197 0
172 196 0
171 195 0
172 196 0
173 196 0
173 196 0
175 198 0
175 198 0
174 197 0
173 197 0
173 196 0
173 196 0
174 197 0
173 196 0
171 195 0
172 195 0
174 198 0
173 196 0
173 196 0
174 197 0
173 196 0
173 196 0
175 198 0
173 196 0
173 196 0
174 197 0
172 195 0
174 197 0
174 197 0
174 197 0
174 197 0
172 195 0
173 196 0
174 196 0
174 197 0
172 195 0
175 197 0
174 196 0
172 195 0
174 197 0
174 197 0
172 196 0
173 197 0
172 196 0
172 196 0
173 196 0
173 195 0
173 196 0
174 197 0
173 196 0
173 196 0
173 197 0
173 196 0
174 196 0
174 197 0
172 196 0
173 197 0
172 196 0
173 196 0
173 196 0
174 196 0
174 197 0
173 196 0
173 195 0
172 195 0
173 196 0
170 194 0
173 196 0
172 196 0
173 196 0
173 196 0
173 196 0
172 196 0
172 194 0
172 195 0
170 192 0
173 196 0
172 195 0
173 196 0
173 196 0
173 196 0
171 193 0
172 195 0
172 195 0
171 193 0
172 195 0
170 194 0
171 194 0
173 196 0
171 194 0
173 195 0
170 194 0
172 196 0
171 194 0
168 191 0
169 192 0
168 192 0
169 191 0
172 195 0
172 195 0
172 195 0
170 193 0
171 193 0
171 193 0
171 194 0
167 190 0
171 193 0
170 194 0
168 191 0
171 195 0
168 192 0
172 195 18
169 191 25
170 193 0
170 194 18
171 193 18
169 191 18
170 194 18
169 192 18
170 191 18
166 190 0
168 190 0
168 190 0
168 190 0
166 189 0
169 192 0
169 191 0
169 191 0
168 190 0
167 188 0
170 192 0
165 188 0
168 191 0
167 189 0
169 192 0
164 186 33
112 137 126
62 97 158
60 95 157
61 96 161
60 95 158
61 97 165
61 96 160
61 97 166
61 97 167
61 96 163
61 96 167
61 96 163
61 96 167
61 96 164
61 96 164
60 94 162
61 96 166
61 96 166
61 96 168
62 96 169
61 96 168
61 96 167
60 95 166
60 94 164
60 94 161
60 95 163
61 95 165
58 89 153
60 94 163
60 94 164
60 93 163
60 94 164
60 94 163
60 94 164
60 92 159
60 93 160
59 93 159
59 91 156
61 94 166
59 90 157
60 93 158
60 92 158
59 92 156
60 91 156
60 94 162
60 93 161
60 94 161
59 92 158
61 93 162
60 93 159
60 93 157
60 92 154
60 92 157
61 94 160
61 95 162
62 96 166
60 94 159
59 93 159
60 93 159
61 95 164
60 94 163
61 94 161
61 95 159
60 92 154
61 94 157
59 92 152
60 94 152
60 93 156
59 92 152
61 94 155
61 94 160
60 94 156
61 95 160
60 95 155
61 95 157
61 95 156
61 96 160
60 95 158
62 96 156
61 95 158
61 95 158
60 94 148
61 95 155
60 93 149
59 93 149
61 93 151
62 81 106
61 66 51
75 78 33
74 75 29
68 70 32
82 83 37
89 88 40
93 93 44
96 96 43
104 103 46
101 101 49
110 107 50
111 110 56
124 122 60
124 122 58
128 125 61
131 127 58
128 126 59
140 135 62
140 135 66
147 142 67
142 137 60
149 144 71
147 142 68
152 146 70
151 145 70
151 145 64
157 149 70
150 145 63
161 154 75
159 152 72
155 149 69
159 152 71
155 148 71
159 151 74
159 152 70
156 149 72
158 151 69
157 150 69
157 150 70
154 147 61
152 146 65
152 145 64
149 142 67
156 149 69
150 143 66
143 135 62
151 144 65
147 140 60
147 139 60
133 126 54
142 133 57
139 132 58
140 132 52
135 129 49
131 125 48
133 132 46
144 146 46
142 148 33
153 163 32
153 165 24
159 175 25
164 182 8
168 189 0
169 190 0
170 190 0
169 190 0
169 190 0
170 192 0
168 190 0
172 194 0
170 191 0
170 191 0
171 193 0
172 193 0
170 191 0
171 194 0
171 193 0
170 192 0
171 194 0
171 193 0
170 192 0
171 192 0
172 193 0
170 192 0
172 194 0
170 192 0
172 195 0
169 191 0
171 193 0
172 194 0
174 196 0
171 194 0
172 194 0
173 195 0
170 193 0
172 195 0
172 193 0
172 194 0
173 195 0
172 194 0
173 196 0
171 194 0
173 196 0
172 195 0
173 195 0
172 196 0
173 196 0
172 195 0
172 195 0
173 197 0
171 194 0
173 196 0
173 195 0
172 194 0
173 196 0
172 195 0
172 195 0
172 195 0
173 196 0
173 196 0
173 196 0
174 197 0
175 197 0
173 196 0
173 197 0
173 196 0
173 195 0
173 196 0
172 195 0
173 196 0
173 195 0
175 197 0
173 197 0
172 195 0
174 197 0
173 196 0
174 198 0
174 197 0
174 197 0
174 197 0
173 197 0
174 197 0
175 198 0
174 197 0
173 196 0
174 197 0
173 196 0
173 196 0
174 197 0
172 196 0
174 198 0
174 197 0
174 197 0
173 195 0
175 198 0
174 197 0
175 198 0
173 196 0
174 196 0
174 197 0
174 197 0
174 198 0
173 196 0
174 197 0
175 198 0
174 197 0
175 198 0
173 196 0
175 197 0
174 197 0
173 197 0
173 196 0
172 196 0
174 197 0
174 197 0
173 197 0
173 197 0
175 197 0
172 195 0
174 197 0
175 198 0
173 197 0
174 197 0
173 196 0
174 197 0
173 197 0
172 196 0
175 197 0
174 197 0
172 195 0
173 196 0
173 196 0
174 197 0
175 198 0
174 197 0
172 196 0
174 198 0
174 197 0
173 196 0
173 196 0
174 197 0
174 197 0
173 196 0
174 197 0
172 196 0
173 197 0
173 197 0
173 196 0
174 197 0
173 196 0
174 196 0
172 195 0
173 196 0
174 197 0
175 197 0
173 196 0
173 197 0
172 194 0
173 196 0
173 196 0
173 196 0
172 194 0
172 195 0
171 194 0
174 197 0
172 195 0
173 196 0
172 195 0
172 195 0
173 197 0
172 194 0
173 196 0
171 195 0
173 196 0
173 196 0
172 193 0
172 195 0
172 196 0
172 196 0
172 195 0
173 196 0
172 196 0
172 195 0
172 195 0
171 193 0
171 194 0
173 196 0
171 194 0
171 193 0
171 194 0
172 195 0
171 194 0
172 195 0
171 194 0
172 195 0
172 195 0
171 193 0
172 193 0
171 193 0
173 195 0
173 196 0
174 197 0
171 194 0
172 195 0
172 194 0
168 191 0
171 194 0
170 193 0
171 194 0
172 195 0
170 193 0
172 193 0
167 190 0
169 193 0
169 193 0
171 194 0
171 194 0
167 189 0
172 195 0
172 196 0
169 192 0
172 194 31
169 191 18
169 192 18
173 195 25
169 191 31
167 190 18
170 191 40
172 195 36
170 192 44
168 190 47
171 193 40
172 193 40
168 190 36
169 190 44
169 191 31
170 193 40
171 193 18
169 190 18
168 190 0
171 194 31
167 189 0
168 191 18
167 189 0
170 191 0
170 193 0
167 189 0
165 187 0
167 189 0
168 191 0
169 191 0
166 187 0
163 186 44
101 127 129
60 95 155
61 97 160
61 96 163
60 95 159
61 95 160
61 96 164
60 96 159
61 96 166
61 95 162
61 96 163
62 97 168
60 96 166
61 96 163
61 97 170
61 96 165
61 96 165
61 95 164
61 96 166
61 96 167
61 96 169
61 96 169
60 94 161
60 94 162
60 94 161
60 94 164
60 94 166
59 92 161
60 92 160
61 95 164
61 95 165
59 93 160
61 94 160
60 93 163
61 93 158
60 93 161
59 90 155
61 94 161
60 94 164
60 92 158
61 95 167
59 92 157
60 94 162
61 95 163
61 95 162
61 95 161
61 94 163
60 94 162
60 92 158
60 93 162
61 94 158
61 94 160
61 95 160
60 90 152
60 93 160
61 93 161
62 96 166
60 93 155
60 94 158
61 95 160
60 93 156
60 93 157
61 94 159
61 94 157
61 95 163
60 93 155
60 94 158
61 95 159
61 95 160
61 94 162
61 95 157
61 95 162
60 94 155
60 93 150
61 95 155
62 96 161
59 93 148
61 97 162
61 95 158
61 95 153
60 94 157
60 95 151
59 94 152
60 94 153
60 93 149
58 91 145
58 80 110
63 70 60
64 65 26
62 64 24
72 73 31
81 80 30
81 81 41
97 96 39
92 93 45
95 97 41
102 100 47
107 106 54
109 108 48
109 108 50
124 121 60
122 118 57
134 130 59
138 134 60
133 129 60
142 135 63
136 131 60
146 140 71
146 141 66
145 139 62
151 146 63
148 143 66
152 146 64
150 144 64
146 141 62
151 144 66
153 148 68
155 148 63
153 147 68
160 153 70
153 147 62
153 146 67
159 152 67
154 147 66
157 150 63
155 148 72
152 144 62
158 150 66
151 143 65
152 145 61
155 148 64
144 138 59
140 134 59
152 146 65
148 140 64
143 137 59
149 142 61
142 134 55
147 140 61
136 129 55
135 127 52
129 122 47
135 134 41
144 146 34
151 160 24
151 163 22
161 176 16
162 180 0
165 183 0
169 190 0
168 186 0
168 188 0
167 187 0
169 191 0
170 190 0
170 190 0
171 193 0
172 193 0
171 190 0
170 191 0
168 188 0
170 190 0
171 191 0
170 192 0
171 193 0
173 195 0
171 193 0
172 193 0
170 193 0
170 191 0
172 193 0
172 195 0
173 196 0
172 194 0
173 196 0
169 192 0
170 192 0
171 194 0
173 194 0
173 196 0
171 194 0
170 192 0
172 193 0
172 195 0
172 195 0
172 195 0
174 196 0
172 195 0
173 196 0
172 194 0
174 196 0
173 196 0
172 194 0
171 193 0
173 195 0
172 195 0
174 196 0
172 194 0
173 196 0
172 195 0
172 195 0
174 197 0
173 196 0
173 196 0
175 197 0
173 195 0
172 196 0
174 197 0
172 195 0
175 198 0
173 196 0
173 196 0
173 195 0
173 195 0
173 195 0
172 196 0
173 195 0
173 195 0
173 196 0
174 197 0
173 196 0
174 197 0
174 197 0
173 196 0
173 196 0
174 196 0
174 198 0
174 197 0
174 197 0
174 196 0
173 195 0
173 195 0
175 198 0
173 196 0
173 197 0
174 198 0
175 197 0
175 198 0
173 197 0
173 196 0
173 196 0
174 197 0
174 197 0
173 197 0
173 197 0
174 197 0
173 197 0
174 197 0
175 198 0
175 198 0
173 197 0
174 197 0
173 196 0
173 197 0
173 197 0
173 197 0
174 197 0
173 196 0
173 196 0
172 196 0
173 197 0
175 198 0
174 196 0
173 196 0
174 198 0
172 195 0
173 197 0
174 197 0
173 197 0
175 198 0
173 197 0
174 196 0
171 194 0
175 197 0
174 197 0
173 197 0
174 197 0
173 197 0
174 197 0
174 197 0
172 196 0
173 196 0
174 196 0
174 198 0
173 196 0
173 197 0
174 197 0
172 196 0
173 196 0
173 196 0
174 198 0
174 197 0
172 194 0
173 196 0
171 195 0
173 196 0
172 196 0
175 198 0
173 196 0
174 197 0
173 196 0
172 196 0
173 197 0
172 195 0
173 196 0
172 195 0
171 194 0
172 195 0
174 197 0
173 196 0
172 195 0
172 195 0
171 194 0
174 197 0
173 195 0
172 195 0
174 196 0
173 197 0
172 196 0
173 197 0
173 196 0
173 196 0
172 196 0
173 196 0
173 197 0
173 197 0
173 196 0
173 196 0
173 196 0
173 196 0
172 195 0
173 195 0
173 196 0
171 194 0
172 194 0
172 195 0
173 196 0
170 193 0
172 195 0
173 196 0
170 194 0
171 193 0
173 195 0
170 193 0
171 194 0
172 195 0
171 194 0
172 195 0
171 193 0
171 194 0
173 195 0
174 197 0
170 193 0
170 193 0
172 194 0
173 195 0
169 192 0
173 196 0
170 191 0
168 191 0
170 192 0
170 192 0
171 193 0
171 194 25
173 195 36
172 195 31
172 195 25
171 192 25
169 191 44
172 194 40
172 194 25
172 194 47
173 194 47
171 193 51
170 192 31
171 193 54
172 195 51
173 194 54
173 195 47
172 194 51
170 192 44
174 196 60
172 195 47
173 195 40
171 194 44
170 192 47
171 193 36
169 191 44
170 192 25
168 190 25
169 191 18
169 192 25
167 189 18
166 187 18
167 190 18
168 191 0
167 189 0
167 191 0
168 190 0
159 180 42
95 122 134
60 95 151
61 96 160
60 95 154
61 97 162
61 96 155
62 97 164
61 96 163
61 97 167
61 96 163
60 96 163
60 95 160
62 97 166
60 95 164
60 94 157
61 95 164
61 96 163
61 95 163
61 96 169
60 95 162
61 95 164
61 95 167
61 95 164
61 95 165
60 95 166
60 94 165
60 93 161
61 95 164
61 94 163
61 94 164
60 93 164
59 92 154
61 95 162
60 94 163
61 95 165
61 95 163
60 93 160
61 96 165
60 94 165
61 95 162
60 93 159
60 94 160
60 94 162
60 93 160
61 94 161
60 93 160
60 94 161
61 95 163
61 96 164
60 93 158
60 94 162
61 95 162
61 95 165
61 95 162
61 95 164
61 95 163
61 95 163
61 94 158
60 93 159
61 96 166
61 95 159
60 93 156
61 93 159
61 95 160
60 93 155
61 96 161
61 95 164
61 95 155
61 95 160
62 97 159
60 94 155
61 95 159
61 94 152
61 96 159
60 94 147
61 96 159
61 95 156
60 94 155
61 95 158
60 94 151
61 96 159
60 93 143
60 94 143
58 92 146
60 94 146
59 93 144
58 85 122
66 73 63
76 74 23
76 77 30
82 81 30
82 83 37
80 80 31
100 97 36
94 94 39
102 100 44
101 99 43
109 107 41
117 115 49
119 117 53
128 124 56
119 116 52
123 121 53
138 133 60
132 128 60
136 131 57
138 132 63
137 132 61
144 139 63
142 138 62
147 140 63
150 144 66
149 143 65
152 146 63
148 142 63
153 147 63
158 151 66
148 141 61
155 148 67
147 141 58
152 145 61
158 151 70
156 149 65
153 146 64
155 147 65
146 138 57
155 146 65
152 145 64
150 143 56
150 143 63
151 142 62
147 139 62
146 139 59
139 131 57
137 131 51
135 128 56
143 136 53
135 129 50
133 126 50
140 132 59
129 124 40
135 132 51
142 146 34
145 150 43
152 161 31
153 167 21
160 175 22
165 183 11
169 189 1
169 188 0
170 190 0
165 184 0
170 190 0
169 191 0
171 190 0
168 189 0
170 190 0
171 191 0
171 193 0
169 190 0
168 190 0
171 192 0
169 190 0
171 192 0
171 192 0
169 190 0
169 192 0
170 191 0
171 192 0
171 192 0
172 194 0
171 193 0
172 194 0
171 193 0
172 194 0
170 192 0
171 193 0
172 193 0
172 194 0
172 194 0
171 193 0
173 195 0
171 193 0
174 196 0
172 194 0
170 193 0
172 194 0
170 193 0
172 194 0
172 195 0
173 196 0
174 196 0
172 195 0
171 193 0
173 196 0
174 196 0
174 196 0
173 195 0
172 194 0
171 194 0
173 196 0
171 194 0
173 196 0
173 195 0
173 196 0
175 198 0
174 197 0
174 197 0
172 195 0
173 196 0
173 196 0
173 195 0
171 195 0
174 197 0
173 196 0
174 196 0
173 196 0
173 196 0
173 196 0
174 197 0
173 196 0
173 196 0
173 195 0
173 195 0
173 196 0
173 196 0
172 195 0
174 198 0
173 196 0
173 196 0
174 197 0
174 196 0
174 197 0
174 197 0
174 196 0
174 198 0
173 196 0
173 197 0
174 197 0
173 197 0
173 196 0
172 195 0
172 195 0
174 197 0
173 196 0
174 197 0
172 195 0
174 197 0
172 195 0
174 197 0
174 197 0
173 196 0
174 198 0
173 197 0
173 197 0
173 195 0
173 196 0
173 196 0
174 197 0
173 197 0
173 197 0
174 197 0
175 198 0
173 197 0
173 196 0
173 196 0
174 197 0
174 197 0
173 197 0
173 196 0
174 197 0
174 197 0
173 197 0
174 197 0
174 197 0
173 197 0
174 197 0
173 197 0
172 196 0
174 197 0
172 196 0
174 197 0
175 197 0
173 196 0
174 197 0
174 197 0
174 196 0
173 196 0
172 195 0
172 196 0
172 195 0
173 196 0
174 197 0
175 198 0
172 196 0
173 196 0
172 195 0
172 195 0
172 196 0
172 196 0
173 197 0
172 195 0
172 195 0
175 198 0
172 194 0
172 194 0
173 196 0
171 194 0
173 196 0
172 195 0
173 196 0
174 197 0
172 195 0
171 193 0
174 197 0
173 195 0
173 197 0
174 197 0
173 196 0
173 196 0
173 196 0
173 195 0
172 195 0
172 195 0
172 195 0
174 196 0
172 195 0
172 195 0
173 195 0
172 195 0
172 195 0
172 195 0
172 195 0
172 196 0
171 194 0
172 196 0
171 194 0
173 196 0
170 192 0
172 195 0
172 195 0
173 195 0
173 196 0
171 194 0
171 194 0
171 194 0
171 194 0
172 195 0
171 194 0
173 196 0
173 195 0
169 192 0
170 193 0
172 194 0
172 195 0
170 193 0
174 197 0
171 194 0
171 194 0
171 194 0
170 194 0
172 195 25
171 195 40
170 192 36
173 195 40
171 193 40
172 194 47
172 194 60
173 195 51
172 195 51
174 197 44
174 196 65
171 194 44
173 195 72
175 197 54
172 195 54
174 196 57
171 194 51
173 195 51
171 192 57
170 193 44
172 194 36
173 196 47
171 193 47
174 196 62
171 194 44
171 193 36
170 192 60
169 191 44
170 190 51
169 191 40
165 187 25
168 190 36
170 192 25
166 187 32
168 190 25
169 191 18
168 189 0
168 190 0
160 183 46
86 114 139
60 94 149
61 96 156
60 95 156
59 94 157
60 94 158
61 96 161
61 96 159
61 96 164
61 96 162
61 96 162
62 97 162
61 96 164
60 95 160
61 95 163
61 97 165
61 96 166
62 97 169
62 98 172
60 95 165
61 96 167
61 95 164
60 94 161
60 93 161
61 96 164
60 95 163
61 96 168
61 95 162
59 92 156
60 94 160
59 92 159
60 93 158
60 93 161
61 95 166
61 95 165
60 93 162
60 94 160
61 95 165
60 93 160
59 93 158
61 94 163
60 94 161
59 92 153
60 93 157
60 94 164
61 94 162
61 95 159
61 95 161
60 92 155
60 93 158
61 95 161
60 93 159
61 95 161
59 92 154
60 92 157
61 94 159
60 93 158
60 94 157
61 94 157
60 94 160
61 95 160
61 94 161
61 94 157
61 95 160
60 94 155
61 96 162
61 95 160
61 96 161
60 95 154
61 94 158
61 94 158
61 95 154
61 95 158
61 96 160
62 96 160
60 94 151
62 96 158
60 93 151
61 95 152
60 94 146
61 96 161
61 95 148
60 93 155
60 94 147
59 93 144
60 94 148
61 87 125
64 74 71
68 69 18
74 75 26
74 73 27
81 82 31
87 87 34
91 90 31
87 88 38
95 94 37
101 99 46
103 101 47
109 109 47
119 116 48
118 115 48
115 112 47
128 123 54
130 126 57
136 132 64
136 130 60
139 134 60
136 131 56
144 138 61
141 136 61
144 138 58
148 142 59
146 141 63
147 141 62
147 141 59
152 146 66
153 147 61
153 147 63
155 148 62
153 148 60
155 148 64
155 149 68
147 141 57
149 143 62
153 146 63
151 145 61
144 137 56
148 141 56
149 142 56
149 142 58
147 141 59
144 138 57
140 135 50
147 139 61
139 131 54
145 137 56
142 134 60
138 131 52
136 129 55
131 124 49
129 125 41
141 139 45
142 148 29
144 153 25
154 164 34
163 178 21
162 179 14
165 183 0
168 188 0
170 189 0
169 188 0
168 187 0
169 188 0
171 192 0
169 188 0
170 191 0
170 190 0
170 191 0
170 192 0
169 189 0
170 193 0
170 192 0
169 191 0
170 191 0
171 192 0
170 191 0
169 191 0
172 193 0
170 191 0
172 195 0
173 196 0
171 193 0
169 191 0
172 194 0
171 192 0
171 192 0
171 193 0
171 193 0
172 195 0
172 195 0
171 193 0
172 194 0
172 194 0
173 196 0
172 195 0
172 194 0
173 195 0
171 193 0
173 195 0
172 195 0
172 194 0
171 194 0
173 197 0
173 194 0
173 194 0
171 193 0
172 196 0
172 194 0
172 195 0
173 195 0
175 197 0
173 196 0
174 196 0
173 195 0
173 197 0
173 196 0
173 194 0
173 196 0
173 197 0
174 196 0
174 196 0
173 196 0
172 195 0
173 194 0
174 196 0
172 195 0
173 196 0
173 196 0
173 196 0
172 195 0
173 196 0
175 197 0
172 195 0
173 196 0
174 197 0
175 198 0
172 195 0
174 197 0
173 196 0
171 194 0
174 197 0
173 195 0
172 196 0
172 196 0
174 198 0
173 196 0
172 196 0
174 197 0
175 197 0
175 197 0
174 197 0
174 196 0
173 196 0
174 197 0
174 197 0
173 196 0
173 195 0
173 196 0
174 197 0
175 198 0
174 197 0
174 197 0
173 196 0
173 197 0
174 198 0
174 197 0
173 197 0
174 197 0
174 196 0
173 197 0
174 197 0
174 197 0
172 196 0
173 197 0
173 196 0
172 196 0
174 197 0
174 197 0
174 197 0
173 197 0
173 196 0
173 197 0
173 196 0
172 195 0
175 197 0
175 198 0
175 198 0
174 197 0
173 197 0
174 197 0
173 197 0
174 197 0
173 197 0
173 196 0
174 196 0
174 197 0
173 196 0
173 196 0
173 196 0
173 196 0
173 195 0
173 197 0
173 196 0
173 196 0
172 195 0
172 195 0
174 197 0
171 195 0
173 196 0
173 196 0
174 197 0
173 197 0
173 196 0
174 197 0
173 196 0
172 195 0
173 195 0
174 197 0
173 196 0
173 196 0
174 196 0
174 197 0
174 197 0
174 196 0
173 197 0
172 197 0
173 195 0
172 194 0
174 197 0
171 194 0
172 195 0
171 194 0
173 196 0
173 196 0
173 197 0
172 196 0
170 193 0
171 194 0
173 196 0
172 196 0
171 195 0
172 196 0
173 195 0
172 194 0
172 195 0
172 194 0
173 196 0
173 195 0
172 195 0
173 196 0
172 195 0
173 196 0
171 193 0
171 193 0
172 196 0
170 193 0
173 195 0
171 193 0
170 193 0
173 196 0
169 192 0
171 194 0
170 194 0
172 194 0
170 192 0
171 193 0
171 195 0
172 195 18
171 194 25
171 194 25
170 192 40
170 193 40
172 194 40
172 194 51
173 194 60
174 196 57
175 197 67
173 194 51
173 195 57
172 194 57
174 196 40
173 194 65
177 199 78
175 197 78
174 196 78
177 199 80
175 197 88
175 196 74
174 195 70
177 199 84
174 195 80
170 191 84
174 195 78
174 195 74
172 194 70
173 194 70
173 194 54
172 194 72
171 193 57
172 194 65
172 193 57
171 193 62
170 191 60
167 189 25
170 192 54
166 188 36
168 189 44
168 191 36
166 189 18
150 173 76
90 118 136
64 98 150
62 96 158
61 96 158
61 96 158
61 96 156
62 98 166
61 97 163
60 95 158
61 96 164
61 95 161
61 96 163
61 96 166
62 97 165
62 96 164
61 96 164
61 97 168
61 96 163
60 95 163
60 95 163
60 94 162
61 95 165
60 95 165
61 96 167
61 96 167
60 95 165
61 95 164
61 96 163
60 94 164
60 94 161
59 93 161
61 95 162
59 92 157
61 94 162
60 94 161
60 94 164
60 94 157
60 94 160
60 94 157
61 95 162
61 95 162
61 95 161
61 95 161
61 95 164
61 94 157
60 93 158
60 94 162
60 94 159
61 95 162
59 92 157
61 95 162
60 95 157
62 95 163
61 96 162
61 95 163
61 94 158
61 94 160
59 92 151
60 94 158
61 95 159
61 95 162
60 94 160
61 95 159
60 94 153
61 96 160
61 94 159
60 92 156
60 95 154
61 95 156
60 95 156
61 94 155
61 95 157
62 96 162
60 94 151
62 97 156
61 95 157
61 94 150
61 96 158
61 95 152
60 94 153
60 94 153
61 94 151
60 94 148
59 93 146
60 94 147
60 93 143
61 89 132
73 80 75
76 76 19
86 85 27
82 83 27
80 81 28
84 83 27
98 97 30
102 101 37
100 97 39
107 104 36
103 101 37
112 109 45
117 115 49
122 119 47
122 118 48
121 118 43
129 125 53
131 127 56
134 130 48
139 134 56
133 128 56
139 133 57
148 142 62
141 136 48
150 143 58
149 143 63
147 142 58
148 143 64
152 145 64
148 142 58
155 148 64
152 146 64
152 144 62
149 142 59
151 143 61
153 147 57
144 137 52
146 139 61
152 145 64
151 145 58
148 142 56
147 139 58
143 136 56
145 138 57
148 140 58
136 129 53
140 133 53
135 128 53
140 133 54
134 125 49
130 123 46
135 129 48
134 128 43
136 132 40
137 141 34
140 146 29
150 160 27
154 167 19
162 175 14
166 183 1
168 188 0
164 184 0
168 187 0
167 186 0
170 191 0
165 183 0
168 188 0
169 189 0
169 190 0
169 190 0
169 190 0
171 191 0
169 190 0
170 191 0
169 190 0
169 189 0
171 192 0
171 193 0
170 192 0
170 191 0
171 192 0
170 191 0
170 191 0
171 192 0
173 195 0
171 193 0
170 192 0
172 195 0
172 194 0
169 191 0
172 194 0
172 195 0
174 194 0
170 192 0
171 193 0
172 194 0
172 195 0
172 194 0
173 195 0
172 195 0
171 194 0
172 193 0
174 197 0
171 193 0
173 196 0
172 195 0
172 195 0
172 193 0
172 194 0
173 195 0
171 195 0
172 195 0
174 196 0
172 194 0
173 196 0
173 196 0
172 195 0
173 196 0
174 196 0
172 196 0
172 194 0
174 195 0
174 196 0
171 194 0
173 196 0
174 197 0
172 195 0
174 197 0
174 197 0
173 196 0
174 197 0
172 196 0
174 196 0
172 196 0
174 197 0
173 195 0
173 196 0
174 197 0
172 195 0
174 197 0
174 196 0
175 198 0
173 196 0
174 197 0
174 197 0
172 196 0
174 197 0
173 196 0
174 196 0
173 197 0
174 197 0
174 197 0
173 197 0
173 196 0
173 196 0
172 195 0
173 197 0
173 196 0
173 196 0
173 197 0
174 196 0
174 197 0
173 197 0
173 196 0
174 197 0
173 196 0
173 196 0
173 196 0
174 197 0
174 197 0
173 196 0
175 197 0
174 197 0
173 196 0
173 196 0
173 197 0
173 196 0
172 195 0
173 196 0
173 196 0
172 196 0
173 196 0
175 198 0
174 197 0
174 197 0
174 198 0
173 197 0
172 195 0
174 197 0
174 197 0
173 196 0
173 196 0
174 197 0
173 196 0
173 196 0
174 196 0
172 195 0
173 196 0
172 195 0
173 196 0
174 197 0
172 195 0
174 197 0
171 195 0
173 197 0
173 196 0
172 194 0
173 197 0
173 196 0
172 195 0
173 196 0
172 196 0
173 196 0
172 195 0
174 195 0
173 196 0
174 197 0
171 195 0
173 195 0
173 196 0
172 195 0
174 197 0
175 198 0
172 194 0
171 194 0
173 197 0
172 194 0
174 197 0
171 194 0
172 195 0
173 196 0
172 195 0
172 194 0
172 195 0
173 196 0
173 196 0
170 192 0
172 196 0
173 196 0
171 194 0
173 196 0
171 194 0
171 194 0
173 196 0
173 196 0
171 194 0
173 195 0
173 195 0
170 193 0
172 194 0
174 197 0
171 195 0
172 195 0
171 194 0
171 194 0
171 195 0
172 195 0
172 196 0
170 193 0
172 194 0
171 193 0
170 193 0
172 194 0
171 194 0
171 194 0
172 195 0
172 195 18
172 195 18
171 194 0
171 195 31
171 194 36
172 194 44
173 195 60
172 195 47
172 194 44
171 192 72
172 195 47
176 198 65
174 196 51
175 197 60
171 193 47
177 198 88
175 196 70
176 198 70
178 198 95
182 203 111
179 200 100
179 199 105
177 199 97
179 200 103
177 200 95
181 202 103
180 201 105
180 201 115
180 202 99
180 200 110
177 197 88
177 198 107
175 196 86
178 200 105
172 194 80
170 191 60
171 192 72
172 193 76
169 190 54
170 193 67
171 194 54
172 194 60
171 193 54
170 192 40
170 192 44
164 186 44
150 173 82
90 118 144
70 102 152
66 98 149
60 95 155
61 96 153
60 94 153
61 96 160
61 95 159
62 97 164
62 97 167
60 95 161
60 95 160
61 96 163
61 96 161
61 95 163
62 98 171
61 96 162
60 94 161
61 96 167
62 97 167
61 95 163
61 95 164
62 97 166
61 97 166
62 97 170
60 95 161
61 95 162
61 96 166
60 94 160
61 96 160
61 96 163
61 95 162
61 95 162
60 94 159
61 95 162
60 94 159
61 94 159
60 93 157
60 93 161
61 96 165
61 96 165
61 95 164
60 94 160
61 95 163
61 93 160
60 94 158
61 95 158
60 93 152
61 95 160
61 95 160
60 93 157
60 94 156
61 95 160
60 94 159
61 95 159
61 95 160
61 95 157
61 94 158
61 95 161
60 95 158
61 96 160
60 94 156
61 95 158
60 95 157
61 95 151
62 96 157
61 94 155
61 94 157
62 97 164
60 94 153
61 95 152
61 96 161
61 96 157
61 96 155
60 94 154
61 96 156
61 95 153
61 95 154
62 97 159
61 96 154
60 94 149
61 96 153
61 95 150
60 94 150
61 96 153
59 92 146
59 87 128
61 70 69
71 70 21
80 80 19
84 84 21
85 83 31
87 86 32
85 85 24
103 101 34
96 95 38
98 95 31
110 108 41
117 115 44
110 108 41
118 114 43
115 112 43
121 117 47
123 120 47
128 124 47
137 132 57
139 134 50
141 135 51
134 130 53
140 134 54
140 135 51
143 138 51
143 137 59
141 135 54
146 141 58
144 138 54
148 142 57
144 138 57
148 142 57
149 142 60
148 142 59
149 142 58
148 141 57
146 138 57
144 137 53
143 136 51
150 143 59
142 136 53
146 139 56
139 132 50
147 139 59
145 138 50
134 126 47
139 130 49
134 126 44
136 127 44
131 125 48
134 126 51
131 124 49
138 136 42
135 137 39
141 146 37
148 153 29
153 165 26
161 175 19
162 180 11
167 184 8
170 187 0
167 187 0
168 186 0
169 189 0
169 188 0
169 188 0
167 186 0
170 189 0
168 187 0
169 188 0
168 187 0
170 190 0
168 188 0
170 191 0
171 191 0
170 190 0
170 190 0
170 191 0
172 194 0
170 192 0
171 192 0
170 191 0
169 191 0
172 195 0
170 191 0
172 193 0
169 191 0
171 193 0
172 193 0
171 193 0
170 192 0
172 195 0
172 194 0
172 194 0
171 194 0
173 196 0
172 194 0
172 195 0
173 197 0
172 194 0
173 194 0
172 193 0
171 194 0
174 196 0
172 193 0
172 194 0
173 197 0
172 194 0
171 193 0
173 196 0
171 194 0
171 193 0
171 195 0
173 196 0
173 195 0
173 195 0
173 195 0
172 196 0
172 195 0
173 196 0
172 196 0
172 196 0
173 196 0
173 196 0
171 194 0
174 197 0
173 196 0
175 196 0
173 196 0
173 196 0
174 197 0
173 196 0
173 196 0
174 196 0
172 195 0
173 196 0
172 195 0
173 196 0
172 195 0
174 198 0
174 197 0
173 196 0
175 198 0
174 198 0
174 197 0
174 196 0
174 196 0
172 196 0
174 197 0
173 196 0
173 197 0
174 197 0
174 197 0
174 197 0
174 198 0
173 197 0
173 197 0
175 197 0
173 196 0
173 196 0
174 197 0
172 196 0
174 197 0
174 197 0
171 195 0
175 197 0
175 198 0
173 196 0
174 197 0
174 197 0
174 196 0
173 196 0
173 197 0
173 197 0
174 197 0
172 195 0
173 197 0
173 196 0
172 195 0
173 197 0
174 197 0
173 195 0
173 197 0
173 196 0
172 196 0
173 196 0
174 197 0
175 198 0
174 197 0
173 197 0
173 197 0
174 197 0
173 196 0
173 196 0
172 195 0
175 198 0
175 198 0
174 197 0
174 197 0
172 194 0
172 195 0
174 197 0
172 194 0
172 195 0
173 197 0
174 197 0
174 196 0
171 195 0
174 196 0
175 198 0
172 196 0
173 197 0
173 196 0
172 196 0
173 196 0
172 196 0
173 196 0
172 195 0
173 196 0
175 197 0
173 196 0
173 196 0
172 194 0
173 195 0
173 196 0
172 195 0
171 194 0
173 196 0
173 196 0
173 196 0
172 195 0
173 196 0
172 196 0
173 196 0
170 193 0
172 195 0
171 195 0
172 195 0
173 196 0
173 196 0
171 194 0
172 195 0
170 193 0
172 195 0
173 195 0
172 195 0
173 195 0
172 195 0
172 195 0
171 195 0
172 195 0
169 192 0
171 193 0
171 194 0
172 194 0
171 194 0
172 195 0
173 195 0
172 194 0
171 194 0
171 193 0
171 193 0
171 194 0
170 193 0
169 192 0
171 194 31
172 195 31
171 194 18
171 195 18
171 192 44
173 195 60
175 197 65
174 197 62
172 195 51
175 197 70
177 199 72
176 198 80
181 201 102
175 197 76
179 199 97
179 200 113
176 197 84
179 200 115
181 202 108
184 205 120
185 206 122
181 201 105
182 202 120
185 206 131
184 203 122
183 203 120
184 205 130
185 206 133
182 202 115
182 203 126
182 202 113
184 204 129
181 201 121
180 200 121
181 202 115
180 201 115
178 199 100
178 198 90
174 195 90
177 197 101
172 194 84
174 196 74
173 193 68
170 193 70
167 189 57
164 186 43
158 181 66
147 169 91
92 119 147
75 106 153
67 100 160
61 95 149
64 97 154
62 96 157
61 96 154
61 96 161
60 94 162
60 95 161
61 95 161
60 94 157
60 94 158
60 95 164
61 97 169
60 95 159
62 97 167
62 98 167
60 95 161
61 96 164
61 96 161
61 96 162
61 96 165
60 95 165
61 95 160
62 97 170
60 93 157
61 95 164
61 96 162
61 96 164
61 96 166
60 95 163
60 94 162
61 97 168
61 96 166
61 95 164
60 94 163
60 94 157
61 95 162
61 96 165
60 94 156
61 94 161
60 94 163
61 96 159
61 95 160
60 93 159
60 94 158
61 95 158
61 94 156
61 95 159
61 95 160
61 94 160
61 95 161
61 95 159
62 97 163
61 95 157
60 95 160
61 95 162
60 94 156
62 96 164
61 95 155
60 93 154
60 93 157
60 92 156
62 96 162
62 97 162
61 95 157
61 96 160
60 94 151
62 97 162
62 96 159
61 96 158
61 96 159
61 96 157
60 94 154
61 95 155
61 96 155
61 96 157
60 94 155
61 95 153
61 96 147
61 95 152
60 93 150
60 94 145
60 94 147
59 91 140
63 89 123
71 79 76
73 73 20
73 73 24
83 82 24
90 88 26
89 89 28
88 87 25
99 97 29
101 98 28
101 98 35
102 99 36
102 99 34
114 111 36
117 113 43
117 113 40
123 119 47
123 120 40
127 123 47
133 130 51
128 124 47
132 127 50
131 126 52
137 132 48
135 129 48
136 130 50
138 133 51
150 142 61
144 138 53
147 141 57
142 136 54
143 137 46
141 135 48
144 138 53
145 137 51
146 139 52
150 142 59
148 142 56
148 141 53
147 140 52
145 138 51
143 136 49
144 136 54
139 132 54
140 133 49
139 131 48
138 130 51
137 131 49
124 118 39
130 122 38
126 118 36
130 123 41
133 131 35
134 135 37
140 143 34
148 156 21
154 165 21
158 171 19
159 172 12
167 185 11
168 187 0
168 187 0
168 188 0
165 184 0
167 186 0
169 188 0
167 188 0
167 186 0
167 188 0
171 191 0
168 189 0
169 189 0
166 184 0
168 187 0
168 187 0
168 188 0
170 192 0
169 189 0
170 190 0
169 191 0
170 191 0
171 192 0
169 191 0
170 192 0
169 188 0
174 196 0
170 191 0
171 193 0
171 192 0
172 194 0
173 194 0
172 194 0
171 193 0
173 195 0
172 193 0
173 194 0
172 194 0
171 193 0
171 193 0
171 194 0
171 194 0
172 194 0
174 195 0
173 195 0
172 195 0
172 195 0
173 195 0
172 194 0
172 194 0
172 195 0
171 193 0
171 194 0
173 196 0
173 195 0
173 196 0
172 194 0
173 195 0
173 196 0
172 194 0
172 195 0
172 194 0
173 196 0
172 195 0
173 195 0
173 196 0
173 196 0
173 195 0
174 197 0
173 196 0
175 198 0
172 194 0
173 196 0
174 196 0
172 195 0
173 196 0
173 196 0
173 196 0
172 196 0
174 197 0
173 197 0
172 195 0
173 195 0
174 196 0
172 195 0
172 195 0
174 196 0
174 197 0
173 197 0
174 197 0
173 196 0
173 196 0
174 197 0
172 196 0
174 197 0
174 197 0
174 197 0
173 197 0
174 197 0
174 196 0
173 196 0
172 196 0
174 197 0
174 197 0
173 196 0
174 197 0
173 197 0
173 196 0
174 197 0
174 197 0
174 197 0
174 197 0
173 197 0
174 197 0
172 196 0
173 197 0
173 196 0
175 198 0
174 197 0
173 196 0
175 198 0
173 196 0
174 197 0
174 197 0
174 197 0
173 197 0
173 197 0
173 195 0
175 198 0
175 198 0
174 197 0
172 196 0
174 197 0
174 197 0
172 195 0
174 197 0
173 195 0
172 196 0
173 196 0
172 196 0
173 196 0
173 197 0
172 195 0
173 197 0
173 196 0
172 196 0
173 197 0
174 198 0
172 195 0
173 196 0
172 195 0
172 196 0
171 195 0
172 196 0
173 196 0
173 196 0
174 197 0
174 197 0
173 197 0
174 197 0
172 195 0
172 195 0
175 197 0
173 196 0
172 196 0
172 195 0
172 195 0
173 196 0
171 194 0
172 195 0
173 196 0
171 194 0
171 194 0
173 196 0
174 197 0
171 194 0
171 193 0
172 195 0
170 193 0
172 196 0
171 193 0
170 194 0
172 196 0
173 196 0
172 195 0
172 195 0
172 195 0
170 193 0
172 194 0
172 195 0
172 195 0
172 195 0
172 195 0
171 194 0
172 196 0
171 194 0
172 195 0
170 194 0
172 196 0
172 195 0
171 194 0
171 194 0
170 193 0
172 196 0
170 193 18
170 193 0
173 196 18
173 194 47
171 192 31
171 194 36
175 197 62
175 198 62
174 198 65
171 193 60
174 195 60
170 191 57
176 197 76
176 197 74
179 200 95
179 200 103
179 200 111
179 200 108
180 201 108
186 206 134
181 201 122
183 203 122
185 204 135
190 210 154
185 206 131
189 208 152
191 210 154
190 210 153
189 209 153
190 209 155
189 208 157
185 205 134
186 206 150
186 206 139
188 207 144
185 205 131
182 202 124
190 210 158
183 203 122
183 203 133
182 202 126
187 205 145
180 200 117
180 200 108
174 194 87
174 195 94
175 196 88
173 195 79
162 183 75
155 177 91
146 169 104
98 122 145
76 106 152
67 99 153
65 98 155
64 98 150
63 97 154
65 98 158
63 96 161
61 96 162
61 96 159
61 96 164
61 95 162
60 94 158
61 96 162
61 96 163
61 96 163
59 93 157
60 95 161
60 94 158
61 96 162
60 94 160
60 94 161
61 96 165
61 96 165
60 94 162
61 96 165
60 95 160
61 96 164
61 95 164
61 97 160
61 95 159
60 94 160
61 96 162
60 94 161
61 95 161
61 96 165
60 93 159
60 94 163
61 95 164
61 95 162
61 95 158
60 93 157
61 95 162
61 95 161
62 97 162
61 95 158
62 96 164
62 96 165
61 96 164
61 95 158
61 95 160
62 96 161
61 95 159
62 96 161
61 96 159
61 95 161
61 95 159
61 96 155
61 95 161
60 94 153
60 95 160
61 96 162
61 96 158
61 95 158
61 96 162
61 95 156
61 96 158
61 96 158
61 95 154
61 96 157
61 96 155
62 96 157
62 96 155
62 97 159
62 97 160
62 97 159
61 96 154
62 97 158
61 95 150
61 96 158
61 96 152
60 95 150
60 94 146
60 94 144
59 92 140
59 93 146
62 89 124
71 78 78
82 80 22
82 77 17
88 85 22
83 79 18
79 77 20
87 84 26
93 92 28
101 99 34
98 96 32
107 104 28
105 101 38
107 105 34
111 108 34
113 108 35
127 123 47
119 114 39
125 120 47
131 125 48
127 122 48
134 129 50
136 130 53
132 127 40
136 131 43
134 128 46
141 136 51
138 133 49
135 130 49
147 139 54
145 138 51
142 136 50
142 137 51
143 135 50
146 140 53
147 139 58
143 136 52
143 135 54
142 136 50
141 134 49
138 131 45
141 134 54
139 133 52
137 129 51
136 130 49
136 129 48
131 124 41
132 126 42
124 118 30
124 116 39
130 123 37
136 135 40
134 132 35
140 144 32
142 149 23
151 161 24
152 164 22
163 175 16
159 176 8
165 182 0
168 185 0
169 186 0
164 182 0
165 183 0
166 186 0
166 184 0
168 185 0
171 190 0
168 186 0
169 189 0
171 192 0
169 189 0
171 191 0
167 187 0
172 193 0
169 190 0
169 190 0
170 191 0
171 192 0
170 192 0
171 193 0
172 194 0
170 190 0
169 191 0
171 193 0
171 192 0
171 193 0
170 191 0
172 195 0
170 192 0
171 193 0
173 195 0
170 192 0
171 192 0
172 194 0
169 192 0
171 193 0
172 193 0
171 194 0
172 195 0
172 193 0
173 195 0
171 192 0
172 196 0
173 194 0
170 193 0
173 196 0
173 195 0
172 196 0
173 196 0
172 195 0
174 198 0
173 196 0
172 194 0
173 195 0
173 196 0
172 196 0
173 196 0
174 196 0
173 195 0
174 196 0
171 193 0
173 196 0
173 196 0
173 195 0
172 196 0
173 196 0
172 195 0
172 195 0
174 197 0
173 197 0
172 196 0
173 196 0
175 197 0
173 196 0
173 196 0
172 195 0
174 198 0
172 195 0
174 196 0
172 196 0
173 196 0
174 197 0
173 197 0
174 198 0
173 196 0
173 196 0
173 196 0
173 197 0
175 197 0
173 196 0
173 195 0
172 195 0
175 198 0
173 196 0
174 197 0
172 195 0
174 197 0
173 196 0
174 197 0
174 196 0
174 197 0
173 197 0
175 197 0
174 197 0
173 197 0
174 197 0
173 196 0
173 196 0
174 197 0
174 196 0
173 197 0
174 197 0
175 197 0
173 196 0
174 197 0
174 197 0
174 197 0
176 198 0
173 196 0
173 196 0
173 197 0
173 196 0
174 197 0
175 198 0
174 197 0
174 197 0
173 196 0
175 198 0
174 197 0
174 196 0
170 194 0
173 197 0
172 196 0
171 195 0
173 197 0
173 196 0
172 196 0
173 196 0
173 197 0
173 196 0
172 195 0
173 196 0
173 196 0
173 196 0
175 198 0
174 197 0
174 197 0
173 196 0
173 195 0
173 197 0
173 196 0
174 197 0
172 195 0
172 195 0
173 196 0
173 196 0
173 196 0
173 196 0
171 195 0
173 196 0
173 196 0
174 196 0
174 196 0
171 195 0
173 195 0
172 194 0
171 194 0
172 195 0
172 195 0
174 196 0
173 196 0
171 193 0
170 193 0
172 196 0
171 195 0
172 195 0
172 195 0
172 195 0
172 194 0
173 196 0
170 193 0
174 196 0
171 195 0
170 193 0
172 195 0
172 194 0
172 195 0
172 195 0
172 195 0
171 193 0
171 194 0
172 195 0
172 195 0
171 194 0
172 195 0
172 196 0
171 194 0
172 195 0
172 195 0
172 195 0
170 193 18
171 195 0
173 195 25
172 194 25
173 195 51
172 194 44
170 193 44
174 195 60
174 197 54
173 196 54
173 196 67
176 197 76
177 197 82
175 196 86
177 199 97
178 199 95
184 204 133
186 206 136
183 204 122
187 207 141
189 209 142
188 208 147
189 209 148
188 208 150
193 212 172
192 211 165
191 211 171
191 210 161
193 213 166
189 209 161
190 210 158
193 213 169
191 211 158
196 214 176
195 213 175
189 208 159
192 211 169
192 211 163
189 209 154
185 205 137
188 208 150
190 209 161
188 208 147
188 207 144
185 205 135
180 200 115
181 201 118
177 198 103
178 199 102
177 197 108
160 182 112
144 167 118
135 156 116
103 127 135
84 112 157
71 101 151
71 102 156
67 98 153
64 97 155
63 97 158
61 95 153
62 97 158
61 96 161
60 95 156
61 96 165
60 95 158
61 96 166
60 96 161
61 95 160
60 96 160
61 96 164
61 97 167
60 95 162
61 96 165
60 94 156
61 96 165
60 96 164
61 96 163
62 97 167
61 96 165
61 96 167
61 96 166
61 95 164
60 95 158
60 93 159
60 95 161
61 95 164
60 94 158
60 95 157
61 96 162
61 96 163
61 96 166
61 96 160
60 95 161
61 96 161
61 95 160
60 95 159
61 95 165
61 95 162
61 95 162
61 94 157
61 95 157
61 95 161
61 94 160
61 94 161
61 96 161
61 94 158
61 95 157
61 94 156
61 95 157
61 96 160
61 96 159
61 96 158
61 95 159
61 95 153
61 96 157
61 95 158
60 94 152
60 94 151
62 96 156
62 95 161
60 93 152
62 96 156
61 96 154
61 95 152
61 95 154
61 95 154
60 94 145
61 95 152
61 95 149
61 96 152
61 95 148
61 96 155
60 95 147
61 94 148
61 96 151
61 95 152
61 96 152
59 91 140
60 88 122
75 82 68
77 76 26
88 85 19
85 84 18
81 81 18
87 84 20
92 91 19
95 92 26
95 93 26
97 95 22
105 102 29
104 102 29
112 109 29
114 111 32
114 109 36
122 118 42
123 119 39
127 120 44
124 119 35
129 124 44
129 123 44
137 131 51
128 124 40
135 131 48
132 125 46
136 131 45
139 134 47
142 135 50
143 137 51
144 137 47
139 132 43
137 131 45
141 135 48
142 136 49
140 133 51
145 138 48
135 128 43
137 130 42
137 131 44
133 127 38
135 128 43
134 128 42
134 127 47
131 123 49
125 120 37
134 127 46
134 126 47
127 121 36
122 119 30
132 130 33
135 136 33
137 139 35
146 152 24
147 154 21
152 162 25
158 172 12
164 180 8
163 180 0
166 185 0
165 183 0
164 183 0
165 183 0
167 187 0
166 184 0
169 189 0
166 184 0
167 186 0
167 186 0
168 188 0
169 189 0
169 187 0
168 188 0
166 187 0
169 188 0
169 189 0
168 186 0
168 189 0
170 192 0
170 191 0
171 192 0
173 194 0
169 190 0
171 194 0
172 193 0
170 191 0
171 192 0
172 194 0
172 194 0
171 193 0
170 193 0
172 194 0
171 193 0
171 193 0
172 193 0
171 192 0
172 194 0
173 195 0
172 196 0
173 196 0
170 192 0
170 193 0
171 194 0
172 195 0
172 195 0
171 193 0
172 195 0
171 193 0
173 195 0
171 193 0
173 195 0
171 193 0
172 195 0
173 195 0
173 196 0
173 196 0
174 196 0
173 196 0
171 194 0
171 195 0
172 194 0
174 197 0
172 195 0
172 195 0
174 196 0
173 195 0
174 197 0
172 196 0
174 197 0
174 195 0
173 195 0
171 194 0
172 195 0
173 195 0
175 197 0
174 197 0
173 196 0
174 196 0
173 195 0
173 196 0
174 197 0
175 198 0
173 196 0
173 196 0
172 195 0
172 195 0
173 196 0
173 195 0
173 196 0
174 196 0
174 197 0
174 197 0
172 195 0
172 195 0
175 197 0
173 196 0
173 196 0
175 198 0
174 196 0
175 198 0
172 195 0
173 196 0
174 197 0
172 195 0
173 196 0
174 197 0
174 197 0
173 196 0
174 196 0
173 197 0
173 197 0
173 197 0
172 196 0
173 197 0
174 197 0
173 196 0
174 198 0
174 197 0
174 197 0
175 198 0
172 196 0
175 198 0
173 197 0
174 197 0
174 197 0
173 196 0
172 195 0
173 196 0
173 197 0
173 197 0
172 196 0
173 197 0
173 197 0
172 195 0
173 196 0
172 196 0
172 196 0
172 196 0
174 197 0
173 196 0
173 196 0
174 196 0
174 197 0
174 197 0
173 196 0
172 195 0
172 196 0
174 196 0
173 196 0
173 195 0
174 197 0
172 195 0
172 194 0
172 195 0
173 195 0
173 195 0
173 196 0
172 196 0
172 195 0
171 195 0
174 197 0
173 196 0
171 194 0
173 196 0
173 196 0
172 195 0
172 194 0
173 196 0
174 197 0
173 196 0
174 197 0
171 194 0
172 195 0
171 194 0
172 195 0
173 196 0
172 195 0
173 196 0
172 196 0
172 196 0
173 196 0
172 195 0
172 195 0
171 194 0
170 193 0
173 195 0
171 193 0
171 194 0
172 195 0
172 195 0
171 194 0
171 193 0
172 196 0
170 193 0
170 194 0
172 194 0
171 193 0
172 195 0
169 193 0
171 195 0
172 194 18
172 195 25
176 197 51
174 196 51
173 196 47
172 194 57
172 196 25
174 196 54
175 197 70
177 199 78
178 200 76
174 196 97
179 199 97
182 203 113
184 204 124
182 203 125
187 207 139
187 207 139
188 208 147
191 211 155
188 208 149
189 209 152
192 212 159
192 212 173
192 212 168
195 215 181
195 214 175
196 215 177
196 215 183
198 217 194
196 215 181
192 211 169
196 215 189
196 215 185
197 216 185
200 219 198
197 215 188
192 212 168
195 215 179
196 214 181
194 213 170
192 212 172
196 215 178
196 214 176
190 208 159
190 209 156
190 209 154
188 208 148
185 204 137
180 200 123
175 196 111
158 178 140
149 169 154
133 155 132
99 124 150
88 115 159
75 106 158
75 107 157
68 99 151
68 100 155
64 97 160
64 97 157
62 95 154
63 96 156
61 96 160
61 95 162
61 95 161
61 96 165
61 95 164
60 95 161
61 96 163
60 96 161
60 95 161
61 94 157
60 95 164
61 96 168
60 95 160
60 95 163
61 96 165
60 95 163
61 95 161
61 96 164
60 94 160
61 95 162
61 94 158
60 94 158
60 94 159
62 97 166
61 97 166
60 95 163
60 94 159
60 93 156
61 95 161
61 96 162
61 95 162
61 95 158
62 97 167
61 96 161
61 95 162
60 94 156
61 95 158
62 98 166
61 96 162
61 95 161
61 94 155
60 94 159
61 95 157
61 94 157
61 95 157
61 95 156
61 95 156
61 96 158
61 96 162
61 95 157
60 93 151
61 95 155
61 93 155
61 95 153
62 98 165
61 96 149
61 96 157
60 94 151
61 96 155
62 96 158
62 96 157
61 96 158
61 97 160
61 96 155
61 96 153
61 96 153
60 94 150
60 94 150
61 95 145
61 95 152
62 97 153
60 94 148
60 95 149
60 94 139
60 94 147
59 92 142
60 87 120
77 82 69
82 79 14
90 87 17
83 80 14
79 76 14
98 96 21
96 93 20
96 92 23
95 91 21
97 93 16
97 95 28
105 103 29
112 108 31
109 106 25
114 110 35
118 114 38
116 111 36
121 116 37
125 121 37
118 113 34
130 124 40
129 124 44
124 119 35
133 128 42
132 126 43
133 126 44
136 129 44
139 132 47
137 130 44
140 134 41
139 133 46
140 134 45
132 126 44
136 132 37
137 131 39
139 132 46
139 130 47
148 139 56
133 125 46
132 125 42
131 124 38
131 122 38
128 121 37
133 126 43
127 121 35
127 119 40
130 123 37
130 124 40
129 126 28
137 137 34
140 140 32
144 150 31
142 150 26
150 162 20
157 169 14
160 174 8
163 179 0
166 183 0
166 182 0
167 185 0
167 186 0
165 185 0
170 188 0
165 183 0
166 185 0
165 184 0
165 183 0
167 186 0
168 188 0
169 190 0
168 187 0
168 188 0
168 187 0
169 189 0
169 189 0
170 191 0
169 189 0
171 192 0
167 188 0
168 190 0
170 192 0
171 193 0
172 194 0
172 193 0
168 190 0
168 189 0
170 190 0
170 192 0
173 194 0
170 192 0
170 191 0
172 194 0
171 193 0
171 192 0
171 193 0
171 194 0
172 194 0
171 192 0
173 196 0
171 192 0
172 195 0
173 195 0
171 194 0
172 195 0
173 196 0
172 195 0
172 194 0
170 193 0
172 195 0
173 196 0
172 194 0
172 195 0
173 196 0
172 195 0
174 196 0
173 195 0
171 194 0
172 193 0
174 197 0
172 194 0
175 197 0
174 196 0
173 196 0
171 195 0
171 195 0
173 195 0
173 196 0
173 195 0
173 196 0
174 196 0
173 196 0
173 196 0
173 196 0
173 195 0
172 195 0
174 196 0
174 196 0
173 197 0
174 196 0
174 197 0
174 197 0
172 194 0
173 196 0
174 197 0
171 195 0
173 196 0
174 196 0
174 197 0
173 197 0
172 195 0
174 197 0
172 195 0
173 195 0
174 198 0
172 196 0
174 197 0
174 197 0
173 196 0
174 197 0
174 197 0
174 198 0
174 197 0
174 197 0
172 196 0
173 196 0
174 197 0
172 195 0
175 198 0
174 197 0
173 196 0
174 197 0
174 196 0
173 196 0
174 197 0
174 197 0
173 196 0
173 196 0
174 197 0
174 197 0
171 194 0
174 197 0
173 196 0
172 196 0
173 196 0
173 196 0
173 197 0
174 197 0
173 196 0
174 197 0
172 195 0
173 196 0
173 196 0
174 197 0
173 196 0
174 197 0
174 197 0
173 196 0
174 196 0
174 197 0
173 196 0
173 195 0
174 196 0
174 197 0
171 194 0
174 196 0
174 196 0
172 196 0
171 194 0
171 195 0
171 195 0
174 196 0
174 197 0
174 196 0
172 195 0
174 197 0
172 194 0
174 197 0
173 195 0
172 195 0
173 196 0
172 195 0
174 197 0
174 196 0
173 196 0
172 194 0
172 195 0
173 196 0
173 196 0
174 196 0
173 196 0
173 196 0
172 195 0
172 195 0
172 195 0
170 194 0
170 193 0
172 195 0
174 197 0
172 195 0
171 193 0
172 196 0
172 194 0
169 192 0
172 195 0
172 195 0
170 193 0
172 195 0
171 195 0
171 194 0
172 195 0
171 194 0
172 194 0
173 195 0
172 195 0
174 196 0
172 194 0
170 192 0
172 194 0
172 194 25
173 196 31
173 196 36
173 196 36
174 196 54
173 196 40
173 196 57
176 197 74
177 199 78
178 199 94
181 202 107
182 202 111
183 204 115
179 200 110
185 205 135
187 207 143
190 210 151
192 211 157
192 211 165
192 211 166
194 212 174
190 210 164
196 216 181
196 215 182
197 216 181
196 215 182
196 216 187
197 217 195
199 218 201
200 219 199
202 220 203
197 216 188
197 216 186
198 218 193
198 217 196
202 220 207
197 216 192
200 218 199
203 221 212
201 219 203
197 217 190
199 217 194
197 216 186
198 216 188
195 214 183
198 217 185
192 211 170
189 208 159
189 208 152
187 206 150
181 199 132
172 190 148
156 177 154
140 160 154
133 153 154
101 125 141
92 118 151
78 107 153
78 108 158
78 108 156
70 102 154
70 100 154
65 98 158
61 95 159
61 97 157
63 98 159
60 95 159
60 95 161
59 93 160
59 94 154
60 94 159
60 95 160
61 96 161
61 97 166
61 95 161
61 96 163
61 95 159
59 93 156
61 95 162
61 95 160
60 95 161
61 96 161
61 95 160
61 96 163
61 95 159
61 95 160
60 95 160
60 94 158
61 96 160
61 95 161
62 97 167
60 94 162
61 95 163
61 96 163
60 94 158
61 95 160
60 95 158
60 95 157
61 95 158
62 97 162
60 95 158
61 95 157
60 95 160
61 96 153
60 93 148
61 96 161
61 95 158
61 96 161
61 95 156
61 96 159
61 95 156
61 95 156
61 95 154
62 97 161
61 95 155
61 95 163
61 95 156
61 96 161
61 95 151
61 96 153
62 97 159
60 94 152
61 95 154
62 98 159
61 96 155
61 95 152
62 97 160
61 95 149
62 97 154
61 96 150
61 95 154
61 96 154
60 94 140
62 97 153
60 94 146
61 96 151
60 94 147
60 93 146
59 93 141
59 92 145
57 90 135
64 90 122
81 86 59
87 84 8
80 76 4
81 77 16
86 83 16
88 85 17
92 88 18
92 89 18
99 97 23
102 100 24
100 97 20
100 96 22
113 109 26
102 98 24
103 98 23
114 109 33
109 105 37
120 116 33
123 118 39
119 113 43
123 118 32
125 120 38
130 124 43
133 127 41
128 123 34
129 124 46
136 129 45
130 125 40
131 125 38
135 130 40
135 130 43
128 123 37
133 127 40
138 131 47
139 131 46
135 128 43
130 122 42
136 130 45
137 128 42
131 124 40
133 125 37
132 124 43
129 122 42
123 116 30
119 113 22
127 119 36
130 126 29
136 134 31
128 126 26
139 140 34
142 148 23
149 157 15
157 167 21
157 169 16
161 173 1
163 178 0
163 180 0
163 179 0
163 180 0
166 183 0
165 182 0
165 184 0
165 184 0
165 183 0
166 185 0
168 186 0
168 188 0
167 186 0
166 185 0
169 189 0
170 190 0
168 188 0
168 187 0
168 188 0
169 190 0
170 189 0
169 188 0
169 190 0
170 191 0
168 189 0
169 190 0
168 190 0
169 190 0
171 192 0
170 192 0
171 192 0
170 192 0
170 192 0
173 195 0
170 191 0
169 190 0
171 192 0
170 192 0
171 192 0
172 194 0
171 193 0
171 194 0
171 193 0
171 192 0
170 193 0
173 195 0
172 195 0
173 195 0
172 194 0
171 193 0
172 194 0
172 194 0
173 194 0
173 195 0
173 196 0
173 194 0
169 191 0
172 194 0
173 196 0
173 195 0
172 194 0
172 194 0
172 194 0
174 196 0
173 196 0
172 195 0
173 195 0
175 196 0
173 196 0
172 194 0
172 195 0
173 196 0
173 196 0
173 195 0
172 195 0
172 195 0
173 196 0
171 194 0
173 196 0
173 196 0
174 197 0
173 196 0
174 197 0
173 196 0
174 197 0
173 195 0
173 196 0
173 197 0
174 197 0
173 196 0
172 195 0
173 196 0
173 197 0
173 196 0
173 196 0
171 195 0
173 196 0
174 196 0
173 196 0
173 195 0
174 197 0
173 197 0
173 196 0
173 196 0
172 196 0
174 197 0
174 197 0
175 197 0
172 196 0
175 198 0
174 197 0
174 198 0
173 196 0
174 197 0
174 197 0
174 197 0
175 198 0
175 198 0
173 196 0
175 198 0
174 197 0
174 197 0
174 197 0
173 196 0
174 197 0
174 197 0
171 194 0
173 197 0
171 194 0
172 196 0
174 196 0
174 197 0
174 197 0
173 197 0
174 197 0
175 197 0
174 197 0
174 197 0
171 195 0
173 197 0
172 194 0
172 196 0
173 197 0
173 196 0
173 196 0
174 197 0
173 196 0
172 196 0
174 197 0
173 196 0
173 196 0
173 196 0
173 197 0
172 196 0
173 197 0
172 196 0
173 195 0
174 197 0
172 195 0
173 196 0
173 196 0
172 195 0
172 195 0
173 196 0
171 194 0
174 196 0
173 196 0
175 197 0
171 194 0
173 196 0
173 196 0
171 195 0
174 197 0
172 195 0
173 195 0
172 194 0
171 195 0
169 193 0
172 196 0
171 195 0
173 197 0
175 198 0
171 194 0
170 193 0
173 196 0
174 197 0
171 195 0
173 196 0
172 196 0
172 196 0
170 193 0
173 196 0
173 195 0
172 195 0
172 194 0
169 192 0
171 193 0
172 195 0
172 195 0
173 196 0
171 193 0
171 193 0
171 194 31
171 193 31
171 194 40
171 194 31
173 196 54
172 194 51
174 195 54
177 199 88
174 197 76
178 200 95
179 201 99
182 202 115
185 205 130
183 204 122
186 206 140
192 212 157
191 211 160
194 212 173
193 212 174
194 213 176
195 215 180
197 216 188
198 217 194
201 219 200
199 218 197
201 220 199
204 222 211
200 219 202
200 219 203
204 222 214
202 221 207
204 222 217
203 221 210
203 221 211
202 221 211
201 220 207
202 221 210
201 219 204
203 221 211
204 222 213
203 222 213
203 222 216
204 222 211
200 219 199
200 219 205
201 220 202
200 218 199
196 214 181
199 216 195
192 208 174
189 206 170
189 206 164
172 188 171
146 164 171
142 163 165
126 146 150
105 129 156
86 112 149
89 115 155
76 106 161
78 106 154
68 100 156
68 99 152
63 94 152
66 98 157
64 97 156
61 94 158
61 95 158
59 94 158
60 94 161
61 96 161
60 94 160
60 94 155
61 96 163
60 96 161
60 95 160
60 94 160
60 94 159
60 95 161
60 96 163
60 95 158
61 96 163
61 95 161
61 95 161
61 95 161
60 95 163
61 95 161
61 95 160
61 95 162
60 94 157
61 95 159
61 96 161
61 95 158
62 97 162
61 96 157
61 96 161
62 97 163
61 95 160
60 95 156
60 94 159
61 96 159
62 96 162
61 95 159
62 96 161
61 96 157
61 95 159
62 97 166
62 97 160
61 96 158
60 95 156
61 95 158
61 96 155
60 94 153
62 97 161
60 95 156
61 96 160
61 95 155
61 96 156
60 94 153
61 95 153
61 95 157
60 94 150
60 95 151
61 96 154
61 96 155
61 96 151
61 96 157
61 96 153
61 96 157
61 96 152
61 97 156
61 96 151
62 97 156
60 95 145
61 95 148
61 96 153
61 95 147
60 94 147
60 94 144
61 95 152
58 91 138
59 92 139
66 88 111
80 84 68
89 87 8
81 79 5
86 83 6
89 85 10
87 84 11
87 83 13
89 85 22
94 90 23
95 92 19
98 95 22
108 104 19
105 100 29
114 109 28
112 106 30
107 102 25
108 103 27
117 112 23
121 116 28
122 116 31
127 121 34
128 123 37
124 119 36
128 121 41
130 124 38
127 121 33
131 125 38
132 126 36
129 122 38
135 127 47
132 126 39
125 119 29
130 125 33
132 125 37
123 119 32
126 120 36
128 121 36
124 116 34
133 125 42
128 121 37
133 126 42
122 116 33
116 111 28
121 113 35
117 110 29
119 115 30
125 121 25
130 129 30
130 131 22
138 142 30
145 152 20
153 162 19
152 163 18
157 171 11
161 176 8
161 177 0
162 178 0
164 180 0
165 182 0
165 181 0
165 182 0
162 179 0
164 182 0
167 185 0
165 182 0
169 189 0
169 188 0
166 186 0
166 186 0
167 186 0
164 185 0
168 189 0
169 190 0
168 188 0
170 190 0
168 189 0
170 190 0
170 190 0
170 192 0
170 191 0
169 189 0
168 190 0
168 188 0
168 188 0
170 191 0
169 189 0
170 191 0
170 191 0
169 190 0
171 193 0
170 192 0
172 194 0
173 195 0
171 193 0
172 193 0
171 194 0
171 193 0
172 192 0
171 193 0
171 192 0
171 193 0
170 192 0
172 193 0
173 196 0
173 194 0
171 194 0
171 194 0
173 196 0
172 194 0
173 196 0
172 194 0
171 193 0
172 195 0
173 196 0
173 195 0
172 195 0
173 196 0
173 196 0
173 195 0
173 196 0
173 195 0
173 195 0
172 194 0
173 196 0
170 191 0
173 196 0
173 196 0
172 195 0
171 193 0
173 196 0
173 196 0
174 196 0
171 193 0
173 195 0
173 196 0
173 196 0
172 194 0
173 196 0
173 196 0
173 196 0
173 195 0
174 196 0
174 197 0
174 197 0
174 196 0
173 197 0
174 197 0
174 196 0
173 196 0
174 197 0
174 196 0
174 196 0
173 195 0
174 197 0
173 197 0
173 196 0
174 197 0
174 197 0
174 196 0
173 197 0
173 196 0
173 197 0
172 194 0
173 196 0
174 197 0
173 196 0
174 197 0
174 197 0
173 196 0
173 196 0
174 197 0
174 197 0
174 197 0
172 196 0
173 197 0
172 196 0
173 196 0
172 196 0
174 197 0
171 195 0
172 195 0
174 197 0
173 197 0
173 197 0
172 196 0
174 196 0
173 196 0
171 194 0
171 195 0
173 196 0
172 195 0
173 196 0
174 196 0
173 196 0
172 195 0
174 197 0
172 195 0
173 196 0
173 195 0
173 197 0
173 196 0
173 195 0
173 196 0
173 196 0
172 195 0
173 197 0
174 197 0
171 193 0
172 196 0
172 195 0
171 194 0
174 196 0
173 196 0
173 195 0
172 195 0
172 194 0
172 195 0
172 196 0
173 196 0
175 198 0
174 197 0
172 196 0
174 197 0
172 195 0
173 196 0
172 195 0
173 196 0
173 195 0
172 196 0
172 194 0
171 193 0
172 196 0
172 195 0
172 195 0
172 194 0
172 195 0
172 195 0
173 197 0
173 196 0
171 194 0
170 193 0
172 195 0
172 195 0
173 196 0
172 195 0
171 194 0
172 195 0
173 195 0
171 194 0
170 193 0
172 194 0
171 194 0
172 194 0
173 196 0
170 194 0
170 193 0
171 194 31
171 194 0
172 193 40
175 196 51
171 193 40
173 195 51
177 198 74
177 199 90
178 199 90
181 201 113
182 203 114
184 204 120
185 205 134
187 207 139
188 208 150
191 211 155
194 213 173
195 214 180
197 216 185
198 218 192
198 217 192
201 220 205
201 220 203
199 218 197
201 220 206
204 222 214
204 222 215
203 221 211
204 223 218
201 220 207
203 222 214
202 220 213
206 225 223
208 226 228
207 225 226
207 225 229
204 223 217
205 223 220
207 225 226
205 223 220
204 221 215
206 224 223
205 223 220
205 223 219
206 224 219
206 224 220
207 225 224
204 221 217
197 214 192
196 212 194
192 205 188
188 202 173
184 200 179
167 181 182
148 161 171
126 144 167
114 132 168
118 137 166
102 126 166
85 113 161
87 114 160
88 116 161
86 112 155
69 98 153
69 100 157
65 99 156
68 99 157
63 95 157
62 96 159
62 95 162
60 94 158
60 93 154
60 94 157
60 95 157
60 95 158
61 97 166
61 96 164
61 95 160
60 94 159
61 96 161
60 95 157
61 96 161
60 94 155
60 95 163
61 96 165
61 96 158
60 95 160
61 96 158
61 96 160
60 94 160
59 93 155
61 96 160
60 94 150
61 96 164
62 96 164
61 95 160
60 95 160
61 96 161
61 96 161
61 96 163
61 96 159
60 94 156
61 96 160
61 95 156
60 93 152
61 96 162
60 95 156
61 96 161
62 96 162
61 95 157
60 95 156
62 97 161
61 95 157
60 94 153
62 97 159
61 95 155
61 96 158
61 95 156
61 96 155
61 96 155
61 95 152
60 95 154
61 95 154
61 96 159
60 95 154
61 96 153
61 96 156
61 95 148
62 97 160
61 95 156
61 95 151
61 96 154
61 96 155
61 95 149
60 94 148
60 95 146
61 96 148
61 95 151
61 95 143
59 93 136
59 93 140
60 93 145
59 92 144
72 92 118
90 92 53
88 85 10
92 85 14
79 76 10
91 86 15
85 83 13
85 81 14
90 86 10
97 91 13
100 95 18
107 102 23
98 93 20
106 101 17
102 98 21
111 106 26
109 105 21
102 97 20
120 114 29
122 115 25
119 113 30
121 116 33
120 114 22
121 115 27
124 119 29
128 122 31
123 119 25
126 120 30
130 124 32
131 124 38
127 121 32
131 124 39
137 128 40
128 120 31
130 123 37
124 119 30
127 120 37
128 120 38
125 117 37
125 118 34
119 112 27
125 118 27
123 116 31
121 115 29
124 118 30
120 116 20
131 129 27
129 131 24
137 138 29
138 142 26
144 153 16
145 154 11
154 163 16
160 175 14
159 174 0
164 180 0
166 182 0
163 178 0
162 178 0
164 179 0
164 179 0
163 180 0
166 184 0
165 184 0
165 183 0
168 186 0
164 181 0
166 183 0
168 189 0
169 188 0
167 186 0
165 184 0
168 189 0
169 190 0
167 186 0
168 188 0
168 188 0
171 191 0
170 191 0
168 188 0
171 190 0
171 192 0
171 193 0
170 191 0
172 193 0
169 190 0
170 191 0
169 189 0
170 191 0
172 195 0
172 195 0
171 192 0
171 193 0
172 194 0
171 193 0
171 193 0
169 191 0
172 194 0
172 194 0
172 194 0
168 189 0
171 192 0
169 191 0
171 194 0
173 195 0
172 194 0
173 195 0
172 194 0
173 193 0
173 195 0
173 195 0
171 192 0
173 195 0
172 195 0
172 195 0
173 197 0
172 195 0
172 193 0
173 195 0
172 195 0
172 194 0
173 195 0
173 196 0
173 195 0
171 192 0
173 196 0
172 194 0
173 197 0
172 195 0
172 195 0
174 196 0
172 195 0
174 197 0
174 197 0
174 196 0
173 195 0
173 196 0
173 196 0
173 196 0
172 196 0
173 196 0
174 197 0
173 195 0
173 196 0
172 195 0
173 196 0
174 197 0
174 196 0
174 196 0
174 197 0
172 195 0
172 196 0
172 195 0
173 195 0
175 198 0
174 197 0
173 196 0
173 196 0
173 196 0
175 198 0
174 197 0
175 197 0
173 196 0
174 196 0
174 196 0
174 197 0
172 194 0
172 194 0
174 196 0
174 197 0
173 196 0
174 197 0
174 197 0
175 197 0
174 197 0
173 196 0
173 196 0
172 196 0
173 195 0
173 196 0
173 197 0
174 197 0
172 195 0
174 197 0
174 198 0
175 197 0
174 196 0
173 196 0
173 196 0
173 196 0
174 197 0
173 196 0
173 196 0
173 196 0
172 195 0
173 196 0
173 197 0
172 195 0
174 197 0
174 197 0
172 195 0
172 195 0
174 197 0
173 197 0
174 197 0
173 197 0
171 195 0
174 197 0
173 197 0
171 194 0
171 193 0
173 196 0
174 197 0
174 197 0
172 195 0
171 194 0
173 197 0
172 194 0
173 195 0
172 195 0
173 196 0
174 196 0
173 197 0
173 195 0
174 196 0
174 197 0
172 194 0
173 196 0
171 195 0
172 196 0
172 195 0
172 195 0
172 195 0
171 195 0
173 195 0
172 195 0
173 195 0
173 196 0
173 197 0
173 196 0
172 195 0
171 194 0
171 193 0
170 194 0
172 195 0
170 193 0
170 193 0
171 194 0
172 195 0
171 195 0
171 195 0
174 196 0
172 195 0
171 195 0
172 195 0
169 192 18
172 194 25
173 196 40
170 192 36
172 194 44
174 197 47
173 194 57
176 198 80
176 198 84
180 202 100
180 200 107
186 207 131
187 206 134
190 209 150
190 210 149
194 213 166
190 210 155
194 213 173
198 217 186
195 214 175
199 219 195
199 218 197
199 218 198
203 221 210
204 223 215
203 221 210
205 223 217
204 223 217
204 222 217
205 224 223
205 224 219
206 225 226
206 224 224
208 226 231
209 226 228
206 224 224
208 226 233
207 225 231
207 225 229
208 225 230
207 224 228
207 224 228
208 226 232
208 226 228
206 224 222
208 226 229
208 226 231
208 225 226
202 221 207
200 218 202
200 215 210
196 211 195
195 210 193
192 203 189
176 189 181
155 166 174
137 148 176
129 142 171
112 129 168
110 130 169
103 121 159
98 115 157
86 111 161
78 104 156
76 106 161
74 103 155
72 102 158
69 100 159
63 97 159
63 96 156
60 93 149
60 94 157
60 95 160
60 94 157
60 94 153
61 96 162
60 94 157
60 94 152
61 96 161
60 95 162
60 95 160
60 95 159
61 96 162
61 95 159
60 96 162
61 95 164
61 96 162
61 95 158
60 94 161
60 95 155
60 95 158
61 96 161
60 95 159
60 95 161
60 94 158
61 96 163
60 94 156
61 96 164
60 95 159
61 96 161
61 95 159
61 96 159
60 94 154
61 95 158
61 94 159
62 97 165
62 97 161
62 97 164
61 96 152
60 95 154
61 94 155
62 97 164
61 95 156
61 95 153
61 96 160
61 96 156
62 97 158
61 96 159
60 95 154
60 95 154
61 95 153
60 94 156
60 94 149
61 96 155
61 95 152
61 95 154
61 95 149
61 96 152
61 96 155
61 96 151
61 96 153
61 96 152
62 96 155
61 96 154
60 94 149
62 96 151
61 96 147
60 94 147
61 96 146
61 94 147
60 95 147
61 95 145
61 95 148
60 94 143
58 91 138
70 88 103
95 96 41
104 101 15
98 93 15
88 83 10
90 86 9
86 83 11
88 83 15
87 83 12
98 93 14
95 89 8
102 97 14
95 92 15
102 96 14
110 104 18
103 99 19
112 106 11
103 99 20
117 111 19
109 105 23
116 111 22
126 119 27
119 113 30
118 113 25
121 117 29
120 113 29
121 116 28
126 119 30
118 114 27
122 115 24
132 124 30
129 122 28
131 124 28
121 115 27
124 118 26
119 113 26
126 120 29
128 122 26
127 120 29
127 121 34
122 115 31
130 123 30
123 116 25
129 124 29
125 122 25
127 125 26
132 132 25
142 145 19
133 137 24
141 148 18
150 159 19
146 155 11
158 170 0
161 175 0
163 176 0
161 174 0
162 177 0
160 175 0
161 175 0
164 179 0
167 183 0
166 184 0
165 184 0
164 183 0
165 183 0
165 185 0
168 188 0
166 185 0
169 188 0
165 185 0
163 181 0
168 186 0
164 183 0
165 184 0
166 185 0
167 187 0
165 185 0
169 189 0
170 190 0
168 188 0
170 191 0
170 191 0
170 191 0
167 187 0
169 192 0
170 191 0
170 192 0
169 191 0
170 191 0
171 192 0
171 192 0
170 192 0
169 191 0
170 192 0
172 194 0
171 192 0
169 191 0
172 192 0
172 194 0
171 193 0
170 192 0
170 192 0
172 194 0
171 194 0
170 191 0
172 196 0
171 193 0
171 193 0
170 192 0
172 195 0
172 194 0
173 195 0
173 195 0
171 194 0
174 197 0
173 196 0
173 195 0
172 196 0
173 195 0
172 195 0
172 194 0
173 196 0
171 193 0
172 194 0
173 195 0
173 196 0
175 197 0
172 195 0
173 195 0
173 195 0
172 196 0
172 195 0
173 196 0
172 195 0
173 196 0
174 197 0
173 196 0
172 195 0
173 196 0
175 197 0
173 195 0
175 197 0
173 196 0
174 197 0
172 195 0
173 197 0
173 195 0
174 197 0
173 196 0
172 194 0
173 195 0
172 195 0
172 196 0
174 197 0
174 197 0
174 196 0
173 197 0
173 197 0
175 197 0
174 197 0
173 196 0
173 197 0
173 196 0
174 197 0
174 197 0
173 197 0
173 196 0
174 197 0
174 197 0
175 197 0
173 196 0
173 196 0
174 196 0
174 197 0
175 198 0
172 195 0
174 197 0
173 196 0
171 195 0
175 198 0
174 197 0
174 197 0
174 197 0
174 197 0
173 196 0
173 197 0
172 196 0
175 198 0
173 196 0
173 196 0
172 195 0
173 196 0
172 196 0
173 197 0
172 195 0
173 196 0
174 197 0
173 196 0
172 196 0
174 197 0
173 196 0
172 195 0
174 197 0
173 197 0
173 196 0
174 196 0
173 196 0
172 194 0
173 196 0
173 195 0
173 196 0
173 196 0
172 195 0
173 196 0
172 196 0
174 196 0
173 194 0
172 194 0
172 195 0
171 195 0
171 194 0
173 196 0
171 194 0
170 193 0
172 194 0
172 195 0
174 197 0
174 196 0
172 196 0
171 194 0
172 194 0
173 196 0
172 196 0
174 196 0
172 194 0
173 195 0
173 196 0
170 194 0
171 193 0
174 197 0
173 196 0
172 195 0
172 194 0
169 193 0
171 194 0
171 193 0
172 196 0
172 195 0
172 195 0
172 194 0
171 194 0
171 194 0
172 194 0
170 193 0
174 196 31
171 193 31
173 197 40
174 196 51
174 196 60
175 197 65
170 191 54
175 198 74
180 201 102
182 203 107
185 205 125
180 201 114
188 208 143
185 206 136
189 209 153
194 213 168
195 214 178
197 216 185
199 218 189
198 217 194
199 219 199
203 221 207
204 222 215
203 221 209
204 222 215
205 223 220
204 223 218
207 225 226
206 224 226
207 225 225
208 226 231
206 224 223
207 225 223
211 228 238
209 226 233
211 228 240
209 227 233
207 224 223
209 227 233
210 227 236
207 224 230
209 226 234
208 225 232
209 226 230
209 227 236
208 225 228
208 226 228
205 223 224
209 226 225
206 223 226
205 220 219
199 213 210
198 210 203
194 206 190
193 205 203
180 190 196
150 159 177
143 150 180
124 131 169
116 128 171
112 124 163
99 114 161
95 114 165
88 109 159
77 104 163
76 101 151
69 98 152
77 105 162
69 100 153
69 100 162
62 95 152
64 98 158
60 95 155
61 96 159
61 95 156
61 95 160
59 93 153
61 95 160
60 94 154
60 94 159
60 94 157
60 94 154
61 96 158
60 94 153
61 95 162
61 96 161
60 95 161
60 94 156
59 94 153
61 96 159
60 96 159
60 95 155
60 95 155
61 96 164
60 95 158
60 95 158
61 96 160
60 94 157
60 94 152
61 96 160
61 96 161
60 94 153
62 97 168
60 95 157
61 96 161
61 96 157
61 96 161
61 95 155
61 95 156
62 97 158
61 96 156
62 97 160
61 95 163
60 93 146
61 95 154
61 96 156
61 96 157
61 95 154
62 97 160
60 95 156
60 95 152
61 95 154
61 96 154
61 96 153
61 95 153
62 97 157
61 95 153
61 96 149
61 96 156
60 93 147
60 94 151
60 95 146
61 96 153
61 96 152
61 96 151
61 97 153
61 96 149
61 95 151
60 95 147
61 95 147
60 94 145
60 94 143
61 94 142
58 91 136
59 92 136
61 92 134
72 89 105
96 100 38
103 100 5
101 101 7
98 95 5
91 86 8
97 92 13
92 88 0
90 84 4
90 87 10
97 91 13
93 90 9
94 89 16
101 96 4
107 100 19
95 90 14
110 104 12
104 100 14
112 107 22
114 109 24
113 109 23
113 108 9
114 107 21
124 116 21
116 110 25
118 112 23
121 115 21
123 116 27
126 120 28
119 113 21
126 119 28
118 112 21
123 116 30
122 116 28
120 114 25
121 114 26
113 105 22
116 107 24
124 117 27
124 117 27
118 109 30
126 120 32
119 115 27
124 120 25
124 121 21
132 135 21
134 136 25
135 139 9
139 143 15
145 151 14
153 164 0
157 169 11
158 171 0
160 173 0
160 174 0
158 171 0
164 179 0
163 179 0
162 178 0
161 177 0
160 175 0
165 182 0
168 186 0
164 181 0
165 183 0
165 182 0
167 186 0
164 183 0
167 186 0
167 186 0
166 185 0
167 185 0
168 187 0
166 186 0
165 185 0
168 188 0
171 191 0
168 188 0
171 193 0
170 190 0
170 191 0
169 190 0
168 188 0
170 190 0
171 192 0
168 188 0
168 190 0
168 189 0
170 191 0
169 190 0
169 191 0
170 193 0
170 192 0
172 194 0
172 194 0
170 190 0
170 192 0
171 194 0
169 190 0
170 192 0
172 195 0
171 193 0
171 194 0
172 194 0
171 193 0
174 196 0
170 191 0
170 191 0
171 193 0
172 194 0
173 195 0
171 193 0
172 194 0
172 195 0
172 194 0
172 196 0
172 194 0
173 196 0
170 192 0
174 197 0
173 195 0
172 195 0
172 194 0
171 193 0
173 197 0
172 195 0
173 196 0
174 196 0
174 197 0
172 194 0
173 196 0
174 196 0
173 195 0
172 194 0
173 195 0
173 196 0
173 195 0
172 194 0
173 196 0
174 197 0
171 194 0
172 196 0
172 195 0
173 195 0
174 196 0
173 196 0
173 197 0
174 197 0
174 197 0
173 196 0
173 196 0
172 195 0
173 195 0
174 197 0
174 197 0
173 197 0
174 197 0
173 195 0
172 194 0
173 196 0
172 196 0
172 195 0
173 197 0
174 198 0
174 197 0
171 195 0
174 197 0
174 197 0
173 195 0
173 196 0
173 197 0
174 196 0
174 197 0
173 197 0
173 196 0
172 195 0
174 197 0
173 197 0
173 196 0
174 196 0
173 196 0
174 198 0
174 197 0
172 195 0
174 197 0
173 197 0
173 196 0
174 197 0
173 196 0
174 197 0
174 197 0
173 197 0
174 196 0
174 196 0
172 196 0
172 196 0
173 197 0
173 196 0
173 196 0
175 198 0
173 196 0
173 197 0
172 196 0
172 194 0
173 196 0
174 197 0
174 196 0
174 197 0
172 195 0
172 196 0
172 196 0
174 196 0
174 197 0
173 196 0
173 196 0
172 195 0
172 195 0
172 195 0
173 196 0
171 194 0
172 195 0
173 196 0
173 196 0
173 196 0
172 195 0
173 196 0
171 195 0
173 196 0
173 196 0
172 194 0
172 195 0
173 196 0
172 196 0
171 194 0
171 193 0
172 194 0
171 193 0
172 196 0
170 194 0
170 193 0
173 196 0
170 192 0
174 198 0
171 193 0
173 196 0
172 195 0
171 195 0
172 195 0
171 194 0
172 195 0
170 193 0
171 194 0
173 196 25
171 193 25
174 196 54
174 196 31
171 193 31
172 196 40
174 196 62
172 193 62
181 202 97
180 201 97
180 201 113
183 204 122
184 205 126
186 206 137
189 210 151
191 210 159
195 214 177
193 212 168
198 217 189
199 218 195
202 220 204
201 220 203
203 222 214
204 223 215
207 225 226
206 224 228
207 225 225
206 224 223
208 225 224
208 226 226
208 226 233
210 227 235
208 225 228
207 225 228
209 227 232
208 225 226
209 226 230
203 221 210
208 225 230
204 223 217
205 223 220
205 222 218
202 220 217
204 223 214
203 220 209
208 225 229
208 226 229
207 224 225
207 224 221
211 228 234
206 223 220
209 226 231
206 222 219
202 215 221
195 208 200
197 210 206
190 200 202
171 179 188
155 161 184
145 154 182
123 128 162
115 128 168
93 107 158
96 104 149
96 111 161
87 103 154
83 101 153
77 97 151
78 104 161
70 99 153
65 96 155
73 103 156
68 99 152
63 95 153
58 91 153
61 95 161
59 92 152
59 93 149
61 94 152
60 94 149
60 95 157
60 94 154
60 94 156
59 94 158
60 94 152
60 94 157
60 95 158
61 96 159
60 95 155
61 95 157
60 94 155
60 95 153
60 95 152
61 95 157
61 95 158
61 96 160
60 95 161
61 95 156
61 96 157
60 95 154
60 93 153
61 96 156
61 95 159
61 95 158
61 96 162
60 94 155
60 94 152
61 95 152
61 96 157
62 97 165
60 93 150
60 94 156
61 94 156
62 97 160
62 97 161
61 95 159
60 95 154
61 95 155
61 96 155
61 96 160
61 96 156
61 96 157
62 97 159
61 95 153
61 96 152
61 95 152
62 97 158
63 98 162
61 96 155
60 95 149
61 97 153
61 95 147
61 96 152
61 96 153
61 96 151
60 95 146
61 96 148
60 94 145
61 96 154
60 94 144
61 95 148
60 94 145
59 93 138
60 94 137
59 93 140
60 94 144
60 93 137
59 89 127
79 90 79
98 98 14
110 111 12
100 100 0
97 93 14
96 92 8
89 85 11
90 88 7
89 83 8
93 86 6
99 93 8
89 83 10
98 92 15
98 92 10
94 88 13
104 98 9
104 98 15
98 91 11
100 95 13
113 106 18
116 109 17
110 104 16
105 99 9
119 112 24
118 112 24
110 103 22
113 107 14
118 112 23
118 113 22
117 111 22
118 111 22
121 116 23
116 110 27
123 117 28
122 114 26
117 109 25
119 110 27
119 112 21
125 117 24
117 111 26
117 114 18
125 120 19
126 123 28
131 128 24
131 131 23
136 139 21
141 146 16
145 151 21
153 161 14
146 155 8
158 170 0
152 162 0
157 170 0
156 167 0
165 179 0
165 179 0
161 176 0
162 176 0
161 178 0
164 182 0
159 174 0
162 178 0
166 183 0
163 182 0
167 186 0
165 185 0
167 187 0
165 183 0
166 184 0
165 183 0
168 188 0
167 187 0
168 185 0
167 186 0
168 186 0
166 185 0
168 188 0
169 189 0
170 190 0
169 190 0
172 193 0
169 189 0
170 190 0
169 191 0
171 192 0
169 190 0
170 192 0
171 193 0
170 192 0
171 191 0
172 193 0
171 192 0
171 192 0
173 194 0
171 193 0
172 194 0
169 190 0
172 193 0
171 193 0
170 192 0
170 191 0
172 193 0
173 195 0
172 194 0
170 191 0
170 192 0
171 193 0
171 195 0
173 195 0
171 194 0
172 194 0
174 197 0
169 192 0
172 195 0
173 195 0
172 194 0
172 194 0
171 194 0
172 194 0
172 194 0
173 196 0
173 196 0
173 195 0
172 193 0
173 194 0
173 196 0
174 196 0
170 193 0
173 196 0
174 196 0
174 196 0
174 196 0
173 195 0
173 197 0
173 196 0
172 196 0
173 195 0
171 194 0
172 196 0
172 195 0
173 197 0
171 194 0
174 196 0
173 196 0
172 194 0
173 195 0
174 196 0
173 195 0
175 197 0
174 197 0
174 197 0
173 196 0
172 196 0
173 196 0
173 196 0
175 197 0
174 197 0
175 198 0
174 197 0
173 195 0
175 197 0
173 196 0
174 196 0
174 197 0
173 196 0
173 196 0
174 196 0
174 198 0
174 197 0
174 197 0
173 197 0
173 197 0
171 195 0
173 196 0
174 198 0
175 198 0
173 195 0
174 196 0
173 196 0
174 196 0
174 196 0
172 195 0
173 197 0
172 195 0
173 197 0
173 196 0
173 195 0
173 196 0
172 196 0
172 196 0
174 196 0
173 197 0
174 197 0
174 197 0
173 196 0
174 197 0
173 196 0
174 197 0
172 195 0
172 195 0
173 196 0
174 196 0
172 196 0
173 196 0
173 196 0
172 195 0
172 196 0
174 197 0
173 197 0
173 196 0
173 196 0
172 195 0
174 196 0
172 195 0
172 196 0
173 197 0
170 194 0
172 195 0
172 195 0
171 194 0
173 195 0
173 196 0
172 195 0
172 196 0
172 195 0
172 196 0
173 196 0
172 195 0
171 194 0
172 195 0
172 194 0
171 194 0
172 194 0
172 195 0
172 196 0
173 195 0
171 195 0
171 193 0
171 194 0
171 194 0
170 193 0
171 194 0
172 195 0
172 195 0
171 194 0
171 193 0
171 193 0
172 195 0
169 192 0
170 194 0
175 196 0
172 194 18
174 198 31
173 196 36
174 196 60
171 194 31
171 193 51
176 198 65
174 196 65
178 200 94
178 200 90
181 203 108
185 205 137
185 205 129
189 209 152
193 212 166
193 212 170
192 212 169
196 215 186
198 217 194
199 218 200
201 219 203
205 223 217
202 221 209
204 223 220
205 223 217
207 225 229
205 223 222
210 227 232
207 225 228
209 226 231
207 224 223
209 227 231
207 224 227
206 223 223
204 222 217
203 221 214
203 221 213
201 220 207
203 221 213
198 217 197
201 220 214
198 217 196
198 217 192
199 218 196
194 214 183
197 216 196
198 217 196
199 218 202
196 215 190
201 220 203
200 219 204
202 220 212
196 213 194
199 216 203
200 214 205
201 215 212
193 205 197
189 201 203
169 180 197
156 163 188
136 146 176
128 134 163
111 117 154
111 119 154
98 101 147
91 103 156
84 97 150
82 98 153
81 98 158
75 96 150
77 100 156
67 93 153
75 103 160
71 101 155
70 100 160
61 94 156
62 95 157
60 93 154
61 95 151
61 96 161
61 96 158
63 96 162
60 95 154
60 94 157
60 94 155
60 95 155
61 95 160
59 92 156
60 95 157
61 96 158
60 94 158
60 95 156
60 95 158
60 94 155
61 95 158
61 95 157
60 96 155
61 95 154
61 96 160
61 95 154
60 94 150
60 95 156
61 95 155
60 95 159
59 93 149
61 96 157
61 96 156
61 95 157
60 95 152
61 97 158
61 96 158
60 95 155
61 96 155
60 94 153
62 97 158
61 96 154
61 96 157
61 96 156
61 95 155
60 94 153
61 96 155
61 95 154
62 97 158
62 97 155
61 96 154
60 95 150
61 95 151
60 95 155
60 93 147
62 96 159
61 96 151
61 96 155
61 96 157
61 96 153
61 96 151
61 96 150
62 97 154
62 97 155
61 95 145
60 94 145
61 95 145
61 96 150
60 95 143
59 92 140
59 93 138
60 94 144
58 91 136
57 89 127
61 90 126
100 107 71
113 115 13
108 108 4
108 107 8
99 98 11
98 95 1
87 85 9
98 95 4
96 89 12
100 93 9
94 88 5
100 92 7
89 83 9
89 84 8
99 92 10
97 92 10
102 95 8
107 102 9
101 96 12
103 98 14
105 100 16
111 103 20
115 109 9
117 110 17
111 104 16
113 106 13
109 100 15
115 108 20
112 104 12
112 104 14
110 104 14
107 100 15
117 109 13
110 103 19
117 110 18
120 112 25
111 106 20
125 118 33
122 118 28
124 120 24
131 126 13
129 127 21
133 132 17
135 139 16
130 133 16
140 144 11
144 150 11
147 154 8
151 159 0
155 165 8
156 167 0
158 169 0
161 174 0
158 169 0
161 175 0
157 170 0
159 174 0
161 176 0
164 179 0
164 179 0
165 181 0
165 181 0
164 182 0
164 181 0
165 181 0
164 182 0
162 180 0
164 181 0
164 183 0
163 181 0
167 185 0
166 185 0
167 186 0
165 184 0
169 189 0
167 187 0
166 185 0
169 189 0
170 190 0
167 188 0
167 187 0
170 192 0
168 189 0
169 190 0
169 189 0
167 189 0
172 193 0
173 195 0
171 192 0
170 191 0
172 195 0
171 192 0
171 192 0
169 190 0
170 193 0
171 193 0
171 193 0
170 191 0
168 190 0
169 191 0
170 191 0
169 191 0
172 194 0
170 193 0
170 193 0
171 192 0
171 194 0
169 192 0
172 194 0
173 196 0
171 193 0
172 195 0
170 192 0
173 195 0
171 193 0
174 196 0
173 195 0
173 196 0
173 195 0
169 193 0
172 195 0
173 195 0
173 195 0
173 195 0
172 195 0
171 194 0
173 195 0
172 195 0
172 195 0
172 196 0
173 196 0
174 196 0
172 195 0
174 196 0
172 195 0
172 194 0
173 196 0
173 196 0
173 195 0
172 195 0
173 196 0
173 196 0
173 196 0
173 195 0
174 197 0
174 197 0
173 196 0
174 196 0
174 197 0
173 196 0
174 197 0
174 196 0
172 195 0
174 196 0
173 196 0
174 196 0
174 197 0
174 196 0
174 196 0
173 196 0
174 197 0
173 197 0
174 196 0
174 197 0
173 196 0
174 197 0
175 198 0
175 198 0
173 196 0
173 196 0
174 197 0
174 197 0
174 196 0
174 197 0
174 197 0
173 196 0
172 196 0
173 196 0
173 196 0
174 197 0
173 197 0
173 196 0
174 197 0
172 196 0
174 197 0
172 196 0
173 196 0
172 195 0
173 197 0
173 197 0
172 196 0
172 195 0
174 197 0
173 197 0
171 194 0
172 196 0
172 195 0
172 194 0
173 196 0
172 196 0
171 194 0
173 195 0
174 196 0
173 197 0
173 195 0
171 195 0
172 195 0
173 196 0
173 195 0
175 197 0
172 195 0
173 197 0
174 197 0
172 196 0
172 195 0
172 195 0
172 195 0
171 194 0
173 196 0
174 197 0
173 196 0
173 196 0
171 194 0
172 195 0
172 194 0
171 195 0
170 194 0
173 196 0
172 195 0
172 194 0
173 196 0
172 194 0
172 195 0
172 196 0
171 194 0
171 194 0
170 191 0
173 196 0
169 192 0
174 196 0
170 192 0
171 193 0
172 193 0
172 195 0
171 194 0
171 192 0
171 192 0
172 195 0
171 193 0
171 193 18
171 194 25
172 193 36
175 196 47
174 197 51
172 195 40
174 197 65
175 197 67
177 198 78
179 199 95
181 202 107
182 202 115
185 205 128
188 208 144
189 210 150
190 210 154
192 212 164
192 212 169
198 217 191
201 220 204
200 218 203
206 223 220
204 222 214
205 223 216
204 222 218
206 223 218
207 225 224
209 227 231
205 223 218
208 225 221
206 224 223
205 222 217
203 221 214
199 218 206
200 219 202
198 216 190
197 216 194
196 216 189
196 216 194
196 216 193
193 213 172
192 212 175
195 215 184
190 210 165
191 211 164
191 211 162
189 209 154
192 212 173
194 214 181
191 211 173
195 215 183
193 213 177
194 213 172
195 213 184
195 213 181
196 214 185
197 213 196
190 203 181
184 196 194
172 185 195
157 169 192
147 156 176
126 134 168
121 126 159
108 117 154
99 101 145
92 100 148
101 106 153
99 102 145
90 99 153
84 94 148
86 98 151
81 94 148
77 101 154
75 100 154
77 102 158
66 96 159
60 94 151
63 94 158
59 92 154
59 92 150
60 92 148
63 97 160
59 93 149
60 94 152
58 92 149
60 95 159
61 96 160
58 91 147
60 94 156
59 94 156
60 96 158
60 95 156
60 95 161
59 94 155
61 95 156
60 95 156
61 95 155
61 96 161
61 96 162
60 95 156
60 95 157
61 96 160
61 95 154
60 95 155
61 96 157
61 96 157
61 95 152
61 96 160
61 95 158
61 96 160
60 94 152
60 94 158
62 97 160
60 94 154
61 96 160
61 96 153
61 96 157
61 96 154
60 94 148
61 96 153
61 96 155
61 95 152
61 96 152
61 96 162
62 97 159
60 95 149
61 97 155
61 96 153
62 96 160
60 95 151
61 95 147
62 97 158
60 94 148
61 95 145
61 96 152
61 96 152
61 96 154
60 95 148
60 94 147
61 95 145
61 96 148
61 95 141
60 94 139
59 94 136
60 94 140
60 94 143
62 96 148
59 93 133
60 92 134
71 94 116
96 101 47
114 115 12
101 101 0
108 107 0
109 108 8
102 100 8
100 97 11
95 90 10
96 94 5
85 81 0
96 91 8
95 89 10
95 89 7
94 89 8
93 89 8
98 90 4
103 96 1
93 86 10
102 96 3
111 103 10
107 101 13
105 97 7
104 99 15
106 101 15
112 105 16
107 101 18
109 102 14
110 102 16
112 104 15
109 102 19
113 104 17
107 100 11
121 114 24
113 105 17
120 115 16
115 110 23
121 117 9
121 118 16
122 118 21
130 128 20
130 130 18
130 130 19
128 128 22
138 141 14
142 145 14
147 152 8
148 155 8
149 158 0
151 158 0
155 164 0
158 169 0
157 170 0
157 168 0
159 172 0
157 169 0
158 171 0
158 170 0
161 177 0
164 180 0
162 177 0
163 177 0
163 179 0
162 178 0
165 181 0
166 184 0
164 181 0
164 182 0
166 184 0
166 183 0
165 184 0
169 189 0
165 184 0
167 185 0
165 184 0
168 187 0
169 189 0
169 189 0
167 187 0
167 187 0
165 184 0
168 189 0
168 189 0
168 189 0
169 188 0
168 188 0
171 192 0
168 189 0
166 187 0
169 190 0
168 188 0
171 192 0
169 190 0
170 191 0
169 191 0
171 192 0
171 193 0
173 194 0
169 191 0
171 193 0
170 192 0
170 191 0
170 191 0
171 193 0
171 194 0
171 194 0
171 193 0
172 193 0
172 194 0
173 195 0
172 196 0
173 195 0
172 194 0
173 195 0
172 194 0
170 193 0
173 195 0
173 196 0
172 194 0
174 195 0
173 196 0
173 195 0
172 194 0
171 193 0
173 196 0
173 195 0
174 195 0
171 194 0
174 197 0
172 195 0
174 196 0
172 195 0
172 195 0
174 197 0
173 195 0
172 194 0
173 196 0
173 196 0
172 195 0
175 197 0
172 195 0
173 196 0
171 194 0
174 197 0
174 197 0
173 197 0
172 195 0
174 196 0
171 193 0
172 195 0
173 196 0
175 197 0
173 196 0
174 196 0
173 196 0
173 196 0
173 196 0
175 197 0
173 196 0
174 196 0
174 197 0
174 196 0
174 197 0
175 198 0
175 197 0
173 196 0
174 197 0
174 197 0
172 196 0
174 197 0
173 197 0
173 196 0
173 197 0
173 196 0
175 197 0
173 197 0
174 197 0
173 196 0
173 196 0
172 195 0
175 198 0
174 197 0
175 198 0
173 197 0
173 195 0
172 196 0
174 198 0
172 196 0
175 197 0
173 196 0
172 195 0
174 197 0
172 196 0
173 196 0
172 195 0
172 196 0
174 197 0
174 197 0
173 196 0
174 198 0
174 196 0
173 196 0
172 195 0
172 195 0
172 196 0
173 196 0
173 195 0
172 195 0
174 197 0
172 195 0
174 196 0
173 196 0
172 195 0
172 195 0
171 194 0
173 196 0
172 195 0
173 196 0
174 196 0
173 196 0
174 197 0
171 195 0
172 195 0
172 195 0
172 193 0
173 196 0
171 194 0
173 196 0
171 194 0
172 195 0
171 193 0
172 195 0
172 195 0
170 193 0
171 194 0
173 195 0
171 194 0
169 192 0
171 194 0
172 194 0
170 194 0
170 193 0
171 194 0
170 192 0
172 195 0
171 192 0
172 195 0
171 193 0
172 195 0
171 194 0
170 192 0
170 192 36
172 196 36
169 191 36
174 197 51
174 197 51
175 195 78
174 195 67
175 197 82
178 199 95
184 205 121
188 208 137
190 209 152
189 208 154
193 212 159
194 214 172
197 216 187
198 217 190
201 219 199
203 221 211
203 221 210
204 222 213
203 221 213
207 224 221
207 225 221
207 225 229
206 224 223
206 224 223
204 223 219
203 221 212
201 220 205
202 221 208
197 216 191
196 216 188
193 213 181
192 212 165
190 210 165
191 211 169
191 211 169
186 207 153
185 206 145
185 206 137
188 209 149
187 208 145
185 206 144
184 206 135
185 206 133
190 211 160
186 206 140
185 207 137
187 208 145
186 206 144
188 208 145
190 210 166
190 209 159
186 204 171
188 203 166
182 198 160
170 183 167
165 175 181
162 172 192
142 152 177
125 130 154
120 129 164
109 117 151
108 110 146
97 103 144
91 91 136
88 97 148
92 98 149
92 97 147
93 94 139
85 97 148
84 98 155
74 93 150
75 101 161
69 99 159
70 99 155
63 96 156
63 96 153
62 95 151
61 94 154
62 94 150
60 92 151
61 95 149
60 94 153
59 93 153
59 94 154
59 92 151
59 93 149
59 93 154
61 95 158
60 95 154
60 95 158
61 97 163
61 95 160
60 95 156
60 94 151
61 96 165
60 93 149
59 93 148
60 94 154
61 95 150
60 95 150
61 95 157
60 95 151
61 95 152
60 95 153
61 96 158
60 94 150
61 95 152
61 95 155
60 94 149
60 94 149
61 95 153
61 96 149
60 95 152
62 97 156
61 95 153
60 95 155
61 96 153
61 96 154
61 96 152
61 95 160
60 95 149
62 97 152
61 96 153
61 97 155
62 97 153
61 96 152
60 94 147
60 95 144
61 96 150
62 96 157
61 96 149
61 96 155
61 96 152
61 95 150
60 94 145
61 96 150
61 96 147
61 96 151
61 96 146
60 94 142
60 94 142
60 93 143
59 92 141
60 95 139
60 95 137
58 91 133
82 100 101
105 113 43
115 118 0
125 127 8
100 103 0
105 104 4
98 99 0
105 105 0
103 102 8
101 96 0
102 99 3
94 91 0
90 87 2
94 90 0
96 91 5
97 92 9
93 88 5
103 98 0
102 93 3
98 92 0
96 88 11
99 91 6
105 100 14
108 101 8
104 96 11
109 101 11
109 104 9
107 100 14
108 101 17
110 104 11
105 97 11
115 110 14
115 110 14
111 105 13
117 111 1
114 108 14
117 115 3
119 115 16
122 119 8
132 132 20
122 122 11
131 132 16
134 136 11
140 143 8
144 147 11
147 150 9
144 150 1
146 154 0
152 162 0
153 165 0
151 162 0
154 164 0
154 165 0
155 163 0
157 168 0
158 170 0
159 171 0
159 174 0
159 171 0
161 176 0
162 177 0
161 176 0
160 176 0
161 176 0
165 182 0
166 183 0
168 185 0
165 182 0
164 181 0
166 184 0
167 185 0
165 182 0
167 186 0
164 182 0
168 188 0
168 188 0
168 187 0
169 188 0
167 187 0
171 191 0
169 190 0
169 188 0
170 191 0
169 188 0
169 187 0
169 190 0
170 191 0
167 187 0
170 191 0
170 191 0
167 188 0
169 188 0
169 190 0
172 193 0
170 192 0
171 192 0
170 191 0
172 193 0
169 191 0
171 192 0
172 194 0
172 192 0
171 193 0
172 194 0
171 192 0
174 196 0
171 193 0
171 193 0
171 192 0
172 194 0
171 193 0
171 193 0
173 195 0
171 192 0
171 194 0
173 196 0
172 196 0
172 195 0
170 193 0
172 194 0
171 194 0
173 196 0
172 195 0
172 194 0
173 195 0
172 195 0
172 195 0
173 195 0
173 196 0
172 195 0
173 195 0
172 194 0
171 195 0
172 193 0
173 195 0
174 197 0
173 196 0
173 196 0
173 196 0
172 194 0
172 195 0
172 195 0
174 197 0
173 196 0
172 196 0
174 196 0
172 194 0
173 196 0
173 195 0
172 195 0
173 196 0
172 196 0
172 194 0
173 195 0
173 196 0
173 196 0
174 196 0
173 196 0
173 196 0
173 196 0
172 195 0
174 197 0
173 196 0
173 196 0
173 196 0
173 196 0
174 196 0
174 196 0
173 195 0
173 196 0
173 197 0
174 198 0
173 197 0
173 196 0
173 196 0
174 197 0
173 197 0
173 196 0
173 196 0
174 197 0
173 196 0
173 196 0
172 196 0
174 197 0
174 197 0
174 197 0
174 197 0
175 198 0
173 196 0
173 197 0
173 195 0
174 197 0
172 195 0
172 195 0
174 196 0
174 198 0
173 196 0
173 196 0
172 195 0
173 197 0
173 197 0
174 196 0
174 197 0
173 197 0
172 196 0
172 195 0
174 197 0
173 195 0
172 194 0
172 194 0
174 197 0
171 194 0
172 195 0
173 196 0
174 197 0
173 196 0
173 196 0
173 196 0
172 195 0
173 196 0
172 195 0
171 193 0
172 195 0
171 195 0
173 196 0
173 195 0
171 194 0
172 195 0
172 195 0
173 195 0
171 194 0
172 195 0
171 195 0
170 193 0
172 195 0
172 195 0
173 196 0
169 192 0
171 194 0
170 194 0
171 194 0
170 193 0
172 195 0
172 195 0
172 194 0
170 193 0
171 194 0
171 194 0
173 195 0
171 194 0
172 195 31
171 193 31
175 197 47
173 195 47
174 196 57
173 195 67
176 198 70
177 198 94
180 201 99
186 206 134
186 206 129
192 211 157
192 211 167
193 212 166
193 213 176
200 219 195
201 219 202
204 222 207
201 220 200
205 223 214
207 225 225
207 224 223
205 223 217
207 225 226
204 222 218
202 220 211
205 223 215
203 222 212
202 221 206
198 217 197
194 214 178
195 215 182
193 212 172
191 210 172
191 211 167
184 205 134
185 206 136
184 204 139
181 203 122
185 206 139
178 201 113
180 201 114
179 201 120
177 199 107
181 201 125
180 201 113
179 201 105
179 200 115
178 200 111
182 203 115
179 201 103
181 202 105
181 200 121
182 203 122
182 202 127
181 198 126
181 201 136
178 197 137
166 182 165
153 167 178
134 149 172
132 145 169
125 134 165
110 119 149
107 114 148
95 103 143
96 99 142
96 97 141
99 101 144
95 95 141
89 95 144
91 92 138
89 91 134
89 94 146
76 94 149
73 91 146
78 96 152
69 95 152
66 94 155
67 99 157
60 93 149
61 94 153
60 95 154
60 94 153
60 95 159
59 93 152
60 94 156
59 93 150
60 94 152
61 95 155
61 96 155
58 92 151
59 94 155
60 96 156
60 94 152
60 95 156
61 96 157
61 96 158
60 95 158
60 95 155
60 95 154
60 95 154
60 94 150
61 97 159
60 94 153
61 95 156
60 95 155
61 95 159
61 95 160
60 95 155
61 96 158
60 95 154
61 96 158
61 95 150
60 96 153
61 95 152
61 96 154
61 96 153
61 95 150
62 97 160
62 96 150
61 95 154
61 95 152
61 95 151
61 96 150
60 94 147
61 95 150
60 94 147
61 96 151
61 95 147
61 97 155
62 97 155
62 97 155
61 95 149
60 94 144
60 95 148
61 95 143
61 95 148
60 94 141
60 94 139
61 95 147
60 94 144
62 97 151
60 94 148
60 94 140
58 90 126
59 93 141
59 92 130
58 90 123
62 93 132
101 115 87
115 121 28
117 122 0
115 118 0
107 109 0
112 112 8
99 102 0
101 101 0
106 105 8
102 100 9
110 109 0
101 99 0
102 98 5
100 100 4
95 89 9
100 98 10
98 92 4
90 84 4
99 92 3
102 96 0
101 96 7
98 91 8
93 86 5
104 97 6
107 101 10
109 103 10
98 94 7
107 100 7
107 100 13
110 106 9
112 105 9
119 114 6
122 116 13
115 110 4
113 109 12
123 121 11
114 111 9
127 128 14
129 128 3
127 127 8
133 134 14
133 135 4
135 139 8
142 146 8
150 157 8
142 147 0
147 153 8
154 162 0
151 159 0
149 158 0
159 170 0
157 169 0
152 162 0
159 173 0
157 170 0
161 176 0
158 172 0
162 176 0
159 173 0
159 172 0
159 175 0
160 175 0
161 177 0
165 180 0
166 183 0
164 180 0
165 183 0
163 179 0
165 182 0
167 186 0
166 184 0
165 184 0
165 184 0
166 183 0
167 186 0
166 185 0
167 186 0
170 188 0
168 187 0
169 191 0
169 190 0
168 188 0
168 190 0
169 190 0
168 189 0
168 188 0
170 192 0
169 191 0
169 191 0
172 193 0
170 192 0
170 191 0
171 193 0
168 190 0
169 191 0
172 193 0
172 194 0
170 192 0
171 192 0
170 191 0
170 193 0
171 193 0
172 194 0
171 193 0
173 195 0
171 194 0
171 192 0
173 194 0
172 194 0
171 193 0
170 192 0
172 194 0
170 192 0
171 193 0
172 194 0
170 192 0
173 196 0
172 193 0
174 196 0
171 194 0
172 196 0
172 195 0
173 196 0
172 195 0
174 197 0
172 194 0
172 195 0
172 194 0
174 196 0
173 195 0
173 195 0
173 195 0
173 196 0
172 195 0
172 195 0
173 195 0
172 195 0
172 196 0
175 197 0
170 192 0
174 197 0
173 196 0
172 195 0
172 194 0
173 196 0
171 193 0
174 196 0
174 197 0
172 196 0
173 195 0
172 196 0
173 195 0
174 196 0
173 196 0
173 196 0
173 196 0
173 196 0
171 194 0
174 197 0
173 196 0
174 197 0
173 196 0
174 197 0
173 195 0
174 196 0
174 196 0
174 196 0
174 197 0
174 196 0
174 197 0
173 196 0
174 197 0
172 195 0
173 196 0
173 196 0
173 196 0
175 197 0
173 196 0
174 197 0
174 197 0
172 196 0
173 196 0
173 197 0
173 197 0
175 198 0
174 197 0
173 196 0
173 197 0
172 195 0
174 197 0
174 197 0
173 196 0
173 196 0
174 197 0
173 196 0
175 197 0
172 196 0
172 195 0
173 196 0
174 198 0
173 196 0
173 196 0
173 196 0
172 195 0
173 196 0
173 197 0
171 195 0
173 196 0
173 195 0
174 197 0
172 196 0
173 195 0
173 196 0
169 192 0
173 196 0
173 196 0
172 196 0
173 196 0
172 196 0
172 195 0
171 194 0
172 195 0
171 194 0
173 196 0
170 193 0
171 194 0
172 195 0
171 194 0
173 196 0
172 195 0
172 196 0
172 195 0
171 194 0
172 195 0
171 195 0
171 194 0
172 195 0
171 194 0
173 196 0
171 194 0
171 194 0
172 195 0
171 194 0
171 195 0
171 193 0
171 195 0
173 195 0
171 193 0
172 194 0
173 196 0
173 196 36
172 194 51
175 196 57
174 197 51
173 196 44
177 199 74
176 197 80
183 205 113
178 199 99
185 206 128
189 207 150
192 212 165
195 214 174
195 214 176
197 216 187
197 216 189
202 221 207
202 221 206
204 222 211
205 224 217
208 226 228
206 224 217
205 223 217
205 222 212
203 221 211
201 219 207
199 218 202
200 219 198
195 215 179
194 214 173
188 209 157
191 211 165
185 207 149
184 205 139
184 204 128
182 204 121
182 204 118
179 201 110
178 200 99
175 198 92
177 200 88
177 200 90
173 196 70
172 195 92
176 198 84
175 198 72
174 197 76
175 198 88
173 197 82
171 194 80
175 198 88
173 196 78
175 197 83
176 197 101
173 193 100
174 193 82
174 194 100
168 187 110
147 165 129
127 142 154
114 129 165
130 144 167
108 122 156
108 119 154
100 109 143
97 103 142
91 97 139
98 100 141
91 96 142
94 99 144
91 89 134
94 97 144
96 97 138
89 91 139
90 94 143
86 95 146
72 91 148
78 99 154
71 97 149
62 93 153
62 94 158
60 93 149
60 94 155
60 92 148
60 94 152
65 97 151
60 95 155
60 94 153
59 92 148
60 94 149
59 93 150
59 94 152
60 94 153
62 97 160
61 95 157
61 96 156
60 95 155
61 96 157
59 93 149
60 94 148
60 95 154
60 95 155
61 95 160
60 94 152
61 96 158
61 95 156
61 96 152
61 96 154
59 93 149
61 95 153
61 96 154
61 96 156
60 94 154
60 95 153
61 96 157
61 96 156
62 98 159
61 96 153
61 96 155
61 95 152
61 95 153
61 96 155
61 95 150
61 96 156
61 96 149
61 95 151
61 96 152
61 96 152
61 96 154
60 95 147
61 96 149
61 95 150
61 96 151
61 95 153
60 95 142
61 96 148
59 94 145
61 96 141
61 95 147
61 96 151
60 95 141
59 93 136
61 95 145
59 93 135
59 93 134
59 93 138
59 92 134
59 92 136
59 92 135
64 90 114
104 113 67
115 118 0
111 114 0
119 121 0
108 111 0
109 110 0
113 112 0
97 96 8
105 105 0
107 106 0
101 102 0
99 97 0
109 108 5
99 95 0
88 83 5
106 104 4
98 93 0
97 91 3
98 94 3
109 104 0
104 100 0
96 89 4
109 105 0
100 95 3
110 105 8
108 102 6
112 109 12
102 96 6
118 113 4
107 102 14
112 107 7
112 108 9
118 115 0
115 111 11
122 120 4
125 123 14
132 132 8
124 122 9
129 127 10
137 139 9
141 146 4
136 139 4
136 139 4
146 152 0
147 153 0
149 156 0
150 157 0
153 162 0
148 156 0
156 167 0
154 164 0
156 166 0
153 164 0
157 168 0
153 165 0
159 173 0
153 165 0
160 175 0
163 178 0
163 176 0
162 176 0
163 177 0
160 175 0
160 176 0
165 181 0
163 179 0
164 180 0
163 180 0
163 181 0
164 183 0
164 183 0
168 184 0
167 186 0
168 187 0
167 187 0
167 188 0
167 187 0
168 189 0
166 184 0
170 191 0
168 190 0
168 188 0
170 191 0
167 188 0
169 189 0
171 191 0
168 186 0
167 187 0
170 190 0
170 190 0
171 193 0
170 191 0
169 189 0
169 191 0
171 193 0
171 193 0
169 190 0
171 193 0
171 191 0
171 193 0
170 192 0
170 192 0
172 194 0
171 192 0
171 193 0
171 192 0
172 194 0
171 193 0
174 197 0
171 192 0
170 193 0
171 193 0
173 195 0
170 192 0
171 194 0
169 190 0
172 194 0
172 195 0
173 195 0
172 195 0
174 196 0
172 195 0
172 194 0
172 194 0
171 193 0
173 195 0
173 196 0
172 195 0
172 194 0
171 194 0
172 194 0
173 195 0
171 195 0
173 195 0
172 195 0
172 195 0
174 196 0
172 194 0
173 195 0
173 196 0
174 197 0
172 196 0
173 196 0
173 196 0
173 195 0
173 196 0
172 194 0
171 192 0
173 197 0
173 196 0
173 196 0
173 196 0
173 196 0
172 196 0
172 196 0
174 197 0
173 195 0
172 196 0
174 196 0
174 197 0
173 196 0
173 196 0
175 197 0
174 197 0
172 195 0
174 197 0
175 197 0
173 195 0
173 196 0
173 196 0
173 197 0
173 195 0
171 194 0
175 198 0
173 196 0
173 196 0
173 196 0
172 195 0
174 197 0
174 196 0
174 197 0
173 196 0
173 196 0
173 196 0
174 197 0
174 197 0
172 195 0
173 196 0
172 196 0
174 196 0
173 196 0
173 195 0
172 195 0
172 196 0
174 196 0
173 196 0
173 196 0
172 196 0
171 195 0
173 196 0
174 197 0
173 196 0
171 194 0
172 195 0
171 195 0
173 195 0
174 197 0
173 196 0
173 196 0
172 196 0
173 196 0
171 194 0
173 196 0
172 196 0
172 196 0
171 194 0
172 196 0
173 196 0
169 193 0
174 197 0
174 196 0
170 192 0
171 193 0
172 195 0
173 195 0
174 196 0
173 196 0
173 195 0
172 194 0
172 194 0
173 196 0
170 193 0
173 196 0
172 195 0
172 195 0
171 194 0
171 193 0
170 194 0
170 193 0
169 192 0
173 196 0
171 195 0
171 194 0
172 195 0
170 193 0
171 193 0
169 193 0
171 194 0
171 193 18
174 197 36
173 195 44
174 196 44
176 198 65
175 196 65
180 201 95
180 201 92
182 203 121
187 207 129
187 207 131
187 207 139
193 212 167
193 212 173
193 212 175
199 218 191
198 217 188
205 223 211
203 221 208
206 224 215
207 224 217
207 224 220
203 221 207
204 222 213
203 221 209
201 219 204
199 218 194
190 210 170
195 214 184
191 212 162
191 211 162
185 207 144
184 205 143
182 203 124
177 199 99
178 199 97
179 201 107
175 198 90
177 200 99
175 198 86
175 198 80
177 200 84
175 197 78
173 197 82
174 197 82
174 197 72
173 197 74
173 196 72
174 197 78
176 198 70
172 196 74
173 196 65
173 195 57
171 193 66
172 193 66
172 193 62
172 194 69
171 191 62
169 187 80
161 180 92
144 163 111
107 125 146
99 115 143
110 121 148
103 118 146
98 113 146
90 102 138
93 104 142
86 98 137
91 98 136
93 97 137
91 91 133
91 95 138
93 95 134
93 93 141
90 91 132
91 96 140
80 92 144
77 92 144
72 96 155
66 93 152
68 95 151
64 96 155
64 97 152
66 98 159
62 95 158
60 95 159
60 93 152
58 91 147
60 94 152
60 94 153
60 94 150
59 93 145
60 94 148
60 94 147
59 94 151
60 94 148
59 93 148
59 93 155
60 95 153
60 95 155
60 94 148
59 93 150
60 95 154
61 96 160
60 94 150
60 95 147
60 95 154
61 96 155
60 94 148
61 95 158
60 94 151
60 95 154
59 93 147
60 95 152
61 96 152
61 95 152
60 94 146
62 97 157
60 95 152
61 95 150
61 96 148
61 96 154
60 95 145
61 96 147
60 95 148
61 96 156
60 94 150
61 96 144
61 95 146
60 96 148
59 93 144
61 96 152
60 94 137
60 95 145
60 94 142
61 95 149
60 95 147
61 95 144
60 94 142
59 93 140
60 94 141
61 95 144
60 94 141
59 92 138
60 94 143
59 93 136
59 92 135
60 94 137
58 91 128
58 90 127
83 102 99
105 115 43
117 122 0
113 118 0
112 116 0
117 122 0
114 118 0
120 124 0
108 109 0
106 106 0
103 103 0
104 104 0
102 102 1
100 100 8
102 102 0
104 103 1
99 98 0
97 95 4
106 100 6
94 88 1
95 93 0
112 107 0
101 98 4
106 101 4
106 98 3
114 112 0
109 104 6
106 102 6
104 98 6
112 108 0
109 106 4
120 116 3
118 114 0
114 113 8
122 120 0
135 134 12
125 125 8
124 122 0
137 139 0
130 132 0
142 144 11
144 148 8
140 146 0
146 152 8
148 157 0
147 153 0
150 157 0
147 154 0
152 163 0
151 162 0
154 162 0
153 162 0
153 163 0
154 167 0
157 171 0
154 169 0
157 168 0
160 173 0
163 177 0
159 173 0
157 173 0
162 178 0
163 178 0
163 179 0
166 184 0
166 181 0
164 180 0
166 182 0
166 183 0
163 181 0
166 184 0
166 184 0
167 185 0
165 183 0
168 187 0
167 185 0
166 184 0
168 186 0
166 185 0
167 187 0
169 189 0
169 191 0
168 187 0
168 188 0
168 188 0
169 188 0
168 189 0
170 190 0
168 189 0
168 187 0
169 189 0
172 192 0
169 190 0
171 192 0
169 190 0
169 190 0
170 191 0
171 191 0
171 193 0
170 192 0
168 190 0
171 193 0
171 192 0
170 191 0
171 193 0
172 194 0
169 192 0
171 193 0
170 193 0
172 194 0
171 192 0
172 195 0
171 193 0
171 193 0
171 193 0
171 193 0
174 195 0
172 194 0
173 195 0
172 194 0
172 195 0
171 194 0
171 192 0
172 193 0
172 195 0
170 193 0
171 194 0
172 195 0
171 193 0
171 193 0
173 194 0
172 196 0
172 195 0
174 197 0
175 197 0
172 195 0
173 196 0
172 195 0
173 196 0
173 195 0
173 195 0
171 195 0
172 194 0
173 196 0
173 195 0
171 195 0
173 195 0
173 196 0
173 196 0
172 195 0
173 195 0
174 197 0
173 197 0
173 195 0
174 197 0
173 196 0
175 197 0
173 196 0
174 196 0
173 196 0
173 197 0
172 195 0
173 196 0
174 197 0
174 197 0
172 196 0
174 197 0
172 194 0
173 196 0
174 197 0
174 197 0
172 196 0
172 195 0
174 197 0
173 196 0
173 195 0
174 197 0
174 197 0
171 195 0
173 196 0
173 196 0
174 197 0
172 196 0
173 197 0
174 198 0
172 195 0
174 197 0
173 197 0
172 196 0
174 197 0
173 197 0
173 196 0
175 197 0
172 195 0
174 196 0
174 197 0
174 197 0
173 197 0
174 197 0
174 197 0
173 196 0
173 195 0
171 195 0
174 198 0
173 196 0
173 196 0
172 195 0
173 196 0
172 195 0
171 194 0
173 196 0
172 195 0
173 195 0
171 195 0
173 196 0
174 197 0
174 196 0
173 195 0
172 195 0
171 195 0
173 195 0
172 194 0
170 193 0
172 194 0
173 196 0
173 197 0
172 196 0
172 195 0
173 196 0
171 195 0
173 196 0
171 193 0
172 195 0
172 195 0
170 194 0
172 195 0
172 193 0
169 192 0
169 192 0
173 196 0
171 193 0
173 196 0
169 192 0
172 195 0
172 195 0
171 194 0
172 195 0
170 193 0
174 196 36
174 196 31
174 197 51
174 196 47
173 195 40
174 197 54
173 196 74
179 200 95
180 200 105
184 204 129
186 206 136
189 209 139
191 211 160
196 214 177
197 217 184
203 221 203
201 219 203
204 221 208
204 222 213
202 220 203
204 222 208
204 222 209
204 222 211
203 222 209
204 222 207
198 217 189
198 217 183
189 210 160
191 211 163
188 209 150
186 206 147
185 207 143
182 204 121
179 201 102
177 198 90
177 200 105
174 197 72
174 197 70
173 195 72
173 197 78
172 196 72
174 197 67
174 197 80
175 198 72
171 194 60
173 196 74
171 193 65
172 195 67
172 195 65
172 194 74
174 197 74
171 194 78
170 192 51
172 195 70
171 195 78
172 193 54
170 191 55
167 186 53
169 187 64
166 183 50
156 177 82
134 153 100
97 113 134
87 105 139
93 108 138
93 109 136
97 113 149
99 113 142
92 107 140
90 101 140
96 102 136
92 96 137
100 98 134
88 94 135
90 90 135
89 93 135
85 90 136
90 94 140
84 92 146
85 93 140
85 96 140
76 98 155
68 97 154
66 99 160
68 97 153
59 93 153
61 94 149
64 96 150
60 95 154
59 92 152
61 95 157
59 92 147
60 94 153
58 91 147
58 92 147
60 94 155
60 94 148
60 95 154
60 95 154
59 93 153
61 96 157
60 96 154
60 95 152
60 95 149
60 95 148
60 95 151
60 95 157
61 96 158
60 94 151
61 95 151
61 96 155
61 95 153
62 97 159
61 96 155
60 94 150
60 94 145
61 95 151
60 94 154
59 94 148
60 94 150
60 95 151
61 95 151
60 95 145
61 95 149
61 96 150
61 95 151
60 94 143
62 97 155
60 95 147
61 95 148
60 95 146
61 95 151
61 96 150
61 95 143
60 95 145
60 94 148
61 96 150
60 94 143
61 96 145
60 94 144
60 95 140
60 93 137
60 93 143
59 93 141
60 95 148
59 92 133
59 93 136
60 95 141
59 92 132
59 92 130
58 90 128
60 89 113
98 114 91
124 132 26
115 121 0
111 116 0
109 112 0
113 116 0
114 117 0
112 115 0
114 115 0
111 114 0
113 114 0
109 110 0
114 116 0
112 112 0
110 108 0
106 105 0
107 106 0
104 102 0
97 98 0
110 108 0
105 103 4
103 99 0
100 98 4
107 102 4
113 110 0
110 106 0
111 109 0
113 112 9
113 112 0
113 107 8
122 120 0
117 117 0
125 123 8
113 111 1
121 118 0
132 135 0
126 127 0
132 133 8
132 135 0
133 137 0
133 136 4
140 143 0
148 154 0
144 150 0
144 150 0
151 160 0
150 157 0
153 164 0
153 161 0
151 161 0
160 173 0
151 161 0
150 160 0
156 168 0
159 172 0
155 168 0
162 176 0
161 176 0
162 177 0
162 175 0
157 172 0
163 178 0
161 178 0
160 177 0
162 178 0
166 184 0
165 182 0
164 180 0
163 179 0
163 181 0
167 186 0
165 184 0
166 184 0
165 184 0
169 188 0
165 183 0
170 189 0
166 185 0
166 185 0
169 188 0
167 186 0
167 187 0
168 187 0
167 187 0
170 192 0
170 190 0
167 186 0
167 186 0
169 189 0
169 190 0
167 187 0
171 191 0
169 190 0
170 190 0
168 189 0
169 189 0
168 190 0
170 191 0
170 192 0
170 191 0
170 193 0
170 191 0
172 191 0
171 194 0
170 191 0
170 191 0
170 191 0
172 194 0
170 192 0
171 194 0
171 193 0
172 195 0
171 193 0
172 195 0
174 195 0
172 194 0
170 192 0
173 195 0
174 196 0
171 194 0
170 192 0
174 195 0
172 193 0
172 195 0
172 195 0
173 196 0
170 193 0
174 196 0
172 193 0
173 196 0
173 196 0
173 195 0
172 195 0
172 195 0
172 195 0
171 194 0
173 196 0
171 193 0
172 195 0
173 195 0
173 195 0
173 196 0
172 196 0
173 196 0
172 196 0
173 195 0
173 195 0
173 196 0
174 197 0
173 195 0
173 196 0
173 196 0
174 197 0
173 195 0
173 196 0
172 196 0
172 195 0
174 196 0
172 195 0
173 196 0
173 196 0
171 194 0
175 197 0
173 197 0
173 197 0
172 195 0
172 195 0
173 196 0
174 196 0
174 197 0
173 195 0
174 197 0
174 197 0
174 197 0
173 197 0
174 197 0
174 196 0
174 197 0
173 196 0
173 196 0
172 195 0
174 196 0
173 196 0
172 195 0
172 195 0
173 196 0
173 197 0
173 196 0
172 195 0
174 198 0
173 197 0
171 195 0
174 197 0
173 196 0
173 196 0
173 195 0
172 194 0
172 195 0
172 196 0
172 194 0
173 196 0
171 195 0
170 193 0
172 195 0
171 194 0
173 197 0
172 195 0
172 195 0
172 195 0
171 194 0
173 196 0
172 195 0
172 195 0
173 197 0
172 195 0
173 196 0
174 197 0
171 195 0
173 195 0
173 195 0
171 194 0
172 195 0
173 196 0
173 196 0
170 194 0
172 195 0
172 194 0
172 195 0
173 196 0
171 195 0
172 194 0
171 194 0
170 193 0
172 195 0
170 194 0
173 195 0
171 194 0
172 194 0
171 194 0
169 191 0
171 194 0
170 193 0
170 192 0
173 196 0
172 195 0
169 192 0
170 193 0
172 194 25
172 195 25
172 194 25
173 196 57
172 195 44
174 196 62
173 195 62
178 199 90
181 202 102
184 204 115
184 205 126
188 209 140
190 210 155
194 212 168
197 216 182
197 216 186
199 218 192
205 222 214
206 224 214
205 223 220
206 223 219
203 221 203
202 220 211
202 220 205
198 217 190
197 215 188
194 214 179
190 210 171
190 211 160
187 208 149
183 203 133
182 203 128
181 203 117
175 199 82
176 200 86
174 197 84
175 198 78
173 196 60
173 198 88
171 195 72
173 196 62
172 195 62
173 196 74
172 196 76
170 194 76
170 194 86
174 197 62
173 197 74
170 192 67
173 197 65
173 196 86
171 194 74
171 194 76
174 197 84
172 194 72
170 191 65
170 191 78
169 189 65
168 187 73
169 187 59
169 188 54
160 177 51
143 160 90
105 123 121
85 103 140
86 103 133
90 106 133
92 112 144
90 109 142
92 108 143
83 100 139
84 99 132
92 104 136
91 98 134
97 101 140
85 94 139
88 90 133
85 93 145
92 97 139
91 101 152
84 96 147
76 97 157
75 96 157
70 99 157
66 99 160
64 96 157
69 101 160
67 98 157
64 96 149
63 95 149
61 94 150
58 92 151
59 93 147
62 95 147
59 92 151
60 94 150
60 94 154
61 95 151
60 94 149
60 94 150
60 94 149
60 94 144
60 94 149
61 96 154
60 95 152
60 94 151
61 96 153
60 94 151
59 93 148
59 94 148
61 95 145
61 96 149
61 95 152
60 94 148
60 95 152
61 95 154
60 94 151
60 95 154
61 96 146
62 97 156
61 96 150
60 95 146
61 95 150
61 95 145
61 95 150
61 96 152
59 93 142
60 95 147
61 96 156
60 95 144
60 94 147
60 95 147
61 95 148
61 95 146
62 97 155
61 96 145
60 94 141
59 93 142
61 96 150
60 95 149
61 95 144
61 95 139
60 94 138
60 93 139
61 94 141
59 93 140
59 93 136
59 93 138
59 94 135
59 92 135
58 91 131
57 88 119
72 95 118
111 117 48
118 125 0
114 119 0
118 124 0
117 122 0
123 128 0
117 122 0
116 119 0
108 110 0
119 123 0
116 121 0
115 118 0
115 116 0
107 109 0
112 112 0
112 112 0
110 112 0
108 106 1
112 110 0
103 103 4
106 102 0
107 107 0
115 114 4
117 114 0
114 113 5
110 107 4
111 110 4
114 114 0
120 122 0
123 122 0
127 126 8
124 123 0
121 120 2
129 130 0
126 128 1
134 138 0
138 140 8
136 140 0
140 142 0
140 145 0
144 148 0
144 150 0
148 156 0
146 154 0
146 152 0
153 162 0
150 157 0
152 162 0
148 157 0
155 167 0
153 164 0
161 173 0
155 167 0
157 168 0
157 170 0
157 170 0
161 175 0
160 176 0
160 174 0
160 174 0
161 177 0
160 174 0
161 177 0
163 178 0
163 179 0
162 176 0
163 179 0
163 180 0
164 181 0
162 178 0
166 183 0
163 181 0
168 188 0
166 184 0
167 186 0
167 185 0
169 188 0
163 181 0
168 187 0
166 185 0
170 190 0
167 188 0
167 186 0
167 188 0
169 189 0
169 188 0
168 189 0
166 186 0
169 190 0
170 190 0
169 189 0
170 190 0
170 192 0
169 190 0
168 189 0
170 191 0
170 192 0
171 193 0
169 189 0
169 190 0
170 191 0
170 192 0
171 193 0
171 191 0
172 194 0
172 193 0
169 190 0
171 193 0
172 194 0
173 196 0
170 191 0
169 191 0
171 193 0
170 192 0
172 195 0
171 193 0
170 192 0
173 195 0
172 193 0
169 192 0
169 190 0
173 195 0
174 197 0
173 195 0
172 195 0
172 195 0
170 193 0
172 194 0
172 195 0
171 193 0
173 194 0
173 195 0
172 194 0
173 196 0
172 195 0
173 197 0
173 195 0
171 193 0
173 196 0
172 196 0
173 196 0
172 195 0
174 197 0
173 196 0
173 195 0
172 194 0
173 195 0
174 197 0
174 197 0
173 195 0
173 196 0
172 194 0
173 196 0
174 197 0
172 194 0
172 196 0
172 194 0
174 196 0
173 196 0
174 196 0
173 196 0
173 196 0
173 196 0
174 197 0
173 197 0
174 197 0
174 196 0
173 197 0
172 196 0
173 196 0
173 197 0
173 197 0
173 197 0
173 197 0
174 197 0
172 196 0
174 197 0
173 196 0
174 197 0
174 196 0
174 197 0
174 197 0
175 197 0
173 196 0
172 195 0
173 195 0
173 196 0
172 195 0
174 197 0
174 197 0
173 196 0
172 194 0
173 196 0
173 196 0
174 197 0
173 196 0
173 197 0
171 195 0
173 196 0
173 196 0
173 196 0
173 196 0
172 195 0
173 196 0
172 195 0
174 197 0
173 196 0
173 196 0
172 195 0
173 196 0
172 194 0
174 197 0
172 195 0
171 194 0
173 196 0
171 195 0
173 196 0
171 195 0
171 194 0
171 194 0
171 193 0
171 195 0
171 194 0
170 193 0
172 195 0
173 195 0
172 194 0
170 193 0
172 195 0
172 194 0
174 197 0
170 192 0
170 193 0
173 196 0
170 191 0
172 194 0
171 192 0
171 195 0
173 195 0
170 193 0
169 191 0
170 192 0
171 194 0
172 194 0
172 195 0
172 194 0
172 195 18
174 196 40
170 193 25
172 195 47
173 195 31
171 194 44
174 196 72
180 201 86
182 203 113
182 203 130
187 207 131
189 209 149
194 213 165
200 218 188
198 216 186
198 217 183
204 222 208
203 221 210
203 221 208
206 223 213
206 224 218
207 224 221
200 218 196
200 218 194
200 218 193
193 212 175
195 214 181
186 206 148
185 206 143
182 204 128
181 204 121
177 198 92
177 199 97
175 197 74
172 195 76
173 196 76
173 196 70
173 197 72
174 197 74
171 195 70
174 197 76
174 197 65
173 196 65
171 195 65
170 193 60
172 194 70
172 195 72
172 195 74
173 196 86
170 193 72
169 193 78
170 193 74
171 194 70
171 195 82
171 194 65
170 193 72
170 190 61
170 193 70
171 191 65
167 187 60
169 187 58
165 185 69
162 181 61
148 164 77
121 138 110
87 103 137
85 104 143
85 104 148
89 107 145
78 101 138
95 110 142
83 100 136
86 100 137
85 96 138
86 94 140
87 96 135
91 95 132
89 97 139
76 94 146
87 95 137
90 97 141
89 103 150
73 95 153
80 103 159
73 101 159
72 104 163
73 104 162
68 99 154
67 99 153
66 96 145
65 98 151
61 94 142
60 94 153
62 94 146
58 89 140
60 93 152
59 93 149
60 94 148
60 95 153
59 93 146
60 94 152
60 94 151
60 94 152
61 95 152
59 92 151
59 93 146
59 92 149
60 94 150
61 96 153
60 95 151
61 96 154
60 95 149
60 95 151
60 94 147
59 93 145
60 95 151
60 95 150
61 96 153
60 95 152
61 95 150
61 95 151
60 93 145
61 96 154
60 95 149
61 96 150
61 96 153
61 96 149
60 95 150
60 95 147
60 95 147
60 95 140
61 95 145
62 97 153
60 95 146
61 95 142
61 95 145
61 96 149
60 94 144
61 95 149
60 94 143
60 95 142
59 94 136
60 94 139
59 93 132
60 94 140
59 94 137
59 92 129
60 93 137
58 92 131
57 90 129
59 92 136
59 93 128
59 91 128
88 105 87
109 118 22
114 122 0
121 127 0
123 128 0
118 123 0
111 114 0
119 123 0
119 124 0
114 116 0
120 123 0
110 111 0
115 119 0
115 119 0
105 107 0
112 112 0
109 108 0
113 112 0
108 108 0
108 107 0
121 124 0
112 111 0
119 118 0
117 117 0
118 115 0
118 116 0
118 120 0
123 122 0
118 118 0
123 121 0
124 122 0
126 128 0
130 132 8
129 131 0
131 137 0
137 139 8
130 134 0
132 135 0
135 139 0
138 143 0
145 150 0
149 156 0
147 153 0
147 154 0
145 150 0
147 154 0
149 157 0
155 164 0
152 162 0
154 163 0
150 160 0
156 166 0
155 169 0
152 164 0
154 166 0
155 166 0
160 173 0
163 176 0
161 174 0
157 170 0
161 176 0
160 175 0
165 180 0
165 182 0
160 176 0
163 179 0
165 181 0
165 180 0
166 182 0
166 182 0
164 182 0
164 182 0
162 180 0
169 189 0
166 185 0
168 185 0
170 189 0
164 182 0
166 184 0
169 189 0
167 186 0
169 188 0
168 189 0
166 186 0
165 183 0
169 189 0
168 187 0
166 186 0
168 186 0
168 189 0
168 189 0
169 191 0
171 190 0
169 189 0
169 190 0
168 190 0
168 190 0
170 191 0
170 191 0
169 191 0
169 189 0
170 190 0
172 193 0
172 193 0
169 190 0
172 194 0
171 193 0
170 192 0
170 192 0
174 196 0
170 193 0
170 192 0
172 193 0
168 190 0
170 191 0
171 194 0
172 194 0
173 195 0
171 193 0
172 194 0
172 195 0
173 195 0
172 195 0
173 195 0
171 193 0
172 194 0
173 195 0
171 194 0
172 194 0
172 194 0
172 194 0
172 195 0
173 195 0
173 195 0
171 193 0
171 194 0
173 195 0
172 194 0
173 195 0
173 195 0
173 195 0
174 197 0
172 194 0
174 196 0
173 196 0
172 195 0
174 197 0
172 195 0
174 197 0
171 193 0
172 195 0
171 194 0
173 195 0
173 196 0
174 196 0
171 193 0
173 196 0
174 197 0
174 197 0
173 196 0
174 197 0
173 197 0
174 197 0
174 197 0
173 196 0
174 196 0
174 196 0
173 197 0
173 196 0
173 197 0
174 197 0
173 195 0
174 196 0
172 196 0
172 195 0
175 198 0
173 196 0
171 194 0
173 196 0
174 197 0
173 197 0
173 196 0
171 195 0
173 196 0
172 196 0
172 195 0
174 195 0
173 195 0
171 195 0
173 196 0
172 194 0
171 194 0
172 195 0
173 196 0
172 194 0
173 196 0
173 196 0
172 196 0
172 195 0
171 194 0
175 198 0
173 196 0
173 196 0
172 195 0
174 197 0
172 195 0
172 194 0
173 195 0
173 196 0
173 196 0
170 193 0
174 197 0
173 196 0
171 195 0
172 196 0
170 193 0
172 195 0
173 196 0
172 195 0
173 196 0
173 196 0
172 195 0
172 195 0
173 196 0
173 196 0
171 194 0
173 196 0
172 194 0
173 195 0
172 196 0
173 196 0
173 196 0
171 194 0
170 193 0
172 196 0
170 193 0
169 192 0
168 190 0
169 191 0
172 195 0
171 194 0
170 193 0
172 194 0
171 195 0
171 195 0
171 195 0
172 194 18
172 194 0
169 192 25
173 195 51
172 195 36
174 197 57
174 196 65
176 198 74
182 203 105
184 205 117
188 208 140
188 208 142
188 208 148
193 213 162
196 215 185
202 220 201
201 219 199
206 223 215
203 221 205
204 222 211
202 220 206
199 218 197
203 221 205
201 219 203
197 216 183
194 214 174
187 208 147
186 206 141
183 203 124
177 199 117
180 202 110
178 200 107
176 199 84
173 196 67
175 197 65
172 196 62
173 196 72
173 196 74
171 193 84
172 195 72
172 194 62
173 195 72
175 197 62
173 196 70
168 191 76
169 191 54
170 193 60
169 191 60
172 195 67
173 196 84
171 194 78
171 194 76
170 193 57
170 193 72
170 192 76
170 194 47
172 194 70
168 189 55
167 189 70
167 187 71
168 187 65
168 187 68
167 185 61
164 180 53
151 169 70
139 157 97
96 110 126
82 100 138
80 100 140
81 101 146
83 100 124
85 102 141
81 97 143
86 102 142
90 105 131
91 106 140
81 97 136
86 93 136
88 98 147
91 95 138
88 100 142
86 101 144
88 104 157
73 96 152
77 101 160
70 100 154
69 101 157
69 100 159
66 98 154
62 96 154
66 97 150
61 95 149
61 93 150
59 93 145
60 93 146
59 93 151
60 94 148
60 94 149
59 92 141
58 91 137
60 93 146
58 91 143
59 93 145
61 95 154
60 95 152
59 93 149
60 94 148
59 93 144
60 95 151
60 94 145
60 94 146
60 94 148
60 95 147
60 94 148
59 93 143
60 93 138
60 93 148
60 95 149
61 95 148
60 94 149
60 94 144
60 94 145
60 94 144
60 94 148
59 94 146
60 94 139
61 96 146
59 94 143
60 94 144
60 95 148
61 95 145
60 95 142
62 96 149
60 94 143
60 95 144
60 94 142
61 95 143
60 94 144
60 94 144
60 95 141
60 94 144
59 93 138
60 94 142
60 94 140
60 94 143
59 93 133
60 95 138
59 93 133
59 93 135
60 94 139
57 89 128
58 92 127
57 90 126
66 93 113
100 113 69
120 128 12
118 125 0
117 127 0
117 124 0
119 126 0
116 124 0
111 114 0
115 122 0
113 118 0
113 117 0
120 123 0
118 122 0
114 119 0
116 121 0
116 118 0
113 113 0
110 113 0
116 117 0
115 117 0
119 121 0
127 129 0
118 117 0
118 118 0
122 124 0
123 124 0
129 131 0
131 134 0
125 128 0
126 126 0
132 135 0
128 130 0
132 134 0
134 137 0
132 133 0
133 137 0
136 139 0
141 144 0
141 147 0
134 139 0
142 148 0
150 158 0
143 151 0
148 157 0
144 149 0
146 154 0
141 149 0
154 162 0
152 164 0
155 164 0
155 165 0
155 166 0
156 168 0
155 165 0
155 167 0
156 169 0
159 172 0
160 173 0
161 177 0
161 176 0
162 177 0
164 178 0
159 175 0
163 179 0
164 182 0
163 179 0
163 180 0
165 183 0
165 183 0
159 174 0
163 180 0
165 183 0
165 182 0
166 187 0
164 182 0
165 185 0
168 187 0
166 184 0
167 186 0
165 185 0
169 189 0
170 191 0
166 186 0
167 187 0
167 186 0
170 190 0
168 189 0
165 186 0
168 189 0
168 189 0
167 188 0
167 189 0
170 191 0
170 191 0
170 191 0
168 188 0
168 188 0
171 193 0
170 191 0
171 193 0
170 192 0
171 193 0
170 191 0
169 191 0
170 192 0
171 194 0
172 193 0
171 193 0
171 193 0
171 195 0
171 194 0
171 193 0
169 190 0
174 196 0
171 192 0
172 194 0
171 193 0
171 194 0
173 195 0
169 192 0
172 194 0
171 193 0
171 193 0
172 194 0
172 194 0
174 196 0
173 195 0
171 192 0
172 195 0
173 196 0
171 194 0
171 194 0
172 195 0
172 195 0
172 195 0
170 193 0
172 195 0
172 195 0
173 196 0
171 194 0
174 196 0
171 194 0
173 196 0
173 195 0
173 195 0
171 195 0
171 194 0
173 195 0
174 196 0
173 195 0
173 195 0
174 197 0
173 194 0
174 197 0
174 196 0
173 196 0
174 197 0
174 196 0
173 195 0
173 196 0
173 196 0
174 197 0
174 197 0
173 196 0
172 196 0
174 197 0
172 195 0
172 195 0
172 195 0
173 196 0
173 197 0
173 196 0
175 197 0
173 197 0
173 196 0
173 196 0
174 196 0
171 195 0
172 196 0
173 197 0
172 196 0
172 196 0
172 195 0
173 196 0
173 197 0
172 196 0
174 197 0
174 196 0
173 197 0
173 197 0
172 195 0
172 196 0
173 196 0
174 197 0
171 194 0
172 195 0
174 196 0
174 198 0
174 197 0
171 195 0
172 195 0
174 196 0
173 196 0
173 196 0
172 195 0
172 195 0
173 196 0
173 196 0
175 198 0
173 196 0
174 196 0
173 196 0
171 193 0
172 195 0
173 196 0
174 196 0
172 194 0
172 195 0
170 192 0
169 192 0
169 192 0
172 195 0
172 194 0
171 194 0
172 194 0
171 194 0
171 194 0
170 192 0
172 194 0
171 194 0
172 195 0
173 194 0
171 194 0
172 195 0
170 193 0
172 194 0
171 194 0
172 195 0
174 196 0
169 193 0
170 193 0
173 196 0
172 195 0
168 192 0
171 194 0
170 193 0
170 193 0
173 195 40
174 196 36
174 197 44
174 197 47
176 198 57
175 197 76
180 201 97
182 202 107
185 205 126
188 208 136
193 212 164
194 213 169
195 215 180
200 219 191
201 219 194
203 221 207
204 222 208
201 219 202
202 221 205
203 221 207
198 217 187
197 216 189
194 214 180
187 207 151
187 208 154
183 204 121
183 205 125
179 201 111
178 200 103
177 200 74
174 198 67
173 196 62
173 196 78
172 195 74
175 198 54
175 198 80
171 194 72
172 195 65
172 195 74
174 196 67
173 196 60
172 194 62
168 192 76
169 191 74
171 194 74
172 195 72
172 196 94
169 192 65
172 195 67
170 193 74
167 190 60
170 193 72
170 192 72
169 192 82
170 192 82
169 191 67
166 187 71
166 189 77
170 190 55
167 187 75
168 188 75
167 184 59
162 181 55
164 179 73
145 163 86
108 126 124
86 103 138
80 99 129
82 98 138
79 101 137
82 101 137
85 103 141
83 101 140
83 101 139
82 97 139
83 99 142
87 100 131
89 105 141
91 105 143
92 107 146
78 101 156
82 100 150
77 96 149
79 104 157
74 103 166
77 106 163
67 98 159
64 97 156
64 97 157
64 97 152
63 95 145
67 99 154
63 96 146
61 93 143
58 92 141
62 95 144
59 91 141
59 93 147
60 94 147
59 93 149
60 94 147
60 94 148
59 91 144
58 92 144
57 90 143
59 93 148
60 94 149
61 94 146
60 94 143
60 94 148
60 95 149
59 94 146
60 94 148
60 94 148
60 95 149
59 93 146
60 94 149
60 94 149
60 94 148
60 95 148
60 94 147
60 94 141
60 95 145
60 94 146
61 95 151
60 95 147
59 93 140
61 95 143
59 94 144
60 95 148
61 95 144
60 94 139
61 95 147
60 95 143
60 94 141
60 94 142
60 94 141
60 95 147
59 93 138
60 94 141
60 94 135
61 95 139
60 94 137
59 92 128
60 94 144
60 94 135
60 93 139
59 93 133
59 92 129
59 93 127
58 91 131
60 91 121
90 109 94
112 121 39
115 121 0
123 130 0
127 134 0
118 123 0
119 125 0
115 122 0
116 119 0
112 119 0
116 123 0
113 115 0
115 119 0
114 117 0
116 120 0
118 123 0
113 117 0
117 120 0
112 114 0
119 121 0
119 124 0
117 120 0
123 125 0
126 130 0
128 131 0
128 133 0
125 128 0
128 130 0
128 131 0
131 134 0
127 128 0
135 140 0
133 135 0
135 137 0
137 143 0
143 147 0
133 135 0
138 144 0
143 151 0
139 145 0
143 148 0
142 150 0
142 148 0
144 151 0
149 157 0
153 162 0
158 167 0
155 164 0
155 166 0
156 166 0
153 164 0
150 161 0
150 161 0
158 170 0
157 171 0
153 165 0
153 165 0
158 173 0
162 179 0
163 178 0
160 175 0
159 174 0
161 176 0
163 181 0
161 177 0
163 179 0
163 178 0
162 178 0
166 184 0
162 179 0
162 179 0
163 182 0
164 181 0
168 186 0
167 186 0
168 186 0
166 186 0
167 186 0
164 181 0
167 187 0
165 184 0
170 191 0
169 188 0
167 187 0
167 185 0
170 191 0
168 187 0
170 190 0
169 189 0
167 188 0
168 188 0
168 189 0
169 189 0
170 192 0
169 189 0
168 189 0
169 190 0
170 190 0
167 188 0
170 191 0
170 190 0
171 192 0
169 191 0
168 189 0
170 192 0
171 192 0
171 193 0
169 192 0
170 191 0
170 192 0
171 193 0
168 191 0
172 194 0
173 196 0
170 193 0
172 194 0
171 192 0
173 195 0
171 193 0
172 193 0
171 193 0
173 195 0
171 195 0
171 192 0
172 195 0
172 195 0
172 195 0
173 196 0
171 193 0
172 195 0
172 194 0
173 195 0
172 193 0
172 195 0
171 194 0
173 195 0
172 195 0
171 193 0
174 197 0
171 192 0
172 194 0
172 195 0
173 195 0
172 194 0
173 195 0
173 195 0
173 196 0
171 193 0
172 196 0
171 194 0
171 194 0
173 195 0
172 194 0
173 196 0
172 195 0
174 196 0
174 197 0
172 195 0
173 196 0
173 196 0
172 195 0
173 196 0
172 195 0
172 195 0
173 196 0
172 194 0
174 197 0
173 196 0
173 197 0
173 196 0
172 194 0
174 196 0
173 196 0
172 196 0
173 196 0
173 196 0
172 196 0
175 197 0
174 197 0
174 198 0
173 196 0
174 197 0
174 197 0
171 193 0
174 196 0
173 196 0
174 198 0
173 195 0
174 197 0
173 197 0
172 196 0
173 196 0
173 195 0
174 197 0
172 196 0
173 196 0
173 197 0
170 194 0
173 196 0
172 195 0
173 196 0
172 194 0
171 194 0
171 194 0
170 193 0
172 196 0
172 195 0
173 195 0
172 194 0
171 194 0
172 194 0
173 196 0
171 194 0
173 196 0
175 198 0
173 196 0
170 194 0
171 194 0
171 194 0
171 194 0
173 195 0
173 195 0
172 196 0
174 197 0
172 195 0
170 193 0
171 194 0
171 194 0
171 194 0
170 194 0
170 194 0
173 195 0
172 195 0
171 194 0
170 193 0
172 195 0
172 193 0
172 194 0
171 194 0
170 193 0
171 194 0
172 194 0
171 192 0
168 190 0
171 194 0
171 194 0
170 192 0
172 195 0
173 195 36
173 194 44
175 197 47
174 197 54
176 198 84
179 200 84
182 204 111
184 203 124
189 209 144
194 213 167
193 213 161
196 215 177
197 216 181
200 218 196
204 222 203
205 223 212
200 218 196
202 220 202
202 220 201
199 218 190
197 216 183
195 215 178
189 210 152
188 208 156
180 201 122
179 201 99
179 201 107
174 197 76
175 198 74
172 195 72
174 198 88
174 197 82
173 196 76
173 196 65
171 194 65
172 194 60
172 196 65
171 193 67
171 195 80
171 195 74
171 194 78
172 195 76
172 194 78
169 191 57
170 193 84
172 194 70
168 192 80
169 193 72
169 192 51
171 194 76
167 189 78
169 193 78
170 192 67
166 188 70
169 192 65
167 189 65
167 190 68
166 187 78
167 187 60
166 184 59
163 182 62
163 180 73
164 181 69
163 181 73
148 164 80
120 137 112
89 104 134
82 100 129
83 103 139
83 97 138
86 101 141
80 96 132
80 96 134
81 99 136
81 98 142
91 104 135
89 106 145
89 103 137
85 106 153
81 101 144
86 102 142
84 103 145
81 109 159
74 103 160
74 104 159
73 104 166
71 102 162
68 99 149
70 102 161
65 98 156
66 98 148
61 94 147
61 95 148
63 96 145
60 92 142
60 92 145
59 92 139
59 92 143
59 93 145
59 92 145
59 93 144
58 92 143
60 95 148
59 92 145
59 92 145
59 93 142
59 93 144
59 93 145
59 93 146
59 94 146
60 95 145
59 92 141
62 97 156
60 94 144
60 94 145
60 94 146
59 94 143
61 95 147
60 95 143
60 95 142
60 94 144
60 95 149
59 93 136
60 95 145
60 95 142
60 94 140
60 95 147
60 94 145
60 94 148
60 95 147
59 93 137
61 96 144
60 94 136
60 93 137
60 94 137
60 94 144
59 93 133
59 93 134
60 95 140
61 96 143
61 96 149
59 93 132
60 94 138
58 92 125
60 94 139
59 93 139
59 93 132
59 92 132
56 88 117
59 91 129
58 91 125
68 93 110
95 111 75
119 129 12
119 128 0
122 130 0
120 130 0
118 124 0
112 119 0
117 123 0
119 127 0
114 118 0
128 136 0
131 139 0
119 123 0
123 128 0
127 130 0
123 128 0
118 122 0
126 131 0
126 130 0
112 117 0
130 134 0
125 129 0
126 130 0
129 132 0
123 128 0
119 121 0
128 131 0
135 137 0
131 136 0
136 143 0
131 134 0
131 133 0
139 143 0
137 141 0
137 142 0
138 145 0
139 145 0
139 144 0
137 142 0
147 154 0
141 146 0
141 147 0
146 155 0
150 159 0
149 158 0
149 156 0
148 157 0
151 163 0
154 164 0
151 160 0
153 161 0
153 164 0
156 169 0
156 170 0
161 176 0
155 167 0
160 172 0
160 174 0
160 173 0
154 166 0
160 176 0
159 173 0
158 171 0
160 175 0
165 180 0
161 177 0
161 179 0
162 179 0
163 180 0
163 181 0
164 181 0
166 184 0
165 182 0
166 186 0
164 181 0
164 182 0
164 183 0
163 182 0
165 184 0
166 185 0
166 186 0
166 184 0
169 188 0
165 185 0
167 187 0
164 184 0
168 187 0
166 185 0
169 191 0
170 189 0
170 190 0
168 188 0
169 190 0
171 193 0
170 190 0
168 189 0
170 192 0
166 187 0
170 191 0
171 192 0
171 193 0
170 191 0
167 188 0
169 190 0
172 195 0
172 194 0
172 192 0
171 193 0
172 193 0
172 194 0
170 192 0
172 194 0
170 190 0
173 195 0
169 191 0
171 193 0
171 193 0
172 194 0
172 194 0
170 192 0
171 193 0
172 195 0
171 193 0
173 195 0
171 193 0
171 193 0
172 194 0
173 195 0
172 195 0
172 195 0
170 192 0
172 194 0
173 195 0
173 195 0
173 195 0
173 195 0
171 193 0
172 194 0
172 194 0
172 194 0
170 192 0
171 193 0
172 194 0
173 195 0
173 196 0
173 195 0
169 191 0
173 196 0
172 194 0
173 196 0
174 197 0
173 195 0
173 196 0
173 196 0
175 197 0
173 195 0
172 194 0
172 195 0
174 197 0
173 197 0
173 196 0
171 195 0
172 196 0
173 197 0
173 195 0
173 196 0
174 196 0
174 197 0
172 194 0
173 196 0
173 196 0
175 198 0
173 196 0
172 194 0
174 197 0
174 196 0
172 196 0
174 198 0
174 197 0
174 197 0
174 197 0
174 197 0
174 196 0
173 196 0
173 196 0
174 198 0
170 194 0
173 196 0
173 196 0
173 196 0
174 196 0
171 194 0
173 197 0
174 197 0
172 195 0
174 197 0
172 196 0
173 197 0
174 197 0
172 195 0
171 194 0
172 195 0
173 196 0
172 195 0
173 196 0
172 195 0
172 196 0
173 196 0
173 196 0
172 196 0
172 196 0
173 196 0
173 196 0
172 195 0
172 195 0
172 195 0
173 196 0
172 194 0
173 197 0
170 193 0
171 194 0
171 194 0
173 195 0
172 196 0
172 195 0
170 191 0
171 193 0
171 193 0
173 196 0
171 193 0
172 195 0
170 193 0
172 195 0
169 192 0
173 196 0
171 195 0
172 195 0
171 193 0
167 188 0
171 194 0
170 194 0
171 194 0
171 194 0
170 193 0
172 195 0
171 194 0
171 194 18
173 196 36
172 195 31
172 195 25
175 197 47
176 197 67
179 201 90
178 199 99
184 204 122
184 205 125
190 210 149
192 212 164
195 215 175
197 216 180
200 218 189
199 217 190
200 218 192
199 218 187
198 216 182
199 218 196
199 217 189
196 214 177
192 212 176
192 212 164
184 205 141
184 205 148
178 200 114
177 199 92
175 198 92
172 195 82
175 198 76
172 195 65
176 199 76
172 194 76
172 195 74
172 195 72
172 196 70
174 197 74
173 196 80
170 194 78
167 191 78
169 192 62
171 193 60
173 196 72
172 194 94
171 193 86
170 193 74
171 194 70
169 192 60
173 196 80
169 191 78
171 193 78
171 193 80
169 190 67
170 192 62
171 193 80
166 188 62
170 194 76
166 188 80
167 189 72
167 188 66
166 185 67
164 182 69
165 183 59
165 183 67
164 179 64
158 177 73
146 161 99
116 130 121
75 96 134
83 104 145
84 103 137
81 97 136
82 98 137
83 99 129
89 106 136
87 107 134
84 105 137
88 106 130
92 109 143
91 111 140
84 106 150
88 112 152
87 108 152
83 109 158
88 115 166
80 108 163
78 108 161
72 103 166
70 101 159
65 96 149
66 97 152
63 95 150
62 95 147
65 97 143
60 93 144
60 93 146
61 93 145
61 94 143
60 94 149
58 91 134
59 92 140
59 93 142
59 92 143
59 93 140
60 94 152
59 92 141
60 93 146
60 93 142
59 92 140
59 93 144
60 94 146
60 94 144
59 92 140
60 95 146
60 94 144
59 93 144
59 94 145
60 94 143
60 95 144
59 93 138
60 95 143
60 95 148
60 95 139
60 94 143
60 94 145
60 94 149
60 95 147
59 93 140
61 95 147
59 93 136
59 94 144
60 94 140
59 94 142
60 94 142
60 94 138
60 95 145
60 94 136
59 93 133
59 92 131
59 93 136
59 93 133
59 93 132
59 93 134
59 93 137
59 93 136
59 92 125
58 91 125
59 92 128
58 90 118
59 92 129
57 90 123
57 89 116
84 104 88
111 123 36
119 127 12
118 126 0
114 123 0
118 126 0
125 133 0
121 127 0
122 129 0
117 123 0
122 130 0
125 131 0
127 134 0
124 130 0
123 128 0
123 131 0
117 122 0
128 133 0
120 124 0
126 129 0
121 123 0
116 119 0
121 126 0
125 129 0
129 133 0
131 134 0
127 130 0
127 131 0
130 134 0
132 135 0
134 140 0
138 144 0
136 142 0
134 139 0
140 145 0
139 144 0
134 139 0
144 153 0
142 148 0
136 143 0
145 153 0
149 157 0
144 150 0
143 152 0
147 158 0
154 164 0
150 159 0
145 153 0
155 165 0
152 164 0
150 161 0
154 165 0
151 162 0
156 169 0
155 167 0
156 169 0
157 168 0
158 171 0
159 174 0
161 175 0
159 174 0
161 175 0
165 181 0
160 175 0
159 174 0
163 179 0
165 182 0
165 182 0
163 181 0
163 180 0
164 181 0
162 179 0
163 180 0
165 182 0
167 185 0
162 181 0
166 186 0
168 187 0
167 186 0
165 183 0
166 183 0
166 183 0
165 185 0
165 184 0
169 188 0
167 187 0
170 190 0
168 188 0
170 190 0
168 189 0
167 187 0
168 188 0
168 190 0
168 188 0
168 188 0
170 191 0
168 189 0
169 189 0
168 190 0
169 190 0
169 190 0
170 190 0
169 191 0
169 192 0
168 189 0
170 191 0
171 192 0
170 190 0
171 192 0
170 192 0
171 194 0
171 193 0
170 191 0
173 195 0
171 192 0
170 192 0
172 194 0
170 192 0
170 192 0
172 194 0
173 194 0
173 194 0
173 195 0
173 195 0
174 196 0
172 194 0
171 192 0
173 195 0
172 195 0
174 196 0
173 196 0
173 196 0
174 195 0
171 194 0
172 194 0
171 193 0
172 195 0
171 194 0
171 194 0
174 196 0
171 193 0
171 194 0
172 195 0
171 194 0
172 195 0
173 195 0
173 195 0
171 193 0
172 195 0
172 195 0
173 197 0
173 196 0
173 196 0
173 196 0
172 195 0
172 195 0
171 194 0
173 196 0
174 197 0
172 195 0
173 194 0
172 195 0
174 196 0
173 196 0
173 196 0
173 195 0
174 196 0
173 195 0
172 196 0
172 195 0
173 195 0
173 196 0
173 196 0
173 196 0
174 196 0
173 197 0
171 195 0
172 195 0
173 197 0
174 197 0
173 196 0
173 197 0
174 197 0
174 197 0
174 197 0
172 195 0
173 196 0
173 197 0
173 195 0
172 195 0
173 196 0
174 196 0
171 194 0
175 197 0
175 198 0
173 196 0
174 197 0
173 195 0
172 195 0
174 196 0
171 195 0
172 195 0
173 197 0
174 197 0
172 195 0
171 194 0
172 195 0
174 197 0
173 196 0
171 194 0
172 195 0
173 196 0
173 197 0
171 194 0
173 196 0
172 195 0
170 193 0
172 195 0
171 194 0
172 194 0
173 195 0
170 194 0
172 195 0
172 194 0
172 195 0
171 194 0
172 195 0
171 194 0
172 195 0
173 196 0
171 193 0
171 194 0
172 194 0
172 194 0
173 196 0
169 192 0
170 193 0
172 194 0
172 195 0
170 193 0
173 196 0
172 195 0
171 194 0
170 193 0
172 195 0
171 194 0
172 195 0
170 193 31
172 195 36
171 194 36
173 195 54
174 197 54
175 197 65
176 198 88
181 201 107
182 203 111
186 206 131
191 210 153
195 214 171
197 215 181
202 220 197
200 218 189
203 221 203
202 220 203
200 218 194
202 220 202
196 215 178
196 214 182
191 211 164
190 210 157
187 208 144
180 201 120
179 200 110
175 197 88
174 196 88
172 195 76
174 197 70
173 196 80
172 195 74
172 195 84
172 195 60
174 196 70
173 196 70
172 194 78
172 195 67
170 192 70
173 197 78
171 195 82
172 196 78
171 195 84
171 193 62
169 192 72
168 190 62
169 192 74
170 193 76
170 193 78
170 193 70
170 192 88
171 194 62
165 188 70
169 191 70
167 189 78
167 190 84
168 191 72
165 186 71
166 188 82
170 191 77
163 183 60
164 184 65
160 180 57
165 183 64
161 181 56
159 180 73
158 175 58
155 172 67
133 148 112
89 104 122
83 101 145
81 95 135
81 99 136
76 94 140
86 103 140
84 102 142
81 99 133
82 105 147
89 111 141
88 112 146
94 115 148
94 116 157
92 115 146
72 100 148
84 109 152
83 112 164
73 104 154
77 106 162
72 102 157
69 101 159
69 100 158
67 97 148
68 100 147
65 97 149
69 101 154
63 95 144
59 93 145
59 92 143
60 94 145
61 94 148
58 90 136
60 93 142
58 91 144
59 93 142
59 93 141
59 93 141
59 92 141
59 93 138
59 92 141
60 93 146
61 94 148
59 92 143
61 95 150
59 94 140
59 93 138
61 95 145
60 94 147
59 93 142
60 94 141
60 94 143
59 93 149
60 95 142
60 95 144
59 93 139
59 93 134
59 92 135
60 95 143
60 94 142
60 94 140
61 96 147
61 94 143
60 93 140
60 94 143
60 94 141
61 95 138
60 95 149
59 93 136
59 93 139
61 95 141
60 93 137
59 93 137
60 94 136
59 93 128
60 94 142
59 93 132
59 92 133
58 92 129
58 92 119
59 92 129
58 91 122
59 92 131
57 88 116
71 96 103
105 120 57
124 134 18
121 132 0
122 132 0
118 126 0
126 136 0
125 133 0
115 123 0
125 132 0
127 136 0
112 120 0
124 130 0
130 136 0
119 125 0
118 124 0
127 132 0
123 127 0
126 133 0
129 137 0
129 135 0
126 131 0
125 130 0
129 136 0
128 134 0
125 132 0
128 132 0
131 138 0
129 134 0
134 141 0
129 137 0
133 138 0
131 137 0
134 138 0
135 143 0
139 145 0
144 150 0
140 150 0
140 148 0
146 152 0
142 148 0
150 161 0
146 156 0
142 149 0
148 157 0
150 161 0
152 161 0
152 163 0
150 161 0
158 171 0
149 160 0
154 165 0
152 165 0
153 164 0
155 168 0
157 171 0
156 170 0
157 170 0
154 166 0
158 170 0
161 174 0
158 170 0
160 175 0
163 181 0
162 179 0
162 177 0
160 177 0
162 179 0
166 182 0
163 180 0
160 177 0
164 181 0
160 178 0
163 181 0
163 181 0
162 180 0
164 183 0
165 184 0
165 183 0
165 184 0
167 184 0
166 185 0
169 188 0
165 184 0
166 186 0
167 185 0
170 190 0
165 184 0
167 187 0
167 187 0
166 185 0
168 188 0
166 187 0
168 188 0
170 191 0
170 192 0
170 191 0
169 190 0
170 191 0
170 191 0
169 190 0
169 190 0
168 188 0
170 192 0
170 192 0
169 190 0
169 190 0
170 190 0
171 192 0
170 191 0
169 190 0
172 193 0
169 191 0
173 194 0
169 191 0
173 194 0
171 192 0
170 192 0
173 195 0
171 194 0
172 194 0
170 193 0
173 194 0
172 194 0
173 194 0
170 192 0
171 195 0
173 195 0
172 195 0
171 193 0
170 191 0
171 194 0
172 194 0
172 195 0
172 193 0
173 196 0
172 195 0
174 196 0
172 196 0
172 194 0
172 194 0
173 195 0
173 196 0
171 192 0
172 194 0
172 195 0
174 197 0
172 194 0
172 194 0
171 194 0
172 195 0
173 195 0
172 195 0
172 195 0
173 196 0
173 195 0
173 196 0
173 195 0
172 193 0
174 196 0
173 195 0
173 196 0
173 196 0
172 194 0
174 197 0
174 197 0
172 195 0
173 195 0
172 195 0
173 195 0
172 194 0
173 196 0
173 196 0
173 197 0
175 197 0
174 197 0
173 196 0
174 197 0
173 196 0
173 197 0
173 197 0
173 197 0
173 196 0
173 195 0
174 196 0
173 196 0
172 196 0
175 197 0
173 196 0
173 196 0
171 195 0
172 196 0
172 196 0
173 196 0
172 196 0
173 196 0
171 194 0
173 195 0
172 195 0
172 195 0
174 197 0
172 194 0
172 196 0
173 196 0
172 195 0
173 196 0
173 196 0
173 197 0
173 197 0
172 196 0
173 196 0
173 195 0
172 194 0
172 195 0
173 196 0
174 197 0
173 196 0
173 195 0
174 196 0
171 194 0
172 195 0
173 196 0
173 196 0
172 195 0
171 194 0
171 194 0
174 197 0
171 194 0
172 195 0
172 195 0
168 192 0
170 193 0
170 194 0
172 196 0
171 194 0
172 195 0
170 192 0
172 195 0
171 193 0
170 194 0
171 194 0
171 193 0
172 195 0
170 193 0
170 193 0
169 192 0
172 194 0
172 194 36
172 195 31
175 197 51
175 198 57
174 195 51
174 195 72
177 198 92
179 200 103
179 201 103
187 207 141
188 209 143
192 211 155
198 216 181
194 214 175
204 221 202
202 220 201
202 220 202
202 220 201
199 218 188
196 215 183
197 215 178
195 214 172
190 210 166
185 205 139
182 203 115
180 202 117
175 197 90
173 195 72
174 196 72
175 197 62
175 199 88
172 194 76
170 194 70
173 195 70
171 194 67
170 194 70
172 195 74
172 196 84
171 194 82
171 194 65
172 196 74
172 194 76
173 195 74
174 198 84
171 194 67
173 195 70
170 194 80
170 193 84
170 192 67
166 189 74
169 192 80
171 192 72
164 187 65
168 190 80
168 190 74
164 186 60
164 186 62
167 189 54
167 187 68
166 187 58
165 187 72
165 186 73
165 187 77
161 177 69
163 180 71
162 181 69
160 179 67
160 177 86
159 176 67
143 162 93
103 118 115
81 101 133
84 100 134
77 95 136
81 97 132
85 104 135
81 103 135
89 108 139
85 105 133
86 109 139
95 115 134
88 112 145
79 106 145
86 110 146
86 113 157
85 112 156
90 117 160
84 112 161
74 104 156
80 109 162
67 99 149
68 100 157
72 102 156
69 100 152
66 97 148
62 95 145
63 96 142
61 93 139
60 92 140
60 93 143
60 93 136
60 93 144
60 93 136
60 93 143
59 92 136
60 93 145
59 92 139
59 93 138
59 93 136
57 89 129
59 92 138
58 91 135
60 94 148
60 94 147
60 94 145
59 93 141
58 92 140
59 94 143
60 93 139
60 94 140
60 93 144
61 95 149
60 94 141
59 93 141
61 95 144
61 96 151
60 95 145
59 94 137
60 94 140
59 92 138
60 93 140
60 94 139
60 95 140
59 93 137
60 94 139
60 94 142
59 93 132
60 94 142
59 93 133
61 95 144
59 93 137
58 91 125
59 93 135
59 93 138
59 93 131
59 93 130
59 92 129
58 91 127
59 92 129
57 89 118
57 90 120
58 90 119
59 89 116
91 108 80
121 132 43
122 131 0
127 137 0
128 140 0
124 132 0
122 133 0
125 134 0
119 131 0
124 131 0
122 130 0
122 130 0
122 129 0
124 131 0
126 134 0
128 138 0
126 134 0
128 134 0
124 128 0
123 128 0
130 138 0
131 139 0
124 128 0
129 135 0
127 134 0
131 136 0
132 140 0
132 137 0
127 129 0
142 150 0
139 145 0
131 138 0
143 152 0
132 138 0
144 151 0
139 144 0
137 145 0
144 152 0
149 159 0
144 154 0
142 149 0
146 153 0
143 151 0
146 157 0
150 160 0
147 156 0
149 157 0
153 165 0
154 164 0
146 155 0
151 163 0
157 171 0
155 166 0
153 166 0
157 170 0
158 173 0
159 174 0
159 172 0
156 169 0
158 172 0
162 176 0
160 173 0
161 174 0
162 179 0
160 177 0
157 172 0
161 179 0
166 184 0
162 178 0
161 177 0
160 178 0
161 177 0
165 184 0
166 184 0
165 183 0
162 181 0
164 182 0
164 184 0
166 184 0
164 182 0
163 182 0
167 187 0
166 185 0
166 186 0
167 184 0
169 186 0
166 185 0
165 184 0
170 191 0
168 189 0
168 188 0
167 186 0
167 187 0
168 190 0
171 192 0
168 190 0
171 191 0
168 188 0
165 186 0
170 190 0
171 192 0
168 188 0
169 191 0
170 191 0
171 194 0
170 191 0
170 191 0
170 191 0
170 192 0
171 192 0
172 193 0
169 191 0
170 191 0
171 193 0
171 192 0
170 192 0
170 192 0
171 192 0
171 194 0
171 193 0
171 193 0
171 194 0
170 193 0
173 195 0
172 194 0
171 193 0
174 195 0
173 195 0
172 194 0
170 193 0
172 194 0
170 192 0
172 194 0
173 196 0
169 192 0
173 195 0
174 196 0
171 194 0
172 195 0
172 193 0
170 193 0
172 194 0
173 195 0
172 194 0
172 194 0
172 195 0
173 196 0
172 194 0
173 196 0
172 195 0
172 195 0
173 195 0
172 194 0
174 197 0
174 196 0
173 196 0
172 194 0
173 196 0
173 195 0
171 194 0
174 196 0
173 196 0
172 195 0
173 195 0
174 197 0
172 195 0
174 197 0
173 196 0
174 197 0
173 195 0
175 198 0
175 197 0
173 196 0
173 197 0
173 196 0
173 196 0
173 196 0
174 197 0
174 197 0
173 197 0
173 197 0
172 195 0
173 197 0
173 197 0
175 198 0
174 197 0
173 196 0
173 196 0
171 195 0
171 194 0
173 197 0
171 195 0
174 197 0
173 196 0
173 196 0
173 196 0
173 196 0
173 196 0
172 196 0
173 197 0
172 195 0
173 196 0
172 196 0
174 197 0
172 195 0
173 196 0
174 196 0
173 196 0
172 195 0
172 195 0
172 196 0
173 195 0
174 197 0
174 197 0
172 196 0
172 195 0
173 196 0
173 196 0
169 192 0
172 194 0
171 192 0
174 197 0
170 192 0
175 197 0
172 196 0
171 194 0
172 196 0
171 194 0
171 194 0
170 193 0
172 195 0
170 193 0
172 195 0
170 194 0
171 195 0
169 191 0
170 194 0
172 195 0
171 193 0
169 190 0
173 195 0
170 192 0
172 195 0
171 193 0
172 194 0
170 192 0
171 194 25
170 192 18
172 194 36
172 195 36
172 194 44
174 197 51
176 197 86
179 200 82
185 205 118
183 203 117
191 210 156
191 210 157
193 213 170
194 213 172
202 220 197
201 219 190
200 218 193
198 216 187
198 217 184
196 215 177
194 213 171
193 212 170
190 210 161
187 207 143
180 203 105
179 201 102
177 198 84
173 196 70
177 200 99
169 192 60
172 194 62
174 197 82
172 194 74
173 196 74
173 195 54
172 196 65
174 196 70
172 195 80
168 191 67
172 195 88
169 193 70
170 194 86
170 194 74
168 191 82
170 193 86
167 190 67
168 191 74
170 193 60
171 193 76
169 192 72
169 192 76
164 188 70
166 188 80
169 191 70
169 192 88
166 188 74
163 186 74
164 186 54
168 190 74
166 188 78
165 187 68
163 183 67
163 182 65
167 188 82
167 188 72
164 183 64
164 184 80
163 181 62
163 181 60
159 175 62
154 170 75
133 150 102
92 110 125
77 94 126
79 97 129
86 100 127
83 98 129
81 96 132
82 104 134
84 107 137
93 116 141
90 116 146
97 121 142
97 120 144
99 124 154
91 116 145
93 119 147
93 119 155
90 117 161
80 109 154
76 107 162
71 102 157
67 98 151
68 98 156
67 98 153
65 97 150
63 96 151
65 97 138
60 93 144
61 93 142
60 93 147
60 92 145
59 93 144
58 91 139
59 92 140
59 93 139
58 91 133
59 92 145
59 92 138
59 92 141
59 93 146
58 91 133
59 92 141
59 93 137
59 92 139
59 92 140
59 93 141
59 93 142
59 92 133
61 96 151
60 93 143
60 94 145
60 94 144
60 94 142
60 93 144
59 93 137
59 92 131
60 94 136
61 95 150
59 93 140
59 93 134
60 94 135
59 94 140
59 92 131
60 94 140
59 93 132
60 94 137
59 93 132
59 94 138
60 94 136
58 92 129
60 94 139
60 95 142
59 93 132
59 93 133
59 92 132
58 91 131
57 89 120
59 93 139
58 91 124
58 91 124
58 90 120
55 86 119
75 96 87
105 119 52
125 136 12
116 124 0
117 127 0
127 140 0
126 136 0
115 124 0
122 128 0
127 136 0
133 140 0
128 139 0
126 136 0
124 132 0
126 133 0
134 143 0
131 139 0
126 133 0
135 144 0
121 127 0
133 143 0
130 138 0
129 140 0
128 134 0
129 135 0
136 144 0
130 137 0
127 135 0
129 135 0
135 141 0
136 144 0
136 143 0
136 143 0
142 150 0
142 150 0
140 150 0
146 154 0
140 148 0
140 148 0
143 149 0
148 158 0
142 151 0
149 160 0
142 151 0
149 159 0
151 162 0
149 160 0
148 157 0
152 162 0
152 162 0
154 165 0
150 160 0
154 167 0
153 166 0
155 167 0
153 164 0
159 173 0
160 174 0
158 171 0
158 172 0
156 170 0
158 173 0
159 176 0
159 176 0
160 177 0
162 177 0
162 179 0
162 177 0
163 179 0
162 179 0
164 180 0
164 180 0
166 185 0
163 180 0
167 185 0
162 179 0
162 178 0
165 184 0
168 187 0
165 185 0
162 180 0
163 181 0
166 185 0
165 183 0
167 186 0
167 186 0
163 183 0
168 187 0
168 186 0
164 185 0
169 189 0
166 185 0
167 188 0
169 190 0
169 190 0
167 187 0
169 191 0
170 191 0
167 188 0
170 191 0
168 190 0
169 189 0
169 188 0
169 189 0
171 191 0
170 191 0
172 192 0
168 189 0
170 191 0
171 193 0
170 191 0
169 189 0
170 191 0
172 194 0
170 191 0
170 192 0
169 191 0
171 192 0
172 195 0
170 190 0
171 194 0
172 195 0
170 193 0
171 194 0
172 194 0
172 194 0
171 194 0
170 192 0
172 194 0
172 194 0
172 195 0
171 192 0
173 194 0
173 194 0
172 193 0
170 193 0
172 194 0
171 193 0
173 194 0
173 195 0
171 192 0
172 194 0
171 192 0
172 195 0
171 194 0
173 196 0
173 196 0
172 194 0
171 195 0
172 195 0
172 195 0
173 196 0
173 196 0
173 195 0
172 195 0
173 196 0
172 194 0
174 196 0
172 194 0
173 196 0
175 197 0
174 197 0
172 194 0
174 196 0
172 195 0
173 196 0
170 193 0
172 196 0
173 195 0
173 195 0
173 195 0
173 196 0
173 196 0
173 196 0
174 197 0
174 196 0
174 197 0
174 197 0
173 196 0
172 196 0
174 197 0
174 198 0
172 195 0
175 198 0
174 197 0
172 196 0
174 198 0
172 196 0
173 197 0
174 197 0
172 196 0
174 197 0
172 196 0
175 197 0
174 197 0
174 197 0
172 195 0
173 196 0
173 197 0
174 197 0
173 195 0
170 193 0
171 195 0
175 197 0
173 196 0
172 195 0
172 195 0
174 196 0
172 195 0
171 194 0
172 195 0
173 196 0
172 194 0
172 195 0
172 196 0
173 196 0
172 195 0
172 194 0
172 195 0
173 196 0
170 193 0
172 194 0
173 196 0
172 195 0
172 196 0
172 194 0
172 195 0
171 195 0
171 192 0
172 194 0
171 194 0
171 193 0
174 196 0
171 194 0
173 196 0
170 193 0
171 193 0
170 192 0
172 195 0
170 193 0
174 197 0
169 192 0
171 193 0
169 191 0
168 191 0
172 195 0
167 190 18
171 195 0
173 196 18
174 196 51
172 194 40
176 198 67
175 197 70
177 200 80
179 201 88
182 203 110
184 205 121
189 209 139
197 215 177
195 213 171
199 217 184
197 216 176
198 216 180
199 217 188
200 219 192
196 215 177
193 213 170
191 210 172
189 209 154
185 206 133
182 204 122
178 200 90
176 200 82
174 198 78
173 195 74
173 195 65
173 196 88
173 195 74
173 196 54
173 195 82
169 192 70
173 195 51
171 194 76
170 192 80
169 191 72
172 195 82
170 194 70
170 193 67
169 191 54
168 192 80
169 192 76
171 194 67
169 191 80
168 192 84
166 188 51
166 190 72
166 189 60
169 192 80
168 191 74
169 192 65
166 188 78
168 192 80
166 187 74
165 187 74
169 192 76
167 190 86
168 190 74
164 186 70
166 187 81
163 184 80
165 186 72
164 186 86
165 186 82
164 183 65
165 186 75
159 179 83
161 180 66
159 178 47
151 165 93
115 130 106
90 106 138
82 99 132
80 98 133
85 103 137
83 104 139
88 108 132
79 100 131
82 103 124
85 109 142
85 110 144
91 115 138
90 115 147
101 125 150
96 122 148
90 116 158
86 114 152
86 112 157
77 106 154
72 102 154
73 103 152
66 97 149
63 96 151
67 99 154
65 96 141
64 97 143
62 95 139
60 93 146
60 92 135
61 94 148
59 91 131
59 92 135
58 92 136
59 91 134
59 93 140
57 90 128
58 91 134
59 92 139
59 92 140
58 92 138
60 93 145
59 92 138
60 94 146
59 92 141
58 92 134
58 91 137
59 93 138
59 93 141
59 93 138
60 95 144
59 93 135
59 92 134
59 93 135
59 93 135
60 94 139
57 91 129
60 95 145
60 94 140
59 93 138
58 91 131
59 94 134
59 93 136
59 93 136
60 94 139
60 94 140
59 94 136
60 94 136
60 93 137
59 92 128
58 91 126
58 92 128
58 92 133
59 92 127
58 91 131
59 93 134
58 91 129
58 91 122
59 93 131
57 90 122
58 90 120
69 94 101
108 125 65
120 130 28
122 133 0
117 126 0
119 128 0
127 137 0
123 136 0
125 133 0
129 140 0
129 139 0
128 137 0
128 139 0
124 132 0
130 139 0
131 140 0
130 140 0
129 139 0
129 141 0
134 141 0
125 133 0
131 137 0
135 143 0
129 138 0
135 144 0
131 139 0
137 143 0
137 142 0
136 144 0
130 136 0
134 140 0
138 148 0
139 149 0
141 148 0
137 145 0
135 144 0
136 143 0
145 154 0
143 152 0
146 154 0
147 155 0
148 159 0
145 153 0
147 156 0
147 158 0
152 165 0
150 160 0
144 156 0
154 165 0
155 169 0
154 165 0
150 158 0
156 170 0
154 166 0
153 166 0
158 172 0
153 166 0
160 174 0
157 172 0
158 172 0
155 168 0
158 173 0
160 176 0
160 176 0
161 178 0
158 172 0
160 174 0
161 175 0
165 183 0
161 178 0
163 180 0
164 180 0
165 183 0
164 180 0
164 181 0
163 181 0
166 184 0
165 184 0
164 183 0
168 187 0
166 184 0
167 186 0
166 186 0
166 185 0
163 182 0
167 187 0
166 185 0
165 184 0
168 188 0
164 182 0
166 186 0
170 191 0
168 188 0
169 191 0
167 188 0
168 189 0
167 187 0
166 187 0
167 187 0
169 189 0
171 192 0
169 188 0
170 190 0
171 192 0
170 190 0
172 193 0
169 189 0
168 189 0
169 191 0
170 192 0
169 189 0
170 191 0
170 191 0
170 192 0
170 192 0
170 191 0
170 192 0
170 190 0
170 192 0
171 194 0
171 193 0
172 194 0
170 192 0
170 193 0
171 192 0
171 194 0
171 193 0
171 193 0
172 194 0
171 193 0
173 196 0
172 194 0
170 192 0
171 192 0
171 193 0
172 194 0
173 194 0
173 194 0
172 195 0
172 194 0
171 193 0
171 193 0
173 196 0
172 195 0
173 196 0
174 196 0
172 194 0
172 194 0
173 195 0
172 194 0
174 196 0
173 196 0
173 196 0
170 193 0
172 195 0
173 196 0
173 196 0
172 195 0
173 195 0
171 194 0
172 195 0
172 195 0
174 197 0
174 197 0
173 195 0
173 196 0
174 196 0
174 197 0
172 194 0
172 194 0
173 197 0
173 197 0
172 195 0
174 197 0
173 196 0
174 197 0
172 195 0
173 196 0
172 195 0
174 197 0
174 197 0
173 197 0
170 193 0
174 197 0
173 196 0
173 196 0
172 195 0
172 195 0
173 197 0
173 196 0
173 197 0
173 197 0
173 197 0
174 196 0
173 196 0
172 195 0
173 196 0
173 197 0
171 195 0
173 196 0
173 196 0
173 196 0
173 195 0
173 196 0
174 196 0
173 196 0
174 197 0
173 196 0
173 196 0
173 196 0
171 193 0
172 194 0
172 194 0
171 194 0
172 195 0
171 194 0
172 195 0
172 195 0
174 196 0
173 197 0
173 196 0
173 195 0
173 194 0
173 195 0
171 194 0
173 195 0
172 195 0
171 195 0
171 194 0
172 195 0
172 194 0
172 195 0
171 195 0
171 194 0
172 196 0
171 194 0
171 193 0
171 193 0
171 194 0
172 194 0
173 196 0
173 196 0
170 192 0
170 193 0
172 193 0
169 193 0
171 193 0
171 192 18
173 196 40
172 195 18
171 192 40
173 196 54
177 199 82
177 199 72
179 200 99
180 201 108
184 204 121
193 212 157
192 212 160
195 214 166
196 214 168
201 219 191
199 217 189
195 214 172
198 215 186
195 214 170
193 212 167
192 212 166
191 211 154
185 207 129
182 203 115
178 200 111
177 199 88
175 197 74
176 199 65
173 196 67
172 196 78
172 195 82
173 196 82
173 197 80
172 195 67
171 193 62
171 194 60
167 190 60
174 196 78
171 194 86
170 193 67
172 195 70
170 193 80
169 191 95
170 194 76
170 192 82
167 191 78
168 190 60
168 190 82
167 188 67
168 192 70
168 191 76
164 187 70
165 186 76
169 192 72
167 190 54
165 188 70
166 190 78
171 194 90
166 190 82
164 186 65
166 188 73
162 184 76
167 190 76
161 183 73
168 188 65
165 186 71
162 182 76
165 185 78
160 179 58
161 180 69
161 179 87
158 175 95
157 176 75
132 147 85
92 111 119
83 104 129
82 101 123
89 108 130
88 109 132
92 113 139
86 110 139
86 108 137
93 115 139
98 120 147
92 116 135
87 111 140
100 125 141
87 114 149
94 119 149
82 110 148
87 114 154
81 109 157
76 106 155
70 101 154
70 101 153
70 101 155
67 98 152
63 96 155
63 95 134
64 96 143
64 96 133
59 92 132
61 93 136
58 91 134
57 88 130
59 92 139
59 91 127
59 92 138
58 91 142
56 89 129
59 92 139
57 91 132
58 89 137
58 91 136
58 91 134
58 92 133
59 93 138
58 91 136
59 93 139
59 93 138
60 94 138
59 92 139
59 93 138
60 94 140
58 92 133
59 94 139
60 95 141
59 92 133
59 93 138
59 93 135
59 92 137
59 93 131
58 91 129
58 92 131
59 92 134
59 92 132
59 92 130
59 93 137
59 93 135
58 92 130
58 91 128
59 93 127
58 92 130
58 91 127
58 91 126
60 94 131
59 92 121
59 92 127
59 93 129
57 90 116
57 90 121
56 87 109
62 91 113
95 113 77
108 120 45
124 135 0
121 132 0
128 138 0
122 135 0
120 132 0
126 134 0
118 130 0
120 131 0
126 135 0
125 136 0
127 138 0
131 142 0
130 140 0
127 137 0
126 136 0
131 141 0
126 135 0
130 140 0
133 143 0
124 133 0
137 146 0
135 144 0
135 145 0
132 141 0
137 147 0
135 146 0
129 140 0
138 146 0
139 147 0
138 149 0
141 149 0
143 154 0
140 148 0
142 150 0
142 152 0
143 152 0
144 154 0
144 154 0
147 157 0
150 161 0
147 160 0
145 155 0
143 153 0
147 155 0
151 163 0
150 162 0
152 163 0
156 164 0
152 163 0
155 168 0
148 160 0
156 167 0
154 168 0
158 172 0
154 168 0
155 169 0
157 171 0
158 171 0
160 174 0
164 180 0
159 174 0
163 179 0
163 179 0
160 177 0
163 180 0
163 180 0
162 179 0
162 178 0
163 179 0
162 181 0
162 181 0
164 181 0
162 179 0
166 184 0
164 182 0
163 181 0
166 186 0
167 185 0
164 181 0
165 184 0
167 186 0
163 182 0
167 185 0
167 186 0
166 188 0
168 186 0
166 185 0
163 182 0
168 188 0
168 189 0
166 185 0
169 189 0
167 185 0
170 190 0
167 187 0
168 189 0
172 193 0
168 188 0
167 187 0
171 192 0
170 190 0
170 191 0
167 188 0
168 190 0
173 193 0
169 191 0
169 188 0
169 190 0
170 190 0
168 189 0
171 193 0
170 192 0
169 190 0
171 192 0
172 194 0
171 191 0
173 195 0
173 195 0
171 193 0
171 192 0
173 195 0
171 193 0
170 191 0
171 194 0
171 194 0
172 194 0
172 194 0
173 195 0
171 193 0
172 194 0
173 195 0
171 193 0
173 194 0
171 193 0
173 195 0
173 194 0
172 195 0
172 194 0
171 195 0
172 194 0
171 193 0
172 195 0
172 194 0
173 196 0
173 195 0
173 195 0
173 195 0
172 195 0
171 195 0
172 195 0
172 194 0
172 194 0
173 194 0
172 196 0
172 196 0
172 194 0
174 197 0
172 195 0
174 196 0
173 195 0
173 196 0
173 196 0
173 196 0
172 194 0
174 197 0
170 193 0
173 196 0
173 196 0
173 195 0
173 196 0
174 196 0
172 195 0
173 195 0
174 196 0
173 197 0
174 197 0
170 193 0
172 195 0
172 196 0
173 196 0
175 197 0
172 195 0
174 197 0
172 195 0
174 197 0
174 197 0
172 195 0
173 197 0
173 196 0
172 196 0
174 197 0
173 196 0
172 195 0
173 195 0
174 196 0
173 194 0
174 197 0
173 196 0
173 196 0
172 195 0
173 196 0
172 195 0
173 196 0
172 195 0
173 196 0
172 196 0
173 196 0
172 194 0
173 196 0
173 196 0
171 194 0
173 195 0
173 196 0
173 195 0
170 194 0
172 195 0
171 195 0
171 195 0
172 194 0
170 193 0
172 195 0
172 194 0
170 193 0
172 195 0
171 195 0
170 193 0
171 194 0
173 196 0
170 192 0
172 194 0
172 195 0
173 195 0
174 197 0
169 193 0
170 193 0
172 195 0
172 196 0
172 195 0
171 192 0
170 194 0
170 193 0
171 194 0
171 194 0
170 192 0
171 194 0
171 194 18
172 195 18
171 193 31
172 194 18
173 196 47
175 198 60
176 198 76
179 201 92
180 202 107
187 208 140
193 211 165
193 211 166
196 214 173
198 216 181
196 215 171
198 217 186
198 217 180
194 214 170
198 217 187
192 211 162
188 208 149
186 207 137
180 201 118
177 199 99
175 198 90
174 197 80
175 197 82
174 197 78
173 196 86
172 195 70
172 196 62
172 195 70
173 196 65
173 195 65
173 197 82
172 195 80
170 192 62
172 195 90
171 194 67
171 194 47
167 190 78
171 194 62
171 194 74
169 192 80
171 195 78
172 195 86
170 193 80
170 193 74
170 193 80
168 191 88
167 191 74
166 188 67
167 190 65
167 189 74
164 186 65
166 190 84
166 188 86
165 188 70
167 189 62
164 186 70
163 186 88
164 186 78
162 185 67
165 187 67
163 185 72
161 182 71
161 181 64
164 184 69
157 175 85
163 182 66
160 180 78
158 175 66
160 178 79
154 172 55
121 138 99
93 113 132
83 105 131
82 101 125
77 102 125
79 104 127
84 106 130
87 111 136
83 107 134
97 121 144
93 116 137
92 117 142
92 117 133
85 111 135
90 117 144
93 119 147
88 114 145
89 116 151
75 105 148
72 102 148
63 96 153
75 104 153
67 98 150
67 98 146
62 95 141
64 95 139
69 98 133
63 93 134
59 90 127
62 93 136
57 89 127
59 90 133
56 88 129
60 92 135
58 90 130
58 92 135
59 93 137
58 91 132
58 90 133
58 91 133
58 91 139
59 92 138
58 91 130
59 92 130
58 91 130
60 93 142
60 94 140
59 93 136
60 93 136
59 93 136
59 93 138
58 91 129
58 92 132
59 93 130
59 93 127
58 92 127
59 93 138
60 94 137
59 92 133
59 92 128
60 94 136
59 92 128
59 93 131
59 93 136
57 90 122
57 90 120
57 90 124
59 92 129
59 92 127
58 91 121
58 91 124
58 91 123
58 91 122
58 92 124
58 91 120
57 89 118
56 88 114
61 91 112
90 108 79
117 130 46
123 134 0
120 131 0
125 135 0
125 137 0
124 133 0
125 135 0
118 129 0
130 141 0
121 131 0
129 140 0
125 136 0
128 141 0
126 135 0
127 138 0
124 133 0
133 142 0
136 146 0
128 138 0
137 147 0
133 143 0
134 144 0
126 136 0
131 139 0
132 141 0
134 143 0
132 140 0
138 148 0
135 146 0
135 145 0
144 154 0
135 143 0
138 146 0
141 151 0
140 151 0
144 154 0
145 156 0
147 159 0
138 147 0
144 156 0
143 153 0
145 156 0
146 156 0
151 163 0
150 160 0
155 168 0
151 162 0
149 160 0
153 162 0
156 167 0
156 170 0
150 163 0
152 164 0
154 168 0
150 163 0
157 172 0
159 172 0
155 169 0
157 173 0
156 169 0
158 175 0
158 172 0
157 170 0
162 178 0
159 175 0
162 175 0
161 177 0
161 176 0
162 179 0
164 180 0
161 179 0
163 181 0
164 183 0
160 178 0
165 182 0
161 179 0
165 182 0
164 184 0
166 185 0
166 183 0
163 182 0
166 186 0
165 183 0
166 188 0
164 183 0
167 187 0
166 187 0
170 189 0
167 187 0
168 188 0
166 185 0
170 190 0
164 183 0
167 188 0
169 189 0
169 188 0
166 187 0
168 188 0
167 187 0
170 190 0
168 189 0
172 193 0
167 188 0
169 189 0
169 191 0
169 190 0
171 192 0
171 191 0
170 191 0
169 190 0
171 190 0
171 193 0
169 190 0
169 191 0
170 192 0
170 192 0
171 191 0
172 193 0
170 192 0
170 192 0
171 193 0
171 192 0
172 193 0
172 193 0
169 191 0
170 192 0
170 190 0
171 192 0
171 193 0
171 193 0
171 194 0
173 195 0
173 195 0
171 193 0
171 192 0
170 192 0
171 194 0
173 197 0
172 195 0
172 194 0
170 193 0
172 194 0
173 195 0
172 195 0
171 193 0
171 194 0
173 196 0
173 195 0
172 194 0
173 195 0
174 196 0
172 196 0
172 193 0
172 194 0
172 194 0
174 196 0
172 194 0
173 196 0
172 194 0
173 195 0
173 196 0
174 197 0
172 195 0
174 197 0
174 197 0
174 198 0
173 196 0
173 195 0
171 194 0
173 196 0
172 195 0
172 195 0
174 197 0
174 197 0
172 195 0
174 197 0
173 196 0
173 196 0
173 196 0
172 196 0
174 197 0
172 196 0
173 195 0
172 195 0
173 196 0
172 195 0
172 193 0
174 196 0
173 197 0
173 196 0
172 195 0
173 196 0
171 194 0
173 197 0
174 196 0
173 196 0
173 195 0
172 196 0
174 196 0
174 197 0
173 197 0
173 196 0
174 197 0
171 193 0
175 198 0
173 196 0
172 195 0
172 196 0
173 197 0
172 196 0
171 194 0
172 194 0
170 194 0
173 196 0
172 196 0
172 195 0
171 195 0
170 192 0
173 196 0
172 196 0
169 192 0
173 196 0
170 193 0
172 195 0
172 195 0
172 195 0
173 196 0
170 193 0
169 193 0
171 194 0
172 195 0
170 192 0
172 195 0
171 195 0
171 194 0
172 194 0
171 194 0
170 193 0
174 197 0
170 193 0
172 195 0
171 194 0
172 195 0
170 192 0
170 193 0
168 191 0
171 193 0
172 195 0
171 193 31
172 194 36
168 190 31
175 197 67
175 197 65
180 201 94
184 205 117
185 206 128
187 207 142
194 213 160
197 216 176
196 214 169
198 217 181
196 214 176
194 213 173
195 214 177
194 213 175
192 211 159
191 211 152
187 208 151
179 200 110
179 201 99
176 199 86
176 197 78
176 198 70
171 194 76
173 196 74
171 193 72
173 196 62
173 197 80
173 196 60
171 193 74
172 195 80
171 194 76
171 194 62
169 191 70
170 192 76
168 189 78
170 194 78
170 195 78
169 192 78
169 191 78
166 187 80
170 192 72
171 195 80
168 193 90
168 191 80
167 190 74
165 189 70
167 190 70
169 191 65
166 189 72
167 191 94
167 190 72
165 186 84
166 188 70
164 187 62
164 186 88
163 186 72
168 190 70
166 190 84
162 183 74
163 185 74
165 186 81
164 184 61
160 182 81
163 185 66
162 183 78
158 179 60
161 178 69
157 177 78
159 177 77
154 173 73
145 165 87
109 128 106
85 107 114
83 105 126
82 104 127
78 104 130
88 112 128
93 117 143
88 113 133
89 112 134
92 116 129
85 111 128
86 110 129
93 118 143
93 119 146
95 120 148
89 115 150
99 124 154
88 114 150
81 109 152
72 102 150
72 102 149
70 102 156
67 98 145
72 102 148
64 95 135
61 93 133
67 97 133
62 93 130
58 91 135
59 91 131
60 93 138
57 89 127
58 91 134
58 91 128
59 92 139
59 92 137
57 90 130
59 92 131
58 91 135
57 90 128
59 93 134
58 91 133
58 90 131
58 91 131
58 91 133
59 93 133
58 91 133
58 90 129
58 91 130
58 92 128
58 91 134
59 93 130
58 91 136
59 93 129
58 91 126
59 92 134
59 93 138
59 93 129
59 93 135
60 93 134
58 92 135
58 90 133
58 91 124
59 92 128
57 89 122
57 90 112
57 89 113
58 91 120
58 91 124
58 91 124
57 90 122
59 92 124
57 88 111
56 88 117
58 90 124
57 88 109
79 99 83
116 130 52
117 130 12
115 125 0
122 132 0
130 141 0
123 136 0
122 135 0
129 141 0
133 144 0
132 144 0
130 142 0
127 137 0
133 146 0
128 139 0
141 155 0
130 143 0
137 149 0
132 145 0
131 141 0
126 137 0
138 148 0
138 147 0
137 146 0
132 144 0
129 139 0
137 148 0
136 145 0
138 150 0
143 152 0
136 146 0
137 145 0
143 154 0
139 151 0
138 148 0
141 152 0
144 156 0
138 151 0
144 156 0
140 151 0
147 159 0
147 160 0
146 158 0
151 163 0
146 157 0
150 162 0
150 163 0
148 159 0
151 164 0
150 162 0
151 163 0
156 167 0
148 159 0
150 163 0
154 168 0
154 169 0
158 173 0
159 174 0
153 167 0
155 169 0
154 169 0
158 172 0
155 172 0
154 168 0
161 177 0
157 173 0
163 180 0
159 178 0
159 176 0
160 177 0
163 179 0
163 181 0
161 177 0
161 177 0
162 179 0
161 178 0
161 179 0
160 177 0
163 180 0
165 183 0
166 185 0
164 181 0
168 187 0
164 184 0
165 184 0
161 179 0
166 185 0
167 186 0
168 187 0
162 179 0
169 189 0
165 185 0
165 186 0
167 187 0
167 186 0
168 188 0
167 189 0
169 190 0
169 189 0
166 187 0
170 192 0
168 189 0
168 189 0
169 191 0
168 188 0
168 189 0
167 188 0
169 191 0
167 189 0
168 189 0
171 193 0
170 191 0
171 193 0
169 191 0
170 192 0
169 189 0
173 194 0
172 194 0
169 191 0
170 192 0
172 195 0
170 191 0
172 195 0
172 193 0
171 193 0
173 195 0
169 191 0
172 195 0
172 194 0
171 193 0
172 194 0
172 193 0
171 194 0
172 195 0
171 193 0
174 195 0
170 191 0
172 194 0
171 193 0
171 193 0
173 194 0
173 195 0
170 191 0
174 196 0
172 195 0
172 195 0
171 193 0
172 194 0
171 194 0
172 195 0
172 195 0
172 196 0
172 194 0
171 193 0
173 195 0
172 195 0
173 196 0
173 196 0
172 194 0
174 196 0
171 194 0
173 195 0
173 196 0
174 196 0
174 197 0
172 194 0
174 197 0
173 195 0
173 196 0
173 196 0
173 197 0
173 196 0
173 196 0
174 196 0
172 195 0
173 196 0
173 196 0
172 195 0
174 196 0
173 196 0
173 196 0
174 197 0
175 197 0
174 197 0
174 196 0
170 194 0
173 196 0
172 195 0
174 197 0
174 197 0
173 196 0
173 196 0
172 195 0
173 196 0
174 196 0
172 195 0
172 195 0
172 194 0
174 197 0
172 195 0
173 195 0
171 194 0
174 197 0
171 195 0
172 196 0
172 196 0
173 195 0
174 197 0
173 196 0
173 197 0
173 196 0
173 195 0
172 194 0
173 196 0
174 197 0
171 193 0
172 195 0
171 194 0
171 195 0
171 195 0
172 195 0
171 194 0
173 196 0
172 196 0
172 195 0
171 194 0
173 196 0
171 194 0
173 196 0
171 193 0
171 194 0
172 195 0
171 194 0
168 190 0
172 194 0
172 194 0
172 194 0
172 193 0
172 195 0
172 195 0
173 196 0
170 192 0
171 193 0
172 195 0
173 196 0
170 192 0
172 195 0
170 193 0
172 194 0
167 189 31
170 191 18
175 197 54
172 195 54
176 197 54
178 199 92
182 203 105
185 205 120
187 207 140
189 208 148
192 212 158
194 213 160
193 212 163
198 217 178
195 213 169
195 214 174
192 211 162
193 212 165
191 211 165
190 211 156
182 203 131
179 200 114
172 194 74
174 197 70
174 196 54
173 195 60
173 196 76
173 196 80
173 195 74
173 195 74
173 195 74
172 194 72
172 195 74
171 195 78
170 193 74
172 195 72
170 193 60
170 192 67
173 196 88
169 191 78
171 194 72
171 194 65
167 189 70
166 189 65
170 194 88
169 192 67
166 190 70
165 188 62
166 190 67
166 189 76
167 191 78
164 187 80
166 190 72
163 184 72
168 189 65
166 190 82
164 187 82
168 191 80
165 186 78
163 185 62
167 189 74
164 186 74
161 183 65
165 187 67
161 183 78
161 183 70
161 184 72
164 184 70
156 175 62
158 178 80
160 180 71
159 179 86
162 181 91
159 179 78
157 175 69
138 157 91
97 120 121
82 104 126
84 107 132
88 108 128
86 112 139
90 114 132
87 112 135
92 115 133
89 113 131
97 121 141
99 122 140
88 114 129
94 118 141
94 120 144
92 117 145
85 111 147
91 116 155
81 110 153
86 112 152
69 100 151
74 102 150
78 105 144
61 94 143
66 97 141
66 97 136
69 99 137
61 93 133
62 93 125
60 92 128
59 91 127
58 90 130
58 90 129
59 91 136
58 91 128
58 90 131
58 90 124
58 91 134
57 90 122
58 92 135
59 91 136
57 89 125
59 92 136
57 90 126
58 91 132
58 91 124
59 92 130
59 92 131
60 94 136
58 90 130
58 91 128
58 91 122
58 91 125
58 90 124
58 91 123
58 91 122
57 90 127
59 92 131
58 92 130
59 91 131
59 92 126
59 93 135
58 91 123
59 92 130
58 91 119
58 91 125
58 91 130
57 90 119
57 89 115
58 90 120
57 90 120
57 90 121
56 87 114
54 85 103
56 86 114
77 97 85
104 119 52
116 127 18
115 127 0
125 138 0
121 132 0
123 135 0
134 147 0
123 137 0
126 139 0
130 144 0
129 141 0
130 143 0
125 135 0
124 132 0
126 135 0
130 141 0
127 139 0
133 144 0
128 140 0
130 141 0
141 152 0
131 144 0
141 153 0
132 143 0
139 151 0
132 143 0
133 143 0
138 149 0
142 155 0
137 146 0
142 153 0
139 148 0
143 153 0
141 153 0
140 151 0
143 154 0
143 155 0
146 156 0
145 156 0
147 158 0
147 157 0
145 158 0
148 158 0
145 158 0
148 161 0
150 164 0
149 159 0
147 156 0
149 162 0
155 168 0
151 164 0
153 166 0
149 161 0
151 165 0
160 175 0
151 165 0
158 171 0
156 170 0
156 171 0
159 174 0
159 176 0
157 171 0
159 173 0
158 174 0
153 168 0
157 174 0
163 179 0
161 178 0
163 181 0
160 176 0
160 177 0
160 177 0
164 181 0
164 182 0
162 177 0
163 181 0
165 184 0
164 181 0
164 183 0
166 184 0
163 183 0
162 178 0
161 179 0
165 183 0
168 189 0
165 184 0
168 187 0
168 187 0
166 186 0
165 183 0
167 187 0
167 187 0
165 185 0
170 190 0
169 189 0
170 190 0
167 189 0
166 186 0
167 187 0
169 190 0
170 189 0
170 191 0
169 188 0
170 191 0
170 190 0
169 190 0
167 189 0
169 191 0
168 188 0
169 189 0
169 189 0
170 190 0
173 195 0
170 191 0
170 191 0
170 192 0
166 187 0
170 192 0
171 194 0
170 192 0
170 192 0
173 194 0
171 192 0
170 193 0
171 192 0
171 192 0
170 192 0
171 193 0
169 192 0
171 195 0
173 195 0
172 193 0
171 192 0
170 192 0
174 197 0
172 195 0
172 195 0
171 193 0
172 194 0
170 192 0
171 194 0
171 193 0
172 194 0
170 193 0
175 196 0
173 196 0
174 196 0
172 195 0
172 195 0
173 195 0
171 194 0
172 193 0
171 194 0
174 196 0
171 193 0
171 193 0
173 194 0
172 195 0
173 196 0
171 194 0
173 196 0
172 195 0
174 197 0
171 194 0
173 196 0
172 194 0
172 195 0
172 195 0
172 195 0
173 196 0
174 197 0
174 196 0
174 197 0
173 196 0
173 197 0
172 196 0
173 196 0
173 196 0
172 195 0
175 197 0
172 196 0
172 196 0
173 197 0
173 197 0
171 193 0
172 195 0
171 195 0
170 194 0
174 197 0
172 196 0
171 194 0
173 196 0
172 195 0
173 196 0
174 197 0
174 196 0
175 198 0
172 194 0
173 196 0
172 194 0
174 197 0
171 195 0
172 195 0
172 195 0
170 194 0
172 195 0
173 196 0
172 195 0
173 196 0
174 197 0
172 195 0
174 197 0
174 197 0
174 197 0
173 195 0
172 194 0
172 195 0
171 193 0
171 193 0
173 196 0
169 193 0
173 196 0
171 193 0
172 195 0
173 196 0
172 194 0
172 196 0
174 197 0
172 194 0
174 196 0
170 193 0
172 194 0
171 194 0
172 196 0
172 195 0
172 194 0
171 193 0
171 194 0
171 195 0
170 193 0
170 192 0
170 192 0
171 195 0
168 191 0
169 192 0
171 193 0
173 195 0
171 195 0
171 194 0
169 192 25
172 195 36
174 196 47
173 194 54
172 195 54
179 201 92
181 203 105
183 203 118
184 205 128
190 209 147
192 212 156
193 212 160
196 215 173
194 213 163
192 212 158
191 211 157
197 216 180
193 212 165
188 208 143
185 206 137
181 203 117
178 200 103
174 196 72
173 195 76
174 197 82
170 192 40
173 196 78
171 193 65
169 193 72
173 197 60
171 193 72
171 194 78
172 195 74
170 193 62
170 192 70
169 192 82
169 192 76
171 195 80
169 192 72
172 195 67
170 192 78
166 188 62
166 189 60
169 192 80
168 191 65
166 187 78
164 187 62
170 192 65
163 186 62
167 190 67
168 190 88
170 191 70
166 189 74
166 190 76
165 188 80
165 187 65
165 187 82
166 190 86
167 189 74
162 185 78
165 188 74
165 187 88
164 187 54
165 187 67
165 186 76
163 185 72
159 179 76
159 180 72
157 178 84
155 176 72
157 177 61
159 178 62
153 171 71
155 175 75
155 174 78
154 173 78
129 148 83
87 112 117
79 103 116
83 109 127
94 117 129
91 114 120
90 115 123
92 116 134
88 112 138
91 116 149
99 122 135
94 118 135
95 120 129
94 118 124
92 117 139
96 121 147
87 111 141
86 113 149
79 107 152
74 104 148
70 100 145
76 104 146
76 103 143
63 95 141
68 98 133
67 96 135
66 97 139
64 94 130
61 93 135
61 93 126
59 91 126
61 92 123
59 91 127
56 88 110
57 89 128
58 91 133
59 92 132
57 90 127
56 87 124
57 89 128
58 91 132
59 93 130
58 91 130
58 91 137
60 93 137
58 91 126
57 90 130
59 93 131
58 91 131
59 92 133
58 91 124
58 92 128
58 90 120
60 93 136
58 92 129
57 90 121
58 91 126
58 91 131
57 90 123
57 90 119
57 90 115
57 90 112
59 92 129
58 92 123
58 91 124
58 92 128
57 90 119
56 88 118
57 89 119
56 89 116
58 90 115
56 88 116
58 89 115
64 89 91
102 116 51
114 129 12
113 125 0
121 132 0
117 129 0
126 140 0
121 133 0
124 135 0
122 132 0
128 141 0
127 138 0
133 146 0
127 140 0
134 148 0
128 137 0
132 142 0
133 145 0
135 145 0
130 143 0
136 148 0
134 148 0
135 149 0
138 151 0
146 157 0
136 148 0
133 145 0
128 139 0
137 148 0
140 153 0
142 153 0
139 150 0
141 153 0
142 155 0
136 149 0
145 156 0
139 150 0
150 164 0
144 154 0
146 158 0
145 158 0
149 162 0
149 160 0
147 159 0
146 158 0
151 162 0
150 160 0
150 165 0
149 162 0
150 163 0
154 167 0
151 164 0
155 168 0
154 167 0
153 167 0
154 166 0
155 169 0
155 169 0
158 175 0
159 173 0
158 173 0
159 172 0
157 173 0
154 167 0
160 177 0
160 175 0
162 178 0
158 173 0
159 175 0
162 178 0
163 179 0
160 177 0
161 179 0
160 176 0
163 180 0
163 182 0
166 183 0
164 182 0
161 179 0
166 183 0
164 181 0
163 180 0
166 187 0
165 185 0
163 182 0
165 184 0
166 185 0
163 181 0
165 184 0
168 188 0
167 187 0
168 190 0
166 184 0
168 187 0
167 188 0
167 187 0
168 186 0
169 190 0
169 189 0
168 188 0
166 187 0
167 188 0
169 189 0
170 192 0
170 192 0
170 190 0
170 191 0
168 188 0
171 191 0
169 189 0
170 192 0
169 190 0
169 189 0
171 191 0
171 192 0
171 192 0
169 191 0
170 192 0
168 189 0
171 191 0
171 193 0
172 193 0
171 192 0
171 193 0
170 191 0
172 194 0
169 191 0
168 191 0
170 192 0
170 192 0
172 194 0
172 193 0
173 193 0
172 193 0
171 194 0
172 195 0
172 195 0
171 193 0
171 192 0
171 193 0
173 195 0
171 193 0
171 194 0
172 193 0
171 193 0
173 196 0
174 196 0
174 197 0
171 193 0
173 196 0
171 194 0
172 195 0
172 194 0
171 194 0
174 196 0
173 196 0
172 195 0
172 195 0
173 195 0
173 196 0
173 195 0
174 196 0
172 194 0
170 192 0
172 195 0
173 197 0
173 195 0
174 196 0
172 195 0
173 195 0
174 197 0
173 196 0
171 193 0
173 196 0
173 196 0
172 194 0
174 196 0
174 197 0
173 195 0
173 195 0
173 195 0
174 197 0
174 197 0
173 197 0
174 198 0
173 196 0
174 197 0
173 196 0
174 197 0
172 195 0
173 196 0
171 195 0
173 196 0
173 196 0
173 196 0
172 195 0
174 196 0
173 196 0
172 194 0
173 196 0
173 196 0
173 195 0
174 197 0
173 196 0
172 196 0
173 194 0
174 197 0
172 195 0
171 194 0
173 196 0
172 195 0
174 197 0
172 195 0
173 196 0
173 196 0
171 194 0
173 196 0
170 194 0
171 194 0
173 196 0
172 194 0
171 194 0
173 196 0
172 194 0
171 193 0
174 197 0
171 194 0
171 194 0
172 195 0
172 195 0
171 193 0
173 195 0
170 192 0
172 195 0
171 195 0
171 193 0
171 194 0
171 194 0
170 192 0
172 195 0
172 194 0
170 193 0
171 193 0
172 195 0
171 194 0
170 193 0
168 190 0
170 192 0
172 195 0
172 194 18
173 195 31
172 194 36
174 196 47
173 196 40
171 194 47
176 198 78
181 202 111
183 204 118
184 205 122
191 210 156
192 212 158
193 212 163
195 214 163
192 211 157
194 213 165
192 212 155
193 212 158
187 207 142
190 210 154
187 207 141
182 203 113
178 199 94
175 197 92
174 196 74
172 195 67
173 196 74
170 194 72
173 195 70
174 196 78
169 192 84
172 195 62
169 192 72
170 192 65
171 194 82
172 195 92
170 192 54
169 191 76
167 189 65
170 195 76
167 189 74
170 191 60
169 191 70
170 192 76
171 193 57
169 193 94
168 190 90
170 192 65
165 187 44
168 191 65
168 192 72
168 191 78
165 188 60
167 190 74
168 192 76
165 186 70
162 185 67
166 187 67
165 188 70
163 185 70
164 187 80
164 186 65
165 187 74
163 185 74
164 186 78
166 188 76
157 180 88
159 182 70
158 180 75
161 183 80
160 181 84
158 179 70
156 177 72
158 179 82
158 177 81
155 176 60
156 177 66
151 171 75
147 166 58
121 141 101
102 126 137
86 112 122
89 114 119
95 120 132
83 108 127
91 114 123
96 119 130
88 111 126
88 113 133
97 122 142
97 120 127
91 115 139
102 126 151
86 112 134
91 115 136
86 112 143
82 107 140
81 109 150
76 102 142
78 104 142
70 99 146
69 99 143
72 101 142
69 99 137
66 96 128
61 93 125
63 92 130
61 92 127
61 93 127
60 92 126
58 88 121
57 90 126
58 91 128
59 93 133
57 89 124
57 89 128
58 90 123
58 91 125
57 89 119
56 88 125
58 91 127
58 90 123
58 90 126
57 89 124
57 89 126
57 89 122
58 90 126
58 91 132
57 90 121
59 92 130
57 89 123
59 92 131
58 91 124
58 91 127
57 90 123
58 91 129
58 92 123
58 92 122
57 89 123
57 89 116
57 91 126
57 89 121
57 90 118
58 90 123
59 92 130
55 86 108
57 88 118
56 88 115
56 88 109
57 87 103
70 94 90
100 119 62
106 118 12
123 135 0
116 128 0
114 126 0
120 132 0
132 147 0
129 143 0
129 141 0
133 146 0
129 140 0
132 144 0
125 137 0
132 145 0
133 147 0
130 143 0
134 146 0
133 148 0
127 135 0
131 144 0
134 142 0
137 149 0
140 152 0
135 145 0
139 149 0
143 155 0
136 145 0
142 154 0
141 152 0
138 152 0
142 152 0
135 148 0
142 154 0
141 153 0
137 149 0
139 151 0
142 156 0
148 160 0
145 158 0
150 164 0
149 162 0
146 160 0
143 153 0
147 159 0
149 163 0
148 163 0
152 166 0
148 160 0
148 163 0
149 163 0
151 164 0
152 167 0
158 172 0
154 167 0
155 171 0
152 164 0
154 168 0
155 170 0
158 174 0
158 174 0
156 170 0
159 174 0
155 170 0
161 178 0
157 173 0
153 169 0
158 174 0
158 175 0
161 178 0
159 175 0
163 180 0
160 178 0
164 183 0
160 175 0
164 182 0
164 182 0
163 180 0
161 177 0
165 182 0
162 181 0
164 181 0
164 183 0
164 182 0
166 186 0
166 184 0
164 183 0
162 181 0
165 185 0
164 183 0
168 188 0
164 183 0
168 187 0
167 186 0
169 188 0
168 187 0
163 181 0
170 190 0
166 186 0
169 188 0
168 189 0
167 188 0
169 189 0
169 190 0
168 188 0
169 188 0
167 188 0
168 189 0
170 190 0
171 192 0
169 190 0
168 190 0
170 192 0
171 193 0
167 187 0
169 191 0
169 190 0
169 190 0
170 191 0
171 193 0
171 193 0
170 191 0
169 190 0
171 193 0
171 192 0
171 193 0
170 191 0
172 193 0
168 190 0
171 193 0
171 194 0
171 193 0
171 192 0
173 194 0
171 193 0
170 193 0
171 193 0
171 193 0
172 193 0
171 193 0
172 194 0
171 192 0
172 195 0
171 193 0
172 194 0
172 195 0
170 192 0
171 194 0
171 194 0
171 194 0
172 194 0
172 194 0
171 194 0
173 195 0
171 193 0
172 195 0
172 196 0
172 194 0
173 195 0
173 196 0
172 193 0
172 195 0
173 197 0
172 194 0
173 196 0
174 197 0
173 196 0
173 196 0
174 196 0
172 194 0
173 195 0
172 196 0
174 197 0
174 196 0
172 195 0
173 196 0
174 197 0
173 196 0
174 197 0
173 196 0
173 195 0
172 194 0
173 196 0
172 196 0
174 197 0
175 198 0
173 197 0
172 195 0
173 196 0
176 198 0
173 196 0
173 196 0
173 196 0
171 195 0
171 195 0
172 195 0
171 194 0
175 198 0
173 195 0
172 196 0
174 197 0
172 195 0
173 196 0
174 196 0
173 196 0
172 195 0
174 197 0
172 196 0
172 195 0
172 196 0
172 196 0
173 195 0
173 196 0
172 195 0
172 195 0
173 195 0
172 195 0
173 196 0
173 196 0
171 194 0
172 196 0
174 197 0
172 195 0
172 195 0
173 195 0
173 195 0
172 194 0
169 193 0
170 194 0
171 195 0
172 195 0
170 193 0
169 191 0
170 193 0
172 194 0
169 192 0
171 194 0
171 194 0
170 194 0
172 195 0
170 193 0
171 194 0
173 196 0
170 193 0
171 193 0
170 193 0
168 191 0
172 195 0
170 192 0
170 193 0
170 193 25
169 192 31
172 195 18
173 195 31
172 195 40
174 196 65
178 200 80
180 202 95
183 204 105
186 206 125
186 207 130
190 210 147
193 212 159
191 210 155
193 212 163
195 213 170
190 209 151
191 211 157
189 209 144
187 207 137
181 202 121
181 202 117
177 200 86
175 197 76
176 198 70
174 197 57
172 195 62
172 194 72
173 195 65
174 198 80
173 196 86
171 193 84
171 193 92
172 194 65
170 192 78
171 193 86
168 190 57
171 194 76
168 191 67
170 193 76
169 192 82
172 195 70
169 192 62
169 191 70
167 190 67
167 189 60
167 190 74
169 193 62
167 190 67
168 191 62
166 190 86
167 190 72
168 192 70
167 189 70
172 195 84
165 189 94
163 185 70
164 187 74
164 187 78
165 188 60
160 183 84
159 181 70
170 193 88
164 185 78
167 190 90
165 186 74
156 176 67
163 184 67
163 185 76
160 182 78
162 184 82
159 180 80
158 180 84
154 176 78
156 176 73
156 175 80
157 178 75
152 172 65
156 176 82
138 158 81
108 131 106
91 115 123
87 112 122
88 111 128
86 111 127
89 113 133
81 106 117
91 116 120
90 114 133
89 114 124
90 114 134
100 123 130
94 116 128
96 119 136
85 111 135
92 116 139
83 109 139
86 113 152
80 106 144
82 106 143
78 105 148
69 98 140
69 99 142
66 97 135
70 97 125
63 93 122
66 93 125
57 88 124
58 90 121
58 89 122
58 91 125
57 89 121
56 89 124
56 87 116
56 87 123
56 88 122
56 88 126
56 88 120
57 89 127
57 90 119
57 90 122
59 92 135
57 89 127
58 90 127
59 92 126
57 90 112
58 91 129
58 92 121
57 90 120
58 92 124
57 90 126
57 89 121
57 88 117
58 90 124
57 90 115
58 91 128
57 89 113
56 89 120
58 92 127
57 89 119
55 86 110
56 88 113
57 89 121
55 86 102
57 89 115
56 87 114
56 88 115
55 86 108
54 85 89
82 103 86
93 108 54
109 122 25
120 131 0
120 133 0
118 131 0
116 127 0
122 134 0
122 135 0
133 146 0
131 144 0
127 139 0
127 139 0
127 139 0
128 140 0
133 147 0
127 141 0
135 149 0
135 149 0
133 145 0
135 146 0
127 141 0
132 142 0
142 154 0
138 153 0
138 151 0
138 150 0
143 156 0
136 149 0
141 153 0
140 152 0
147 159 0
145 158 0
142 154 0
138 151 0
152 164 0
141 156 0
146 159 0
149 162 0
143 156 0
148 163 0
145 157 0
148 162 0
151 166 0
152 165 0
144 156 0
146 159 0
153 167 0
145 158 0
150 163 0
151 165 0
148 162 0
151 164 0
154 168 0
149 163 0
150 164 0
159 175 0
162 176 0
155 170 0
156 171 0
158 173 0
155 172 0
161 176 0
156 172 0
157 173 0
157 172 0
157 172 0
160 177 0
162 179 0
163 181 0
165 184 0
158 176 0
162 180 0
161 178 0
159 177 0
164 183 0
160 177 0
164 182 0
164 181 0
162 181 0
164 182 0
162 179 0
163 182 0
165 183 0
163 182 0
165 185 0
162 182 0
166 186 0
167 187 0
168 189 0
166 186 0
169 188 0
166 187 0
165 186 0
169 188 0
166 187 0
165 184 0
166 186 0
167 188 0
168 188 0
168 189 0
166 186 0
168 189 0
171 192 0
169 191 0
169 191 0
171 192 0
169 187 0
167 188 0
168 188 0
170 191 0
169 190 0
169 190 0
169 189 0
171 192 0
171 191 0
170 192 0
170 191 0
171 193 0
170 191 0
170 192 0
170 192 0
170 192 0
170 193 0
169 190 0
173 195 0
172 192 0
170 192 0
169 191 0
172 193 0
170 193 0
170 192 0
170 192 0
170 192 0
170 193 0
173 195 0
171 193 0
172 194 0
172 194 0
171 194 0
170 192 0
170 192 0
171 194 0
170 192 0
171 192 0
172 194 0
172 194 0
171 193 0
171 193 0
172 194 0
172 194 0
173 195 0
172 194 0
173 195 0
173 196 0
171 193 0
171 193 0
172 195 0
172 195 0
171 193 0
171 194 0
172 194 0
171 195 0
172 195 0
173 195 0
172 194 0
172 194 0
172 195 0
173 196 0
173 196 0
172 196 0
173 195 0
173 196 0
173 196 0
172 194 0
174 197 0
174 195 0
175 197 0
174 196 0
172 195 0
172 194 0
173 196 0
173 196 0
172 196 0
173 196 0
173 197 0
173 196 0
172 195 0
173 197 0
174 195 0
173 197 0
172 196 0
172 195 0
172 195 0
173 196 0
172 196 0
173 196 0
173 196 0
172 195 0
173 196 0
174 195 0
172 195 0
173 195 0
174 196 0
171 194 0
173 196 0
174 196 0
173 195 0
172 195 0
174 195 0
171 194 0
173 196 0
172 194 0
172 196 0
172 195 0
174 197 0
170 194 0
172 195 0
171 194 0
173 196 0
171 193 0
173 195 0
171 195 0
169 190 0
174 197 0
171 194 0
171 194 0
173 196 0
171 194 0
171 195 0
172 195 0
173 196 0
170 192 0
170 193 0
172 195 0
173 195 0
170 193 0
172 196 0
170 192 0
171 194 0
172 195 0
173 196 0
173 196 0
170 193 0
171 194 0
173 196 0
170 192 0
173 197 0
172 194 0
171 193 0
168 191 0
170 193 0
170 192 36
171 195 25
172 194 51
174 196 47
178 200 72
176 198 78
178 199 95
184 204 117
187 207 130
190 210 145
195 214 165
194 212 164
190 209 151
193 212 162
191 211 153
192 211 152
190 210 154
187 208 143
183 203 126
178 200 110
178 200 95
175 197 78
173 195 72
172 193 74
173 195 84
173 196 67
172 196 67
172 194 67
173 197 80
173 196 92
170 193 82
171 195 57
172 195 84
171 194 74
170 192 74
170 192 72
169 192 67
171 194 80
168 191 70
169 193 74
171 194 74
171 194 51
166 188 65
169 192 82
166 189 76
166 190 60
169 192 80
169 192 82
168 192 82
166 189 62
165 187 60
166 188 80
166 189 80
168 192 80
166 188 82
165 187 70
162 182 70
164 186 78
166 188 72
165 189 82
163 186 78
163 183 85
164 184 78
162 184 65
161 185 84
161 181 81
162 184 65
160 181 88
160 182 65
159 182 60
157 178 70
155 177 76
158 178 74
149 169 62
157 178 82
157 178 77
156 176 90
153 171 58
145 166 76
140 160 91
109 131 109
91 115 122
82 108 119
94 118 122
92 116 134
99 122 130
99 122 135
97 121 134
88 114 127
98 120 128
93 118 132
95 118 133
93 117 132
96 121 139
79 106 134
82 110 146
88 113 150
84 109 148
81 106 142
86 109 135
76 101 133
70 98 128
60 92 122
67 96 124
63 93 124
64 93 118
61 90 117
62 93 119
60 92 111
60 91 121
56 87 118
57 89 119
57 89 122
57 88 117
57 89 122
57 90 121
57 89 127
57 89 119
56 88 117
57 90 124
58 90 125
58 90 123
58 91 125
57 89 117
58 92 126
56 89 121
58 91 124
57 88 122
58 91 123
56 88 120
57 89 116
56 87 118
57 90 121
57 90 120
57 89 125
57 90 117
57 90 119
57 90 117
56 88 112
58 92 128
57 90 118
57 89 116
55 87 109
56 88 113
55 86 107
54 85 105
57 87 110
83 104 78
97 111 44
117 128 22
113 124 0
120 133 0
117 129 0
113 125 0
125 139 0
127 140 0
125 138 0
134 147 0
123 134 0
126 138 0
134 148 0
127 140 0
135 148 0
137 150 0
127 138 0
133 147 0
138 150 0
136 150 0
139 153 0
141 156 0
144 159 0
142 155 0
137 150 0
137 150 0
141 152 0
139 151 0
137 149 0
140 154 0
138 149 0
142 155 0
146 160 0
140 154 0
147 159 0
150 163 0
144 155 0
144 158 0
143 155 0
145 156 0
149 161 0
147 162 0
145 156 0
152 164 0
148 161 0
150 164 0
151 165 0
152 166 0
150 165 0
150 163 0
150 163 0
152 167 0
151 164 0
151 166 0
159 171 0
151 166 0
157 172 0
156 172 0
151 166 0
155 168 0
152 168 0
156 173 0
157 172 0
156 171 0
159 176 0
157 173 0
159 176 0
158 175 0
160 178 0
161 178 0
158 174 0
162 178 0
164 181 0
163 181 0
160 177 0
160 180 0
163 180 0
164 182 0
162 181 0
161 176 0
164 184 0
161 180 0
164 182 0
166 186 0
163 181 0
167 186 0
167 186 0
162 180 0
166 186 0
167 186 0
164 182 0
163 182 0
168 188 0
168 187 0
169 189 0
168 188 0
167 188 0
167 187 0
166 185 0
169 188 0
170 191 0
169 189 0
169 190 0
170 191 0
169 190 0
167 187 0
167 187 0
165 186 0
171 192 0
168 189 0
168 189 0
168 190 0
169 191 0
173 193 0
172 192 0
168 188 0
171 194 0
171 192 0
170 191 0
172 194 0
168 191 0
169 190 0
170 191 0
170 192 0
171 192 0
170 192 0
171 191 0
172 194 0
171 194 0
171 194 0
170 192 0
171 193 0
169 190 0
170 192 0
169 191 0
169 191 0
170 191 0
172 194 0
172 195 0
171 193 0
171 193 0
171 194 0
171 193 0
172 195 0
173 195 0
171 193 0
173 195 0
171 194 0
172 196 0
171 193 0
172 195 0
172 195 0
170 192 0
174 195 0
172 194 0
171 193 0
174 196 0
174 196 0
173 196 0
173 196 0
172 196 0
173 195 0
173 195 0
173 196 0
172 194 0
172 194 0
173 195 0
172 195 0
174 197 0
173 196 0
172 194 0
173 196 0
173 196 0
174 197 0
173 195 0
173 195 0
172 195 0
173 195 0
173 196 0
173 195 0
172 196 0
173 196 0
173 195 0
171 194 0
171 194 0
174 197 0
172 195 0
173 196 0
173 197 0
173 196 0
174 197 0
173 196 0
173 196 0
173 195 0
173 196 0
172 195 0
172 195 0
173 196 0
173 197 0
170 194 0
172 195 0
172 196 0
173 195 0
171 195 0
171 194 0
173 196 0
172 195 0
173 195 0
173 196 0
173 196 0
172 196 0
172 195 0
172 194 0
171 194 0
172 196 0
172 194 0
173 195 0
172 195 0
172 194 0
173 197 0
171 194 0
172 194 0
172 196 0
174 196 0
174 196 0
172 196 0
172 194 0
174 197 0
171 193 0
173 195 0
174 196 0
170 194 0
171 194 0
172 194 0
172 194 0
171 194 0
171 193 0
170 193 0
171 195 0
170 192 0
170 193 0
172 195 0
171 194 0
169 192 0
172 194 0
171 194 0
171 194 0
172 195 0
171 194 0
170 194 0
172 194 25
172 194 31
172 195 31
173 196 31
173 195 31
175 196 57
177 198 70
177 198 82
182 203 102
192 211 152
189 209 147
189 209 145
195 214 163
192 210 155
194 213 165
193 212 156
190 210 143
187 207 142
183 204 129
187 208 137
180 201 115
180 201 103
173 196 67
173 196 62
173 196 72
175 197 80
171 191 72
170 193 72
173 197 67
173 196 76
172 194 70
173 197 78
170 192 72
169 192 74
169 192 62
171 195 82
169 193 74
167 190 67
168 191 72
167 190 80
168 191 78
171 194 72
169 191 78
169 192 80
167 190 78
168 191 67
167 189 72
168 191 76
168 190 76
168 190 74
171 192 74
161 183 60
168 190 82
168 191 99
164 187 76
169 191 78
164 186 76
166 187 88
166 188 82
168 190 90
166 188 92
169 188 84
166 189 88
165 187 76
165 186 86
159 179 82
164 186 90
163 183 82
163 185 72
162 184 92
160 182 86
161 182 92
159 181 79
157 178 74
153 173 78
153 173 67
149 168 86
150 170 67
149 170 74
149 169 67
147 167 65
140 158 82
137 157 92
99 123 112
92 116 124
91 116 124
85 109 126
83 108 112
92 115 124
86 110 116
84 109 128
98 121 136
92 117 131
95 118 123
94 117 128
99 123 143
94 118 151
91 116 145
86 110 132
88 112 138
82 106 140
86 107 131
78 101 122
73 101 127
72 100 132
68 97 132
70 98 116
65 93 112
59 90 117
58 89 119
57 89 123
57 87 106
57 88 110
57 88 122
56 88 111
57 89 121
56 87 117
58 90 123
56 88 112
56 87 118
57 89 123
57 89 123
56 89 114
57 90 120
56 88 121
58 90 117
57 89 119
57 89 119
58 90 129
56 87 110
57 89 127
57 89 111
57 90 119
57 89 118
57 90 115
56 88 111
58 91 122
56 88 113
55 87 110
57 89 120
55 87 102
55 86 101
56 87 115
58 90 120
55 86 105
54 85 103
53 84 104
61 89 100
74 93 70
100 114 51
112 124 18
112 124 0
119 128 0
113 125 0
126 139 0
122 135 0
119 133 0
124 137 0
127 139 0
127 140 0
127 140 0
128 141 0
135 148 0
128 140 0
130 144 0
132 147 0
133 147 0
140 153 0
128 141 0
138 150 0
141 154 0
138 152 0
132 146 0
136 152 0
142 157 0
140 154 0
139 153 0
140 153 0
143 157 0
145 158 0
140 154 0
145 158 0
147 161 0
141 155 0
147 159 0
143 158 0
147 162 0
146 160 0
149 163 0
145 159 0
146 160 0
147 159 0
143 155 0
153 167 0
147 160 0
148 162 0
149 162 0
155 170 0
150 163 0
152 169 0
151 165 0
152 164 0
152 166 0
151 164 0
155 169 0
156 170 0
154 170 0
160 176 0
150 165 0
155 171 0
154 171 0
157 173 0
156 173 0
162 179 0
157 173 0
158 174 0
158 174 0
156 174 0
161 178 0
160 178 0
159 176 0
161 178 0
156 173 0
158 177 0
164 182 0
161 179 0
163 180 0
162 179 0
159 175 0
161 178 0
164 182 0
166 184 0
166 184 0
162 180 0
164 184 0
164 184 0
169 188 0
163 183 0
169 188 0
163 184 0
166 186 0
167 186 0
165 184 0
166 185 0
165 184 0
162 182 0
166 186 0
166 187 0
168 189 0
166 187 0
167 187 0
168 189 0
165 183 0
166 188 0
167 188 0
170 191 0
170 190 0
171 193 0
169 190 0
166 187 0
170 191 0
168 189 0
168 188 0
168 190 0
168 189 0
169 190 0
168 189 0
170 192 0
170 192 0
172 194 0
169 189 0
172 193 0
171 192 0
171 193 0
168 188 0
172 194 0
170 192 0
171 192 0
170 191 0
171 193 0
168 190 0
170 192 0
170 193 0
172 196 0
172 194 0
172 194 0
173 195 0
171 194 0
170 192 0
171 194 0
171 195 0
172 195 0
172 194 0
171 194 0
173 195 0
171 192 0
172 194 0
171 192 0
173 195 0
172 194 0
173 196 0
171 193 0
171 193 0
172 194 0
173 195 0
173 195 0
170 193 0
173 196 0
173 195 0
171 193 0
173 196 0
172 195 0
174 196 0
172 194 0
174 197 0
173 195 0
174 197 0
173 196 0
172 194 0
173 195 0
171 194 0
174 197 0
173 196 0
172 195 0
172 195 0
172 195 0
174 197 0
172 195 0
173 196 0
171 194 0
173 196 0
173 196 0
173 196 0
172 195 0
173 196 0
173 196 0
173 195 0
172 195 0
174 196 0
173 196 0
174 196 0
172 194 0
173 196 0
174 197 0
171 195 0
171 194 0
173 197 0
173 197 0
173 196 0
172 196 0
173 196 0
172 195 0
173 196 0
172 195 0
173 196 0
171 194 0
171 194 0
170 192 0
173 197 0
174 196 0
172 195 0
170 193 0
170 194 0
173 196 0
173 196 0
172 195 0
174 197 0
171 193 0
172 195 0
172 195 0
172 196 0
173 196 0
172 195 0
173 195 0
171 195 0
171 194 0
171 194 0
172 195 0
172 195 0
173 196 0
171 193 0
172 193 0
171 194 0
172 195 0
171 194 0
173 196 0
172 195 0
171 194 0
172 194 0
172 194 0
171 193 0
171 195 0
173 196 0
170 193 0
172 194 0
171 194 0
170 193 0
171 194 0
170 193 0
169 192 0
171 194 0
172 196 31
171 193 25
173 195 36
172 195 44
174 195 65
175 196 67
177 199 84
183 204 114
186 206 130
189 209 140
189 209 135
189 209 139
193 212 159
193 213 156
193 213 162
190 210 147
190 209 148
186 207 139
179 201 105
184 204 128
177 200 90
178 200 82
173 196 62
173 196 62
172 196 70
172 193 74
171 193 78
170 193 74
172 194 67
172 195 78
171 194 74
171 195 82
170 192 51
173 197 74
172 195 84
169 192 67
170 193 76
168 192 78
170 194 84
168 191 60
167 190 74
170 194 70
168 191 67
164 188 62
165 189 67
164 185 67
166 187 72
172 195 84
165 185 62
167 191 86
168 191 82
166 189 78
171 192 97
165 187 88
166 188 70
169 191 88
167 190 72
167 189 92
167 187 92
166 188 81
170 191 90
166 188 86
166 188 99
163 185 92
166 186 82
163 184 90
163 184 90
161 182 86
163 184 94
165 186 92
157 178 78
159 180 86
155 175 81
160 181 99
152 173 88
154 175 78
157 178 86
154 174 84
153 172 72
153 173 84
148 168 91
148 168 76
126 146 88
91 115 105
95 117 121
83 109 113
98 120 117
92 115 126
92 116 123
90 114 128
95 118 130
93 117 133
99 123 127
100 124 142
93 117 132
87 112 126
89 113 138
81 107 130
86 111 134
82 106 136
80 104 130
84 107 132
81 103 126
67 95 131
70 97 116
63 92 120
66 93 111
64 93 105
62 91 105
61 91 107
59 90 116
57 89 115
58 90 123
58 89 115
56 87 116
55 87 111
58 90 123
56 87 115
56 87 112
56 88 116
56 89 116
57 90 129
56 89 110
57 90 111
57 90 125
56 87 106
58 90 119
56 88 120
56 88 115
57 88 115
57 90 123
56 88 108
58 91 116
56 88 113
54 85 101
56 87 108
56 87 112
55 87 100
57 90 111
56 88 114
56 87 104
57 90 114
54 84 97
55 85 103
53 83 98
67 93 98
90 107 63
100 115 33
114 124 0
117 130 0
124 136 0
121 135 0
126 140 0
120 133 0
124 137 0
126 140 0
125 138 0
127 140 0
127 139 0
131 145 0
127 139 0
128 142 0
132 145 0
128 141 0
135 151 0
129 145 0
137 150 0
134 148 0
131 146 0
134 145 0
139 152 0
138 151 0
135 149 0
144 155 0
143 157 0
142 155 0
135 146 0
144 158 0
137 150 0
136 149 0
135 147 0
143 158 0
148 162 0
143 156 0
150 163 0
144 157 0
150 162 0
148 164 0
148 161 0
150 166 0
150 165 0
155 170 0
148 162 0
148 163 0
152 168 0
149 162 0
153 167 0
153 167 0
152 165 0
148 162 0
155 170 0
157 173 0
153 167 0
153 169 0
154 167 0
158 175 0
156 170 0
156 173 0
156 171 0
156 172 0
150 166 0
158 175 0
155 172 0
161 179 0
154 168 0
155 172 0
158 175 0
158 175 0
154 169 0
159 176 0
163 181 0
162 181 0
160 178 0
162 179 0
159 176 0
163 181 0
165 184 0
164 184 0
165 184 0
163 181 0
162 181 0
164 183 0
164 183 0
166 184 0
164 183 0
168 187 0
165 183 0
167 187 0
166 185 0
166 185 0
166 187 0
168 188 0
167 187 0
168 190 0
166 187 0
167 188 0
166 188 0
164 185 0
167 188 0
169 191 0
168 190 0
168 188 0
170 188 0
168 190 0
167 188 0
171 191 0
170 192 0
165 187 0
169 191 0
168 189 0
167 188 0
170 192 0
171 192 0
171 192 0
170 191 0
169 191 0
170 192 0
171 192 0
169 191 0
169 190 0
170 192 0
171 192 0
172 193 0
172 193 0
171 192 0
170 192 0
170 192 0
171 193 0
171 193 0
173 195 0
173 194 0
170 193 0
171 193 0
173 196 0
170 192 0
171 194 0
171 194 0
173 195 0
171 194 0
170 192 0
171 193 0
172 194 0
171 193 0
171 193 0
173 194 0
171 194 0
171 193 0
170 191 0
171 193 0
168 190 0
171 193 0
172 195 0
172 195 0
173 196 0
172 196 0
170 193 0
172 194 0
172 195 0
173 196 0
172 195 0
171 194 0
172 195 0
170 193 0
173 195 0
171 193 0
173 196 0
171 193 0
172 194 0
172 194 0
172 195 0
173 196 0
174 196 0
172 194 0
172 194 0
172 195 0
173 196 0
174 196 0
171 195 0
174 197 0
172 194 0
174 197 0
173 196 0
175 198 0
172 196 0
173 196 0
175 198 0
174 197 0
171 195 0
172 195 0
173 196 0
173 196 0
172 195 0
173 195 0
173 195 0
173 196 0
171 194 0
172 195 0
173 197 0
174 196 0
173 196 0
172 195 0
171 195 0
172 195 0
173 196 0
171 194 0
172 195 0
169 192 0
172 196 0
171 195 0
173 196 0
171 194 0
171 193 0
173 196 0
173 195 0
172 195 0
174 197 0
172 194 0
174 197 0
173 196 0
174 197 0
173 195 0
172 194 0
172 194 0
170 193 0
173 196 0
173 196 0
173 196 0
173 196 0
172 195 0
174 197 0
171 193 0
170 193 0
173 196 0
173 195 0
173 195 0
172 195 0
172 194 0
172 196 0
171 193 0
173 195 0
171 194 0
173 195 0
172 193 0
172 195 0
169 192 0
169 192 0
170 193 0
170 193 0
169 192 0
172 194 0
171 193 25
171 194 36
169 192 31
174 197 57
175 197 54
180 200 88
180 202 100
184 205 120
184 205 120
191 211 152
192 211 145
192 212 152
191 210 149
188 208 129
191 211 151
187 208 136
188 208 137
183 204 118
183 203 121
180 201 100
174 196 90
177 201 90
172 194 72
171 194 82
173 196 82
174 196 82
173 195 70
172 196 60
172 195 67
169 193 76
170 192 65
173 195 74
167 191 76
168 191 62
173 195 84
167 188 78
172 195 82
169 192 67
169 192 72
170 193 70
169 191 62
168 190 74
167 190 82
169 193 82
167 189 72
168 190 70
169 191 82
167 191 100
167 190 78
166 188 78
169 190 95
164 185 80
168 191 88
170 190 92
169 191 94
167 190 100
167 189 92
164 185 88
171 194 120
168 190 86
167 189 90
168 190 90
167 189 102
166 187 92
159 180 90
162 182 107
161 182 83
164 186 106
158 178 80
165 186 112
160 181 95
160 181 97
162 184 97
158 179 88
160 180 107
154 174 82
161 179 86
153 173 86
151 170 86
147 167 80
145 163 70
138 158 78
140 159 77
114 134 83
95 118 106
81 106 110
86 110 118
91 116 118
95 118 128
88 112 120
101 122 130
96 120 129
101 123 127
99 121 126
85 110 129
89 115 131
96 119 142
86 110 132
85 108 121
79 104 133
86 108 132
81 103 118
84 106 119
72 98 121
73 100 120
71 98 116
66 96 121
68 96 119
70 98 103
60 89 93
64 92 109
58 89 114
56 87 109
55 86 115
56 88 113
55 86 112
55 86 109
55 86 104
55 86 110
56 88 114
56 87 116
56 88 113
55 86 115
56 88 113
54 85 105
57 89 121
55 87 107
57 89 117
57 90 113
58 90 116
56 88 112
56 87 115
54 84 99
57 89 124
54 84 105
55 86 107
55 87 110
55 86 107
55 87 108
56 87 112
56 88 108
56 87 104
54 85 96
57 85 93
78 99 74
91 107 65
112 123 0
119 133 0
116 127 0
112 125 0
118 132 0
118 132 0
116 132 0
119 133 0
119 132 0
130 143 0
132 147 0
127 140 0
133 148 0
123 139 0
129 140 0
133 148 0
131 144 0
132 147 0
133 147 0
130 144 0
131 147 0
135 149 0
136 151 0
135 149 0
138 152 0
141 156 0
139 153 0
139 155 0
141 156 0
143 158 0
136 151 0
143 157 0
146 163 0
144 159 0
144 155 0
141 156 0
146 160 0
147 163 0
140 152 0
146 160 0
146 159 0
148 162 0
150 163 0
148 162 0
146 159 0
147 162 0
149 164 0
149 163 0
150 166 0
152 169 0
149 164 0
149 163 0
151 164 0
156 172 0
151 166 0
152 169 0
152 169 0
153 168 0
154 172 0
157 173 0
156 172 0
155 171 0
156 169 0
155 171 0
160 176 0
158 175 0
159 176 0
157 174 0
159 177 0
157 175 0
161 178 0
158 173 0
158 174 0
160 178 0
159 178 0
162 181 0
161 180 0
162 178 0
162 179 0
162 179 0
160 178 0
163 181 0
162 181 0
160 179 0
164 183 0
166 185 0
164 183 0
162 181 0
163 182 0
165 184 0
165 184 0
165 183 0
167 187 0
164 183 0
166 186 0
166 187 0
167 186 0
168 187 0
167 186 0
166 186 0
167 188 0
169 189 0
167 188 0
165 184 0
163 181 0
169 190 0
169 190 0
167 189 0
169 191 0
172 193 0
168 190 0
171 191 0
168 189 0
168 189 0
168 188 0
170 191 0
170 190 0
170 191 0
165 185 0
170 191 0
168 190 0
167 187 0
169 189 0
169 190 0
168 191 0
170 191 0
170 191 0
169 190 0
168 190 0
173 195 0
170 190 0
171 191 0
171 193 0
170 191 0
172 194 0
173 195 0
170 193 0
170 192 0
170 192 0
171 193 0
170 192 0
171 194 0
170 192 0
171 194 0
172 194 0
173 196 0
172 193 0
172 194 0
172 195 0
172 194 0
170 192 0
170 193 0
170 192 0
172 195 0
170 194 0
171 194 0
172 194 0
171 194 0
171 193 0
173 195 0
172 193 0
172 194 0
173 195 0
173 195 0
171 194 0
171 193 0
171 194 0
173 196 0
174 196 0
173 196 0
172 194 0
174 197 0
172 195 0
171 194 0
173 196 0
172 195 0
175 197 0
173 195 0
172 195 0
171 194 0
174 197 0
172 196 0
174 197 0
174 197 0
173 197 0
173 196 0
174 197 0
172 195 0
172 195 0
174 196 0
172 195 0
173 196 0
172 196 0
172 196 0
173 196 0
171 194 0
173 197 0
173 195 0
172 194 0
174 197 0
173 197 0
173 196 0
173 196 0
173 197 0
173 196 0
172 196 0
169 193 0
173 197 0
173 196 0
172 196 0
170 193 0
172 195 0
171 194 0
172 195 0
171 195 0
173 195 0
170 193 0
173 196 0
172 195 0
173 195 0
173 196 0
171 194 0
173 196 0
172 195 0
172 195 0
172 195 0
171 194 0
170 194 0
171 193 0
173 196 0
173 196 0
171 194 0
171 194 0
172 195 0
172 195 0
171 194 0
170 192 0
171 195 0
171 193 0
171 193 0
171 194 0
172 194 0
171 194 0
172 195 0
169 193 0
171 194 0
172 194 0
168 190 0
171 194 0
171 194 0
170 192 0
172 195 0
170 192 0
172 194 18
172 195 18
170 193 31
173 195 47
173 196 40
174 197 60
177 198 78
179 201 90
180 201 105
186 206 129
191 211 147
190 210 151
191 211 147
187 207 136
190 210 148
188 208 135
185 205 136
184 204 126
182 203 118
180 201 114
179 201 102
176 199 80
173 196 74
172 195 62
174 197 76
171 193 60
169 191 67
173 195 72
173 195 84
174 197 76
172 196 82
169 192 76
171 193 88
170 193 74
170 192 74
168 191 72
170 194 70
172 194 95
168 191 80
167 189 80
170 194 65
170 193 76
168 192 80
168 191 72
167 190 72
165 185 72
170 192 80
168 190 84
172 195 88
169 191 78
165 188 72
167 189 94
170 191 82
168 190 82
171 193 102
168 190 99
174 195 102
166 188 94
170 192 102
167 188 92
168 190 105
166 187 108
165 187 91
166 187 97
168 188 124
168 188 105
158 177 85
163 184 86
157 176 78
166 188 102
161 181 89
164 185 100
158 177 99
151 170 90
157 176 84
153 173 95
155 173 82
150 169 90
154 173 88
155 174 97
152 171 84
144 163 80
149 167 67
143 161 78
140 158 92
122 141 101
83 106 102
89 113 111
96 120 117
88 112 120
89 113 128
90 114 123
90 113 124
92 115 134
106 128 139
94 118 120
100 122 126
93 117 138
90 112 120
89 110 126
97 118 130
90 111 131
88 110 116
87 110 120
83 107 126
75 101 116
70 97 107
72 98 114
65 94 111
67 96 114
62 89 101
60 90 111
59 88 100
55 86 103
54 84 103
54 85 98
56 87 114
55 86 102
55 87 112
55 86 111
56 89 117
54 85 107
56 88 112
56 88 116
55 87 113
56 87 112
57 88 113
57 89 117
56 87 107
56 88 110
57 89 118
56 87 110
57 89 115
56 88 110
55 87 105
55 85 101
55 87 106
56 87 105
55 86 107
56 87 111
55 87 100
54 84 98
59 88 93
66 87 81
83 102 52
97 112 36
102 115 12
116 129 0
110 123 0
114 128 0
116 129 0
113 125 0
125 140 0
124 139 0
122 135 0
117 130 0
124 139 0
123 137 0
125 139 0
125 138 0
127 143 0
123 137 0
134 149 0
129 143 0
131 143 0
133 146 0
136 151 0
136 150 0
136 149 0
137 152 0
140 155 0
140 156 0
132 147 0
145 162 0
140 156 0
141 156 0
143 159 0
144 159 0
139 152 0
143 157 0
137 152 0
147 162 0
144 159 0
141 157 0
153 170 0
147 160 0
149 163 0
149 163 0
151 167 0
146 161 0
151 167 0
149 167 0
151 167 0
157 173 0
151 167 0
152 168 0
156 170 0
148 164 0
154 168 0
155 170 0
152 168 0
155 173 0
156 171 0
154 168 0
158 175 0
160 177 0
157 174 0
155 172 0
159 175 0
157 174 0
158 174 0
155 171 0
161 179 0
158 177 0
157 171 0
159 176 0
162 180 0
158 175 0
158 176 0
158 175 0
160 179 0
162 181 0
163 181 0
162 181 0
163 181 0
162 183 0
163 182 0
166 184 0
168 186 0
163 178 0
166 184 0
162 181 0
162 181 0
164 183 0
158 178 0
163 180 0
164 184 0
163 182 0
163 183 0
167 187 0
162 182 0
169 189 0
167 188 0
168 189 0
168 188 0
168 188 0
169 190 0
165 185 0
167 187 0
167 188 0
169 189 0
166 188 0
169 191 0
167 187 0
168 189 0
169 189 0
167 189 0
165 185 0
170 192 0
170 191 0
168 190 0
168 189 0
169 192 0
171 191 0
171 193 0
169 190 0
168 190 0
168 190 0
172 193 0
169 191 0
169 190 0
170 192 0
169 192 0
169 191 0
171 193 0
170 191 0
170 191 0
169 190 0
170 191 0
169 191 0
169 190 0
170 193 0
172 194 0
172 194 0
171 193 0
172 195 0
172 193 0
172 193 0
170 191 0
172 195 0
171 193 0
170 192 0
173 195 0
172 194 0
173 195 0
173 195 0
171 193 0
170 191 0
171 192 0
172 195 0
172 193 0
170 192 0
173 195 0
171 194 0
172 195 0
172 194 0
172 194 0
172 196 0
173 195 0
172 195 0
172 194 0
172 194 0
172 194 0
174 197 0
171 193 0
171 194 0
172 194 0
172 195 0
171 194 0
174 196 0
171 194 0
174 196 0
172 195 0
171 194 0
173 196 0
173 196 0
173 196 0
174 197 0
172 195 0
173 196 0
173 196 0
172 196 0
173 197 0
173 197 0
172 196 0
173 196 0
173 196 0
173 197 0
173 196 0
175 197 0
172 195 0
173 196 0
173 196 0
172 195 0
173 197 0
171 195 0
173 195 0
173 196 0
172 194 0
174 196 0
173 196 0
173 196 0
172 195 0
171 195 0
170 193 0
171 194 0
173 195 0
171 194 0
174 197 0
172 195 0
171 194 0
173 195 0
172 195 0
171 194 0
171 195 0
174 196 0
172 195 0
172 194 0
173 195 0
172 196 0
173 196 0
172 195 0
172 196 0
172 196 0
172 195 0
171 194 0
170 193 0
172 195 0
171 194 0
170 193 0
171 194 0
172 196 0
172 195 0
170 194 0
172 194 0
171 194 0
171 194 0
169 192 0
171 193 0
170 192 0
170 194 0
171 195 0
170 193 0
171 193 0
172 195 0
170 193 0
169 192 0
169 192 0
164 187 0
173 195 0
170 193 31
172 194 36
172 194 44
174 196 47
172 194 36
176 196 62
174 197 72
182 203 102
179 201 100
184 205 113
189 208 136
187 207 129
186 206 130
186 206 124
185 204 125
185 206 129
187 208 133
184 204 117
180 201 115
181 201 103
175 197 65
175 197 88
173 195 60
172 194 67
174 196 86
171 193 70
172 193 82
173 196 88
166 189 70
175 198 88
170 193 78
172 194 94
171 194 84
170 192 78
170 193 78
168 191 70
168 191 74
167 190 65
168 191 57
169 192 80
165 188 74
169 192 76
166 190 54
165 187 65
170 193 72
173 196 100
172 193 86
168 191 88
171 193 84
172 194 100
168 190 84
172 194 90
168 190 102
168 189 84
168 189 102
166 188 103
167 189 92
166 188 74
168 190 94
170 192 103
171 194 115
170 192 110
168 189 102
164 186 100
166 186 90
164 183 97
168 189 92
161 182 90
169 190 100
159 180 82
165 186 108
161 183 95
164 185 107
157 177 94
160 179 99
156 176 95
151 172 80
150 169 82
152 171 95
148 167 82
148 167 86
150 168 92
148 166 90
144 162 84
134 152 72
124 141 54
113 133 90
96 116 111
96 119 114
90 113 114
83 107 108
88 111 109
92 115 122
97 120 122
101 124 124
96 118 121
89 114 122
93 116 131
95 119 127
94 116 117
102 123 127
94 114 116
87 111 116
90 112 112
87 111 112
87 110 110
77 102 105
74 101 109
72 100 112
62 89 93
66 94 117
58 87 105
62 92 113
55 85 104
55 87 102
54 86 106
54 85 102
55 87 101
54 84 101
56 88 114
55 86 107
56 87 113
54 85 109
55 86 97
54 85 100
55 87 104
56 88 107
56 88 109
55 86 105
57 89 113
54 85 100
55 87 108
55 86 113
55 86 106
55 86 103
54 85 100
53 83 95
56 87 98
53 84 94
54 85 95
57 86 100
62 87 95
77 95 68
88 103 49
99 112 22
103 113 0
116 129 0
104 117 0
112 125 0
110 123 0
118 129 0
119 131 0
120 132 0
125 139 0
122 136 0
124 137 0
124 138 0
130 145 0
127 141 0
137 151 0
127 143 0
139 153 0
133 149 0
127 140 0
132 146 0
145 160 0
142 159 0
138 153 0
139 152 0
144 158 0
144 159 0
143 158 0
140 154 0
146 163 0
145 160 0
146 161 0
146 164 0
143 158 0
141 156 0
146 161 0
150 165 0
146 162 0
152 168 0
140 154 0
150 163 0
140 155 0
146 162 0
151 167 0
151 166 0
147 162 0
149 164 0
149 163 0
150 166 0
156 171 0
152 167 0
150 166 0
149 162 0
153 170 0
152 169 0
151 165 0
156 173 0
155 169 0
155 173 0
157 173 0
152 168 0
154 170 0
153 169 0
153 171 0
157 173 0
159 177 0
156 171 0
152 169 0
161 180 0
159 177 0
157 174 0
160 176 0
156 174 0
159 175 0
158 176 0
160 179 0
159 175 0
164 181 0
157 175 0
162 180 0
160 179 0
160 179 0
163 181 0
161 181 0
163 183 0
161 179 0
165 184 0
161 179 0
162 180 0
164 183 0
162 180 0
163 182 0
165 183 0
165 184 0
168 187 0
165 184 0
168 187 0
165 184 0
168 188 0
166 186 0
169 190 0
168 187 0
166 187 0
166 186 0
169 190 0
166 186 0
166 188 0
167 189 0
169 190 0
166 188 0
169 189 0
167 188 0
167 187 0
167 190 0
168 189 0
167 188 0
168 189 0
168 190 0
168 190 0
170 191 0
172 193 0
172 193 0
166 186 0
168 188 0
168 190 0
170 192 0
171 193 0
170 192 0
168 189 0
170 192 0
169 191 0
170 191 0
170 191 0
171 192 0
172 194 0
169 191 0
173 195 0
170 193 0
173 194 0
171 194 0
171 193 0
171 193 0
169 191 0
171 193 0
170 193 0
170 193 0
170 192 0
173 196 0
171 194 0
172 193 0
171 193 0
169 190 0
170 191 0
170 193 0
173 195 0
172 195 0
171 193 0
172 194 0
174 196 0
170 193 0
171 194 0
173 195 0
172 194 0
172 195 0
171 193 0
171 193 0
174 196 0
172 195 0
171 194 0
172 195 0
173 196 0
172 194 0
173 196 0
172 195 0
173 195 0
171 194 0
173 196 0
172 194 0
173 195 0
172 195 0
171 194 0
173 195 0
174 197 0
171 192 0
172 195 0
173 196 0
172 196 0
173 196 0
173 196 0
172 194 0
172 196 0
171 194 0
172 196 0
173 196 0
171 195 0
171 194 0
174 196 0
173 197 0
174 196 0
174 197 0
174 196 0
173 196 0
172 195 0
172 195 0
172 196 0
172 195 0
171 194 0
175 198 0
172 196 0
172 196 0
173 195 0
174 196 0
173 195 0
172 195 0
173 196 0
173 195 0
171 195 0
172 195 0
170 192 0
171 193 0
171 194 0
173 196 0
172 195 0
172 194 0
172 194 0
171 194 0
171 193 0
173 195 0
171 195 0
172 195 0
172 195 0
172 195 0
171 194 0
172 194 0
172 195 0
173 196 0
172 195 0
170 193 0
171 194 0
171 193 0
171 194 0
170 193 0
172 195 0
170 193 0
171 194 0
172 194 0
171 194 0
169 192 0
170 192 0
173 195 0
171 194 0
172 194 0
170 192 0
169 192 0
170 193 0
171 193 18
171 194 18
169 190 25
173 196 18
174 197 31
176 199 62
176 198 70
180 202 90
181 202 102
185 206 125
185 206 125
186 207 129
189 209 142
187 207 130
187 207 130
180 202 103
184 204 117
183 204 120
179 200 110
181 202 100
180 201 103
173 197 78
172 195 67
174 196 78
173 196 70
172 195 80
173 196 67
174 196 86
169 192 74
170 191 74
169 192 88
166 188 70
172 195 70
171 195 76
172 195 60
169 191 67
170 194 70
167 189 72
169 191 76
168 190 67
170 193 67
171 193 78
169 192 82
171 194 90
171 193 88
166 189 74
170 193 102
165 188 76
169 191 78
170 192 95
164 185 86
168 190 105
173 196 95
168 191 103
168 190 97
174 196 99
166 186 95
172 192 90
171 193 115
169 190 105
168 188 92
165 186 89
168 189 99
166 187 94
167 188 100
168 189 111
171 191 110
166 187 110
165 185 103
165 186 100
166 186 100
161 180 97
161 181 90
163 183 99
160 181 113
158 178 99
156 174 109
152 171 94
155 174 100
156 176 90
155 173 84
143 163 84
146 165 86
148 167 90
146 163 94
134 152 70
144 162 80
127 144 81
109 128 91
95 116 109
88 112 115
103 124 117
80 104 114
86 108 112
95 118 121
95 118 117
89 113 124
94 118 126
97 119 115
96 117 100
97 119 125
93 114 110
103 123 107
99 119 104
98 119 103
93 115 103
77 102 111
77 103 116
75 100 106
72 97 100
73 99 96
64 91 91
64 90 85
64 92 101
58 86 100
53 84 97
55 87 101
54 84 92
54 84 87
54 85 101
54 84 95
53 83 98
54 84 99
55 87 102
54 85 108
56 87 113
55 86 105
56 87 101
55 86 102
56 88 115
56 87 104
55 86 100
55 87 110
56 87 106
54 85 97
55 87 101
54 85 110
53 84 93
51 80 91
53 82 82
62 88 83
78 98 65
88 103 46
103 116 25
103 115 0
104 118 0
110 123 0
116 130 0
114 128 0
124 136 0
121 133 0
113 125 0
119 134 0
115 128 0
123 139 0
123 139 0
130 144 0
120 135 0
123 135 0
133 148 0
127 141 0
132 148 0
134 149 0
137 149 0
135 151 0
134 149 0
138 153 0
141 156 0
130 144 0
140 155 0
147 162 0
141 157 0
141 156 0
144 158 0
142 158 0
146 163 0
146 160 0
138 151 0
141 157 0
143 160 0
142 157 0
141 156 0
147 161 0
143 159 0
144 162 0
141 156 0
147 163 0
150 165 0
151 167 0
142 156 0
153 169 0
145 162 0
152 169 0
151 166 0
150 165 0
158 175 0
149 164 0
155 171 0
151 168 0
154 171 0
153 168 0
155 172 0
153 166 0
155 173 0
156 173 0
155 170 0
158 176 0
152 169 0
153 167 0
159 177 0
163 180 0
154 172 0
157 174 0
158 176 0
155 171 0
158 174 0
161 179 0
160 178 0
159 176 0
159 177 0
160 178 0
161 179 0
163 182 0
161 180 0
161 180 0
160 179 0
164 183 0
161 178 0
161 181 0
167 187 0
162 180 0
167 186 0
163 182 0
161 180 0
165 185 0
163 182 0
164 184 0
166 185 0
164 184 0
163 183 0
166 185 0
165 185 0
165 185 0
163 182 0
166 185 0
167 187 0
167 187 0
166 184 0
170 191 0
167 187 0
167 186 0
167 188 0
169 189 0
169 192 0
165 185 0
169 190 0
168 188 0
169 190 0
168 188 0
168 188 0
170 191 0
170 193 0
167 189 0
166 186 0
168 189 0
168 189 0
168 189 0
169 189 0
169 190 0
168 190 0
170 190 0
171 193 0
171 193 0
169 190 0
168 188 0
168 190 0
171 192 0
170 192 0
171 193 0
171 192 0
171 193 0
171 193 0
170 192 0
172 194 0
171 193 0
170 192 0
172 194 0
171 192 0
173 194 0
170 192 0
172 194 0
171 193 0
171 193 0
170 193 0
173 195 0
173 195 0
173 194 0
171 193 0
172 196 0
171 193 0
171 193 0
173 195 0
173 196 0
172 195 0
172 194 0
173 195 0
172 195 0
172 195 0
173 195 0
171 194 0
172 194 0
172 194 0
172 196 0
173 195 0
172 195 0
172 194 0
173 196 0
173 196 0
170 193 0
173 196 0
172 195 0
174 197 0
172 196 0
172 195 0
175 197 0
170 192 0
172 195 0
173 197 0
173 194 0
173 195 0
173 195 0
174 196 0
174 197 0
174 196 0
173 196 0
173 196 0
171 195 0
173 197 0
173 196 0
173 196 0
172 195 0
173 197 0
174 197 0
171 194 0
170 192 0
174 197 0
173 196 0
173 196 0
172 195 0
173 195 0
172 195 0
173 197 0
170 193 0
173 196 0
172 194 0
174 198 0
172 194 0
173 196 0
173 197 0
172 195 0
171 195 0
174 197 0
172 195 0
171 195 0
171 194 0
172 196 0
171 195 0
174 196 0
172 195 0
171 193 0
173 195 0
172 195 0
172 196 0
172 195 0
172 194 0
173 196 0
172 194 0
171 194 0
172 195 0
171 194 0
169 192 0
170 194 0
171 193 0
173 195 0
172 195 0
170 193 0
170 192 0
172 195 0
169 191 0
172 194 0
171 194 0
171 193 0
170 192 0
170 193 0
171 193 0
170 192 0
172 195 0
171 194 0
172 194 0
169 191 0
170 192 18
173 194 18
173 196 36
172 193 51
174 197 47
173 196 36
173 196 60
178 200 76
180 200 102
185 205 120
189 209 135
185 206 121
188 208 136
184 204 124
186 207 135
184 204 126
183 204 122
184 204 120
182 203 122
177 199 86
175 197 84
174 197 72
173 194 65
174 196 72
171 193 62
175 197 76
174 196 97
172 195 62
172 194 62
172 195 74
169 191 62
172 194 76
172 196 80
168 191 67
168 190 67
168 190 60
170 193 80
168 192 62
170 193 74
167 191 76
166 188 70
171 195 86
170 193 94
170 192 103
169 193 80
171 194 95
168 191 88
172 195 110
170 193 88
173 195 118
168 190 80
169 191 92
171 193 111
170 192 92
167 191 102
174 196 111
170 193 95
169 190 94
165 188 102
168 191 103
170 191 108
164 185 94
169 191 92
167 187 94
163 184 109
164 186 99
168 189 115
158 177 86
160 181 89
163 184 97
160 180 94
155 174 91
159 177 95
158 178 86
154 174 92
158 176 78
158 177 105
155 173 90
156 176 103
154 174 90
157 176 94
148 166 94
151 169 100
145 163 92
146 163 95
134 151 86
137 156 84
135 150 84
118 135 64
109 127 95
93 115 100
91 114 106
95 117 118
99 120 113
96 119 110
96 118 120
95 117 121
99 123 116
97 119 113
99 119 110
100 120 117
100 122 113
103 123 100
105 125 101
117 136 81
103 124 100
99 120 97
88 110 94
79 102 97
76 100 90
63 89 85
66 93 90
66 92 85
62 88 99
57 85 77
56 86 92
51 81 82
54 85 97
54 85 108
55 86 106
55 86 103
53 83 90
55 85 107
55 86 103
54 85 97
55 86 104
54 85 103
55 87 105
53 83 99
54 84 101
54 85 96
54 84 101
54 84 94
53 83 96
54 84 102
53 84 99
55 85 98
56 83 88
62 85 74
80 100 60
83 99 36
92 106 33
99 109 0
101 110 0
104 116 0
106 119 0
105 118 0
110 121 0
114 128 0
119 134 0
112 124 0
123 137 0
117 132 0
117 130 0
130 146 0
126 139 0
132 147 0
127 142 0
137 153 0
129 142 0
131 145 0
135 149 0
140 157 0
133 146 0
133 146 0
137 153 0
131 144 0
137 153 0
140 155 0
141 155 0
139 154 0
143 158 0
142 157 0
141 157 0
144 160 0
143 160 0
154 168 0
149 165 0
143 161 0
145 161 0
150 166 0
145 159 0
145 161 0
146 160 0
143 158 0
147 163 0
151 167 0
149 166 0
145 160 0
149 166 0
145 159 0
151 166 0
152 170 0
157 175 0
150 166 0
150 167 0
155 173 0
152 170 0
157 172 0
151 168 0
154 168 0
156 172 0
161 179 0
156 173 0
153 169 0
156 175 0
157 173 0
155 172 0
156 172 0
159 177 0
158 176 0
160 176 0
160 178 0
160 177 0
159 177 0
160 177 0
159 176 0
157 175 0
158 176 0
160 179 0
164 183 0
163 181 0
162 181 0
163 182 0
162 181 0
163 180 0
160 177 0
163 181 0
162 182 0
165 185 0
166 185 0
165 185 0
164 184 0
168 186 0
166 186 0
165 186 0
164 182 0
166 187 0
167 186 0
167 188 0
167 186 0
168 187 0
163 182 0
168 189 0
162 182 0
166 186 0
169 188 0
168 189 0
167 188 0
167 186 0
166 186 0
168 190 0
168 188 0
167 188 0
168 189 0
168 189 0
167 188 0
167 187 0
168 190 0
169 190 0
169 189 0
170 191 0
169 189 0
168 189 0
170 191 0
170 190 0
167 188 0
169 190 0
168 189 0
169 191 0
170 191 0
169 190 0
170 193 0
170 192 0
169 190 0
172 193 0
170 191 0
171 192 0
171 192 0
170 193 0
171 192 0
172 193 0
171 194 0
170 192 0
169 192 0
170 192 0
171 192 0
171 195 0
170 191 0
172 194 0
172 194 0
172 194 0
173 194 0
173 195 0
170 192 0
172 194 0
172 195 0
170 193 0
172 194 0
172 194 0
172 195 0
172 195 0
172 195 0
172 194 0
171 194 0
172 194 0
172 194 0
172 193 0
174 196 0
175 197 0
172 194 0
173 196 0
174 196 0
171 194 0
172 195 0
171 193 0
172 194 0
172 195 0
171 195 0
173 195 0
173 195 0
173 195 0
172 194 0
172 195 0
170 194 0
172 196 0
172 196 0
173 196 0
173 197 0
173 196 0
174 196 0
173 195 0
172 195 0
172 195 0
172 194 0
173 196 0
172 195 0
173 197 0
173 197 0
172 196 0
172 195 0
172 195 0
174 196 0
173 196 0
172 196 0
171 194 0
172 195 0
171 194 0
172 195 0
170 193 0
172 195 0
173 196 0
173 197 0
174 197 0
173 197 0
171 194 0
173 196 0
172 196 0
173 197 0
172 195 0
172 195 0
172 195 0
171 195 0
172 195 0
172 195 0
174 196 0
172 194 0
173 195 0
173 196 0
173 194 0
172 196 0
171 194 0
171 195 0
173 196 0
170 194 0
172 195 0
172 196 0
170 193 0
171 194 0
171 194 0
173 196 0
173 195 0
172 195 0
170 192 0
173 197 0
171 194 0
171 193 0
173 196 0
170 193 0
172 195 0
173 196 0
169 192 0
170 193 0
171 193 0
170 193 0
169 193 0
171 194 0
167 188 0
170 192 0
168 191 0
171 194 0
172 195 31
173 196 40
171 193 25
172 195 47
173 195 51
175 198 62
178 200 86
181 203 97
183 203 108
185 205 120
184 204 118
184 204 118
186 207 134
184 205 120
184 205 117
184 205 125
183 203 121
178 199 102
179 200 88
178 200 92
173 196 70
173 196 70
172 193 67
172 195 72
171 194 65
172 194 80
173 195 94
171 194 84
167 190 67
171 193 65
171 193 82
171 193 67
168 192 74
170 192 74
171 194 74
169 192 74
172 195 76
169 191 65
169 192 92
168 192 72
171 194 76
170 192 92
174 196 88
171 195 97
169 192 86
170 192 110
172 194 115
169 192 80
171 193 92
168 189 95
169 191 92
170 191 100
172 194 110
166 187 86
168 191 105
169 191 88
165 186 102
166 186 95
166 190 99
165 187 99
168 189 94
163 185 94
166 188 94
158 179 90
161 181 89
163 184 107
162 184 94
160 181 76
164 184 94
161 181 99
159 180 108
158 179 104
159 177 95
154 175 94
165 186 108
159 177 99
159 177 99
149 168 80
152 170 92
149 168 92
157 174 100
147 164 80
142 159 78
139 158 82
146 162 90
135 152 94
131 147 76
135 151 79
118 135 66
105 122 83
97 115 95
97 120 106
91 115 103
97 119 112
90 113 113
99 121 113
97 119 105
102 123 118
109 127 106
101 121 99
109 128 99
109 128 104
113 132 96
113 131 95
111 131 100
92 111 89
94 114 87
83 105 97
87 108 81
74 96 85
68 92 83
69 94 82
65 91 92
59 86 81
52 81 81
55 85 95
53 83 87
53 84 100
53 84 89
51 80 89
51 81 84
51 81 92
53 82 99
54 84 96
54 85 105
53 83 88
52 82 99
53 83 97
53 84 92
54 85 99
53 82 98
54 84 89
52 81 88
62 88 85
59 84 61
72 93 68
83 96 46
90 103 23
88 100 25
94 106 12
102 116 0
111 122 0
100 114 0
106 119 0
102 114 0
110 124 0
118 132 0
117 131 0
113 126 0
120 134 0
121 136 0
123 136 0
123 137 0
130 143 0
120 134 0
131 146 0
129 142 0
129 143 0
131 145 0
137 150 0
140 154 0
135 152 0
135 151 0
137 150 0
134 149 0
132 148 0
136 150 0
143 159 0
142 156 0
137 151 0
143 158 0
142 158 0
139 153 0
142 158 0
145 162 0
143 160 0
142 157 0
146 160 0
146 162 0
146 161 0
145 160 0
145 160 0
145 162 0
152 168 0
149 166 0
152 166 0
155 172 0
150 166 0
151 169 0
155 171 0
150 166 0
151 167 0
145 162 0
155 171 0
143 159 0
151 168 0
154 170 0
155 172 0
155 173 0
157 174 0
157 174 0
154 172 0
157 175 0
158 177 0
155 172 0
152 169 0
158 175 0
158 176 0
154 171 0
155 172 0
156 174 0
158 174 0
160 175 0
157 176 0
157 174 0
157 176 0
162 182 0
160 179 0
159 178 0
160 179 0
159 177 0
161 180 0
163 182 0
167 187 0
163 184 0
162 182 0
166 185 0
165 185 0
162 181 0
163 182 0
163 180 0
163 180 0
165 185 0
162 182 0
165 185 0
166 187 0
166 186 0
162 182 0
162 182 0
166 187 0
166 187 0
168 190 0
165 185 0
165 186 0
167 187 0
166 186 0
165 186 0
164 183 0
168 188 0
169 190 0
167 188 0
167 188 0
167 188 0
168 189 0
168 189 0
166 187 0
168 188 0
167 188 0
167 188 0
172 194 0
169 190 0
169 190 0
169 190 0
170 191 0
171 193 0
170 192 0
170 193 0
172 194 0
170 191 0
170 192 0
172 192 0
172 194 0
171 194 0
168 190 0
170 191 0
167 188 0
172 193 0
169 190 0
169 192 0
173 194 0
172 194 0
170 193 0
171 193 0
172 194 0
171 192 0
170 192 0
172 194 0
172 194 0
170 192 0
171 192 0
168 191 0
172 193 0
169 191 0
171 194 0
169 191 0
173 196 0
172 194 0
172 194 0
172 195 0
172 195 0
172 195 0
171 193 0
172 195 0
171 193 0
172 193 0
175 198 0
173 194 0
171 193 0
174 196 0
173 196 0
172 196 0
172 194 0
172 193 0
172 195 0
172 195 0
173 195 0
171 193 0
174 196 0
173 196 0
172 195 0
173 196 0
172 195 0
171 193 0
173 195 0
172 195 0
174 197 0
173 196 0
172 195 0
174 197 0
173 196 0
173 195 0
173 196 0
173 196 0
174 197 0
171 195 0
174 197 0
173 196 0
171 194 0
173 196 0
174 197 0
173 196 0
174 197 0
174 196 0
174 197 0
172 195 0
173 196 0
172 196 0
173 197 0
172 194 0
172 195 0
172 196 0
172 195 0
173 196 0
172 195 0
173 196 0
173 195 0
172 195 0
173 194 0
171 193 0
173 196 0
173 196 0
172 195 0
174 197 0
172 195 0
171 194 0
172 194 0
173 194 0
170 194 0
172 195 0
171 194 0
173 196 0
173 195 0
170 192 0
170 191 0
171 194 0
173 196 0
172 195 0
171 195 0
173 194 0
172 194 0
171 194 0
170 194 0
171 193 0
172 195 0
174 197 0
171 194 0
172 195 0
170 191 0
170 193 0
171 194 0
172 194 0
172 195 0
171 193 0
168 191 0
172 194 0
169 192 0
171 193 0
172 195 0
170 193 0
170 193 25
171 194 31
170 193 18
172 194 40
173 196 36
175 198 40
175 198 54
180 202 95
182 202 107
185 205 120
185 205 110
187 207 125
186 206 124
181 202 103
182 203 105
183 204 110
179 200 95
177 199 99
175 198 82
176 198 78
171 194 62
172 194 60
172 194 80
173 195 84
172 194 72
176 198 86
169 191 67
171 193 60
172 195 86
169 192 70
167 190 78
170 193 78
170 193 80
170 192 80
167 190 67
169 190 76
172 195 65
171 194 99
171 194 86
168 191 72
174 196 92
173 194 110
171 194 84
172 194 95
170 192 95
172 194 100
166 186 90
172 193 100
169 192 113
169 191 102
168 190 102
171 193 110
173 195 110
164 186 95
168 190 92
171 192 88
168 189 94
167 188 92
170 191 107
166 188 97
165 187 103
165 186 97
166 189 103
168 190 119
164 185 91
169 190 98
161 181 90
164 185 104
162 181 95
162 183 100
160 181 88
163 183 103
159 179 108
165 185 113
157 177 94
156 175 94
162 183 99
155 174 97
156 175 97
151 170 99
153 170 84
154 171 107
147 163 99
152 171 100
161 180 110
145 161 82
133 148 78
136 154 82
139 154 90
135 150 78
129 144 78
108 123 74
101 119 89
87 110 93
88 111 94
85 106 97
104 125 121
101 122 118
91 113 102
103 123 106
106 127 100
117 134 102
111 131 89
108 126 86
109 127 88
111 131 88
104 121 75
95 114 89
90 112 87
94 117 78
88 106 69
82 101 66
74 93 65
73 93 66
70 92 77
56 82 67
55 83 72
51 80 86
54 85 86
53 83 88
50 78 81
52 82 83
50 79 80
52 82 91
52 82 84
53 83 88
51 80 86
51 80 93
51 80 79
51 79 82
57 85 81
59 83 70
69 91 74
71 91 65
79 96 34
82 98 34
100 113 28
98 110 18
103 113 0
110 120 0
110 124 0
109 121 0
109 121 0
113 127 0
114 128 0
108 121 0
108 121 0
113 127 0
114 128 0
121 136 0
117 133 0
130 143 0
125 140 0
129 144 0
129 146 0
127 143 0
133 149 0
127 143 0
135 150 0
141 157 0
134 150 0
142 157 0
134 148 0
143 160 0
142 157 0
146 161 0
133 148 0
140 155 0
144 162 0
148 163 0
140 157 0
141 157 0
148 163 0
139 155 0
139 154 0
144 160 0
144 163 0
139 156 0
146 160 0
149 167 0
144 161 0
149 164 0
150 167 0
149 165 0
145 162 0
148 166 0
156 174 0
150 166 0
153 169 0
153 169 0
150 167 0
151 168 0
155 171 0
150 165 0
148 165 0
154 170 0
150 165 0
149 166 0
158 177 0
156 173 0
155 173 0
156 175 0
158 177 0
155 173 0
158 175 0
157 175 0
153 170 0
155 172 0
152 169 0
161 179 0
160 177 0
158 179 0
161 179 0
160 178 0
156 174 0
160 178 0
159 177 0
157 176 0
165 183 0
160 176 0
160 179 0
161 178 0
160 177 0
159 178 0
162 182 0
160 181 0
161 180 0
166 184 0
163 182 0
166 185 0
164 182 0
162 181 0
165 184 0
163 181 0
164 183 0
168 189 0
165 185 0
167 187 0
166 186 0
164 184 0
163 183 0
167 187 0
163 182 0
164 184 0
168 190 0
168 190 0
170 190 0
168 188 0
164 184 0
165 185 0
168 189 0
168 187 0
169 190 0
168 189 0
167 189 0
169 190 0
168 189 0
169 191 0
169 190 0
169 189 0
168 188 0
168 188 0
169 189 0
169 191 0
169 190 0
165 185 0
171 192 0
169 191 0
167 189 0
171 192 0
169 190 0
167 188 0
168 189 0
169 192 0
172 194 0
166 188 0
170 192 0
171 193 0
170 193 0
168 189 0
170 193 0
171 194 0
170 192 0
171 193 0
169 191 0
169 191 0
171 194 0
172 194 0
171 193 0
171 194 0
172 194 0
172 193 0
172 195 0
169 191 0
171 194 0
173 196 0
172 194 0
170 193 0
172 193 0
173 195 0
171 193 0
170 193 0
170 192 0
172 194 0
173 196 0
171 193 0
172 195 0
172 195 0
173 196 0
172 194 0
172 195 0
174 196 0
172 195 0
170 193 0
172 195 0
174 196 0
172 194 0
172 195 0
172 194 0
173 195 0
172 194 0
173 196 0
173 196 0
174 196 0
173 195 0
174 196 0
173 195 0
172 195 0
172 195 0
173 196 0
174 197 0
173 196 0
175 197 0
173 196 0
173 196 0
172 195 0
174 197 0
173 196 0
173 196 0
173 196 0
174 196 0
172 195 0
174 196 0
173 196 0
173 196 0
174 196 0
174 197 0
172 195 0
172 195 0
171 194 0
173 197 0
172 195 0
171 194 0
170 194 0
172 195 0
171 195 0
172 195 0
171 194 0
171 194 0
173 195 0
174 196 0
172 196 0
171 193 0
171 194 0
173 195 0
172 196 0
173 196 0
173 196 0
175 198 0
172 195 0
171 194 0
170 194 0
169 193 0
171 195 0
172 195 0
171 194 0
173 197 0
171 193 0
173 196 0
170 193 0
170 193 0
171 194 0
170 193 0
172 193 0
170 192 0
171 194 0
169 191 0
172 194 0
171 194 0
170 193 0
172 194 0
173 196 0
171 194 0
170 192 0
173 195 0
170 193 0
171 194 0
172 194 0
168 191 0
172 195 0
171 192 0
173 194 25
171 195 31
170 193 25
174 197 44
170 192 36
176 199 76
178 200 80
182 203 99
184 205 108
181 203 99
182 203 107
183 203 105
182 203 110
180 200 95
181 202 111
182 203 117
176 198 78
178 200 94
177 198 95
178 199 92
175 196 80
172 193 70
173 195 70
172 193 60
172 195 78
173 195 80
171 194 86
171 194 74
171 192 84
170 192 76
173 196 78
170 193 80
165 187 65
170 192 67
169 191 60
169 192 80
167 190 76
168 190 86
170 192 82
170 192 95
172 194 92
171 193 88
169 191 95
168 189 94
171 193 92
169 191 97
169 190 80
170 191 90
172 193 114
165 186 90
168 189 102
165 187 78
169 191 97
165 187 100
169 190 108
167 188 97
164 186 103
162 183 99
163 183 92
164 186 94
167 188 95
167 187 103
165 184 96
168 189 94
166 187 105
165 186 102
161 182 86
163 183 89
162 184 88
165 185 107
158 177 81
162 183 93
158 178 94
164 184 103
167 187 108
156 173 99
154 173 103
158 177 105
151 170 94
155 172 88
158 176 97
150 169 92
145 163 82
142 159 84
142 161 88
142 159 97
139 157 80
136 153 84
128 143 74
131 145 82
126 141 76
113 129 78
105 121 90
101 121 111
90 112 107
96 119 104
101 122 105
93 115 93
94 115 91
110 127 92
118 136 95
122 140 79
119 135 71
121 139 71
106 124 71
109 126 76
94 114 72
105 123 71
97 115 60
96 114 66
98 116 60
98 113 48
94 111 49
89 104 43
81 97 45
80 98 64
70 89 54
72 92 59
56 79 78
66 88 73
65 87 72
59 82 61
62 83 78
62 86 66
63 85 61
72 93 74
62 82 66
71 91 60
76 93 46
81 97 41
78 91 33
93 106 28
88 100 13
100 110 0
89 101 0
98 112 0
102 112 0
109 119 0
106 119 0
111 124 0
107 119 0
106 121 0
104 119 0
108 122 0
129 142 0
119 134 0
126 140 0
123 137 0
119 133 0
117 133 0
124 139 0
123 140 0
128 142 0
126 142 0
129 144 0
128 144 0
130 144 0
128 143 0
127 144 0
133 148 0
139 155 0
143 156 0
140 156 0
135 149 0
135 149 0
142 155 0
138 152 0
142 157 0
142 156 0
143 159 0
143 159 0
140 156 0
142 158 0
143 159 0
148 165 0
145 162 0
142 158 0
148 165 0
150 167 0
148 164 0
148 164 0
149 166 0
145 161 0
143 158 0
151 168 0
151 169 0
150 167 0
147 164 0
155 170 0
149 168 0
159 175 0
149 166 0
147 162 0
154 172 0
152 170 0
158 175 0
154 170 0
155 173 0
155 171 0
163 181 0
154 171 0
159 177 0
154 173 0
159 177 0
156 174 0
156 173 0
157 173 0
157 175 0
154 170 0
164 183 0
156 172 0
154 173 0
161 179 0
161 180 0
158 176 0
158 175 0
160 178 0
158 176 0
161 180 0
163 182 0
155 174 0
160 179 0
163 182 0
157 176 0
164 184 0
164 183 0
165 183 0
162 182 0
163 183 0
162 182 0
163 183 0
162 182 0
162 180 0
163 184 0
163 182 0
162 181 0
165 183 0
167 186 0
165 186 0
164 185 0
165 186 0
164 185 0
162 180 0
168 188 0
167 187 0
166 185 0
164 185 0
169 190 0
166 187 0
168 188 0
167 187 0
169 191 0
168 189 0
167 186 0
167 188 0
165 187 0
167 187 0
168 189 0
170 191 0
169 192 0
165 186 0
170 191 0
170 191 0
169 189 0
171 193 0
170 191 0
167 189 0
167 189 0
169 190 0
170 192 0
171 192 0
170 191 0
169 191 0
170 191 0
171 193 0
172 194 0
171 193 0
167 189 0
169 191 0
170 191 0
170 193 0
170 193 0
172 194 0
169 191 0
171 193 0
170 190 0
171 193 0
171 194 0
172 194 0
172 195 0
171 194 0
172 195 0
169 191 0
172 194 0
172 195 0
171 194 0
173 196 0
174 196 0
173 194 0
171 193 0
170 192 0
172 193 0
172 194 0
173 196 0
172 195 0
171 194 0
171 194 0
172 195 0
174 195 0
173 196 0
171 194 0
172 195 0
172 194 0
173 195 0
173 194 0
171 194 0
172 195 0
174 196 0
173 196 0
172 195 0
172 195 0
173 197 0
174 196 0
173 196 0
173 196 0
172 195 0
172 195 0
173 196 0
173 195 0
173 195 0
173 195 0
174 196 0
173 196 0
171 194 0
174 197 0
172 196 0
172 195 0
172 195 0
172 195 0
172 196 0
172 195 0
172 195 0
172 194 0
172 195 0
173 195 0
171 194 0
173 196 0
172 194 0
173 196 0
172 195 0
173 196 0
173 196 0
173 195 0
171 195 0
174 196 0
172 195 0
172 195 0
173 195 0
173 195 0
173 196 0
172 195 0
172 195 0
173 197 0
173 196 0
171 194 0
173 196 0
171 194 0
173 196 0
173 196 0
173 196 0
173 196 0
172 195 0
170 193 0
173 196 0
173 196 0
170 192 0
172 195 0
172 194 0
171 194 0
169 192 0
170 194 0
170 193 0
170 193 0
170 194 0
172 194 0
172 194 0
173 195 0
170 193 0
171 194 0
171 194 0
171 193 0
169 192 0
170 193 0
171 193 0
172 196 0
170 192 0
169 192 0
168 191 0
172 194 0
172 195 0
170 193 0
171 193 25
173 195 36
175 197 44
174 195 62
175 197 47
179 200 92
182 203 105
181 202 95
179 200 92
183 204 111
184 204 117
181 201 105
184 205 118
181 203 97
174 196 76
176 198 65
173 195 62
176 198 74
170 191 70
171 192 76
171 193 76
173 196 65
170 192 76
170 193 82
170 193 82
173 195 72
170 191 72
172 194 80
172 196 78
171 192 67
172 196 88
172 195 86
170 192 72
172 194 80
171 193 78
173 195 78
175 196 99
172 194 99
174 196 97
170 192 90
169 192 86
168 190 78
172 194 90
170 191 95
175 195 90
167 188 100
169 191 95
169 191 100
169 189 107
167 187 94
172 194 99
164 186 82
169 191 113
171 192 114
164 183 107
168 190 76
166 187 95
170 191 102
167 187 92
165 185 105
165 186 97
163 184 88
165 186 109
161 182 97
167 187 108
160 179 102
159 180 90
159 181 94
167 188 110
167 186 115
160 179 102
165 184 107
162 182 99
160 180 103
154 172 86
155 173 92
163 182 102
154 173 100
155 174 86
153 171 105
148 163 94
151 167 94
146 163 100
147 166 94
146 161 94
141 157 97
146 162 95
137 152 99
126 140 74
128 142 84
119 133 80
110 126 74
111 126 87
106 123 94
102 121 108
87 110 83
98 119 95
103 121 93
113 132 78
115 131 80
115 131 68
125 142 72
125 140 53
124 141 65
114 133 60
112 130 57
110 127 57
108 127 48
96 113 57
107 121 33
103 117 36
102 115 28
99 114 22
90 102 18
93 106 12
89 102 23
95 109 12
81 92 31
84 96 39
85 96 33
87 101 36
89 103 25
88 103 40
83 96 13
76 91 12
88 99 12
92 102 18
101 111 12
96 108 0
98 108 12
99 111 0
102 113 0
97 112 0
97 110 0
103 116 0
106 119 0
100 110 0
112 125 0
115 127 0
116 130 0
105 118 0
111 125 0
118 133 0
125 140 0
126 140 0
118 133 0
118 132 0
126 141 0
127 141 0
128 142 0
117 132 0
134 150 0
130 143 0
127 144 0
136 149 0
134 150 0
131 147 0
135 149 0
133 150 0
140 156 0
136 151 0
138 154 0
140 159 0
140 157 0
134 148 0
142 160 0
143 159 0
147 163 0
145 160 0
145 162 0
143 160 0
146 161 0
145 161 0
143 159 0
148 163 0
150 166 0
145 162 0
146 163 0
145 163 0
145 161 0
151 167 0
153 169 0
145 162 0
150 167 0
147 163 0
153 171 0
149 164 0
152 169 0
146 163 0
148 164 0
154 170 0
151 169 0
153 171 0
155 171 0
155 174 0
151 168 0
154 173 0
154 171 0
155 172 0
154 170 0
156 173 0
151 169 0
157 175 0
159 177 0
153 169 0
154 171 0
160 177 0
162 181 0
157 174 0
158 176 0
157 177 0
158 176 0
161 180 0
160 178 0
160 177 0
162 181 0
163 180 0
163 181 0
160 176 0
163 182 0
164 183 0
162 181 0
162 181 0
160 180 0
161 181 0
164 183 0
164 183 0
162 182 0
168 187 0
164 183 0
160 180 0
164 183 0
167 186 0
164 183 0
166 184 0
167 187 0
169 188 0
165 185 0
168 188 0
164 184 0
164 184 0
163 184 0
168 188 0
167 186 0
164 184 0
168 188 0
165 186 0
167 187 0
169 190 0
166 187 0
168 189 0
166 187 0
168 189 0
169 191 0
168 190 0
170 192 0
171 194 0
167 184 0
170 191 0
169 189 0
167 189 0
170 193 0
173 195 0
171 193 0
170 191 0
169 192 0
170 192 0
166 188 0
168 190 0
168 189 0
169 190 0
168 189 0
171 193 0
169 192 0
170 192 0
171 191 0
171 192 0
172 195 0
171 192 0
171 193 0
172 195 0
171 194 0
172 195 0
173 195 0
171 194 0
173 195 0
167 190 0
172 194 0
170 191 0
169 192 0
172 194 0
170 192 0
171 194 0
171 194 0
172 194 0
172 194 0
169 191 0
171 193 0
173 196 0
173 195 0
172 195 0
171 193 0
172 194 0
172 194 0
174 196 0
172 194 0
172 195 0
171 193 0
173 195 0
170 193 0
171 193 0
172 195 0
174 197 0
172 195 0
170 193 0
172 195 0
173 196 0
173 196 0
171 195 0
172 195 0
173 195 0
171 192 0
174 196 0
170 193 0
172 194 0
173 196 0
173 195 0
172 195 0
173 196 0
174 197 0
173 195 0
173 196 0
172 196 0
173 196 0
174 197 0
172 195 0
173 196 0
173 197 0
173 196 0
174 197 0
173 196 0
174 196 0
175 198 0
174 196 0
173 197 0
172 195 0
173 195 0
172 195 0
172 194 0
173 197 0
172 196 0
173 197 0
173 197 0
173 195 0
173 195 0
172 194 0
170 193 0
173 196 0
171 193 0
174 197 0
173 196 0
171 193 0
173 195 0
171 194 0
172 195 0
171 194 0
173 196 0
173 196 0
172 195 0
172 195 0
171 192 0
171 194 0
170 192 0
172 195 0
172 194 0
171 194 0
172 196 0
173 196 0
172 195 0
170 194 0
170 192 0
173 195 0
169 191 0
172 196 0
171 193 0
172 195 0
172 194 0
169 192 0
170 193 0
172 194 0
172 195 0
171 193 0
171 194 0
171 193 0
171 194 0
170 193 0
169 191 0
168 190 0
171 193 0
171 193 0
169 191 18
173 195 40
172 194 40
173 196 44
178 199 70
179 201 86
180 201 99
180 202 100
179 200 92
177 200 80
182 203 102
180 201 94
177 199 76
178 200 88
176 198 88
176 198 67
175 197 84
177 199 84
175 197 72
171 192 70
171 192 62
173 195 78
172 195 62
171 193 62
171 194 70
171 193 86
171 194 62
171 194 72
170 192 84
170 192 72
171 193 80
172 194 84
171 193 76
171 194 80
167 189 78
172 195 92
172 195 84
174 196 88
172 194 97
173 196 105
169 191 97
171 193 102
172 193 99
169 190 88
170 193 97
170 193 103
166 187 78
170 192 103
167 189 103
170 192 105
166 188 99
168 189 97
171 192 107
170 191 102
166 187 111
162 183 84
171 192 114
163 184 94
165 187 92
162 184 97
163 184 99
167 188 86
167 189 94
165 185 104
159 180 93
166 187 100
161 181 97
164 186 91
160 181 88
157 175 94
159 179 94
162 182 111
154 174 93
157 176 97
157 174 95
154 171 90
155 175 90
154 173 88
155 172 102
152 169 102
151 168 86
152 169 102
149 166 102
146 164 92
146 163 110
142 158 84
139 156 86
134 150 86
134 148 94
120 136 67
116 130 82
122 137 77
108 120 65
114 129 96
107 124 81
93 113 74
104 122 75
97 115 73
109 126 64
119 137 64
127 143 57
135 151 53
133 151 28
124 138 40
122 137 42
114 128 39
105 122 46
114 129 28
106 121 18
110 124 25
105 119 12
109 122 0
105 117 12
107 120 0
94 107 0
98 111 0
100 112 0
98 109 0
96 107 0
96 108 0
102 112 0
99 111 0
101 113 0
99 113 0
91 105 0
101 114 0
96 109 0
99 111 0
103 114 0
102 115 0
98 110 0
105 117 0
100 112 0
105 116 0
104 117 0
104 116 0
96 111 0
110 126 0
115 127 0
115 128 0
125 139 0
113 126 0
120 134 0
121 136 0
119 134 0
126 142 0
116 130 0
121 138 0
124 138 0
127 143 0
131 146 0
130 145 0
131 146 0
125 143 0
135 151 0
138 154 0
129 146 0
136 153 0
136 154 0
137 154 0
136 152 0
138 156 0
140 158 0
136 150 0
143 159 0
135 152 0
137 155 0
138 154 0
148 163 0
143 159 0
142 159 0
147 165 0
143 159 0
150 169 0
145 161 0
146 162 0
146 163 0
144 160 0
152 167 0
152 170 0
153 169 0
150 166 0
152 171 0
148 163 0
154 170 0
151 167 0
150 167 0
149 167 0
153 171 0
148 166 0
155 173 0
151 169 0
154 171 0
145 161 0
150 166 0
154 171 0
151 168 0
159 176 0
156 173 0
153 170 0
156 173 0
153 170 0
159 177 0
158 176 0
159 178 0
162 181 0
158 177 0
161 180 0
159 177 0
160 178 0
161 179 0
156 173 0
161 180 0
156 176 0
167 186 0
161 180 0
164 183 0
163 183 0
161 181 0
161 180 0
158 177 0
162 181 0
158 177 0
164 184 0
166 184 0
165 184 0
161 180 0
163 180 0
163 181 0
165 186 0
163 183 0
164 185 0
163 182 0
167 187 0
162 181 0
167 188 0
165 187 0
167 187 0
165 186 0
165 185 0
167 187 0
167 188 0
165 185 0
168 188 0
167 188 0
166 187 0
167 186 0
168 187 0
165 187 0
167 187 0
168 189 0
167 187 0
167 186 0
167 187 0
169 192 0
169 191 0
169 190 0
169 190 0
167 189 0
169 191 0
169 190 0
169 190 0
170 192 0
168 189 0
170 191 0
169 190 0
170 193 0
171 193 0
170 191 0
169 190 0
171 193 0
170 193 0
171 192 0
169 190 0
170 192 0
170 192 0
170 192 0
170 192 0
170 191 0
170 193 0
169 190 0
171 192 0
173 196 0
170 190 0
170 192 0
170 192 0
171 192 0
171 193 0
171 194 0
172 194 0
173 196 0
173 195 0
173 196 0
172 195 0
169 191 0
170 193 0
172 193 0
171 193 0
171 193 0
172 195 0
170 192 0
172 195 0
174 196 0
172 194 0
172 194 0
173 196 0
170 192 0
172 194 0
170 193 0
172 194 0
173 195 0
173 195 0
172 195 0
172 195 0
171 193 0
173 195 0
172 195 0
173 195 0
172 196 0
173 195 0
172 194 0
172 194 0
173 196 0
173 197 0
172 195 0
171 194 0
172 194 0
173 196 0
173 196 0
173 196 0
173 195 0
172 195 0
172 195 0
173 196 0
173 196 0
173 196 0
173 196 0
173 197 0
173 196 0
173 196 0
173 195 0
173 197 0
175 197 0
172 195 0
174 197 0
172 194 0
172 194 0
172 195 0
172 196 0
173 196 0
172 194 0
173 196 0
172 195 0
173 196 0
172 194 0
172 195 0
171 194 0
171 193 0
169 192 0
172 195 0
173 196 0
171 194 0
173 196 0
173 196 0
173 196 0
173 196 0
174 196 0
173 196 0
170 194 0
171 194 0
171 194 0
172 194 0
172 195 0
171 193 0
170 194 0
171 194 0
172 195 0
172 194 0
170 192 0
168 189 0
171 194 0
172 195 0
172 194 0
172 195 0
172 195 0
172 194 0
169 192 0
171 194 0
170 191 0
171 194 0
171 194 0
169 193 0
171 194 0
168 191 0
170 193 0
172 195 0
170 193 0
170 193 0
173 195 0
171 194 0
171 193 31
174 197 36
173 197 31
172 194 36
174 197 57
178 199 76
180 202 90
180 201 88
182 204 102
178 200 90
180 202 94
179 201 97
180 201 92
180 201 99
174 196 74
174 196 54
176 198 92
173 196 51
176 198 67
172 195 74
173 194 72
171 193 86
176 198 78
171 193 62
173 194 82
170 192 67
168 189 74
171 192 74
170 194 67
170 192 60
172 194 84
169 192 74
171 194 88
173 195 76
175 197 95
174 197 95
172 194 105
172 193 88
173 196 97
171 191 95
171 194 105
173 195 103
170 192 86
170 193 97
172 193 92
169 192 94
169 191 99
173 195 100
167 189 102
165 186 84
170 191 88
168 189 84
168 190 99
163 184 86
167 188 103
166 187 84
167 190 102
166 188 102
167 188 97
162 184 95
168 190 110
164 184 103
165 186 97
168 189 107
161 181 92
167 189 100
162 183 100
160 180 94
160 181 97
158 178 86
160 181 100
160 178 92
158 179 103
157 177 113
159 179 105
161 181 100
160 179 108
154 173 100
158 177 95
151 170 88
152 170 99
151 169 97
154 171 103
152 169 95
151 167 103
142 158 88
143 157 99
143 159 100
137 153 86
142 156 102
134 149 88
127 139 57
121 136 62
117 132 70
111 128 75
102 120 57
113 129 77
109 125 65
126 143 56
125 139 33
135 151 44
134 149 33
141 156 25
124 140 12
134 148 12
123 137 18
127 142 0
116 132 12
117 130 0
113 128 18
112 126 0
102 116 0
103 116 0
113 126 0
96 108 0
93 106 0
104 119 0
107 120 0
102 114 0
90 101 0
101 114 0
107 120 0
95 106 0
91 104 0
97 110 0
103 116 0
104 118 0
96 108 0
104 117 0
101 115 0
102 112 0
95 108 0
106 121 0
106 117 0
107 119 0
115 127 0
111 123 0
119 132 0
115 129 0
121 137 0
121 136 0
117 131 0
118 133 0
117 132 0
122 136 0
123 137 0
121 136 0
131 146 0
131 146 0
124 138 0
136 152 0
131 146 0
130 147 0
133 147 0
132 147 0
140 158 0
132 150 0
140 157 0
138 156 0
139 155 0
143 160 0
141 157 0
139 154 0
144 163 0
142 159 0
145 162 0
143 158 0
146 164 0
144 158 0
146 163 0
144 158 0
150 168 0
148 165 0
147 164 0
152 169 0
143 160 0
151 168 0
143 160 0
140 157 0
143 159 0
148 166 0
150 166 0
149 166 0
152 170 0
151 168 0
153 170 0
156 175 0
151 170 0
154 172 0
157 176 0
150 165 0
149 167 0
156 173 0
152 169 0
158 176 0
157 175 0
153 170 0
156 175 0
159 175 0
161 181 0
155 172 0
156 174 0
163 182 0
160 179 0
155 172 0
159 178 0
155 172 0
163 183 0
160 177 0
157 174 0
160 178 0
155 173 0
161 180 0
162 179 0
165 182 0
160 179 0
160 180 0
163 182 0
164 183 0
163 182 0
159 177 0
161 180 0
162 181 0
162 181 0
160 179 0
161 181 0
165 185 0
162 183 0
164 183 0
166 186 0
166 186 0
165 183 0
166 187 0
165 187 0
166 187 0
164 182 0
167 189 0
166 186 0
167 187 0
164 184 0
166 186 0
167 189 0
168 187 0
168 188 0
164 183 0
168 189 0
164 185 0
166 185 0
167 187 0
165 186 0
167 188 0
168 189 0
167 186 0
168 189 0
168 189 0
169 190 0
168 190 0
168 190 0
169 191 0
168 188 0
168 190 0
170 191 0
166 187 0
168 190 0
169 191 0
171 192 0
170 192 0
168 190 0
172 194 0
170 192 0
170 191 0
170 192 0
169 191 0
169 190 0
169 191 0
173 194 0
168 191 0
172 195 0
172 194 0
171 192 0
172 195 0
172 194 0
171 194 0
170 192 0
172 195 0
171 193 0
171 193 0
172 194 0
171 193 0
171 193 0
171 194 0
173 196 0
170 193 0
171 194 0
171 193 0
170 193 0
171 192 0
171 194 0
173 195 0
173 196 0
171 194 0
173 195 0
172 195 0
171 194 0
172 195 0
171 194 0
171 194 0
172 194 0
173 196 0
171 192 0
171 194 0
170 194 0
171 193 0
171 193 0
172 194 0
172 196 0
173 195 0
172 195 0
173 195 0
172 195 0
170 194 0
174 197 0
173 195 0
173 195 0
172 196 0
171 194 0
172 193 0
171 195 0
173 196 0
173 196 0
171 193 0
173 196 0
173 196 0
173 196 0
173 197 0
173 196 0
173 196 0
173 196 0
175 197 0
172 195 0
173 195 0
172 195 0
172 195 0
172 195 0
173 196 0
172 196 0
173 196 0
173 196 0
172 195 0
172 195 0
173 196 0
172 194 0
172 195 0
172 195 0
175 198 0
171 194 0
173 196 0
172 195 0
172 195 0
171 194 0
173 195 0
172 195 0
172 193 0
172 196 0
172 194 0
171 194 0
170 193 0
172 194 0
172 195 0
171 194 0
172 195 0
172 195 0
171 193 0
170 193 0
173 195 0
171 194 0
171 195 0
168 191 0
171 193 0
170 193 0
169 192 0
170 193 0
172 195 0
171 194 0
170 193 0
171 194 0
172 196 0
170 192 0
171 194 0
172 194 0
171 194 0
171 193 0
171 194 0
172 193 0
170 193 0
172 194 0
172 195 0
171 193 0
171 193 0
173 195 25
171 195 36
173 195 40
172 195 25
174 197 51
175 197 62
176 198 70
180 202 94
178 200 84
179 201 78
179 201 88
176 198 62
177 199 72
178 200 84
177 199 80
176 198 62
175 198 62
170 192 62
174 196 82
175 197 86
172 195 70
171 193 74
172 192 80
174 197 76
170 193 74
170 192 65
172 195 70
171 193 70
170 192 67
172 195 80
174 196 82
173 195 84
169 190 80
173 194 92
169 192 82
172 195 90
171 193 99
170 192 88
171 193 97
170 191 102
171 193 95
172 193 95
171 193 97
171 191 92
168 189 103
171 194 82
170 190 100
171 193 107
170 192 102
166 188 90
170 193 111
169 191 102
171 192 108
166 187 100
167 187 99
167 188 80
171 193 113
160 182 99
167 187 95
163 185 100
168 190 90
164 186 92
170 191 105
164 184 95
161 182 94
165 186 84
162 184 98
156 176 90
161 180 95
163 183 94
161 181 111
161 180 90
158 177 88
161 181 100
160 179 90
162 182 115
157 176 97
161 180 110
155 175 100
160 179 105
159 176 113
149 167 99
147 164 102
157 175 107
148 163 105
145 160 86
142 157 86
144 159 88
142 158 90
140 156 80
134 149 80
129 143 76
132 148 82
128 143 62
126 140 54
120 135 47
103 118 47
119 134 58
122 135 51
128 141 52
129 143 28
134 150 40
129 143 25
137 152 25
131 146 0
131 147 0
128 140 0
128 144 0
123 138 0
119 135 0
114 128 0
120 134 0
120 133 0
115 129 0
106 120 0
103 114 0
104 116 0
91 104 0
102 117 0
100 113 0
94 108 0
106 118 0
107 120 0
102 116 0
101 115 0
101 114 0
115 130 0
110 124 0
103 116 0
102 117 0
101 114 0
103 117 0
106 122 0
106 122 0
118 133 0
116 130 0
118 133 0
121 134 0
115 128 0
113 128 0
125 141 0
115 129 0
118 132 0
116 131 0
123 140 0
121 136 0
132 147 0
129 143 0
127 142 0
127 142 0
132 148 0
132 147 0
136 154 0
141 159 0
131 148 0
132 149 0
142 158 0
138 155 0
132 148 0
134 151 0
135 150 0
140 156 0
143 160 0
137 152 0
139 155 0
139 155 0
145 162 0
145 163 0
147 163 0
146 164 0
150 167 0
151 168 0
142 159 0
147 163 0
148 165 0
148 165 0
151 169 0
146 164 0
156 173 0
153 172 0
147 165 0
151 167 0
152 169 0
151 169 0
152 171 0
153 171 0
152 169 0
149 167 0
152 169 0
151 168 0
158 176 0
156 174 0
156 171 0
153 171 0
153 171 0
150 167 0
155 174 0
155 172 0
152 170 0
159 178 0
159 178 0
156 174 0
159 177 0
157 176 0
157 174 0
157 177 0
159 180 0
156 175 0
158 177 0
158 177 0
163 181 0
160 178 0
160 178 0
158 177 0
161 180 0
163 181 0
161 180 0
162 180 0
162 182 0
166 187 0
163 184 0
166 184 0
165 185 0
157 177 0
164 184 0
166 186 0
165 186 0
164 183 0
168 189 0
162 183 0
164 184 0
167 187 0
167 188 0
166 185 0
165 185 0
165 186 0
168 187 0
166 185 0
168 189 0
164 185 0
167 187 0
167 188 0
167 188 0
165 186 0
168 189 0
166 186 0
168 189 0
166 187 0
169 189 0
165 185 0
166 186 0
168 188 0
169 191 0
167 189 0
167 188 0
164 185 0
170 192 0
168 190 0
167 188 0
171 192 0
168 190 0
168 190 0
169 189 0
170 192 0
170 191 0
169 191 0
169 190 0
170 192 0
170 192 0
171 192 0
169 191 0
171 193 0
170 191 0
170 190 0
169 191 0
170 193 0
170 192 0
170 193 0
170 192 0
170 192 0
170 192 0
170 193 0
170 193 0
170 193 0
172 193 0
172 194 0
171 193 0
172 194 0
173 194 0
172 195 0
174 197 0
170 193 0
170 192 0
170 192 0
173 195 0
171 193 0
172 194 0
172 194 0
172 194 0
172 194 0
172 194 0
173 195 0
171 194 0
171 194 0
172 195 0
170 192 0
172 194 0
172 195 0
172 195 0
172 195 0
172 195 0
171 194 0
172 195 0
171 194 0
172 194 0
172 194 0
172 194 0
173 196 0
171 194 0
173 196 0
174 196 0
173 195 0
170 192 0
174 197 0
172 195 0
172 194 0
172 195 0
173 196 0
171 194 0
173 195 0
173 196 0
175 197 0
171 194 0
171 193 0
173 196 0
172 195 0
175 197 0
174 197 0
172 194 0
173 196 0
174 197 0
172 196 0
173 197 0
174 196 0
172 195 0
171 193 0
173 196 0
173 195 0
173 195 0
172 195 0
171 193 0
172 196 0
173 196 0
173 196 0
172 195 0
173 195 0
171 195 0
174 197 0
172 195 0
170 193 0
173 196 0
173 196 0
173 196 0
174 195 0
172 195 0
172 194 0
172 194 0
171 194 0
172 194 0
170 192 0
171 193 0
174 197 0
173 196 0
171 194 0
172 195 0
171 194 0
171 195 0
173 195 0
170 193 0
172 195 0
171 194 0
172 195 0
170 193 0
170 192 0
171 194 0
173 196 0
170 193 0
170 192 0
172 194 0
172 195 0
172 195 0
172 195 0
168 191 0
170 193 0
169 192 0
170 191 0
169 192 0
171 193 0
168 191 0
169 191 0
169 192 18
170 192 25
171 194 31
173 195 40
174 196 44
174 196 57
177 198 57
176 198 65
178 201 84
180 201 90
177 200 74
180 202 97
177 199 74
177 198 74
174 196 57
174 195 74
175 196 80
175 197 82
177 199 86
172 194 54
172 194 67
169 191 67
175 198 70
171 193 82
171 193 62
170 193 70
172 194 74
168 190 80
172 195 88
170 192 80
172 195 80
172 193 94
173 194 84
173 195 94
171 193 92
173 195 103
172 194 102
177 199 118
171 193 97
172 193 108
171 194 94
172 194 110
174 195 95
173 194 107
171 193 100
169 191 100
171 193 115
170 191 102
168 189 95
167 190 100
168 191 90
166 187 100
166 187 94
168 189 90
166 187 99
165 185 82
168 191 99
165 187 95
162 183 84
169 190 107
167 188 107
165 186 99
169 191 107
157 177 88
164 186 86
162 182 80
160 180 94
160 181 107
164 186 115
162 183 86
160 181 95
162 182 107
163 184 108
161 181 104
159 180 99
158 178 80
158 176 94
155 174 90
158 176 99
161 181 110
154 174 105
149 167 90
150 167 94
153 171 94
157 174 113
150 167 102
148 165 105
150 167 103
152 167 110
144 160 88
142 159 80
137 153 88
125 140 67
129 144 57
120 136 51
134 149 72
127 143 62
128 144 65
132 148 31
132 148 44
141 157 40
136 151 31
142 156 36
139 156 0
136 152 0
140 156 0
134 151 0
131 146 0
129 144 0
129 146 0
117 132 0
112 127 0
123 137 0
115 130 0
118 132 0
120 136 0
114 128 0
108 122 0
102 113 0
112 127 0
108 122 0
104 119 0
110 123 0
109 122 0
107 120 0
108 121 0
111 126 0
110 124 0
115 130 0
115 129 0
114 127 0
110 126 0
109 124 0
111 127 0
124 139 0
121 137 0
115 129 0
125 139 0
120 136 0
127 142 0
119 135 0
119 135 0
119 134 0
133 150 0
132 148 0
132 150 0
132 148 0
129 143 0
123 139 0
135 151 0
124 140 0
129 147 0
138 154 0
131 146 0
130 148 0
143 161 0
134 150 0
148 164 0
138 156 0
146 166 0
141 157 0
142 160 0
145 163 0
138 155 0
144 163 0
137 153 0
144 161 0
139 156 0
143 158 0
144 162 0
146 162 0
147 163 0
148 166 0
142 158 0
146 163 0
150 165 0
153 171 0
144 162 0
153 171 0
147 167 0
151 169 0
151 170 0
153 170 0
147 163 0
154 172 0
153 170 0
150 168 0
153 170 0
156 175 0
152 171 0
156 174 0
156 174 0
158 176 0
158 175 0
152 169 0
155 171 0
155 173 0
155 175 0
160 178 0
156 175 0
158 177 0
157 176 0
158 175 0
156 175 0
159 177 0
160 179 0
158 176 0
161 179 0
154 173 0
157 174 0
158 176 0
167 186 0
163 183 0
159 178 0
160 179 0
161 181 0
160 180 0
162 182 0
162 181 0
157 175 0
159 177 0
164 184 0
165 185 0
163 181 0
162 184 0
161 181 0
162 182 0
160 179 0
161 182 0
163 183 0
167 188 0
165 185 0
164 182 0
166 185 0
161 182 0
162 182 0
167 187 0
165 184 0
166 185 0
165 186 0
165 187 0
170 191 0
167 188 0
167 188 0
169 188 0
166 188 0
164 185 0
169 188 0
167 188 0
167 187 0
170 192 0
168 188 0
167 188 0
170 190 0
169 191 0
167 188 0
168 190 0
166 187 0
169 191 0
168 188 0
169 191 0
170 193 0
169 190 0
168 188 0
168 188 0
168 190 0
169 192 0
171 192 0
167 188 0
169 191 0
169 190 0
171 193 0
169 192 0
170 191 0
170 192 0
170 194 0
169 190 0
169 190 0
170 192 0
173 194 0
171 192 0
170 192 0
170 191 0
171 192 0
171 194 0
172 194 0
171 194 0
171 193 0
170 191 0
171 192 0
173 195 0
169 191 0
170 192 0
171 193 0
172 194 0
171 193 0
172 195 0
171 192 0
172 194 0
172 193 0
172 195 0
171 194 0
173 195 0
171 194 0
171 192 0
173 196 0
170 193 0
171 194 0
172 195 0
173 196 0
173 196 0
173 196 0
172 194 0
172 195 0
172 194 0
173 196 0
172 194 0
174 196 0
174 197 0
172 195 0
174 197 0
172 195 0
172 194 0
172 194 0
172 195 0
174 196 0
172 195 0
174 197 0
172 194 0
171 193 0
174 198 0
172 196 0
174 197 0
174 196 0
173 196 0
173 195 0
172 195 0
171 194 0
173 196 0
171 194 0
171 194 0
173 195 0
174 196 0
173 196 0
172 195 0
173 196 0
173 197 0
172 195 0
172 195 0
172 196 0
171 194 0
172 195 0
172 195 0
171 195 0
170 192 0
172 195 0
173 196 0
173 195 0
172 195 0
173 196 0
173 195 0
172 194 0
171 194 0
171 195 0
173 196 0
170 192 0
174 196 0
171 194 0
173 195 0
171 194 0
171 194 0
173 196 0
169 192 0
172 195 0
172 194 0
172 195 0
173 195 0
173 196 0
170 192 0
172 196 0
171 194 0
174 197 0
170 194 0
171 195 0
170 193 0
172 195 0
171 194 0
172 195 0
170 193 0
170 193 0
170 192 0
170 193 0
168 192 0
170 193 0
171 193 0
169 193 0
169 192 0
173 196 0
172 194 0
171 194 0
172 193 31
169 192 0
169 192 18
172 195 40
172 195 36
174 197 54
174 197 60
174 197 67
175 198 51
177 198 72
176 198 60
178 199 78
177 199 70
179 200 72
173 195 65
176 197 67
173 196 62
173 195 76
175 197 76
174 196 82
171 193 76
171 193 74
175 197 84
170 192 74
174 196 86
172 194 62
171 193 74
172 194 78
171 193 80
171 194 76
172 194 88
171 193 82
172 195 88
174 196 100
174 195 99
172 194 84
173 196 102
176 198 105
174 196 100
171 193 94
167 189 99
174 196 107
167 189 82
172 192 110
172 194 108
172 194 97
171 193 95
169 192 78
169 191 102
172 193 120
169 191 105
167 190 94
170 193 114
169 189 88
168 189 108
163 186 82
165 187 94
165 187 92
167 188 100
161 182 95
165 186 100
167 188 114
168 191 95
167 188 105
165 187 99
161 182 107
164 183 97
162 182 103
164 184 92
157 177 102
166 186 116
160 180 95
164 185 110
159 180 103
159 178 94
153 172 95
152 171 92
160 178 103
152 170 107
151 169 113
155 173 84
155 174 103
155 173 97
150 167 97
150 167 94
159 176 103
147 165 94
149 166 110
150 167 99
147 162 99
147 162 84
138 156 76
133 150 62
137 152 57
134 148 62
129 146 57
124 139 57
125 143 40
134 151 57
130 145 36
136 151 31
141 156 31
142 158 18
139 157 0
145 161 0
135 152 0
135 150 0
130 145 0
122 137 0
125 142 0
127 142 0
122 138 0
117 134 0
112 126 0
117 131 0
104 119 0
106 122 0
111 125 0
123 139 0
112 126 0
109 122 0
116 131 0
113 128 0
109 125 0
106 118 0
111 126 0
108 123 0
116 131 0
113 128 0
119 133 0
118 133 0
108 123 0
119 133 0
114 131 0
122 134 0
118 133 0
116 132 0
123 139 0
127 141 0
118 134 0
122 138 0
121 136 0
118 134 0
130 145 0
126 142 0
123 136 0
132 148 0
130 147 0
128 144 0
134 151 0
133 149 0
137 152 0
138 155 0
142 159 0
135 151 0
135 151 0
139 157 0
143 159 0
142 160 0
136 153 0
137 150 0
143 161 0
147 166 0
137 153 0
143 159 0
146 164 0
144 161 0
145 162 0
145 161 0
145 163 0
148 166 0
140 158 0
148 166 0
154 172 0
147 165 0
144 162 0
147 164 0
150 168 0
152 170 0
151 169 0
151 166 0
145 162 0
155 173 0
156 174 0
152 169 0
155 172 0
145 161 0
153 171 0
157 175 0
155 174 0
156 174 0
157 173 0
155 173 0
158 175 0
160 179 0
156 175 0
151 168 0
153 172 0
163 182 0
156 173 0
155 172 0
159 177 0
156 174 0
160 177 0
158 176 0
164 184 0
158 176 0
159 178 0
162 181 0
160 180 0
157 176 0
165 185 0
164 184 0
160 179 0
161 179 0
162 182 0
161 180 0
164 185 0
165 186 0
164 182 0
161 179 0
163 184 0
167 187 0
162 181 0
164 184 0
161 181 0
162 183 0
161 180 0
161 180 0
166 186 0
165 185 0
167 188 0
166 186 0
164 184 0
168 188 0
161 180 0
167 188 0
165 185 0
164 184 0
167 187 0
166 186 0
164 185 0
166 186 0
163 184 0
167 188 0
168 188 0
168 187 0
169 189 0
167 189 0
167 188 0
166 187 0
170 191 0
168 189 0
169 189 0
166 186 0
166 187 0
169 189 0
167 187 0
170 191 0
168 188 0
170 192 0
166 188 0
170 192 0
169 191 0
169 189 0
170 192 0
170 192 0
169 191 0
170 193 0
167 188 0
171 191 0
167 187 0
169 191 0
169 191 0
170 192 0
169 191 0
171 192 0
172 194 0
170 191 0
172 195 0
170 193 0
171 194 0
171 193 0
172 193 0
170 193 0
171 192 0
169 189 0
171 193 0
171 193 0
170 193 0
173 195 0
172 193 0
170 191 0
170 192 0
172 194 0
171 194 0
172 194 0
172 195 0
173 195 0
172 194 0
172 193 0
174 196 0
172 195 0
174 196 0
171 192 0
171 194 0
171 193 0
171 193 0
172 193 0
173 195 0
171 194 0
172 195 0
173 195 0
172 195 0
170 193 0
172 194 0
172 195 0
171 194 0
171 193 0
172 195 0
171 193 0
173 196 0
173 196 0
172 195 0
172 195 0
172 195 0
173 195 0
172 194 0
173 194 0
172 194 0
173 194 0
174 196 0
172 195 0
173 195 0
173 196 0
174 198 0
172 195 0
172 195 0
172 195 0
172 195 0
173 196 0
173 196 0
171 195 0
173 196 0
171 195 0
173 197 0
172 196 0
172 195 0
172 195 0
172 195 0
173 197 0
173 197 0
170 194 0
171 194 0
173 196 0
173 195 0
173 196 0
172 196 0
171 194 0
171 193 0
171 193 0
173 195 0
173 195 0
172 194 0
171 193 0
171 194 0
171 194 0
172 195 0
173 196 0
171 193 0
171 193 0
173 195 0
171 194 0
171 194 0
171 194 0
171 193 0
169 192 0
173 196 0
170 193 0
171 193 0
170 192 0
170 193 0
171 193 0
171 193 0
171 193 0
170 192 0
172 194 0
169 192 0
171 193 0
170 192 0
170 193 0
171 194 0
173 196 0
172 195 0
169 191 0
171 194 0
169 192 0
170 192 0
171 194 0
170 193 0
173 195 0
169 192 36
173 195 25
173 195 47
172 195 36
172 196 44
177 199 70
175 198 60
178 200 62
176 199 57
175 198 60
175 197 57
174 196 62
177 199 72
176 198 70
176 198 72
176 197 86
175 197 88
176 198 84
173 194 65
172 193 76
171 194 79
173 194 84
171 193 65
167 189 57
173 194 73
168 190 62
174 197 87
173 195 76
172 194 83
172 194 76
172 194 83
174 195 92
175 194 100
174 195 97
173 194 110
170 191 84
174 195 99
170 191 80
169 190 94
174 195 95
172 193 95
171 192 99
169 191 97
171 193 88
169 190 86
171 193 111
168 190 103
165 186 88
170 192 92
168 190 92
166 188 94
165 186 76
168 190 100
171 193 99
166 188 86
169 191 82
164 186 86
163 183 84
165 186 92
169 191 107
160 181 92
163 183 95
166 186 105
166 186 90
165 186 111
164 185 95
161 180 95
162 183 92
158 179 78
160 182 100
160 180 90
163 183 95
160 177 97
160 180 95
157 175 105
161 179 86
155 174 86
156 174 95
151 169 88
160 179 118
161 180 100
157 174 94
154 172 99
143 161 86
147 164 88
152 169 97
155 170 99
150 167 94
148 165 102
142 159 86
140 155 86
141 158 78
139 154 74
138 153 60
125 141 70
129 146 51
131 147 51
136 150 47
143 158 57
140 158 36
142 159 40
137 155 25
143 161 18
149 166 0
137 152 0
134 150 0
129 145 0
129 146 0
124 140 0
129 144 0
125 140 0
124 138 0
120 134 0
114 129 0
114 129 0
124 140 0
121 135 0
116 130 0
114 129 0
119 134 0
116 133 0
114 128 0
123 139 0
118 133 0
112 128 0
123 138 0
119 134 0
116 130 0
117 131 0
117 132 0
110 126 0
118 133 0
126 142 0
128 143 0
129 144 0
124 141 0
118 134 0
127 143 0
119 133 0
129 144 0
119 135 0
130 145 0
126 141 0
132 147 0
139 155 0
126 141 0
134 150 0
134 150 0
138 155 0
129 144 0
135 152 0
137 155 0
139 157 0
141 159 0
139 157 0
139 154 0
141 159 0
144 163 0
140 155 0
144 161 0
138 154 0
149 168 0
145 161 0
152 169 0
142 160 0
142 158 0
145 162 0
149 167 0
149 167 0
150 167 0
150 167 0
150 168 0
154 172 0
143 161 0
149 167 0
149 167 0
156 173 0
147 164 0
145 163 0
152 171 0
155 173 0
148 165 0
152 168 0
152 169 0
153 170 0
153 172 0
158 177 0
152 171 0
158 177 0
157 176 0
155 175 0
153 172 0
155 174 0
160 179 0
156 173 0
157 174 0
153 170 0
158 177 0
151 170 0
157 176 0
158 177 0
157 174 0
161 180 0
158 176 0
161 179 0
159 180 0
159 178 0
161 181 0
159 177 0
163 182 0
159 178 0
161 180 0
163 182 0
165 185 0
165 186 0
161 180 0
159 178 0
162 182 0
159 179 0
157 173 0
163 182 0
162 182 0
162 181 0
163 183 0
162 181 0
165 185 0
163 182 0
161 181 0
163 182 0
161 180 0
163 182 0
164 184 0
165 185 0
165 185 0
164 184 0
165 186 0
165 185 0
167 189 0
165 185 0
166 185 0
167 188 0
165 186 0
167 187 0
166 185 0
167 187 0
169 190 0
167 187 0
168 188 0
168 189 0
169 191 0
170 192 0
164 185 0
168 189 0
166 186 0
169 191 0
167 188 0
167 189 0
168 188 0
169 190 0
168 188 0
170 192 0
170 192 0
169 191 0
171 192 0
170 191 0
168 190 0
171 193 0
170 192 0
170 192 0
169 192 0
168 190 0
172 193 0
170 192 0
170 191 0
171 192 0
171 193 0
171 192 0
170 193 0
170 192 0
170 193 0
170 192 0
170 192 0
170 192 0
170 192 0
169 190 0
170 192 0
171 193 0
171 193 0
172 194 0
170 192 0
170 192 0
171 193 0
169 192 0
172 193 0
174 195 0
171 194 0
171 191 0
172 194 0
173 195 0
172 194 0
173 195 0
171 193 0
171 194 0
172 195 0
172 194 0
171 194 0
170 193 0
172 195 0
172 195 0
173 195 0
172 194 0
173 196 0
172 194 0
172 194 0
171 194 0
174 195 0
172 194 0
171 194 0
172 195 0
173 196 0
173 196 0
173 196 0
172 195 0
171 195 0
173 195 0
172 195 0
172 195 0
172 195 0
172 195 0
173 195 0
173 196 0
173 195 0
171 195 0
173 196 0
173 196 0
171 194 0
171 194 0
172 194 0
172 194 0
172 196 0
171 195 0
173 196 0
173 196 0
172 195 0
173 196 0
173 197 0
172 194 0
172 196 0
172 195 0
173 195 0
173 196 0
173 195 0
173 196 0
174 198 0
173 196 0
174 196 0
171 194 0
172 195 0
172 194 0
172 196 0
172 195 0
169 192 0
173 196 0
171 194 0
172 196 0
171 193 0
173 196 0
171 194 0
172 194 0
172 195 0
170 192 0
173 197 0
171 195 0
173 195 0
173 195 0
173 196 0
170 193 0
170 193 0
171 193 0
170 194 0
171 194 0
170 193 0
172 195 0
169 192 0
172 195 0
171 193 0
172 194 0
170 192 0
170 192 0
172 195 0
170 192 0
168 190 0
170 193 0
169 192 0
172 194 0
170 194 0
172 195 0
170 192 0
171 193 0
169 192 0
169 192 18
171 194 25
172 194 25
172 195 25
174 196 36
176 198 60
174 196 51
175 197 65
175 198 47
175 198 60
174 197 60
176 198 70
174 197 47
176 198 76
177 199 67
174 197 76
174 196 72
171 192 72
175 197 82
171 193 65
170 192 72
171 192 72
170 191 67
171 192 78
170 192 72
170 193 71
172 195 82
172 193 81
171 194 76
177 198 102
175 197 95
175 197 97
174 196 111
175 197 97
173 194 88
173 195 99
175 197 103
172 195 100
173 195 97
174 197 113
171 192 82
172 194 80
168 190 95
171 193 97
171 192 100
169 191 95
165 186 92
168 190 110
167 188 86
169 191 95
170 193 110
168 189 94
169 190 105
166 188 86
164 185 88
166 185 92
163 183 86
166 187 99
160 181 95
161 182 84
162 182 97
164 185 92
166 187 110
163 184 92
167 188 103
163 183 99
166 186 114
164 184 99
170 192 90
160 181 110
160 179 97
157 176 86
161 180 84
160 177 102
160 178 108
160 180 102
158 175 103
161 179 90
159 177 103
150 169 95
157 175 94
155 173 115
156 175 107
160 178 108
160 176 102
154 171 103
155 173 97
154 170 95
152 169 95
153 170 92
147 163 78
145 160 72
145 162 57
135 151 51
133 149 47
135 152 54
139 156 44
137 153 25
146 164 40
139 157 0
137 153 25
149 168 18
144 161 18
135 153 0
141 160 0
139 154 0
133 151 0
127 142 18
130 145 0
130 147 0
123 139 0
124 139 0
133 148 0
128 145 0
124 138 0
117 132 0
126 142 0
119 136 0
122 135 0
111 127 0
113 130 0
121 136 0
120 133 0
122 138 0
113 128 0
117 132 0
118 135 0
123 138 0
122 137 0
121 138 0
118 134 0
121 137 0
125 139 0
123 140 0
131 146 0
125 142 0
134 149 0
123 139 0
130 145 0
128 143 0
133 149 0
124 140 0
131 149 0
131 148 0
131 148 0
137 151 0
137 155 0
133 150 0
135 153 0
143 160 0
142 159 0
138 154 0
141 157 0
141 159 0
144 161 0
141 161 0
147 166 0
145 162 0
143 161 0
145 162 0
143 160 0
150 168 0
145 162 0
151 170 0
143 162 0
151 169 0
142 159 0
147 165 0
152 169 0
148 165 0
146 164 0
147 165 0
154 171 0
151 169 0
147 166 0
148 165 0
148 165 0
156 174 0
149 167 0
155 172 0
150 168 0
149 167 0
151 170 0
157 175 0
151 170 0
153 172 0
154 171 0
153 171 0
152 170 0
156 174 0
157 176 0
158 177 0
155 171 0
155 173 0
155 173 0
158 177 0
158 176 0
162 181 0
160 179 0
158 177 0
157 176 0
161 180 0
158 175 0
155 173 0
161 181 0
160 179 0
163 183 0
158 177 0
161 181 0
159 177 0
162 183 0
159 177 0
164 184 0
160 178 0
161 180 0
163 183 0
164 183 0
158 177 0
163 181 0
162 182 0
162 181 0
164 183 0
167 186 0
162 181 0
164 184 0
163 181 0
161 182 0
163 181 0
161 182 0
165 186 0
164 182 0
168 189 0
163 182 0
165 186 0
167 188 0
164 186 0
163 182 0
163 185 0
165 185 0
166 186 0
165 187 0
168 189 0
165 187 0
169 188 0
167 188 0
168 189 0
167 187 0
166 184 0
166 187 0
169 190 0
167 188 0
167 187 0
168 190 0
167 187 0
170 192 0
169 189 0
169 191 0
169 191 0
170 192 0
171 193 0
167 188 0
169 191 0
170 191 0
166 187 0
171 192 0
172 193 0
170 192 0
170 191 0
171 191 0
170 192 0
170 192 0
171 193 0
169 192 0
170 194 0
170 192 0
171 192 0
169 190 0
169 192 0
171 193 0
171 192 0
169 191 0
171 193 0
172 194 0
169 191 0
171 193 0
169 191 0
172 194 0
170 192 0
171 193 0
172 195 0
170 192 0
170 191 0
169 190 0
170 194 0
172 194 0
173 194 0
169 192 0
171 192 0
172 195 0
171 193 0
171 194 0
174 197 0
173 196 0
173 196 0
171 194 0
173 195 0
170 193 0
172 194 0
171 194 0
172 194 0
172 195 0
173 196 0
172 194 0
172 194 0
173 194 0
172 194 0
173 195 0
171 194 0
173 195 0
170 193 0
173 196 0
172 195 0
173 194 0
174 196 0
173 195 0
173 195 0
172 194 0
172 195 0
173 196 0
173 196 0
171 193 0
173 196 0
174 197 0
173 196 0
171 193 0
172 196 0
173 196 0
173 195 0
172 195 0
171 194 0
173 197 0
173 195 0
173 196 0
173 196 0
173 196 0
173 196 0
172 196 0
175 198 0
173 195 0
173 196 0
173 195 0
170 192 0
171 194 0
173 196 0
171 194 0
172 195 0
171 195 0
171 194 0
175 197 0
172 194 0
172 195 0
172 195 0
173 196 0
171 194 0
169 192 0
171 195 0
173 196 0
172 194 0
172 195 0
172 196 0
172 194 0
169 193 0
172 195 0
170 194 0
173 195 0
170 192 0
172 195 0
172 195 0
172 194 0
172 194 0
174 197 0
171 193 0
172 195 0
170 191 0
171 194 0
173 197 0
172 195 0
169 192 0
169 191 0
171 194 0
172 194 0
171 195 0
172 194 0
168 190 0
171 193 0
172 193 0
171 193 0
171 195 0
171 194 0
172 194 0
171 193 25
171 194 0
174 196 31
173 195 18
173 196 31
172 195 44
174 197 40
175 197 44
175 198 44
174 197 57
175 198 57
174 196 44
175 198 54
175 196 60
172 194 51
171 192 62
173 195 70
172 194 65
173 194 68
172 194 72
172 194 72
172 193 70
168 190 73
170 192 79
169 191 62
173 195 90
169 191 85
173 193 80
173 193 90
173 195 92
173 194 96
175 197 100
171 193 82
175 196 117
175 196 113
175 196 111
175 197 110
173 195 103
172 193 80
172 194 107
174 197 107
172 193 111
171 193 105
172 194 99
170 192 88
168 189 97
168 189 97
172 195 111
168 190 88
167 188 84
170 191 94
165 184 95
166 188 86
162 185 99
169 190 113
164 185 92
165 186 92
163 183 92
164 184 108
164 183 95
165 184 94
161 181 88
165 188 100
165 188 99
167 187 94
165 185 108
159 179 82
162 183 80
164 184 100
164 184 102
161 181 108
159 179 82
165 185 100
164 182 92
160 180 94
160 179 107
157 176 97
156 174 97
163 182 105
161 180 107
156 172 90
157 175 100
157 174 99
156 172 90
157 177 102
155 172 86
153 170 103
153 170 103
147 163 88
154 170 95
141 158 74
139 155 60
145 161 76
131 149 36
140 158 57
130 147 44
142 159 36
137 154 31
144 161 36
138 154 18
144 162 0
146 162 25
143 160 0
137 157 0
145 164 0
136 153 0
134 150 0
138 153 0
136 155 0
132 148 0
127 143 0
127 142 0
128 142 0
125 140 0
119 135 0
123 139 0
124 141 0
129 143 0
124 139 0
128 145 0
121 135 0
124 139 0
126 141 0
116 131 0
122 138 0
125 144 0
125 142 0
118 133 0
123 139 0
124 140 0
127 143 0
129 144 0
124 141 0
133 149 0
129 145 0
127 143 0
134 150 0
128 144 0
124 140 0
135 152 0
135 152 0
134 150 0
137 153 0
141 157 0
128 144 0
142 158 0
133 150 0
141 157 0
137 154 0
141 159 0
142 161 0
139 158 0
137 153 0
146 166 0
149 165 0
140 158 0
140 158 0
140 155 0
143 160 0
144 162 0
151 170 0
147 164 0
142 158 0
146 165 0
146 163 0
148 167 0
149 168 0
147 162 0
145 162 0
150 167 0
153 169 0
151 168 0
153 172 0
152 170 0
150 169 0
147 164 0
150 169 0
154 172 0
153 172 0
150 168 0
150 166 0
156 175 0
151 170 0
157 176 0
148 167 0
160 179 0
150 168 0
153 172 0
151 172 0
152 170 0
155 174 0
156 174 0
158 175 0
158 177 0
162 181 0
161 180 0
159 177 0
159 177 0
158 177 0
160 180 0
156 176 0
159 178 0
160 180 0
162 183 0
163 182 0
162 181 0
161 181 0
163 183 0
160 179 0
158 177 0
162 183 0
166 184 0
164 183 0
164 184 0
166 186 0
160 181 0
161 181 0
162 182 0
162 180 0
163 184 0
165 185 0
165 184 0
166 186 0
163 184 0
162 181 0
163 183 0
165 186 0
163 184 0
164 185 0
167 187 0
165 186 0
166 187 0
165 184 0
166 187 0
164 184 0
167 187 0
168 189 0
163 182 0
164 184 0
167 188 0
167 188 0
166 186 0
167 188 0
168 188 0
167 186 0
167 187 0
167 189 0
169 190 0
167 188 0
166 187 0
164 186 0
168 189 0
170 191 0
170 191 0
167 186 0
168 187 0
168 191 0
171 192 0
165 187 0
171 191 0
169 191 0
169 190 0
169 189 0
169 190 0
169 190 0
168 189 0
169 191 0
169 192 0
170 191 0
169 191 0
171 193 0
171 194 0
169 191 0
170 192 0
172 194 0
170 192 0
171 193 0
168 191 0
171 190 0
168 191 0
172 194 0
172 193 0
171 193 0
172 194 0
170 193 0
171 192 0
171 194 0
171 193 0
170 192 0
170 193 0
171 194 0
170 193 0
172 196 0
172 194 0
171 193 0
171 194 0
171 194 0
169 191 0
173 195 0
171 193 0
172 194 0
172 194 0
174 196 0
172 194 0
171 194 0
172 195 0
171 194 0
171 193 0
173 195 0
173 195 0
172 194 0
172 195 0
173 195 0
173 196 0
172 195 0
170 192 0
173 195 0
172 195 0
171 194 0
173 196 0
173 196 0
173 195 0
172 195 0
172 195 0
171 193 0
173 196 0
172 194 0
171 194 0
174 197 0
172 195 0
172 195 0
172 194 0
173 196 0
172 196 0
173 195 0
171 194 0
173 196 0
172 195 0
173 196 0
173 196 0
173 195 0
172 195 0
171 194 0
173 195 0
171 193 0
172 196 0
173 196 0
172 196 0
172 195 0
172 195 0
174 197 0
173 194 0
171 194 0
171 194 0
172 195 0
173 196 0
171 194 0
171 194 0
170 192 0
173 195 0
172 195 0
169 192 0
172 195 0
172 194 0
173 196 0
172 194 0
172 194 0
172 195 0
172 195 0
173 196 0
171 195 0
172 195 0
173 195 0
170 193 0
172 195 0
169 191 0
171 195 0
171 194 0
172 194 0
172 194 0
171 193 0
173 196 0
172 195 0
171 194 0
168 192 0
170 193 0
170 193 0
169 192 0
170 193 0
172 193 0
171 194 0
170 192 0
171 194 0
172 195 0
167 191 0
171 193 0
172 194 0
170 193 0
167 190 0
169 192 0
171 194 0
169 191 18
172 194 36
173 195 18
174 196 25
173 196 31
171 195 40
175 198 44
173 196 44
174 197 47
176 198 62
174 196 47
174 197 60
176 197 67
177 200 76
174 196 65
176 197 76
174 195 76
174 194 86
173 194 70
172 193 74
171 191 76
172 194 62
170 191 74
170 193 68
172 194 74
171 192 75
175 196 88
174 196 97
173 195 94
171 191 86
171 192 92
170 192 95
177 197 107
172 192 100
177 197 102
173 195 95
168 188 80
173 194 95
171 193 100
168 189 82
170 191 99
169 191 95
168 189 92
171 192 97
166 189 88
169 190 90
167 190 97
168 190 90
167 189 94
168 190 97
166 188 92
165 186 94
163 185 88
164 185 97
165 187 107
165 186 92
167 189 94
162 183 94
164 186 100
166 188 95
164 186 105
165 185 82
169 190 94
160 180 82
163 183 94
164 184 97
164 184 108
164 185 92
165 186 94
162 182 108
164 183 103
163 182 108
155 175 94
165 184 102
158 177 82
159 178 94
158 177 103
163 181 110
162 181 92
155 172 102
159 176 100
156 173 105
162 180 100
155 172 97
155 172 95
158 176 100
155 172 99
148 165 86
148 164 80
148 166 62
147 163 76
143 160 47
145 162 60
142 159 51
142 159 62
139 156 44
151 170 36
150 168 40
138 154 31
146 165 18
143 162 18
142 161 0
153 172 0
144 161 0
138 155 0
135 152 0
134 153 0
132 148 0
131 147 0
124 140 0
134 151 0
126 142 0
131 147 0
125 142 0
117 132 0
123 139 0
119 134 0
121 136 0
128 143 0
123 138 0
129 145 0
126 141 0
123 138 0
133 149 0
131 144 0
129 145 0
129 145 0
128 146 0
121 137 0
129 145 0
133 151 0
129 146 0
123 140 0
129 145 0
134 150 0
132 149 0
136 152 0
134 149 0
126 143 0
129 145 0
135 153 0
132 145 0
131 149 0
143 159 0
137 154 0
143 161 0
136 153 0
139 155 0
141 158 0
137 154 0
137 153 0
143 160 0
138 154 0
142 159 0
136 153 0
143 161 0
147 162 0
147 167 0
147 164 0
152 171 0
143 163 0
151 169 0
148 165 0
148 167 0
141 156 0
149 167 0
147 164 0
148 166 0
146 163 0
153 171 0
146 164 0
154 173 0
153 169 0
158 177 0
153 170 0
155 174 0
154 172 0
153 172 0
153 171 0
155 173 0
155 172 0
149 165 0
155 174 0
153 171 0
156 176 0
154 172 0
152 171 0
155 175 0
154 174 0
155 173 0
153 169 0
159 179 0
158 178 0
155 174 0
156 173 0
157 175 0
157 175 0
160 177 0
159 179 0
156 175 0
160 178 0
163 184 0
161 180 0
156 174 0
155 174 0
160 180 0
161 180 0
162 182 0
161 180 0
161 181 0
162 182 0
162 180 0
162 180 0
163 182 0
165 186 0
162 180 0
165 185 0
165 185 0
163 183 0
164 185 0
165 185 0
160 178 0
162 182 0
170 191 0
165 184 0
162 184 0
165 184 0
163 183 0
164 186 0
164 184 0
167 187 0
164 184 0
164 183 0
168 189 0
163 181 0
166 187 0
168 190 0
167 187 0
165 185 0
168 189 0
164 187 0
169 190 0
164 185 0
167 188 0
169 189 0
170 192 0
167 188 0
167 189 0
169 191 0
167 187 0
169 190 0
166 188 0
170 190 0
167 189 0
165 185 0
170 192 0
168 191 0
170 190 0
168 190 0
171 193 0
165 185 0
171 193 0
169 190 0
167 186 0
170 191 0
168 190 0
168 190 0
168 190 0
170 193 0
170 190 0
170 191 0
169 191 0
170 193 0
171 193 0
171 194 0
169 190 0
172 194 0
171 193 0
170 192 0
170 192 0
171 193 0
172 194 0
172 193 0
170 192 0
171 193 0
170 192 0
171 192 0
171 192 0
172 194 0
170 192 0
169 191 0
172 194 0
171 193 0
172 195 0
174 197 0
173 195 0
172 194 0
171 193 0
171 193 0
171 193 0
171 194 0
172 194 0
173 194 0
172 195 0
173 196 0
172 194 0
172 194 0
173 195 0
173 196 0
172 195 0
173 196 0
173 195 0
173 196 0
172 195 0
173 196 0
172 195 0
172 194 0
172 195 0
173 196 0
173 195 0
173 195 0
172 194 0
174 196 0
172 195 0
173 196 0
173 196 0
171 194 0
172 195 0
172 194 0
172 195 0
174 198 0
173 195 0
174 197 0
172 196 0
172 195 0
174 197 0
171 194 0
174 197 0
173 196 0
172 196 0
173 195 0
173 196 0
173 196 0
173 197 0
173 197 0
171 195 0
174 197 0
172 196 0
172 195 0
173 196 0
171 194 0
170 193 0
171 194 0
172 194 0
172 195 0
172 195 0
172 195 0
172 194 0
171 194 0
175 198 0
173 195 0
173 196 0
171 194 0
172 194 0
170 193 0
174 197 0
171 194 0
171 193 0
171 195 0
171 193 0
172 195 0
172 196 0
172 195 0
172 194 0
171 194 0
171 194 0
172 194 0
173 196 0
171 194 0
170 192 0
172 196 0
170 192 0
171 194 0
172 195 0
170 192 0
172 194 0
170 192 0
170 193 0
169 191 0
173 196 0
168 190 0
167 191 0
171 194 0
171 194 0
167 190 0
171 194 0
172 194 0
172 194 0
171 194 18
171 194 25
172 195 25
173 195 31
172 195 18
173 194 0
175 197 57
173 196 40
173 196 40
177 199 47
174 196 40
175 197 57
176 199 65
174 196 51
174 196 70
174 197 67
173 194 72
172 193 44
174 195 74
171 193 67
170 191 67
174 195 74
168 190 73
172 193 80
170 192 70
172 193 90
176 197 96
171 193 76
169 191 86
172 194 72
175 196 97
176 198 103
175 196 103
174 194 94
175 197 100
172 193 103
173 194 102
171 193 86
174 195 99
171 193 88
168 190 95
172 194 86
171 194 97
172 194 105
167 188 99
165 187 85
170 192 88
173 195 114
170 191 94
168 188 102
164 186 82
170 191 95
169 190 94
169 192 97
170 192 99
165 186 92
171 193 114
169 191 102
163 183 82
165 187 90
160 182 86
165 184 84
165 185 97
162 181 90
165 185 110
160 180 88
166 187 102
167 189 100
161 182 97
164 185 100
165 184 95
160 179 102
161 181 95
153 173 82
158 177 82
163 183 95
160 178 103
159 177 107
152 170 94
160 177 97
159 177 97
154 173 92
156 174 102
152 170 97
158 176 92
156 173 100
153 169 86
156 171 95
156 172 99
157 173 90
151 168 90
151 169 65
149 167 60
149 166 65
145 164 47
147 164 57
138 155 18
141 159 36
145 164 25
138 156 44
146 163 25
144 162 18
140 159 0
146 164 0
149 167 0
140 158 0
143 161 0
138 154 0
133 151 0
133 148 0
137 155 0
135 151 0
135 152 0
126 142 0
131 148 0
132 149 0
130 147 0
122 140 0
126 140 0
135 151 0
137 153 0
124 142 0
127 145 0
125 143 0
131 148 0
131 148 0
125 141 0
124 141 0
130 146 0
130 146 0
130 147 0
128 144 0
132 149 0
131 145 0
131 148 0
121 138 0
129 145 0
127 144 0
139 158 0
132 149 0
136 153 0
134 151 0
134 151 0
140 157 0
141 157 0
139 155 0
135 153 0
131 147 0
142 161 0
140 158 0
137 152 0
139 155 0
142 160 0
146 164 0
144 164 0
142 159 0
145 163 0
142 159 0
146 164 0
147 164 0
147 164 0
149 166 0
146 163 0
147 166 0
146 165 0
148 167 0
148 167 0
150 168 0
153 173 0
148 166 0
145 163 0
149 166 0
151 170 0
155 175 0
157 177 0
144 161 0
154 174 0
156 174 0
156 175 0
153 172 0
155 170 0
157 173 0
153 171 0
153 172 0
155 173 0
154 174 0
153 172 0
153 172 0
157 176 0
153 171 0
160 180 0
160 178 0
156 175 0
162 181 0
159 177 0
158 177 0
158 177 0
160 179 0
157 176 0
153 170 0
158 178 0
159 178 0
161 182 0
158 176 0
164 182 0
157 176 0
162 182 0
162 182 0
163 181 0
163 183 0
156 176 0
161 180 0
156 176 0
162 182 0
164 185 0
155 174 0
164 184 0
161 181 0
162 181 0
164 185 0
160 180 0
163 182 0
162 183 0
164 185 0
162 182 0
164 183 0
164 186 0
164 184 0
168 188 0
166 185 0
163 184 0
163 183 0
164 184 0
164 187 0
165 186 0
165 185 0
166 187 0
169 190 0
168 188 0
168 187 0
165 187 0
168 190 0
167 188 0
164 185 0
167 188 0
167 188 0
168 189 0
168 190 0
166 187 0
168 190 0
170 191 0
170 189 0
167 190 0
166 186 0
166 186 0
169 191 0
170 191 0
169 189 0
165 185 0
168 189 0
168 190 0
167 189 0
167 188 0
168 189 0
171 192 0
169 189 0
169 191 0
171 193 0
169 191 0
170 190 0
170 192 0
171 192 0
168 188 0
171 192 0
167 189 0
171 193 0
168 190 0
171 193 0
171 193 0
171 193 0
172 193 0
170 193 0
171 193 0
171 193 0
170 192 0
172 195 0
172 194 0
171 194 0
170 193 0
171 193 0
170 192 0
172 194 0
172 194 0
171 194 0
170 192 0
170 192 0
171 193 0
173 195 0
174 197 0
172 194 0
172 193 0
172 195 0
171 192 0
173 196 0
172 194 0
172 195 0
173 195 0
170 194 0
172 194 0
172 194 0
173 196 0
171 192 0
172 194 0
173 195 0
172 194 0
172 194 0
172 194 0
171 195 0
173 196 0
172 194 0
171 193 0
173 196 0
172 195 0
172 195 0
174 196 0
171 194 0
171 194 0
173 196 0
172 195 0
173 197 0
172 194 0
172 196 0
172 194 0
172 196 0
172 195 0
173 196 0
171 194 0
174 197 0
173 197 0
173 195 0
172 195 0
173 196 0
172 195 0
173 195 0
174 197 0
172 195 0
173 196 0
172 195 0
173 196 0
172 195 0
173 195 0
172 194 0
173 196 0
171 193 0
172 195 0
172 196 0
172 195 0
172 194 0
171 194 0
172 195 0
172 195 0
173 195 0
171 194 0
172 195 0
172 195 0
173 196 0
169 192 0
172 195 0
172 195 0
171 194 0
172 195 0
171 193 0
169 191 0
172 195 0
171 193 0
173 195 0
174 196 0
171 194 0
171 195 0
171 193 0
172 193 0
171 194 0
171 193 0
170 192 0
172 195 0
173 196 0
170 192 0
173 195 0
173 196 0
172 195 0
171 194 0
173 195 0
170 193 0
171 194 0
171 195 0
168 191 0
170 192 0
169 192 0
171 193 0
171 193 0
173 196 0
170 193 0
170 194 31
171 193 18
170 193 0
173 196 25
175 198 51
174 197 40
172 195 36
175 197 18
173 196 25
175 197 54
175 198 57
174 196 54
173 195 70
175 197 76
174 195 67
173 194 70
173 195 68
173 194 73
175 196 88
172 194 82
171 193 75
166 188 60
170 192 78
167 190 75
172 192 92
172 192 83
169 190 91
169 189 91
168 189 81
169 190 77
173 195 91
171 192 92
173 195 92
171 193 88
172 194 102
177 198 113
176 197 111
167 189 80
170 191 94
173 195 107
168 190 78
173 196 111
170 192 99
169 191 97
171 193 108
167 189 76
169 190 97
167 190 86
167 189 88
165 187 94
170 192 82
168 189 92
168 188 94
167 187 95
164 186 82
168 189 97
163 186 97
164 186 90
166 187 110
162 183 92
160 181 99
162 181 97
162 182 102
164 185 92
162 182 95
163 184 105
162 182 95
157 176 92
158 178 107
162 180 105
159 178 90
163 182 100
161 179 95
165 184 99
165 184 103
161 180 97
161 180 107
159 178 97
156 173 90
156 173 100
160 178 102
154 170 88
161 180 110
155 172 86
159 176 94
158 176 95
152 168 76
149 166 70
152 168 86
151 168 70
154 171 76
149 167 62
148 165 86
140 156 36
145 162 36
143 161 31
144 163 31
144 162 31
148 168 31
140 158 36
146 165 0
145 164 18
147 166 0
140 157 0
140 157 0
142 159 0
146 163 0
143 161 0
138 155 0
133 153 0
138 154 0
128 144 0
138 151 0
135 151 0
130 146 0
135 151 0
131 149 0
134 152 0
133 148 0
127 144 0
133 150 0
133 150 0
130 144 0
133 146 0
128 144 0
134 150 0
133 149 0
132 150 0
129 145 0
134 152 0
127 142 0
135 151 0
141 159 0
128 147 0
132 149 0
135 151 0
136 152 0
138 154 0
131 147 0
141 156 0
143 159 0
138 155 0
147 165 0
145 160 0
145 163 0
146 164 0
141 158 0
145 162 0
139 156 0
143 162 0
147 166 0
149 167 0
147 164 0
147 164 0
142 160 0
149 167 0
143 163 0
143 162 0
149 167 0
148 166 0
151 169 0
151 170 0
151 169 0
142 159 0
151 169 0
145 163 0
145 165 0
143 161 0
152 171 0
153 172 0
145 163 0
147 165 0
152 170 0
152 171 0
154 172 0
148 167 0
151 171 0
154 175 0
156 176 0
155 175 0
154 175 0
154 169 0
156 174 0
155 173 0
156 176 0
153 172 0
157 176 0
156 175 0
155 172 0
156 175 0
159 179 0
160 180 0
157 176 0
157 178 0
155 174 0
159 177 0
156 175 0
158 179 0
156 175 0
158 177 0
161 181 0
162 181 0
162 181 0
161 181 0
157 177 0
161 180 0
160 178 0
158 176 0
162 183 0
156 174 0
161 180 0
160 180 0
162 182 0
164 185 0
161 182 0
163 184 0
163 182 0
162 181 0
164 186 0
166 187 0
163 182 0
165 185 0
163 182 0
163 184 0
163 184 0
163 185 0
164 183 0
166 186 0
166 187 0
165 186 0
164 185 0
163 184 0
165 186 0
163 183 0
166 185 0
167 188 0
166 185 0
166 188 0
167 188 0
165 185 0
167 189 0
168 189 0
165 186 0
168 188 0
167 188 0
167 187 0
170 192 0
167 189 0
167 187 0
170 191 0
169 190 0
165 186 0
170 191 0
168 190 0
169 190 0
167 188 0
168 189 0
170 192 0
169 192 0
170 191 0
172 193 0
172 194 0
169 192 0
168 190 0
167 187 0
168 189 0
172 193 0
171 193 0
171 193 0
171 193 0
173 196 0
172 194 0
169 191 0
169 191 0
171 193 0
168 191 0
168 190 0
171 193 0
170 191 0
172 194 0
169 192 0
169 191 0
171 193 0
168 191 0
171 193 0
170 192 0
173 196 0
172 194 0
173 195 0
171 192 0
171 194 0
172 194 0
169 191 0
171 194 0
170 192 0
172 195 0
171 193 0
171 194 0
171 194 0
172 194 0
170 193 0
173 195 0
172 195 0
171 194 0
172 194 0
172 192 0
169 192 0
171 192 0
171 194 0
171 195 0
171 194 0
174 196 0
173 195 0
172 194 0
172 194 0
172 195 0
173 196 0
172 195 0
173 196 0
172 195 0
173 196 0
173 195 0
172 195 0
174 197 0
172 195 0
172 196 0
172 194 0
172 194 0
173 195 0
172 195 0
175 197 0
172 194 0
172 196 0
171 195 0
173 195 0
172 194 0
172 195 0
174 197 0
173 197 0
174 197 0
173 196 0
173 196 0
171 193 0
173 196 0
173 196 0
173 196 0
174 197 0
171 194 0
172 195 0
172 196 0
172 196 0
172 195 0
172 195 0
171 194 0
172 196 0
172 195 0
171 194 0
173 196 0
172 194 0
172 196 0
172 195 0
173 197 0
172 194 0
171 194 0
172 195 0
172 195 0
172 195 0
173 196 0
171 193 0
171 194 0
172 195 0
171 195 0
172 196 0
172 195 0
173 196 0
172 195 0
175 197 0
171 193 0
171 193 0
172 195 0
168 189 0
173 195 0
169 192 0
171 194 0
171 194 0
170 192 0
170 192 0
172 194 0
169 192 0
170 193 0
170 193 0
171 194 0
170 192 0
170 193 0
170 191 0
171 193 0
170 193 0
170 192 0
172 195 0
171 195 0
172 195 18
172 195 0
171 193 18
170 193 31
173 196 25
173 196 31
174 197 36
175 198 44
174 197 31
174 196 54
174 195 44
173 196 57
173 195 62
172 194 65
174 196 57
173 194 79
172 194 67
172 194 65
174 196 71
169 191 80
173 193 92
171 192 80
169 191 68
171 192 75
170 190 79
170 191 84
171 193 83
172 193 93
169 190 78
170 192 82
169 191 82
170 191 83
174 195 105
172 193 97
174 195 111
174 196 102
174 196 108
171 193 97
172 194 94
173 195 105
172 194 99
168 189 82
167 187 95
171 192 97
174 196 108
161 183 76
165 187 103
169 191 102
168 190 90
166 187 92
166 187 95
170 192 86
162 183 94
165 186 94
167 189 86
163 185 88
171 191 102
170 191 108
165 187 80
164 185 84
166 187 94
167 189 97
163 184 103
164 183 99
163 183 86
162 182 95
160 179 92
162 183 100
165 186 108
162 183 105
160 178 84
164 184 92
165 184 97
164 185 90
159 179 107
159 178 100
166 185 108
165 182 110
161 178 90
153 170 86
161 179 99
155 173 99
163 180 102
156 172 88
161 179 102
165 182 95
152 169 84
155 172 88
154 172 72
150 167 84
150 168 62
141 158 54
148 166 62
137 155 40
146 164 25
140 158 25
148 167 31
150 169 36
153 173 0
149 167 0
152 169 0
151 170 0
143 161 0
150 168 0
150 169 0
146 165 0
136 153 0
136 152 0
139 156 0
132 149 0
128 148 0
137 153 0
126 142 0
132 148 0
135 151 0
132 150 0
136 151 0
136 154 0
136 154 0
137 154 0
131 148 0
136 151 0
130 148 0
141 156 0
137 155 0
136 154 0
134 152 0
132 148 0
132 150 0
137 154 0
139 156 0
141 160 0
126 143 0
134 150 0
137 154 0
139 154 0
139 155 0
137 156 0
134 152 0
136 154 0
143 160 0
138 153 0
145 163 0
136 153 0
146 165 0
146 164 0
139 157 0
144 162 0
148 164 0
144 162 0
143 159 0
148 166 0
141 158 0
137 154 0
146 165 0
149 166 0
145 162 0
143 163 0
143 160 0
144 163 0
150 170 0
148 165 0
148 165 0
146 163 0
146 165 0
151 169 0
148 167 0
152 171 0
153 172 0
155 172 0
150 169 0
153 173 0
151 168 0
155 174 0
156 175 0
153 171 0
147 165 0
153 173 0
154 172 0
155 175 0
154 173 0
159 179 0
156 175 0
151 170 0
153 171 0
155 174 0
156 177 0
157 177 0
157 177 0
155 176 0
154 173 0
157 177 0
160 178 0
158 177 0
162 183 0
159 178 0
159 178 0
158 175 0
161 180 0
160 178 0
158 179 0
158 178 0
160 181 0
166 187 0
161 181 0
159 179 0
161 181 0
158 178 0
166 187 0
159 178 0
156 174 0
160 179 0
164 184 0
164 183 0
160 178 0
164 183 0
163 183 0
162 182 0
164 185 0
163 184 0
163 184 0
161 181 0
164 182 0
169 190 0
163 184 0
164 183 0
165 185 0
164 184 0
164 183 0
164 184 0
166 186 0
168 188 0
164 185 0
164 185 0
166 187 0
165 185 0
167 187 0
170 191 0
166 187 0
168 188 0
166 187 0
169 191 0
165 188 0
164 184 0
167 187 0
167 188 0
167 189 0
170 191 0
169 192 0
166 186 0
168 190 0
169 190 0
168 189 0
170 190 0
170 191 0
168 189 0
170 192 0
170 192 0
169 190 0
167 189 0
169 191 0
166 186 0
170 192 0
169 190 0
168 189 0
171 193 0
170 192 0
171 193 0
171 192 0
170 192 0
169 191 0
169 192 0
169 191 0
171 194 0
170 193 0
170 193 0
171 193 0
169 192 0
170 192 0
170 193 0
170 191 0
170 192 0
171 192 0
169 190 0
170 191 0
171 193 0
173 195 0
171 194 0
171 194 0
169 192 0
171 193 0
170 192 0
171 192 0
171 193 0
171 192 0
170 193 0
172 194 0
171 194 0
171 194 0
172 194 0
172 194 0
172 195 0
172 195 0
171 193 0
172 195 0
173 195 0
173 195 0
172 194 0
171 194 0
172 194 0
172 194 0
175 197 0
172 195 0
173 195 0
174 196 0
172 195 0
172 195 0
172 194 0
172 195 0
171 193 0
173 195 0
172 195 0
172 195 0
170 192 0
172 195 0
173 195 0
173 196 0
172 195 0
174 197 0
174 197 0
173 196 0
173 196 0
173 197 0
172 194 0
174 197 0
173 196 0
172 196 0
172 196 0
172 194 0
171 194 0
174 197 0
172 195 0
172 195 0
173 196 0
171 194 0
173 196 0
172 195 0
172 196 0
173 196 0
172 195 0
172 195 0
174 197 0
172 196 0
170 193 0
172 195 0
174 196 0
172 196 0
173 196 0
173 196 0
172 195 0
173 196 0
172 194 0
171 194 0
170 194 0
171 194 0
173 195 0
171 194 0
171 194 0
172 194 0
171 194 0
173 195 0
173 195 0
172 193 0
174 197 0
171 194 0
171 195 0
172 195 0
171 194 0
171 194 0
172 194 0
172 194 0
171 194 0
170 192 0
172 195 0
172 195 0
172 194 0
173 194 0
170 193 0
171 194 0
171 194 0
170 193 0
171 193 0
170 192 0
169 193 0
171 193 0
170 192 0
171 194 0
171 192 0
170 193 0
169 192 0
169 191 0
173 196 0
172 196 25
171 194 18
174 197 44
173 196 31
174 196 36
174 197 57
174 197 47
174 196 47
175 197 62
174 195 57
175 198 57
171 193 42
172 195 70
172 193 60
173 194 65
172 192 65
173 194 80
174 196 73
171 193 74
168 189 66
166 189 57
167 188 77
170 191 79
170 191 79
169 192 83
171 191 78
171 193 89
172 193 88
168 189 74
173 194 94
167 188 82
174 195 96
173 194 103
174 196 99
170 191 94
169 190 94
173 193 100
169 191 95
170 192 92
169 191 80
171 192 94
171 192 90
170 191 121
170 192 103
171 190 78
169 192 103
165 186 78
167 189 102
168 189 92
170 191 100
171 192 97
165 186 84
163 185 92
168 189 114
160 181 94
169 190 99
165 184 97
166 187 94
165 185 94
163 184 86
163 183 100
162 184 99
170 189 103
166 186 95
167 187 105
164 183 84
159 179 80
156 175 92
158 177 95
160 179 80
163 182 110
160 180 108
157 175 92
160 178 102
162 180 88
156 175 80
166 185 114
162 182 86
156 175 74
162 181 100
156 174 84
159 177 90
161 178 94
155 171 86
158 174 99
157 174 76
146 163 57
160 179 74
149 166 60
148 166 67
145 162 31
144 161 44
152 171 36
143 163 25
148 168 18
151 170 25
151 171 18
149 169 18
150 169 18
152 172 0
152 172 0
154 173 0
144 163 0
149 168 0
145 164 0
138 155 0
140 156 0
141 159 0
136 151 0
135 152 0
139 155 0
138 156 0
136 152 0
136 153 0
138 156 0
137 153 0
138 155 0
133 152 0
135 154 0
138 155 0
136 155 0
141 158 0
140 155 0
130 147 0
136 151 0
138 154 0
135 151 0
136 154 0
140 157 0
131 147 0
134 153 0
133 149 0
136 153 0
136 151 0
141 158 0
139 158 0
134 152 0
142 160 0
140 157 0
147 165 0
143 161 0
141 158 0
145 161 0
143 160 0
135 152 0
146 164 0
146 164 0
144 161 0
143 161 0
145 163 0
140 157 0
152 171 0
152 171 0
149 167 0
142 159 0
150 167 0
150 168 0
147 164 0
148 168 0
146 164 0
153 172 0
152 170 0
150 169 0
148 166 0
151 170 0
152 173 0
151 169 0
154 171 0
150 169 0
149 167 0
148 166 0
151 169 0
156 171 0
152 170 0
153 172 0
152 170 0
151 169 0
159 178 0
153 172 0
158 177 0
159 177 0
160 180 0
157 175 0
158 178 0
158 177 0
160 180 0
156 175 0
158 178 0
156 176 0
159 179 0
158 178 0
163 184 0
155 174 0
158 178 0
157 177 0
157 175 0
162 183 0
162 182 0
157 176 0
161 182 0
163 182 0
162 183 0
162 182 0
159 177 0
160 180 0
161 180 0
159 177 0
163 183 0
159 179 0
163 183 0
163 183 0
162 180 0
163 184 0
164 183 0
167 189 0
164 184 0
164 185 0
162 181 0
161 182 0
164 184 0
164 183 0
163 182 0
165 184 0
167 187 0
164 184 0
164 184 0
164 185 0
167 187 0
167 188 0
167 187 0
166 186 0
163 184 0
168 190 0
169 190 0
167 188 0
167 189 0
165 186 0
170 190 0
167 188 0
168 190 0
168 190 0
169 192 0
166 187 0
168 189 0
167 187 0
169 191 0
168 188 0
166 188 0
168 189 0
167 187 0
168 190 0
166 187 0
166 188 0
167 189 0
170 192 0
164 185 0
171 193 0
171 192 0
167 188 0
168 191 0
170 192 0
169 191 0
170 192 0
168 190 0
171 193 0
169 192 0
170 191 0
171 192 0
171 194 0
169 191 0
168 191 0
167 188 0
170 192 0
172 194 0
171 192 0
170 193 0
169 191 0
170 193 0
172 194 0
170 192 0
171 193 0
169 191 0
170 191 0
170 192 0
171 194 0
168 190 0
171 193 0
171 193 0
170 192 0
172 194 0
173 195 0
171 193 0
173 195 0
172 195 0
173 195 0
171 194 0
173 196 0
172 194 0
171 194 0
170 192 0
173 195 0
170 192 0
172 195 0
172 195 0
172 193 0
171 193 0
172 193 0
171 194 0
172 195 0
170 193 0
173 196 0
173 196 0
174 196 0
173 195 0
174 196 0
171 193 0
171 194 0
171 194 0
172 194 0
172 195 0
173 196 0
171 195 0
171 195 0
170 194 0
173 196 0
172 195 0
172 195 0
172 195 0
174 197 0
172 195 0
175 198 0
172 195 0
175 198 0
173 196 0
172 195 0
173 197 0
174 196 0
173 196 0
173 196 0
170 193 0
174 198 0
172 196 0
171 194 0
173 195 0
171 195 0
171 195 0
172 196 0
172 195 0
173 195 0
174 198 0
171 194 0
174 196 0
172 195 0
172 195 0
173 196 0
171 194 0
175 197 0
171 194 0
172 194 0
171 193 0
172 195 0
172 196 0
172 194 0
172 195 0
171 194 0
171 193 0
168 190 0
171 193 0
171 194 0
172 194 0
169 192 0
170 193 0
172 193 0
172 194 0
170 194 0
171 193 0
168 192 0
173 196 0
170 194 0
171 193 0
171 194 0
171 194 0
171 193 0
169 192 0
172 195 0
172 195 0
170 194 0
171 193 0
168 191 0
170 192 0
172 195 0
167 189 0
168 191 0
170 193 0
169 192 0
171 194 0
169 191 0
171 193 0
170 192 0
171 193 18
173 195 18
171 194 25
173 196 31
173 195 36
175 197 40
174 196 44
174 196 44
173 196 47
174 196 47
174 196 57
171 193 60
173 196 58
174 195 44
172 193 74
171 192 70
174 196 83
169 191 67
168 191 61
170 191 71
170 192 66
171 192 79
166 187 68
167 189 73
172 195 77
171 192 80
174 196 85
173 194 94
172 192 82
172 193 91
174 195 99
171 194 80
173 195 110
172 191 92
175 196 100
173 195 88
174 195 103
175 197 97
168 189 90
168 191 92
170 190 107
173 194 100
170 192 95
168 190 90
169 190 88
172 193 94
171 192 100
172 194 102
168 189 95
166 188 97
170 191 90
172 194 103
168 191 110
170 190 103
163 183 92
168 189 92
166 186 86
164 184 82
167 188 92
171 192 108
164 184 92
167 187 100
165 186 99
165 185 92
166 186 105
161 181 92
165 185 102
167 186 97
159 178 92
164 184 100
163 181 108
164 183 111
164 182 99
161 179 82
164 182 92
162 179 100
164 183 97
164 182 99
162 180 86
160 178 92
164 182 100
155 171 80
159 175 97
162 179 88
159 176 95
152 169 74
155 172 102
154 171 74
155 173 74
151 169 47
149 168 36
153 173 40
151 170 36
151 169 36
151 168 31
150 168 18
147 165 31
154 173 18
149 167 18
147 167 0
149 169 0
153 171 0
152 171 0
144 164 0
144 161 0
147 166 0
145 164 0
144 161 0
136 153 0
142 158 0
141 158 0
136 153 0
141 157 0
138 156 0
136 153 0
137 154 0
134 152 0
139 156 0
129 147 0
137 154 0
133 148 0
141 159 0
136 154 0
137 153 0
140 156 0
138 155 0
138 155 0
143 161 0
137 155 0
143 160 0
140 156 0
141 159 0
136 154 0
139 154 0
136 152 0
139 156 0
141 159 0
137 153 0
141 161 0
137 155 0
137 155 0
139 155 0
143 162 0
140 159 0
142 160 0
144 161 0
136 154 0
144 161 0
145 163 0
144 160 0
144 165 0
150 168 0
150 168 0
149 167 0
149 166 0
151 170 0
145 163 0
153 173 0
148 167 0
148 167 0
143 162 0
151 168 0
148 165 0
157 175 0
150 169 0
152 171 0
148 165 0
150 167 0
150 168 0
154 173 0
156 175 0
156 174 0
152 169 0
150 168 0
156 174 0
157 178 0
156 175 0
155 173 0
149 166 0
160 179 0
156 174 0
155 175 0
156 174 0
156 176 0
155 174 0
153 172 0
152 170 0
154 172 0
160 180 0
162 181 0
158 178 0
157 177 0
157 176 0
159 179 0
164 185 0
158 177 0
160 180 0
164 184 0
161 182 0
159 179 0
158 178 0
163 184 0
160 180 0
156 175 0
162 182 0
166 186 0
159 179 0
163 184 0
158 178 0
163 183 0
165 185 0
164 183 0
162 181 0
162 182 0
163 184 0
166 185 0
164 185 0
164 183 0
169 188 0
162 183 0
163 185 0
162 182 0
165 187 0
162 181 0
168 188 0
169 190 0
165 182 0
167 188 0
162 183 0
165 185 0
166 188 0
163 183 0
167 187 0
165 185 0
167 188 0
167 189 0
169 189 0
168 187 0
169 189 0
169 190 0
165 184 0
168 190 0
166 187 0
168 189 0
166 188 0
169 191 0
169 191 0
166 186 0
165 186 0
168 189 0
168 189 0
169 190 0
170 191 0
168 190 0
167 188 0
169 191 0
168 190 0
169 190 0
168 191 0
171 192 0
167 188 0
168 190 0
170 191 0
172 193 0
169 190 0
171 194 0
166 187 0
170 190 0
171 192 0
169 189 0
171 193 0
170 190 0
170 192 0
171 193 0
169 191 0
171 193 0
171 192 0
173 195 0
172 194 0
171 193 0
173 196 0
172 192 0
171 193 0
171 194 0
173 195 0
171 194 0
170 192 0
171 193 0
170 192 0
173 195 0
172 195 0
171 193 0
173 195 0
172 195 0
171 192 0
172 194 0
171 193 0
172 195 0
171 194 0
170 192 0
171 193 0
172 195 0
173 196 0
174 196 0
171 194 0
172 194 0
173 196 0
173 195 0
173 196 0
168 191 0
173 196 0
172 195 0
171 194 0
173 194 0
172 195 0
172 195 0
174 197 0
173 195 0
173 196 0
173 196 0
172 196 0
172 195 0
172 194 0
172 194 0
172 194 0
170 193 0
172 194 0
174 196 0
172 196 0
173 196 0
171 194 0
173 195 0
173 196 0
172 195 0
172 196 0
173 196 0
173 195 0
173 195 0
172 195 0
173 196 0
173 196 0
171 194 0
172 194 0
172 194 0
171 195 0
173 195 0
175 197 0
171 194 0
174 196 0
170 193 0
173 196 0
171 194 0
172 196 0
173 197 0
172 195 0
170 193 0
172 195 0
172 194 0
170 194 0
172 194 0
172 195 0
173 196 0
171 193 0
173 196 0
172 195 0
172 195 0
171 194 0
172 194 0
171 194 0
173 196 0
174 197 0
171 194 0
171 194 0
172 195 0
173 196 0
172 195 0
170 193 0
171 194 0
172 194 0
172 194 0
171 194 0
172 193 0
166 189 0
172 194 0
170 193 0
170 193 0
169 192 0
171 194 0
171 193 0
170 194 0
171 193 0
173 196 0
170 192 0
168 188 0
169 192 0
170 191 0
171 192 0
170 192 0
172 195 0
171 194 0
172 195 0
173 195 25
172 195 18
172 195 31
173 197 25
173 195 31
171 194 18
173 195 47
172 195 40
174 196 51
171 193 44
174 196 67
174 195 62
170 193 58
175 196 74
170 192 66
168 190 57
170 193 64
172 194 67
169 190 63
166 189 64
170 192 73
168 190 81
171 192 68
168 188 74
171 192 85
171 193 80
172 193 83
169 190 94
169 191 76
171 192 93
172 194 104
173 194 91
174 196 100
173 194 99
169 191 92
174 195 88
170 190 80
170 192 92
173 195 100
170 192 84
171 193 95
168 189 99
171 192 90
167 188 88
168 188 90
166 187 97
163 184 90
168 188 90
165 184 87
168 189 97
171 189 100
169 189 100
171 192 94
166 187 82
166 186 100
167 188 86
164 186 94
160 180 90
166 186 103
165 184 86
165 186 103
165 185 99
162 181 97
161 181 76
163 185 114
166 186 105
166 182 111
165 184 92
158 177 94
166 184 97
164 181 102
167 187 102
163 180 92
163 182 92
166 185 100
164 183 99
163 182 103
161 179 97
164 182 90
160 178 94
154 172 88
159 177 92
159 177 95
156 173 76
156 176 72
157 174 88
159 176 86
157 175 80
156 172 70
153 170 54
152 172 54
148 166 31
152 170 25
156 175 47
153 171 31
150 169 18
152 172 25
157 177 0
151 169 31
152 170 0
153 170 0
152 173 0
148 167 0
148 165 0
141 158 0
149 167 0
143 161 0
138 156 0
138 155 0
148 164 0
138 156 0
141 159 0
136 153 0
139 157 0
135 152 0
145 163 0
136 155 0
140 155 0
135 153 0
140 156 0
136 153 0
144 161 0
140 157 0
150 170 0
147 166 0
140 158 0
140 159 0
143 162 0
144 162 0
137 153 0
143 162 0
145 163 0
145 163 0
143 163 0
145 161 0
145 163 0
140 155 0
141 159 0
143 162 0
141 156 0
142 157 0
143 162 0
141 159 0
141 158 0
144 162 0
150 169 0
148 166 0
144 161 0
145 164 0
140 158 0
150 167 0
144 162 0
155 172 0
147 165 0
151 169 0
150 169 0
152 172 0
148 166 0
149 168 0
150 167 0
150 169 0
152 171 0
155 174 0
148 166 0
158 177 0
156 175 0
149 168 0
152 171 0
152 170 0
156 173 0
152 170 0
155 174 0
158 177 0
154 173 0
159 178 0
156 175 0
151 170 0
156 174 0
155 173 0
155 174 0
155 174 0
152 172 0
154 171 0
155 175 0
158 177 0
159 179 0
159 177 0
155 176 0
158 178 0
157 176 0
161 181 0
156 176 0
163 183 0
156 176 0
158 178 0
163 183 0
156 176 0
160 180 0
162 182 0
162 182 0
160 180 0
159 178 0
162 182 0
162 181 0
163 183 0
161 181 0
162 182 0
156 174 0
163 182 0
160 179 0
161 183 0
163 182 0
159 179 0
165 184 0
162 184 0
163 184 0
164 184 0
161 181 0
166 186 0
168 188 0
166 187 0
162 181 0
162 183 0
165 185 0
166 189 0
166 186 0
164 185 0
166 187 0
167 187 0
168 189 0
167 188 0
165 185 0
164 185 0
163 184 0
167 188 0
166 188 0
166 188 0
165 185 0
166 187 0
164 185 0
165 185 0
164 185 0
167 188 0
170 190 0
169 192 0
170 192 0
170 192 0
166 188 0
167 190 0
170 191 0
169 190 0
171 192 0
169 190 0
168 190 0
170 192 0
168 190 0
170 191 0
170 192 0
169 191 0
169 191 0
171 193 0
171 193 0
170 193 0
169 190 0
172 194 0
171 192 0
170 192 0
171 194 0
169 192 0
169 191 0
171 193 0
169 190 0
171 192 0
171 193 0
168 189 0
170 193 0
168 190 0
168 190 0
169 192 0
170 192 0
171 192 0
172 194 0
168 190 0
170 193 0
169 191 0
171 194 0
170 192 0
173 193 0
171 194 0
170 192 0
172 194 0
169 191 0
172 195 0
172 193 0
172 194 0
171 193 0
172 194 0
171 194 0
173 194 0
173 196 0
171 194 0
170 192 0
174 196 0
174 197 0
173 196 0
171 193 0
172 194 0
173 196 0
174 198 0
172 195 0
171 192 0
173 195 0
172 194 0
171 194 0
171 194 0
172 193 0
172 194 0
173 195 0
172 194 0
172 196 0
173 196 0
174 197 0
172 194 0
172 196 0
172 194 0
172 194 0
172 195 0
172 195 0
172 195 0
173 195 0
173 196 0
172 195 0
173 196 0
173 195 0
174 197 0
173 196 0
174 197 0
174 196 0
173 196 0
173 196 0
172 194 0
172 196 0
173 195 0
172 195 0
171 195 0
172 195 0
172 195 0
173 196 0
172 195 0
171 194 0
171 194 0
172 195 0
173 196 0
172 195 0
172 195 0
171 194 0
171 194 0
174 196 0
173 196 0
173 194 0
172 195 0
172 194 0
171 194 0
171 194 0
171 193 0
173 195 0
171 194 0
171 193 0
172 194 0
169 192 0
173 196 0
171 195 0
172 195 0
169 190 0
170 194 0
171 194 0
173 196 0
170 193 0
171 194 0
171 193 0
173 196 0
171 193 0
172 194 0
172 195 0
171 194 0
167 190 0
170 193 0
170 192 0
173 195 0
171 194 0
173 195 0
168 192 0
169 192 0
170 194 0
170 193 0
170 193 0
170 193 0
169 192 0
171 193 0
170 192 0
173 196 18
172 195 25
173 196 18
171 194 25
174 197 31
174 196 40
174 196 40
174 196 58
169 193 33
170 193 44
173 196 60
170 192 51
176 197 67
174 196 71
169 192 60
172 193 64
171 192 61
169 190 64
170 191 67
168 190 74
168 190 60
167 189 66
169 191 87
167 188 80
171 192 83
171 192 89
174 194 83
171 192 106
172 193 86
170 191 88
174 196 97
169 191 91
170 191 102
171 193 83
170 193 90
173 195 99
176 196 108
173 194 95
174 195 100
169 190 82
169 189 90
172 193 91
171 192 114
168 189 90
170 190 94
171 192 95
167 188 96
169 189 97
167 189 94
168 190 97
167 189 107
167 188 90
171 192 107
166 184 95
163 185 103
167 186 88
165 183 88
171 192 103
166 187 97
164 184 86
168 188 95
166 186 92
163 182 90
163 182 99
163 181 92
162 181 86
168 186 105
168 185 100
160 179 82
162 181 94
165 183 97
160 178 84
160 179 97
160 179 102
164 182 100
158 174 94
159 177 97
155 174 76
160 178 108
163 181 102
162 181 84
158 176 92
155 173 82
157 175 80
156 173 78
162 181 74
159 178 72
157 177 76
152 169 54
152 170 47
157 175 57
153 172 47
153 172 18
154 172 25
153 173 36
153 171 25
152 169 18
152 171 18
154 171 0
147 166 0
152 170 0
144 161 0
149 167 0
142 160 0
142 160 0
144 163 0
145 162 0
143 161 0
141 158 0
145 162 0
146 164 0
146 164 0
138 155 0
142 160 0
144 163 0
141 157 0
139 156 0
147 166 0
138 156 0
139 157 0
140 159 0
144 162 0
135 152 0
147 164 0
138 156 0
139 157 0
138 155 0
142 160 0
139 155 0
143 162 0
138 156 0
137 155 0
150 168 0
142 161 0
140 158 0
145 164 0
139 157 0
146 165 0
143 163 0
147 164 0
140 159 0
148 166 0
144 161 0
148 168 0
142 159 0
153 172 0
145 161 0
147 166 0
144 160 0
150 168 0
147 165 0
147 168 0
145 163 0
145 164 0
155 174 0
148 167 0
151 170 0
151 169 0
155 173 0
152 169 0
148 167 0
146 162 0
151 170 0
149 168 0
147 166 0
152 169 0
150 167 0
149 167 0
150 168 0
153 173 0
158 176 0
150 168 0
156 175 0
154 172 0
155 175 0
153 173 0
152 172 0
157 177 0
157 177 0
152 172 0
160 180 0
154 172 0
155 176 0
159 178 0
158 178 0
160 181 0
160 180 0
155 174 0
155 173 0
157 178 0
160 180 0
159 178 0
162 182 0
159 178 0
158 176 0
160 179 0
163 184 0
158 178 0
166 186 0
158 176 0
158 178 0
166 187 0
163 183 0
161 180 0
162 184 0
164 184 0
164 184 0
157 176 0
159 180 0
164 184 0
164 183 0
161 181 0
161 181 0
162 181 0
163 183 0
164 185 0
167 188 0
164 182 0
162 184 0
163 184 0
167 188 0
166 188 0
166 187 0
164 185 0
163 184 0
166 187 0
165 185 0
164 184 0
166 187 0
166 187 0
165 185 0
165 186 0
167 188 0
168 189 0
168 190 0
164 185 0
168 189 0
166 187 0
167 188 0
166 186 0
168 190 0
168 189 0
167 190 0
169 189 0
167 187 0
165 187 0
170 190 0
170 192 0
170 191 0
169 190 0
169 191 0
167 188 0
168 189 0
172 193 0
169 190 0
169 190 0
171 192 0
169 192 0
168 189 0
166 186 0
170 190 0
168 190 0
169 191 0
169 192 0
170 192 0
171 194 0
168 190 0
168 190 0
170 191 0
168 190 0
172 193 0
172 194 0
170 191 0
171 193 0
171 193 0
171 192 0
168 189 0
169 191 0
171 194 0
172 194 0
171 193 0
173 195 0
170 192 0
173 195 0
172 195 0
171 194 0
169 192 0
171 194 0
170 193 0
169 190 0
170 192 0
171 191 0
172 195 0
169 191 0
171 193 0
173 194 0
172 194 0
171 193 0
173 196 0
170 192 0
172 193 0
172 193 0
172 195 0
172 195 0
170 192 0
170 193 0
172 194 0
172 194 0
171 193 0
173 195 0
173 196 0
173 196 0
172 194 0
172 195 0
172 195 0
172 194 0
172 195 0
172 195 0
172 195 0
172 194 0
173 195 0
171 195 0
171 194 0
173 197 0
174 196 0
171 193 0
173 195 0
173 196 0
173 195 0
173 196 0
172 195 0
173 196 0
172 195 0
173 196 0
172 195 0
172 195 0
173 197 0
173 196 0
171 194 0
174 195 0
172 195 0
173 196 0
173 196 0
173 196 0
173 196 0
172 195 0
173 197 0
172 195 0
171 194 0
172 194 0
171 194 0
173 196 0
173 196 0
173 195 0
171 193 0
168 191 0
171 193 0
175 197 0
174 197 0
172 195 0
173 195 0
173 195 0
171 195 0
172 195 0
171 195 0
172 195 0
172 195 0
168 191 0
173 196 0
171 194 0
172 194 0
171 195 0
172 194 0
171 195 0
170 193 0
171 194 0
172 195 0
173 197 0
171 194 0
171 194 0
170 192 0
170 193 0
172 195 0
171 193 0
171 194 0
171 193 0
171 194 0
171 193 0
170 192 0
170 193 0
172 194 0
170 191 0
172 194 0
170 193 0
172 196 0
173 196 0
171 193 0
170 192 0
172 195 0
171 193 0
172 195 0
172 194 0
171 194 18
173 196 25
172 195 31
174 197 31
175 198 40
176 198 44
173 195 47
171 193 40
172 196 40
173 193 60
172 195 54
172 193 67
170 192 44
170 192 71
171 194 67
168 189 66
170 191 79
170 191 79
168 190 66
165 187 70
170 191 75
169 190 76
166 187 77
167 188 89
171 192 80
169 191 86
171 192 96
173 195 94
171 191 87
171 193 89
172 192 88
170 192 87
175 197 105
175 197 101
173 193 94
175 196 111
170 191 108
171 192 92
169 191 74
170 191 78
175 196 108
172 193 97
169 189 95
169 190 104
171 192 85
171 193 97
166 187 87
172 193 99
165 185 92
171 190 88
166 187 94
167 187 99
169 190 97
163 183 95
165 185 88
165 185 100
164 183 100
164 182 97
164 183 84
166 187 99
166 185 102
168 187 107
163 182 94
169 190 94
161 180 92
164 183 94
163 181 94
162 180 92
165 183 92
162 181 78
166 183 97
166 185 95
169 187 107
166 184 115
161 178 90
153 170 76
167 185 94
164 182 100
160 178 78
163 182 90
158 176 94
155 170 76
158 178 78
156 174 74
157 175 72
154 171 67
152 169 65
153 171 51
151 170 40
154 172 40
148 166 18
150 167 25
158 178 0
158 177 18
155 174 31
152 170 18
153 172 0
150 169 0
152 172 0
153 171 0
149 166 0
148 166 18
150 169 0
146 163 0
146 163 0
148 166 0
144 161 0
142 160 0
137 155 0
143 160 0
143 162 0
144 162 0
146 164 0
142 161 0
145 164 0
141 159 0
146 162 0
141 159 0
139 158 0
144 163 0
142 160 0
151 170 0
144 161 0
154 172 0
140 157 0
148 165 0
142 158 0
143 159 0
144 161 0
150 169 0
145 163 0
142 159 0
141 158 0
149 167 0
140 159 0
141 157 0
139 156 0
140 157 0
149 166 0
154 171 0
144 162 0
146 164 0
147 166 0
149 168 0
155 172 0
142 161 0
145 164 0
147 165 0
151 171 0
146 165 0
148 166 0
147 165 0
146 165 0
157 176 0
151 169 0
149 167 0
154 174 0
151 171 0
153 173 0
155 172 0
150 169 0
154 173 0
148 167 0
148 167 0
155 175 0
157 176 0
151 170 0
154 173 0
153 172 0
155 175 0
153 172 0
155 173 0
160 181 0
156 174 0
156 175 0
157 178 0
153 172 0
159 180 0
159 178 0
159 178 0
159 178 0
160 178 0
160 179 0
159 180 0
157 175 0
157 177 0
159 179 0
161 181 0
156 175 0
159 178 0
160 180 0
161 180 0
162 183 0
165 185 0
161 182 0
163 184 0
157 178 0
161 182 0
162 180 0
161 181 0
159 180 0
164 185 0
162 183 0
165 186 0
164 183 0
165 186 0
163 181 0
167 188 0
164 183 0
160 180 0
165 186 0
164 185 0
165 187 0
163 183 0
163 181 0
160 181 0
166 188 0
166 187 0
167 188 0
166 187 0
167 188 0
163 183 0
165 186 0
166 186 0
165 185 0
166 187 0
166 186 0
165 185 0
164 185 0
169 191 0
166 187 0
167 189 0
165 186 0
169 190 0
165 185 0
167 187 0
166 186 0
170 192 0
165 184 0
165 185 0
168 189 0
169 190 0
168 190 0
169 190 0
169 189 0
170 193 0
168 191 0
167 188 0
170 191 0
170 192 0
168 188 0
168 190 0
169 189 0
169 189 0
168 190 0
168 191 0
169 191 0
168 190 0
171 192 0
169 191 0
170 191 0
168 190 0
167 188 0
169 191 0
172 195 0
171 193 0
171 194 0
170 193 0
171 193 0
169 191 0
172 193 0
169 192 0
171 193 0
170 192 0
170 192 0
168 189 0
169 191 0
170 192 0
171 193 0
168 190 0
173 195 0
171 195 0
171 193 0
171 193 0
169 192 0
171 194 0
172 195 0
172 194 0
172 194 0
173 195 0
173 196 0
172 193 0
171 193 0
170 193 0
173 195 0
170 193 0
173 195 0
170 192 0
171 194 0
172 194 0
172 195 0
173 195 0
172 194 0
171 194 0
171 195 0
171 194 0
172 194 0
173 195 0
172 195 0
172 193 0
172 195 0
170 192 0
172 194 0
173 195 0
172 194 0
172 196 0
171 194 0
173 195 0
172 194 0
172 195 0
172 194 0
173 195 0
172 194 0
172 195 0
172 194 0
174 197 0
175 196 0
172 195 0
172 194 0
175 198 0
173 196 0
172 194 0
173 196 0
172 195 0
170 194 0
171 193 0
172 196 0
170 194 0
173 195 0
173 196 0
173 196 0
173 196 0
173 196 0
172 195 0
173 197 0
172 194 0
171 194 0
173 195 0
173 196 0
172 196 0
170 193 0
171 194 0
170 193 0
170 192 0
169 192 0
175 198 0
172 194 0
170 193 0
171 194 0
171 194 0
171 194 0
171 194 0
171 193 0
170 192 0
172 193 0
170 191 0
171 194 0
171 194 0
170 192 0
169 192 0
171 193 0
171 195 0
173 195 0
170 192 0
171 194 0
172 194 0
172 193 0
171 194 0
171 193 0
168 190 0
170 193 0
173 195 0
171 193 0
170 193 0
171 194 0
170 193 0
171 194 0
170 192 0
170 191 0
169 191 0
171 194 0
171 193 0
169 192 0
169 192 0
170 193 0
170 191 0
171 193 0
171 194 0
171 193 0
170 193 0
171 195 0
174 197 25
175 197 40
173 196 25
176 198 47
171 193 40
174 197 36
172 194 40
172 194 36
172 194 40
172 195 52
171 193 40
173 195 67
171 192 71
169 190 61
168 190 58
168 190 76
173 195 88
168 189 76
166 187 55
168 190 75
169 192 81
167 189 79
166 188 65
166 187 73
173 194 85
173 193 103
166 188 77
168 189 87
173 193 99
169 190 80
172 193 95
167 188 80
173 194 90
171 192 86
173 193 99
173 193 97
170 192 102
172 195 97
172 193 102
175 197 113
172 193 90
170 191 103
169 190 92
170 190 105
168 190 99
172 193 100
168 188 95
167 186 100
168 189 103
169 189 84
166 188 100
166 186 86
170 190 97
167 188 82
167 188 86
169 188 107
167 187 103
168 188 94
166 186 76
161 180 78
166 186 102
163 184 103
164 183 95
167 186 99
169 188 99
167 187 84
161 180 94
163 181 99
166 186 102
161 179 94
166 183 108
165 182 95
156 174 82
158 175 74
160 179 94
161 178 82
162 179 76
160 180 74
161 178 76
156 173 74
155 173 70
160 176 78
159 178 57
155 169 57
153 172 51
157 176 47
159 174 51
153 171 31
150 168 36
149 167 31
156 174 18
151 171 25
152 171 25
157 176 18
156 174 25
156 176 18
152 171 0
150 168 0
149 166 0
149 165 0
153 170 0
149 166 0
142 160 0
146 164 0
147 163 0
147 165 0
148 166 0
145 161 0
147 166 0
145 162 0
144 160 0
146 164 0
145 163 0
144 161 0
143 161 0
145 161 0
141 160 0
138 156 0
142 161 0
147 165 0
147 165 0
142 159 0
150 168 0
146 166 0
142 160 0
151 171 0
143 160 0
139 158 0
147 166 0
148 166 0
150 168 0
136 154 0
145 163 0
148 166 0
142 159 0
149 166 0
135 154 0
146 165 0
144 163 0
150 169 0
148 167 0
143 161 0
147 166 0
147 165 0
150 168 0
150 170 0
152 173 0
152 168 0
149 168 0
150 168 0
152 171 0
152 172 0
147 165 0
149 168 0
148 169 0
151 170 0
150 171 0
155 174 0
152 171 0
151 168 0
152 172 0
151 170 0
152 169 0
155 172 0
156 176 0
155 175 0
148 167 0
155 173 0
155 173 0
157 178 0
156 175 0
157 177 0
154 173 0
159 180 0
158 175 0
160 181 0
160 180 0
158 177 0
162 181 0
159 179 0
163 185 0
158 178 0
158 178 0
159 179 0
159 177 0
161 181 0
161 181 0
157 177 0
164 184 0
160 180 0
158 177 0
159 177 0
161 182 0
163 181 0
161 181 0
160 179 0
162 182 0
158 178 0
162 182 0
165 186 0
164 184 0
162 182 0
162 180 0
161 182 0
165 186 0
163 183 0
163 183 0
164 184 0
163 184 0
164 184 0
162 182 0
162 182 0
164 183 0
166 186 0
163 183 0
164 184 0
164 184 0
166 188 0
162 182 0
161 182 0
166 186 0
167 186 0
166 187 0
164 185 0
168 188 0
164 185 0
167 187 0
164 184 0
168 189 0
169 191 0
162 182 0
167 188 0
165 187 0
166 187 0
166 188 0
168 189 0
167 188 0
167 188 0
167 187 0
167 189 0
169 190 0
165 185 0
167 188 0
166 189 0
169 190 0
169 190 0
167 188 0
167 187 0
168 189 0
167 189 0
169 191 0
168 190 0
168 191 0
169 191 0
169 191 0
171 192 0
169 191 0
171 194 0
171 193 0
170 192 0
170 192 0
172 194 0
170 192 0
169 191 0
171 194 0
167 188 0
169 191 0
172 194 0
171 193 0
169 190 0
170 191 0
172 192 0
171 193 0
172 194 0
172 195 0
171 193 0
172 194 0
172 194 0
172 195 0
172 194 0
170 193 0
169 191 0
171 193 0
170 192 0
170 192 0
172 194 0
171 193 0
171 194 0
171 193 0
172 194 0
171 193 0
172 194 0
171 192 0
172 195 0
171 192 0
172 194 0
174 197 0
170 192 0
173 195 0
173 195 0
172 194 0
171 193 0
169 192 0
174 196 0
173 196 0
173 195 0
172 194 0
173 195 0
173 196 0
171 194 0
172 195 0
172 194 0
173 195 0
173 196 0
172 196 0
172 193 0
173 196 0
171 194 0
172 195 0
174 197 0
173 196 0
171 193 0
171 193 0
175 197 0
172 195 0
173 196 0
172 195 0
175 198 0
172 195 0
172 195 0
172 195 0
170 193 0
173 196 0
174 197 0
173 195 0
171 193 0
174 197 0
173 196 0
173 195 0
171 193 0
172 196 0
172 195 0
173 195 0
173 195 0
173 195 0
170 194 0
172 195 0
174 197 0
172 195 0
173 196 0
172 194 0
173 196 0
173 196 0
171 194 0
173 196 0
172 195 0
172 195 0
171 195 0
171 195 0
171 194 0
172 194 0
173 196 0
170 194 0
171 193 0
171 194 0
173 196 0
169 193 0
172 194 0
171 194 0
170 192 0
172 194 0
171 194 0
173 195 0
172 195 0
170 194 0
171 195 0
170 191 0
170 193 0
171 194 0
169 192 0
172 195 0
171 194 0
170 193 0
170 194 0
171 195 0
172 195 0
171 193 0
169 191 0
169 192 0
169 191 0
168 191 0
168 191 0
172 195 0
172 194 0
170 193 0
172 195 0
170 192 0
172 194 0
171 193 0
171 193 0
171 194 0
173 196 18
173 196 18
173 195 31
173 196 31
175 197 44
172 194 25
172 194 57
174 195 36
172 194 47
171 193 36
171 193 57
170 191 52
169 190 49
171 193 66
171 194 75
166 187 68
171 191 81
165 186 73
170 190 77
172 193 81
166 187 70
169 190 94
166 186 62
165 186 70
165 186 76
170 191 87
168 189 98
174 196 92
167 189 94
169 191 86
172 195 94
173 193 94
171 192 96
172 192 94
174 195 107
172 193 81
170 189 105
170 191 91
166 186 85
165 186 94
172 194 110
168 189 94
168 188 97
170 192 88
167 187 100
168 187 99
170 191 86
170 192 102
167 187 95
172 192 112
169 190 107
168 188 95
168 188 102
168 188 99
168 187 90
172 193 113
168 189 92
163 183 78
163 181 86
167 187 100
167 187 100
169 189 102
166 184 86
165 182 95
162 182 95
166 185 103
161 180 78
169 188 102
165 183 99
159 178 88
165 182 84
159 177 80
158 176 88
163 181 82
161 179 92
164 182 84
162 179 76
157 176 84
151 169 67
160 178 88
159 179 78
158 175 67
156 174 54
152 171 54
156 174 36
161 179 44
156 174 40
157 177 40
153 171 31
151 169 18
155 173 0
152 174 0
160 181 0
154 172 0
153 172 0
152 172 0
150 169 0
149 164 0
149 168 0
147 165 0
145 162 18
149 167 0
143 160 0
147 165 18
140 155 0
146 164 0
147 164 0
143 160 0
144 161 0
144 162 0
144 160 0
144 162 0
145 162 0
149 167 0
149 169 0
149 168 0
145 162 0
144 161 0
143 159 0
143 162 0
144 160 0
147 164 0
142 161 0
148 166 0
150 168 0
149 168 0
150 167 0
149 166 0
146 164 0
145 160 0
141 161 0
145 162 0
149 168 0
148 167 0
150 168 0
151 168 0
150 170 0
149 169 0
144 163 0
147 165 0
150 168 0
151 170 0
148 167 0
148 167 0
155 174 0
144 163 0
151 170 0
152 171 0
151 169 0
153 172 0
151 170 0
151 170 0
149 169 0
154 173 0
149 167 0
155 173 0
149 167 0
151 170 0
152 172 0
151 169 0
152 170 0
150 169 0
155 175 0
150 170 0
159 179 0
154 174 0
161 180 0
155 175 0
158 177 0
158 178 0
161 181 0
162 183 0
156 175 0
156 173 0
161 180 0
158 178 0
159 178 0
161 180 0
159 179 0
156 176 0
159 179 0
158 178 0
156 176 0
158 178 0
160 181 0
154 173 0
159 178 0
162 182 0
163 182 0
161 181 0
159 178 0
159 178 0
158 178 0
163 183 0
157 178 0
164 184 0
160 179 0
164 184 0
159 179 0
160 181 0
161 184 0
164 184 0
165 185 0
167 189 0
162 181 0
161 182 0
166 186 0
163 184 0
162 182 0
161 182 0
163 183 0
162 184 0
167 189 0
166 186 0
166 187 0
163 184 0
166 188 0
168 189 0
166 187 0
166 188 0
166 187 0
167 187 0
167 188 0
164 183 0
164 184 0
165 187 0
167 187 0
168 190 0
167 189 0
168 190 0
167 188 0
167 188 0
167 187 0
168 189 0
166 187 0
166 188 0
166 187 0
167 189 0
167 188 0
168 189 0
169 190 0
170 191 0
168 190 0
167 190 0
168 188 0
170 193 0
169 191 0
166 188 0
168 189 0
168 189 0
170 193 0
170 194 0
170 192 0
170 190 0
169 190 0
167 188 0
167 189 0
169 190 0
169 190 0
170 192 0
172 194 0
169 191 0
170 192 0
171 193 0
170 191 0
167 188 0
171 193 0
170 190 0
170 192 0
170 191 0
171 194 0
169 191 0
172 195 0
171 192 0
169 192 0
170 192 0
169 192 0
171 194 0
172 194 0
169 192 0
170 191 0
171 194 0
169 190 0
171 194 0
171 192 0
172 194 0
172 194 0
169 191 0
170 193 0
171 193 0
170 192 0
172 194 0
171 193 0
173 195 0
171 194 0
171 194 0
172 194 0
171 194 0
172 193 0
174 197 0
171 193 0
173 195 0
171 194 0
170 192 0
172 195 0
172 195 0
171 193 0
172 195 0
173 196 0
173 195 0
173 195 0
171 194 0
172 195 0
171 194 0
170 192 0
174 197 0
174 196 0
174 196 0
173 195 0
172 195 0
173 195 0
172 195 0
173 196 0
173 194 0
172 195 0
172 195 0
172 195 0
174 197 0
174 197 0
173 196 0
174 196 0
172 196 0
172 195 0
173 195 0
173 197 0
171 193 0
172 196 0
171 194 0
172 195 0
172 195 0
174 197 0
172 196 0
173 197 0
171 194 0
175 198 0
174 195 0
171 194 0
172 195 0
171 194 0
173 195 0
172 195 0
172 195 0
172 195 0
171 194 0
171 194 0
172 195 0
173 195 0
174 196 0
172 195 0
170 193 0
172 196 0
172 195 0
171 194 0
170 193 0
170 192 0
171 194 0
170 192 0
171 193 0
170 194 0
170 193 0
171 195 0
170 193 0
170 194 0
173 194 0
170 191 0
171 195 0
172 195 0
172 195 0
169 192 0
171 194 0
169 192 0
169 192 0
170 193 0
171 194 0
170 193 0
171 194 0
168 190 0
170 193 0
170 193 0
169 192 0
171 194 0
169 191 0
170 192 0
172 194 0
170 192 0
170 192 0
172 194 0
173 195 0
173 196 0
174 197 18
171 194 25
172 195 0
172 195 18
172 196 31
173 195 36
171 194 25
173 196 40
170 193 36
166 189 18
173 195 51
172 195 52
171 193 67
170 192 47
170 192 65
169 189 70
170 191 68
168 190 64
165 186 65
167 189 71
170 191 67
169 189 81
168 190 81
169 190 82
171 191 76
170 189 92
168 190 81
168 189 84
167 189 76
171 192 93
172 193 90
171 192 93
173 195 101
174 194 100
174 195 103
173 193 96
174 193 103
169 188 95
172 191 88
172 191 77
164 182 83
172 191 101
166 187 94
166 187 78
169 189 88
174 192 94
170 190 95
171 191 97
165 186 80
168 188 95
170 190 90
168 188 80
169 189 100
169 188 97
168 187 86
162 182 95
170 190 84
169 188 107
169 188 95
165 184 95
169 189 97
170 188 92
169 187 107
163 182 99
162 182 95
163 181 88
164 182 92
165 183 95
161 178 95
164 182 94
160 178 84
166 184 92
161 178 86
161 178 82
159 178 74
159 176 76
163 182 86
160 179 78
160 179 76
162 180 94
161 177 67
158 177 67
164 183 62
157 176 54
152 169 57
154 174 36
158 175 60
153 173 36
158 175 0
156 176 36
155 172 25
161 180 36
155 173 18
158 177 25
157 177 18
156 176 0
157 177 0
152 171 0
153 171 0
154 174 0
152 171 0
150 169 0
144 164 0
152 169 0
149 167 0
154 173 0
153 171 0
149 165 0
141 159 0
151 167 0
142 159 0
141 159 0
148 167 0
154 174 0
150 168 0
148 165 0
140 156 0
149 166 0
146 166 0
151 169 0
147 166 0
142 157 0
146 162 0
145 164 0
143 164 0
149 168 0
149 166 0
143 162 0
148 168 0
143 161 0
148 168 0
148 166 0
147 166 0
153 173 0
150 169 0
147 165 0
145 164 0
146 164 0
145 164 0
153 170 0
153 170 0
154 174 0
150 168 0
146 162 0
150 169 0
146 164 0
155 173 0
152 170 0
147 165 0
154 174 0
153 172 0
155 173 0
153 172 0
154 173 0
156 176 0
151 169 0
149 166 0
155 174 0
154 174 0
157 177 0
154 173 0
153 173 0
158 175 0
157 176 0
155 176 0
153 175 0
158 175 0
152 172 0
154 171 0
158 177 0
152 171 0
161 181 0
163 182 0
152 172 0
162 181 0
158 178 0
157 175 0
158 176 0
155 175 0
154 173 0
160 181 0
160 178 0
159 179 0
162 182 0
159 179 0
159 179 0
162 180 0
159 179 0
160 180 0
160 181 0
157 177 0
161 180 0
160 179 0
162 182 0
165 186 0
165 186 0
164 186 0
160 181 0
164 185 0
166 187 0
161 180 0
161 181 0
162 183 0
161 182 0
163 184 0
163 182 0
165 185 0
164 185 0
166 187 0
164 184 0
165 185 0
164 185 0
162 180 0
162 182 0
165 184 0
165 186 0
163 182 0
168 190 0
163 184 0
166 187 0
166 186 0
162 182 0
165 186 0
165 186 0
166 188 0
167 188 0
167 188 0
166 187 0
165 186 0
165 187 0
167 188 0
166 187 0
168 190 0
166 188 0
167 187 0
170 192 0
164 186 0
168 189 0
168 191 0
167 189 0
167 187 0
170 191 0
168 190 0
170 192 0
168 190 0
167 188 0
167 190 0
171 192 0
169 191 0
167 189 0
170 192 0
168 189 0
167 189 0
168 189 0
171 193 0
168 189 0
167 187 0
168 189 0
167 188 0
169 189 0
171 193 0
170 192 0
169 189 0
172 192 0
169 190 0
169 192 0
170 192 0
171 194 0
171 193 0
170 192 0
171 194 0
170 192 0
171 194 0
171 193 0
171 193 0
169 190 0
171 193 0
171 195 0
170 191 0
171 194 0
172 193 0
170 193 0
172 194 0
172 194 0
173 195 0
171 192 0
170 192 0
172 195 0
171 193 0
171 193 0
172 196 0
172 194 0
172 195 0
169 191 0
172 194 0
170 193 0
171 194 0
171 193 0
170 191 0
172 195 0
170 193 0
172 195 0
169 191 0
171 194 0
170 192 0
172 195 0
172 194 0
173 194 0
172 194 0
172 195 0
172 195 0
171 195 0
171 194 0
171 193 0
173 195 0
170 193 0
173 196 0
173 196 0
174 196 0
171 194 0
172 195 0
173 196 0
173 196 0
174 196 0
173 195 0
173 196 0
173 196 0
173 196 0
171 195 0
172 196 0
172 195 0
172 195 0
174 197 0
172 195 0
172 195 0
174 197 0
173 197 0
174 197 0
172 194 0
170 194 0
171 194 0
171 194 0
172 194 0
172 194 0
171 194 0
173 196 0
172 195 0
171 194 0
172 195 0
172 195 0
170 192 0
170 193 0
173 195 0
171 193 0
171 194 0
170 194 0
172 195 0
172 194 0
172 195 0
173 196 0
173 194 0
171 193 0
172 195 0
171 193 0
173 197 0
172 194 0
171 194 0
169 192 0
171 193 0
169 192 0
172 195 0
172 195 0
170 193 0
171 194 0
172 195 0
171 194 0
172 195 0
170 192 0
170 193 0
171 193 0
171 194 0
171 193 0
171 193 0
170 192 0
169 192 0
172 196 0
167 190 0
172 195 0
170 193 0
168 190 0
168 192 0
169 190 0
170 193 0
168 191 0
171 193 0
172 195 0
169 192 0
173 194 0
171 195 0
170 193 0
171 194 0
170 193 25
172 194 25
172 195 18
175 198 40
172 194 36
174 196 44
173 195 36
173 196 47
172 195 57
173 195 51
171 193 47
171 193 54
170 192 57
172 193 64
167 189 57
167 189 42
170 191 74
169 189 67
171 192 74
168 190 61
168 189 75
166 188 81
169 191 83
172 193 82
164 186 61
168 189 68
172 193 94
170 191 93
169 190 77
170 192 90
172 192 112
172 193 101
170 190 89
173 194 85
171 191 95
171 192 88
171 190 80
168 187 89
171 189 81
169 188 80
170 188 84
170 189 96
175 194 89
171 191 87
168 189 102
172 192 105
171 192 106
171 189 94
169 190 94
170 192 117
166 186 84
168 187 78
170 190 102
166 186 95
167 185 99
166 184 97
167 186 84
167 187 94
168 188 95
165 182 95
169 187 97
168 187 99
166 185 94
164 184 107
166 183 88
163 180 88
160 179 92
159 176 82
163 181 82
167 186 90
163 182 92
163 181 76
165 184 94
167 187 102
164 181 72
165 183 74
161 179 82
161 180 70
159 177 90
156 174 76
158 178 78
160 178 74
164 183 67
156 174 62
156 174 47
159 177 31
151 170 44
157 177 36
158 178 18
159 177 31
157 176 18
161 182 25
160 179 0
159 179 18
153 172 18
152 170 0
149 168 0
153 172 0
158 176 0
148 168 0
150 167 0
152 172 0
151 170 0
150 169 0
154 171 0
149 166 0
144 161 0
145 160 0
147 166 0
151 169 0
153 171 0
146 164 0
149 165 0
147 164 0
151 168 0
150 169 0
141 160 0
147 164 0
152 170 0
147 163 0
150 167 0
143 161 0
146 165 0
143 161 0
149 167 0
147 164 0
148 165 0
141 160 0
144 163 0
148 165 0
151 168 0
152 171 0
146 164 0
149 168 0
150 170 0
151 171 0
148 165 0
144 165 0
151 169 0
152 172 0
150 168 0
157 177 0
147 165 0
154 171 0
150 168 0
155 174 0
151 170 0
152 169 0
155 174 0
159 179 0
151 170 0
153 171 0
150 167 0
158 178 0
154 171 0
153 173 0
148 165 0
157 176 0
154 174 0
153 173 0
154 175 0
159 179 0
152 172 0
154 174 0
155 176 0
156 176 0
155 175 0
157 177 0
158 178 0
155 176 0
159 179 0
155 175 0
158 179 0
157 178 0
154 175 0
154 174 0
159 178 0
157 176 0
161 182 0
165 186 0
161 183 0
158 178 0
160 180 0
160 181 0
161 181 0
162 183 0
163 184 0
157 176 0
158 177 0
159 180 0
157 178 0
158 177 0
164 185 0
162 181 0
159 179 0
159 180 0
163 183 0
161 182 0
162 182 0
160 181 0
165 184 0
164 184 0
159 179 0
162 182 0
166 187 0
167 190 0
161 183 0
166 187 0
163 183 0
161 182 0
167 187 0
167 187 0
164 185 0
165 186 0
164 187 0
165 186 0
166 188 0
164 185 0
164 186 0
166 187 0
167 188 0
167 187 0
166 187 0
166 186 0
165 187 0
165 187 0
167 188 0
163 184 0
168 188 0
166 188 0
169 191 0
167 187 0
168 189 0
166 187 0
168 189 0
167 189 0
166 187 0
167 186 0
169 191 0
172 194 0
166 186 0
169 190 0
170 191 0
168 190 0
168 189 0
173 194 0
170 191 0
169 190 0
168 190 0
168 190 0
171 193 0
170 192 0
168 190 0
170 192 0
172 194 0
171 192 0
168 189 0
167 189 0
169 191 0
171 193 0
172 194 0
169 191 0
170 191 0
169 192 0
170 192 0
172 194 0
172 193 0
169 191 0
170 193 0
170 192 0
171 192 0
170 192 0
170 191 0
172 194 0
172 194 0
171 193 0
172 195 0
171 193 0
171 194 0
170 193 0
170 191 0
171 192 0
169 192 0
171 194 0
171 194 0
169 191 0
173 194 0
172 194 0
172 194 0
170 193 0
173 195 0
172 195 0
169 193 0
170 193 0
173 195 0
171 192 0
175 197 0
170 193 0
172 195 0
171 194 0
173 195 0
170 194 0
171 193 0
173 194 0
173 195 0
172 194 0
174 196 0
172 195 0
173 196 0
172 194 0
172 195 0
171 194 0
173 196 0
172 195 0
173 196 0
170 194 0
172 194 0
174 197 0
172 194 0
173 196 0
172 194 0
172 195 0
174 195 0
173 196 0
173 195 0
173 194 0
171 194 0
174 197 0
172 195 0
174 197 0
173 196 0
171 194 0
171 194 0
172 195 0
173 196 0
173 196 0
174 196 0
174 198 0
174 197 0
172 196 0
172 195 0
173 196 0
172 195 0
170 193 0
171 194 0
171 194 0
172 194 0
173 195 0
173 195 0
171 194 0
172 195 0
171 193 0
172 195 0
172 195 0
172 195 0
171 194 0
172 194 0
173 195 0
173 196 0
172 195 0
171 194 0
172 194 0
171 194 0
172 194 0
170 192 0
172 195 0
172 194 0
172 193 0
170 194 0
171 193 0
172 194 0
172 195 0
170 193 0
169 191 0
170 194 0
171 194 0
171 194 0
172 193 0
171 194 0
171 193 0
170 193 0
173 195 0
172 194 0
172 195 0
169 193 0
172 195 0
171 194 0
169 193 0
171 194 0
168 191 0
171 194 0
169 192 0
171 193 0
171 194 0
170 193 0
171 193 0
169 192 0
171 192 0
172 196 25
172 195 0
174 196 18
172 195 18
172 195 18
171 193 28
171 193 25
172 195 25
173 197 36
175 197 44
170 192 40
171 193 51
171 192 47
169 191 58
170 192 44
170 190 61
171 193 54
172 194 58
168 190 61
170 192 64
166 188 70
169 190 71
164 186 69
167 189 74
169 189 70
171 193 75
170 192 80
168 189 85
166 189 74
169 190 82
167 186 81
170 190 71
167 188 75
170 190 83
175 195 95
165 184 74
174 192 88
173 192 91
169 186 67
170 187 91
168 186 76
167 186 61
168 186 87
169 186 89
169 189 87
166 185 84
174 192 104
168 186 88
172 191 94
170 191 94
170 189 84
170 189 103
168 187 92
165 182 88
167 184 100
170 189 102
169 188 88
169 187 84
167 187 97
167 186 102
165 185 82
165 184 90
167 185 95
167 185 90
163 182 97
162 180 76
161 178 65
163 182 92
163 181 90
164 184 70
169 187 92
165 182 76
165 184 78
162 180 92
159 177 70
159 177 74
164 183 92
160 176 84
165 181 90
164 182 78
163 182 80
163 182 74
159 177 67
161 178 80
161 180 51
157 175 44
153 170 44
159 178 25
157 174 25
159 178 36
157 177 25
158 177 25
159 180 31
159 179 0
156 175 18
158 179 0
153 171 0
156 177 0
153 173 0
155 174 0
152 172 0
155 173 0
150 168 0
150 168 0
150 166 0
149 167 0
152 169 0
154 171 0
147 166 0
148 167 0
146 163 0
150 167 0
142 161 0
150 166 0
144 160 0
146 164 0
154 172 0
151 169 0
152 170 0
148 167 0
148 167 0
147 165 0
146 165 0
155 175 0
147 163 0
151 171 0
148 168 0
150 169 0
153 172 0
148 166 0
153 170 0
145 163 0
146 165 0
154 172 0
150 169 0
155 174 0
152 171 0
149 166 0
149 169 0
156 175 0
148 164 0
153 172 0
151 170 0
153 171 0
149 170 0
156 176 0
154 174 0
149 168 0
151 171 0
152 172 0
149 168 0
158 178 0
156 175 0
150 168 0
154 170 0
154 174 0
155 174 0
155 174 0
154 174 0
155 175 0
157 175 0
155 175 0
157 175 0
159 178 0
155 175 0
158 178 0
154 173 0
155 175 0
164 184 0
157 174 0
158 180 0
159 179 0
156 174 0
155 175 0
160 181 0
157 175 0
161 181 0
157 176 0
156 175 0
160 181 0
161 181 0
160 180 0
158 180 0
159 177 0
162 182 0
157 178 0
157 176 0
159 181 0
160 178 0
162 182 0
161 182 0
157 177 0
161 181 0
162 182 0
161 181 0
160 179 0
163 183 0
163 184 0
163 183 0
162 181 0
165 185 0
165 186 0
162 181 0
162 183 0
162 182 0
162 183 0
166 187 0
162 182 0
163 183 0
164 185 0
163 182 0
164 186 0
161 181 0
166 186 0
167 189 0
165 187 0
167 188 0
165 186 0
166 186 0
168 190 0
167 188 0
165 186 0
165 185 0
166 186 0
165 186 0
168 191 0
168 189 0
165 187 0
167 189 0
167 187 0
163 184 0
166 187 0
167 188 0
167 188 0
168 189 0
169 191 0
168 189 0
164 186 0
167 188 0
167 189 0
167 189 0
167 188 0
167 188 0
167 189 0
166 188 0
170 192 0
169 191 0
169 189 0
170 192 0
168 190 0
168 190 0
171 192 0
168 190 0
169 191 0
169 189 0
170 193 0
166 189 0
168 191 0
168 190 0
171 193 0
173 195 0
170 192 0
168 191 0
170 188 0
167 189 0
171 193 0
171 194 0
170 192 0
170 193 0
171 193 0
169 192 0
169 189 0
169 191 0
171 193 0
168 190 0
169 191 0
171 192 0
171 193 0
170 191 0
170 192 0
171 193 0
172 194 0
171 194 0
170 193 0
173 195 0
170 192 0
171 193 0
173 195 0
170 192 0
172 194 0
173 196 0
172 193 0
171 193 0
172 195 0
173 196 0
171 194 0
172 195 0
173 195 0
172 194 0
173 196 0
171 193 0
173 195 0
170 194 0
173 195 0
171 194 0
172 196 0
171 193 0
171 193 0
172 195 0
173 195 0
170 192 0
173 196 0
172 195 0
172 195 0
172 194 0
174 197 0
173 196 0
172 195 0
172 194 0
172 194 0
173 195 0
172 195 0
173 195 0
172 195 0
174 196 0
172 194 0
174 196 0
173 196 0
171 195 0
172 195 0
173 196 0
172 196 0
173 195 0
173 196 0
173 196 0
172 196 0
173 196 0
172 195 0
172 195 0
173 196 0
171 195 0
171 195 0
174 196 0
174 197 0
170 193 0
173 196 0
172 195 0
172 195 0
172 195 0
171 194 0
172 195 0
174 196 0
171 194 0
173 195 0
172 195 0
172 194 0
171 194 0
173 196 0
170 193 0
170 194 0
173 196 0
172 195 0
171 194 0
172 194 0
173 196 0
171 194 0
170 190 0
172 194 0
172 194 0
170 193 0
171 193 0
172 194 0
169 191 0
172 194 0
171 193 0
171 193 0
170 193 0
172 195 0
171 194 0
169 192 0
171 194 0
170 192 0
171 194 0
172 194 0
170 191 0
170 192 0
171 194 0
170 193 0
169 191 0
171 194 0
170 193 0
171 194 0
166 188 0
169 191 0
170 193 0
172 195 0
170 193 0
171 194 0
171 194 0
171 194 0
171 193 0
172 195 0
171 194 18
173 194 25
173 196 25
172 195 18
172 194 31
171 194 22
174 196 36
173 196 31
173 196 25
172 194 40
170 192 36
169 192 51
166 189 25
166 187 49
169 192 49
166 187 52
165 186 46
170 190 64
167 188 57
165 187 66
169 191 82
165 185 67
166 188 87
167 188 74
167 187 68
167 188 66
165 187 80
169 191 81
167 188 74
169 189 84
171 190 75
170 191 75
170 189 87
169 188 73
169 188 90
171 187 91
169 188 70
170 188 66
166 183 66
168 184 62
168 185 78
168 187 103
171 187 90
170 189 85
169 188 90
173 193 101
167 185 77
173 193 100
172 191 88
172 192 94
167 187 94
171 191 95
167 187 94
167 187 97
167 187 108
169 189 103
164 182 76
163 183 88
167 187 88
166 185 86
165 183 82
172 191 92
159 178 86
171 189 105
165 185 74
162 180 82
170 190 110
164 181 90
164 183 86
163 180 82
165 182 76
160 178 70
164 181 72
160 180 78
159 177 74
163 182 72
164 181 86
163 181 76
161 179 67
163 181 65
164 181 57
157 176 65
159 176 62
156 176 47
160 181 31
160 179 44
153 173 31
157 178 31
160 180 25
161 180 18
162 182 44
159 180 0
159 181 0
156 175 0
158 177 0
157 177 0
151 170 0
153 173 0
147 163 0
146 163 0
150 168 0
150 168 0
148 167 0
145 165 0
141 158 0
147 165 0
150 167 0
153 172 0
152 171 0
149 167 0
152 170 0
145 163 0
147 166 0
152 170 0
147 166 0
152 171 0
145 162 0
148 165 0
146 166 0
145 165 0
150 167 0
149 168 0
151 170 0
151 170 0
151 171 0
152 171 0
150 168 0
149 166 0
147 166 0
148 167 0
150 166 0
153 173 0
148 167 0
151 170 0
152 171 0
152 171 0
147 167 0
157 175 0
152 170 0
153 173 0
152 173 0
148 167 0
155 173 0
147 167 0
154 174 0
152 172 0
151 170 0
151 169 0
150 169 0
148 165 0
154 173 0
150 167 0
156 174 0
152 170 0
154 171 0
153 173 0
156 175 0
154 174 0
155 176 0
155 175 0
158 178 0
158 177 0
156 177 0
158 177 0
155 175 0
152 170 0
156 176 0
161 182 0
153 172 0
153 173 0
161 179 0
159 178 0
154 173 0
160 180 0
159 179 0
157 177 0
159 179 0
156 177 0
160 179 0
155 173 0
157 178 0
160 181 0
160 180 0
157 178 0
158 179 0
165 188 0
161 183 0
161 181 0
157 178 0
156 177 0
160 180 0
157 177 0
157 176 0
161 182 0
163 182 0
160 181 0
161 182 0
160 180 0
163 185 0
163 183 0
166 187 0
165 185 0
165 185 0
162 183 0
164 184 0
163 184 0
163 184 0
164 184 0
166 187 0
166 187 0
164 185 0
161 181 0
165 186 0
165 184 0
164 185 0
163 186 0
166 186 0
168 190 0
166 187 0
166 188 0
167 188 0
167 188 0
166 188 0
167 187 0
166 186 0
170 191 0
167 188 0
167 187 0
166 188 0
165 186 0
166 187 0
168 190 0
168 190 0
166 187 0
167 190 0
168 187 0
168 189 0
167 189 0
168 190 0
169 192 0
168 189 0
170 192 0
169 190 0
170 192 0
166 188 0
171 193 0
168 189 0
167 188 0
169 189 0
169 190 0
170 191 0
170 192 0
170 192 0
169 190 0
170 192 0
169 192 0
171 192 0
171 193 0
169 191 0
170 192 0
171 193 0
171 193 0
169 192 0
170 192 0
169 190 0
169 192 0
171 193 0
171 193 0
171 193 0
171 194 0
171 193 0
172 195 0
170 192 0
168 191 0
169 191 0
172 194 0
171 193 0
172 194 0
171 193 0
171 194 0
172 195 0
171 193 0
170 193 0
171 193 0
171 193 0
168 191 0
172 195 0
171 193 0
173 196 0
173 195 0
170 192 0
173 195 0
172 193 0
175 198 0
171 193 0
172 194 0
171 194 0
171 193 0
171 194 0
170 193 0
172 194 0
172 194 0
171 193 0
172 193 0
172 193 0
171 194 0
172 194 0
171 194 0
172 194 0
173 195 0
171 193 0
172 194 0
172 194 0
171 193 0
171 194 0
170 192 0
172 194 0
172 195 0
171 195 0
173 195 0
173 196 0
174 196 0
173 196 0
172 196 0
172 195 0
172 195 0
173 195 0
172 195 0
171 194 0
172 196 0
173 196 0
172 195 0
173 196 0
171 195 0
173 196 0
174 197 0
172 196 0
172 195 0
171 194 0
170 193 0
171 195 0
173 196 0
172 195 0
172 195 0
172 195 0
172 195 0
172 194 0
171 193 0
172 195 0
173 197 0
170 193 0
170 193 0
172 195 0
173 196 0
172 195 0
172 194 0
172 194 0
172 196 0
171 194 0
172 195 0
172 194 0
172 195 0
171 194 0
172 194 0
171 194 0
170 194 0
170 192 0
169 193 0
172 195 0
172 194 0
171 194 0
172 194 0
170 193 0
169 191 0
171 193 0
170 193 0
167 190 0
169 192 0
169 193 0
170 193 0
170 192 0
167 189 0
171 193 0
171 193 0
171 193 0
171 194 0
170 193 0
172 194 0
168 191 0
172 194 0
171 193 0
169 192 0
171 192 0
169 192 0
170 193 0
171 193 0
171 193 0
170 193 0
169 192 0
172 195 0
172 194 0
172 195 0
171 194 0
172 194 0
171 193 28
172 195 25
173 195 18
171 194 18
168 190 42
171 194 31
174 195 47
169 192 36
170 192 40
170 193 36
170 192 60
168 189 54
168 190 61
169 190 58
167 188 65
162 183 60
166 187 73
168 189 74
166 187 67
163 184 67
164 186 53
160 182 70
166 188 65
167 187 88
167 187 71
169 189 83
171 191 82
171 189 87
172 191 78
170 189 77
171 189 66
176 194 87
173 191 82
173 191 65
167 185 77
170 186 62
172 191 86
168 186 79
165 182 74
172 191 89
171 190 92
169 189 82
171 191 94
171 192 100
170 190 100
165 184 94
171 192 107
173 191 97
172 191 103
172 192 108
171 191 92
170 189 92
170 188 110
169 189 113
167 187 88
172 191 94
162 182 78
171 189 86
168 187 90
167 185 100
167 184 99
163 181 84
167 185 74
157 176 67
165 184 94
163 181 80
165 182 72
164 183 70
161 181 67
161 179 74
163 183 94
164 182 67
161 179 62
163 181 84
160 178 62
161 179 62
160 177 65
156 175 65
156 173 65
153 170 44
161 180 36
154 172 40
159 178 47
155 173 18
158 175 31
161 180 25
153 170 25
158 178 0
160 180 0
157 177 0
154 172 0
161 182 0
159 178 0
149 167 0
158 175 0
151 170 0
153 172 0
157 175 0
154 173 0
146 165 0
152 172 0
148 166 0
147 163 0
152 170 0
148 165 0
149 167 0
155 174 0
150 170 0
152 170 0
145 161 0
154 173 0
144 162 0
145 163 0
151 169 0
151 169 0
149 166 0
155 172 0
152 170 0
151 171 0
151 172 0
151 170 0
153 173 0
157 176 0
154 172 0
151 171 0
148 167 0
152 172 0
154 172 0
147 165 0
151 171 0
152 170 0
150 168 0
152 171 0
152 170 0
153 174 0
151 170 0
156 174 0
156 175 0
156 176 0
150 169 0
153 173 0
155 175 0
153 171 0
151 169 0
153 172 0
153 173 0
156 174 0
157 176 0
158 176 0
157 176 0
154 173 0
154 173 0
159 179 0
155 174 0
154 172 0
158 179 0
155 175 0
162 184 0
161 180 0
153 173 0
154 173 0
155 173 0
154 174 0
162 183 0
155 174 0
156 175 0
161 179 0
158 179 0
158 178 0
156 176 0
158 177 0
160 181 0
158 177 0
162 181 0
158 178 0
161 182 0
160 180 0
165 186 0
160 180 0
162 183 0
164 185 0
163 183 0
161 182 0
162 184 0
162 183 0
160 179 0
161 181 0
163 184 0
160 180 0
163 183 0
165 186 0
163 185 0
165 186 0
161 181 0
162 181 0
163 184 0
166 187 0
164 184 0
165 186 0
166 186 0
163 183 0
162 184 0
161 182 0
166 187 0
165 186 0
165 187 0
165 186 0
166 188 0
166 186 0
165 186 0
167 188 0
169 191 0
165 187 0
168 189 0
169 190 0
167 188 0
167 188 0
166 188 0
164 186 0
166 188 0
165 187 0
168 189 0
166 187 0
170 192 0
165 187 0
164 185 0
169 189 0
166 188 0
169 190 0
168 189 0
169 191 0
168 189 0
165 188 0
169 192 0
168 190 0
170 192 0
168 186 0
168 189 0
167 188 0
170 191 0
167 189 0
164 185 0
168 189 0
167 188 0
166 189 0
169 191 0
170 190 0
169 190 0
169 191 0
169 191 0
172 194 0
170 193 0
169 191 0
171 194 0
168 189 0
169 191 0
171 193 0
170 193 0
168 191 0
168 190 0
171 193 0
171 192 0
168 191 0
170 192 0
171 194 0
170 192 0
171 193 0
170 192 0
171 193 0
172 194 0
170 193 0
173 195 0
172 194 0
171 194 0
172 194 0
171 194 0
170 194 0
171 193 0
172 194 0
169 192 0
172 195 0
172 194 0
170 191 0
172 194 0
171 193 0
171 194 0
169 192 0
172 195 0
171 193 0
171 193 0
169 192 0
173 195 0
173 195 0
172 195 0
170 193 0
172 195 0
172 194 0
173 195 0
174 196 0
171 194 0
170 194 0
172 195 0
171 193 0
172 193 0
172 195 0
173 196 0
171 194 0
172 195 0
172 195 0
173 196 0
173 195 0
174 196 0
172 195 0
172 194 0
172 195 0
172 195 0
174 196 0
173 196 0
173 195 0
172 194 0
173 196 0
173 196 0
173 196 0
173 195 0
171 194 0
172 194 0
173 196 0
173 196 0
172 196 0
173 196 0
175 197 0
173 196 0
174 197 0
172 195 0
174 197 0
171 195 0
172 195 0
172 194 0
172 195 0
173 196 0
170 193 0
172 194 0
173 195 0
172 193 0
171 194 0
171 194 0
172 195 0
174 197 0
172 195 0
173 195 0
172 195 0
172 193 0
172 195 0
171 193 0
173 196 0
171 195 0
171 194 0
171 195 0
173 196 0
172 195 0
169 190 0
171 194 0
169 192 0
171 193 0
170 192 0
170 193 0
171 195 0
170 193 0
170 192 0
171 194 0
172 194 0
171 193 0
172 194 0
173 196 0
170 192 0
170 191 0
170 193 0
171 193 0
171 192 0
171 193 0
170 192 0
170 193 0
169 191 0
172 194 0
170 192 0
171 193 0
171 192 0
169 192 0
170 192 0
170 192 0
170 192 0
170 193 0
172 195 0
171 194 0
171 194 0
173 195 0
171 194 0
174 196 0
171 194 0
170 193 0
171 194 28
171 194 18
172 195 25
171 193 31
171 194 31
172 195 25
171 194 36
172 193 57
168 189 31
171 194 36
166 187 42
170 191 60
169 190 58
170 191 40
165 186 49
164 186 38
164 186 55
168 190 61
166 188 72
168 189 70
165 186 75
168 189 70
170 191 72
166 186 65
168 187 80
163 184 73
165 184 74
167 186 83
169 189 97
170 191 77
171 190 69
173 189 77
171 188 81
171 187 76
170 186 64
168 184 67
168 184 63
169 184 65
171 190 78
171 188 80
173 192 82
170 187 89
166 184 87
168 187 94
171 190 94
169 189 76
171 190 110
169 188 86
170 189 78
167 186 90
168 188 94
169 188 95
167 187 82
171 189 99
168 187 88
166 184 88
164 181 90
169 187 84
167 186 97
164 182 82
168 187 92
165 184 74
164 183 76
160 177 92
166 185 60
164 181 60
165 182 70
160 179 78
162 180 97
163 183 60
166 185 100
160 178 60
159 176 65
165 184 60
163 180 54
161 180 74
162 180 57
164 182 67
163 182 70
156 175 44
161 180 31
158 177 40
158 177 40
160 182 18
159 178 31
159 179 18
159 180 0
163 182 0
155 175 0
155 175 0
154 175 0
151 171 0
154 173 0
152 169 0
149 167 0
149 166 0
157 175 0
156 174 0
153 171 0
152 170 0
152 168 0
151 168 0
149 164 0
151 166 0
152 170 0
152 171 0
153 172 0
149 168 0
148 168 0
151 171 0
150 168 0
151 169 0
147 165 0
150 169 0
153 173 0
148 166 0
150 168 0
151 170 0
157 176 0
154 174 0
151 171 0
155 175 0
149 168 0
153 172 0
149 168 0
154 173 0
157 176 0
148 167 0
155 175 0
154 174 0
158 178 0
152 172 0
153 174 0
153 172 0
153 173 0
153 172 0
155 173 0
149 168 0
152 171 0
154 174 0
155 174 0
151 170 0
151 171 0
152 171 0
152 172 0
159 179 0
151 170 0
160 179 0
157 177 0
155 174 0
155 175 0
155 175 0
160 181 0
156 177 0
153 172 0
155 174 0
156 175 0
153 173 0
153 173 0
158 177 0
163 182 0
156 175 0
156 176 0
158 178 0
159 179 0
159 178 0
159 177 0
157 177 0
155 175 0
158 177 0
158 178 0
162 184 0
158 178 0
162 182 0
162 183 0
158 179 0
157 177 0
158 177 0
158 179 0
162 182 0
157 177 0
162 182 0
162 181 0
163 184 0
162 182 0
161 183 0
159 180 0
165 184 0
166 187 0
160 180 0
160 178 0
163 183 0
161 181 0
162 184 0
164 185 0
165 187 0
163 184 0
168 190 0
164 183 0
167 189 0
166 186 0
166 188 0
164 186 0
165 186 0
168 188 0
166 186 0
167 190 0
166 186 0
164 186 0
163 183 0
161 181 0
165 185 0
166 186 0
166 187 0
163 184 0
166 186 0
166 186 0
168 187 0
165 187 0
166 188 0
166 187 0
164 184 0
164 186 0
169 190 0
168 189 0
167 189 0
167 190 0
168 189 0
168 190 0
164 185 0
164 185 0
167 189 0
164 186 0
169 190 0
167 189 0
169 190 0
169 189 0
169 193 0
171 193 0
167 189 0
167 187 0
170 191 0
169 191 0
170 192 0
170 192 0
170 192 0
170 192 0
168 190 0
169 192 0
168 189 0
169 191 0
169 191 0
168 190 0
167 189 0
170 192 0
170 192 0
171 192 0
169 192 0
170 192 0
167 189 0
169 191 0
171 193 0
169 191 0
171 193 0
171 193 0
171 193 0
171 193 0
171 193 0
168 189 0
171 193 0
169 192 0
170 192 0
169 191 0
171 195 0
171 193 0
171 193 0
168 190 0
170 194 0
171 193 0
170 192 0
172 195 0
171 193 0
174 195 0
171 194 0
170 193 0
171 193 0
170 193 0
171 193 0
170 192 0
173 196 0
169 192 0
171 194 0
172 194 0
170 194 0
172 196 0
173 195 0
174 196 0
172 194 0
170 193 0
172 195 0
172 195 0
172 194 0
169 190 0
171 194 0
173 196 0
171 195 0
172 195 0
174 197 0
172 195 0
172 195 0
169 192 0
170 194 0
171 193 0
170 193 0
172 196 0
172 194 0
173 196 0
172 195 0
173 196 0
173 196 0
173 197 0
173 196 0
173 195 0
173 197 0
171 195 0
173 197 0
173 196 0
173 196 0
174 197 0
171 194 0
173 195 0
171 193 0
173 196 0
173 196 0
173 196 0
171 194 0
173 196 0
172 195 0
172 195 0
172 195 0
173 196 0
173 197 0
172 195 0
171 195 0
170 193 0
171 194 0
172 196 0
172 195 0
172 194 0
172 195 0
172 196 0
173 195 0
171 194 0
172 194 0
171 194 0
171 194 0
173 195 0
172 194 0
171 195 0
173 196 0
171 194 0
173 194 0
169 191 0
172 194 0
169 191 0
168 191 0
169 191 0
171 193 0
172 195 0
171 194 0
170 192 0
171 195 0
171 195 0
173 196 0
170 193 0
170 193 0
171 193 0
169 192 0
172 194 0
169 192 0
171 195 0
170 193 0
171 193 0
170 192 0
170 193 0
169 191 0
169 192 0
171 192 0
170 192 0
169 191 0
172 194 0
169 191 0
170 193 0
169 193 0
171 193 0
171 194 0
173 195 0
172 195 0
173 195 18
173 195 0
173 195 25
171 194 18
172 194 18
172 195 18
171 194 31
172 194 31
172 194 42
172 194 31
169 191 47
170 192 44
168 189 38
168 190 43
168 191 47
168 191 40
169 191 67
169 191 52
170 192 55
166 188 66
168 189 71
168 189 68
167 188 76
167 188 58
169 190 68
169 190 63
168 189 60
167 186 81
169 189 67
171 191 79
171 190 77
173 190 77
170 187 76
169 184 73
172 189 72
168 183 56
172 188 64
171 187 72
168 180 63
173 188 77
172 189 68
165 179 66
170 188 85
169 187 88
167 185 78
168 188 86
170 188 82
172 190 90
169 188 84
173 192 95
170 189 84
175 192 86
168 187 88
171 188 92
166 185 84
167 185 84
167 186 84
166 185 80
169 186 88
163 181 72
168 187 97
159 174 70
167 185 82
166 186 86
163 182 74
166 185 72
165 182 78
162 180 72
167 187 70
167 187 82
164 182 80
164 183 72
164 182 57
162 179 57
165 183 65
161 179 54
161 180 57
161 178 62
160 180 54
156 175 47
159 177 36
163 182 44
155 172 36
158 177 25
158 178 36
162 182 40
155 174 0
153 172 0
158 176 0
160 179 0
158 178 0
154 175 0
158 178 0
157 177 0
156 177 0
156 175 0
154 171 0
154 173 0
151 170 0
149 168 0
154 171 0
153 172 0
151 169 0
154 172 0
155 174 0
153 171 0
149 167 0
151 169 0
145 162 0
153 173 0
152 172 0
152 169 0
151 170 0
151 168 0
151 168 0
153 172 0
147 165 0
149 169 0
154 172 0
150 166 0
156 174 0
156 176 0
151 170 0
156 176 0
152 171 0
146 164 0
154 174 0
150 168 0
156 175 0
153 173 0
149 166 0
153 172 0
153 172 0
151 169 0
155 173 0
148 166 0
151 169 0
154 173 0
152 172 0
151 170 0
151 168 0
154 173 0
153 173 0
153 173 0
157 179 0
156 176 0
155 173 0
152 172 0
158 179 0
156 175 0
157 177 0
158 178 0
158 176 0
159 179 0
152 172 0
153 174 0
156 177 0
156 174 0
157 177 0
162 181 0
158 179 0
155 174 0
155 175 0
160 181 0
160 180 0
157 176 0
161 181 0
159 180 0
161 182 0
158 180 0
152 171 0
156 173 0
156 176 0
161 182 0
160 181 0
162 184 0
161 181 0
161 182 0
159 179 0
157 178 0
161 180 0
161 182 0
161 180 0
162 182 0
160 181 0
165 186 0
165 187 0
166 185 0
167 186 0
163 184 0
164 183 0
164 185 0
163 184 0
157 176 0
162 182 0
166 186 0
161 181 0
165 185 0
165 186 0
162 183 0
160 181 0
165 185 0
163 185 0
164 186 0
164 186 0
166 187 0
167 189 0
163 183 0
167 188 0
168 190 0
165 185 0
167 189 0
166 187 0
160 181 0
168 190 0
166 188 0
169 190 0
165 187 0
167 189 0
167 190 0
168 190 0
166 187 0
168 189 0
167 189 0
169 191 0
167 187 0
168 190 0
166 188 0
168 189 0
169 190 0
165 186 0
168 189 0
168 189 0
167 189 0
170 192 0
169 191 0
166 187 0
170 192 0
170 193 0
166 187 0
167 189 0
167 189 0
165 185 0
169 190 0
169 191 0
169 191 0
170 193 0
171 193 0
171 192 0
169 192 0
169 191 0
172 194 0
170 193 0
170 193 0
170 192 0
168 190 0
167 189 0
168 191 0
171 193 0
171 193 0
169 191 0
171 193 0
170 192 0
172 194 0
171 194 0
169 191 0
172 193 0
171 193 0
170 191 0
171 194 0
171 193 0
169 191 0
173 196 0
172 194 0
170 192 0
170 191 0
171 192 0
172 194 0
170 193 0
172 194 0
172 194 0
172 194 0
169 192 0
170 193 0
171 194 0
170 191 0
172 194 0
172 194 0
170 193 0
172 194 0
172 195 0
173 195 0
171 194 0
171 193 0
173 195 0
173 196 0
171 192 0
173 195 0
172 195 0
172 195 0
173 195 0
172 195 0
170 193 0
173 196 0
172 196 0
172 195 0
171 194 0
170 193 0
171 195 0
171 194 0
173 195 0
170 192 0
174 196 0
171 194 0
171 194 0
175 196 0
172 195 0
171 194 0
171 194 0
173 196 0
173 196 0
172 193 0
173 196 0
173 196 0
174 196 0
171 194 0
171 195 0
173 195 0
173 195 0
173 196 0
172 196 0
172 195 0
173 196 0
173 196 0
173 197 0
172 196 0
171 194 0
172 194 0
173 196 0
172 195 0
171 194 0
171 195 0
171 194 0
171 194 0
171 194 0
171 193 0
171 194 0
174 196 0
172 195 0
172 195 0
172 195 0
171 194 0
171 194 0
172 194 0
170 194 0
171 193 0
170 193 0
170 193 0
172 194 0
171 194 0
170 194 0
169 193 0
171 193 0
172 194 0
172 195 0
171 193 0
172 194 0
172 195 0
170 192 0
170 193 0
171 194 0
173 196 0
171 194 0
170 193 0
171 193 0
171 194 0
173 196 0
174 197 0
170 192 0
169 192 0
169 193 0
171 193 0
173 196 0
169 190 0
171 193 0
172 195 0
172 194 0
170 192 0
171 194 0
170 193 0
171 193 0
171 193 0
171 193 0
172 195 0
170 193 0
173 195 0
171 193 0
172 194 0
172 195 0
171 193 0
174 196 12
170 194 0
171 194 18
172 194 0
172 195 28
170 193 28
171 193 33
170 193 18
172 195 28
169 191 36
168 191 36
171 195 28
169 192 58
170 192 51
167 190 44
167 189 43
164 185 46
166 188 41
168 190 57
163 185 56
167 189 58
166 187 51
168 188 64
166 187 58
165 185 69
164 185 65
167 186 78
169 190 64
167 186 69
167 185 60
168 186 67
167 183 60
167 185 63
168 187 71
168 186 60
169 185 69
170 186 54
173 189 82
170 187 63
171 187 73
173 191 65
170 188 74
171 188 85
173 191 70
167 185 82
171 192 96
171 190 94
165 183 82
170 189 86
171 190 74
167 187 60
168 186 70
168 186 80
169 188 92
169 190 86
169 187 74
163 182 92
168 186 92
168 188 88
165 183 86
166 184 88
162 178 84
167 186 97
167 186 78
167 185 62
168 187 84
166 185 92
166 184 86
163 181 72
163 181 76
163 181 65
166 185 78
168 187 84
159 176 62
163 181 80
162 179 65
153 172 62
160 178 57
162 182 44
165 184 51
164 181 67
159 178 31
161 182 18
160 180 36
162 182 25
157 176 25
156 176 0
156 175 0
158 177 18
157 176 0
154 173 0
163 184 0
159 179 0
154 172 0
154 174 0
150 169 0
151 168 0
156 175 0
154 173 0
155 173 0
148 166 0
147 165 0
152 171 0
151 170 0
151 171 0
154 172 0
151 170 0
153 172 0
152 170 0
151 170 0
153 170 0
149 167 0
154 173 0
153 172 0
150 170 0
150 168 0
151 170 0
150 168 0
151 169 0
151 170 0
147 166 0
151 171 0
156 176 0
157 174 0
147 167 0
149 168 0
151 168 0
150 170 0
151 171 0
154 174 0
151 172 0
154 174 0
159 179 0
157 175 0
150 170 0
148 167 0
154 172 0
151 171 0
154 173 0
153 172 0
150 170 0
155 174 0
156 178 0
155 175 0
157 177 0
153 172 0
155 175 0
159 179 0
155 175 0
147 164 0
156 176 0
158 176 0
150 171 0
157 175 0
153 173 0
156 176 0
151 170 0
157 177 0
158 177 0
158 178 0
154 172 0
158 179 0
160 179 0
156 175 0
155 174 0
160 181 0
162 184 0
162 184 0
157 178 0
158 178 0
158 179 0
158 178 0
159 179 0
157 178 0
160 180 0
157 178 0
160 181 0
160 179 0
165 187 0
159 179 0
160 182 0
161 180 0
161 183 0
159 179 0
162 182 0
162 183 0
160 180 0
160 182 0
165 187 0
163 185 0
162 183 0
160 181 0
163 183 0
163 182 0
166 187 0
158 178 0
164 186 0
163 183 0
165 187 0
166 185 0
165 186 0
163 183 0
165 186 0
160 180 0
166 188 0
163 185 0
164 185 0
164 184 0
166 186 0
166 188 0
162 182 0
166 186 0
167 189 0
169 189 0
166 188 0
166 187 0
163 184 0
169 190 0
167 188 0
167 189 0
169 190 0
166 188 0
166 187 0
164 184 0
167 189 0
166 188 0
164 185 0
168 190 0
167 188 0
169 190 0
168 188 0
166 188 0
167 189 0
167 187 0
171 191 0
168 190 0
167 189 0
167 189 0
168 189 0
168 190 0
169 191 0
171 193 0
170 191 0
169 192 0
171 192 0
171 193 0
167 188 0
168 191 0
169 189 0
168 191 0
168 189 0
171 193 0
169 190 0
168 189 0
169 192 0
170 192 0
169 191 0
169 192 0
170 192 0
171 193 0
172 195 0
170 191 0
168 191 0
169 189 0
168 190 0
170 193 0
171 192 0
170 193 0
170 192 0
172 194 0
170 193 0
170 192 0
172 194 0
172 194 0
172 194 0
172 194 0
171 193 0
172 194 0
172 195 0
170 192 0
171 194 0
171 194 0
172 194 0
170 192 0
172 194 0
172 194 0
171 192 0
172 194 0
169 192 0
171 193 0
172 194 0
173 196 0
171 193 0
174 196 0
170 192 0
171 193 0
172 195 0
174 197 0
171 194 0
172 194 0
169 192 0
170 194 0
173 194 0
172 193 0
172 194 0
172 196 0
172 195 0
171 193 0
173 196 0
172 195 0
172 195 0
173 196 0
174 197 0
173 196 0
174 196 0
170 193 0
172 194 0
173 196 0
175 198 0
172 195 0
172 194 0
172 194 0
173 195 0
172 195 0
173 197 0
172 196 0
172 195 0
172 195 0
174 196 0
173 196 0
171 194 0
172 194 0
174 197 0
171 194 0
172 195 0
173 196 0
173 196 0
173 195 0
172 195 0
171 194 0
172 195 0
170 192 0
175 198 0
171 195 0
170 194 0
172 195 0
173 196 0
172 196 0
172 195 0
172 195 0
172 195 0
173 195 0
173 195 0
171 194 0
170 193 0
172 195 0
171 194 0
174 196 0
173 196 0
170 193 0
172 195 0
172 195 0
172 195 0
171 194 0
172 194 0
170 193 0
172 195 0
173 194 0
169 191 0
171 193 0
172 195 0
171 194 0
171 194 0
172 195 0
170 191 0
171 193 0
171 195 0
169 193 0
169 190 0
170 194 0
169 192 0
172 194 0
169 192 0
172 195 0
169 191 0
170 193 0
171 194 0
171 193 0
172 193 0
170 193 0
169 191 0
170 193 0
167 189 0
170 192 0
172 194 0
171 192 0
170 192 0
171 193 0
171 193 0
171 193 0
171 194 0
172 195 0
173 195 18
170 193 18
171 194 0
169 192 0
171 194 31
173 195 18
169 192 31
172 195 40
169 191 31
167 189 36
172 193 46
170 192 42
167 188 33
168 189 38
167 188 51
167 188 52
169 190 46
166 188 51
167 188 49
167 188 65
168 189 77
166 186 68
167 187 76
167 187 67
168 188 66
164 182 69
168 186 70
167 185 66
165 182 68
167 185 39
167 186 59
170 186 60
172 188 52
171 185 75
171 188 42
169 185 68
170 185 74
167 181 63
166 182 62
172 189 56
173 190 79
171 189 86
172 191 95
171 188 89
171 189 78
173 192 78
165 184 88
171 189 94
172 190 78
170 188 86
168 186 78
170 188 76
166 185 86
165 184 90
165 182 80
169 189 86
170 189 74
166 185 72
163 182 65
166 184 86
163 181 62
165 183 70
167 186 72
162 180 72
162 182 70
162 182 74
165 184 80
168 186 90
162 182 72
163 182 74
163 182 80
164 182 51
164 183 65
163 181 65
161 180 51
166 183 54
164 181 51
158 176 25
162 178 51
159 177 36
161 180 25
161 181 25
161 179 36
159 180 25
163 184 18
158 179 25
159 180 18
160 179 0
157 176 0
158 177 0
152 172 0
153 173 0
163 183 0
151 169 0
157 174 0
155 174 0
155 173 0
153 172 0
150 170 0
156 175 0
154 173 0
151 170 0
161 180 0
152 169 0
153 170 0
152 172 0
158 178 0
149 166 0
150 167 0
150 166 0
158 178 0
151 170 0
154 173 0
150 168 0
158 176 0
152 171 0
154 174 0
152 173 0
150 168 0
160 177 0
151 168 0
149 169 0
155 176 0
154 174 0
152 173 0
152 173 0
153 173 0
155 175 0
145 165 0
153 173 0
151 170 0
152 171 0
155 174 0
151 168 0
153 173 0
154 171 0
154 172 0
154 172 0
157 176 0
156 175 0
154 172 0
157 176 0
155 175 0
155 174 0
157 175 0
152 172 0
159 179 0
154 173 0
159 177 0
158 178 0
152 171 0
153 171 0
161 180 0
160 179 0
155 175 0
158 179 0
161 183 0
158 179 0
159 179 0
158 177 0
156 176 0
156 176 0
160 180 0
160 181 0
161 179 0
158 178 0
160 179 0
160 179 0
156 175 0
162 183 0
159 179 0
159 179 0
162 182 0
161 182 0
159 180 0
163 184 0
159 179 0
162 184 0
163 183 0
158 179 0
159 180 0
161 182 0
167 187 0
159 179 0
159 180 0
162 181 0
163 184 0
161 181 0
164 184 0
162 182 0
164 183 0
163 184 0
167 189 0
159 179 0
164 185 0
159 178 0
161 182 0
164 184 0
163 184 0
164 183 0
166 188 0
165 186 0
162 181 0
165 186 0
165 186 0
168 188 0
163 183 0
169 190 0
168 189 0
165 187 0
164 184 0
166 187 0
165 187 0
165 186 0
164 185 0
168 189 0
167 188 0
167 186 0
163 184 0
168 190 0
167 188 0
168 190 0
165 186 0
169 190 0
167 188 0
169 190 0
168 190 0
169 191 0
169 191 0
168 190 0
166 188 0
168 189 0
166 188 0
169 191 0
164 186 0
167 189 0
169 191 0
170 191 0
169 190 0
169 191 0
169 189 0
169 190 0
169 192 0
170 192 0
170 192 0
169 191 0
170 193 0
170 192 0
170 192 0
168 189 0
168 191 0
172 194 0
173 194 0
171 193 0
170 193 0
171 193 0
170 193 0
169 190 0
170 192 0
170 192 0
170 192 0
172 194 0
173 196 0
171 194 0
169 191 0
172 193 0
168 190 0
170 192 0
170 192 0
170 192 0
171 192 0
172 194 0
169 191 0
170 192 0
171 193 0
173 194 0
169 191 0
171 195 0
173 195 0
173 196 0
171 194 0
171 193 0
172 195 0
173 194 0
171 193 0
172 195 0
170 192 0
170 192 0
171 193 0
172 195 0
172 194 0
172 194 0
174 197 0
171 194 0
173 196 0
174 196 0
172 195 0
171 195 0
172 194 0
172 195 0
171 194 0
173 195 0
172 195 0
172 195 0
170 192 0
173 196 0
174 197 0
172 194 0
172 195 0
172 195 0
173 196 0
173 195 0
173 195 0
172 195 0
173 196 0
173 196 0
173 195 0
173 196 0
173 195 0
173 196 0
172 195 0
173 196 0
174 196 0
171 194 0
172 195 0
172 195 0
172 194 0
173 196 0
171 195 0
172 195 0
171 195 0
171 194 0
172 194 0
173 195 0
172 196 0
173 196 0
172 195 0
173 196 0
173 196 0
171 194 0
171 194 0
172 194 0
172 195 0
172 195 0
171 194 0
172 195 0
173 196 0
169 192 0
172 195 0
172 195 0
171 193 0
172 195 0
173 196 0
172 196 0
174 196 0
170 192 0
171 195 0
170 193 0
173 196 0
173 196 0
173 195 0
169 192 0
170 193 0
172 195 0
171 193 0
172 195 0
172 195 0
170 192 0
170 193 0
171 195 0
172 195 0
170 192 0
169 191 0
170 192 0
170 193 0
170 192 0
171 193 0
170 193 0
172 195 0
170 193 0
171 194 0
171 192 0
172 194 0
170 193 0
170 193 0
168 190 0
171 194 0
172 195 0
171 192 0
169 192 0
169 191 0
169 191 0
171 194 0
171 194 0
170 193 0
173 196 0
171 194 0
171 195 0
171 194 0
171 194 0
171 193 0
169 192 0
171 194 18
171 195 0
171 194 18
172 195 18
171 194 22
169 191 28
168 190 31
169 191 22
168 190 22
167 189 36
166 188 33
169 191 0
168 190 40
168 190 31
170 191 61
168 189 52
166 187 61
168 190 51
167 187 60
166 186 61
166 186 53
168 188 53
169 186 68
168 187 78
169 187 55
168 186 59
171 189 78
169 187 75
169 186 63
168 186 62
172 189 70
171 187 56
167 182 49
166 183 57
169 183 68
173 188 66
171 187 78
174 189 77
169 187 72
171 188 77
171 188 75
173 191 97
170 189 78
166 184 74
172 191 84
165 185 74
168 187 65
170 188 76
169 190 92
168 187 80
172 189 80
169 188 90
168 186 90
168 185 62
170 188 78
166 185 74
162 179 70
165 183 72
167 188 88
163 182 67
168 185 76
165 184 80
166 185 62
166 184 70
162 181 86
164 182 76
168 187 84
164 183 84
165 182 67
161 180 67
162 181 47
161 179 62
161 179 57
161 179 60
163 184 51
165 185 47
156 174 40
156 175 44
160 180 36
164 184 40
157 177 31
161 181 18
158 178 25
157 176 18
158 179 0
160 180 0
159 179 0
161 181 0
161 179 0
161 181 0
156 174 18
152 170 0
153 172 0
152 171 0
152 171 0
151 169 0
149 167 0
155 174 0
151 168 0
156 174 0
150 169 0
156 175 0
158 177 0
152 171 0
152 172 0
155 174 0
148 166 0
155 174 0
152 170 0
156 175 0
151 171 0
153 171 0
154 171 0
156 174 0
152 169 0
149 166 0
159 177 0
157 176 0
151 170 0
152 172 0
156 176 0
153 173 0
154 173 0
154 174 0
154 172 0
157 176 0
154 173 0
154 173 0
156 176 0
156 177 0
158 178 0
152 171 0
153 171 0
155 176 0
157 176 0
156 175 0
157 178 0
153 173 0
155 175 0
154 174 0
154 173 0
156 175 0
157 177 0
157 177 0
162 183 0
153 173 0
158 179 0
156 176 0
157 176 0
157 175 0
161 180 0
158 177 0
160 179 0
158 178 0
159 178 0
161 182 0
158 177 0
158 179 0
159 179 0
162 181 0
162 182 0
162 182 0
160 181 0
159 180 0
163 184 0
162 182 0
164 184 0
154 175 0
159 180 0
157 179 0
157 176 0
161 181 0
163 182 0
156 177 0
161 183 0
164 184 0
162 182 0
161 181 0
161 180 0
165 186 0
162 184 0
163 183 0
166 187 0
163 183 0
167 189 0
166 187 0
165 186 0
168 188 0
163 185 0
161 182 0
160 179 0
165 185 0
165 186 0
163 183 0
165 186 0
162 184 0
166 188 0
165 187 0
168 189 0
168 189 0
164 186 0
165 185 0
166 186 0
165 187 0
164 185 0
164 185 0
171 192 0
167 189 0
167 188 0
168 190 0
165 187 0
165 185 0
168 189 0
169 190 0
168 189 0
167 189 0
168 190 0
168 189 0
164 185 0
168 190 0
165 186 0
166 187 0
167 187 0
167 189 0
168 191 0
168 189 0
165 187 0
168 190 0
167 189 0
166 187 0
171 191 0
169 190 0
166 187 0
169 190 0
169 191 0
168 190 0
166 188 0
168 190 0
171 192 0
168 190 0
171 193 0
171 192 0
171 193 0
170 192 0
171 191 0
168 190 0
169 191 0
170 191 0
169 192 0
169 191 0
168 190 0
170 192 0
171 193 0
171 193 0
169 193 0
170 192 0
171 193 0
169 192 0
172 193 0
169 190 0
170 193 0
172 195 0
169 191 0
169 192 0
170 192 0
171 192 0
172 195 0
172 194 0
172 195 0
171 193 0
171 193 0
171 193 0
173 196 0
170 191 0
171 193 0
171 193 0
171 193 0
170 191 0
171 194 0
171 193 0
172 194 0
172 195 0
171 194 0
173 196 0
171 194 0
171 194 0
172 194 0
171 193 0
170 192 0
171 194 0
172 194 0
171 194 0
171 195 0
172 194 0
172 194 0
172 194 0
171 192 0
172 195 0
172 193 0
173 195 0
173 196 0
170 192 0
172 195 0
171 192 0
172 195 0
170 194 0
173 196 0
173 196 0
172 194 0
173 195 0
174 195 0
172 196 0
174 197 0
172 195 0
174 197 0
172 195 0
172 195 0
172 195 0
174 197 0
172 195 0
172 195 0
172 196 0
172 195 0
173 196 0
174 197 0
170 193 0
172 195 0
172 195 0
172 194 0
172 194 0
174 197 0
173 195 0
172 195 0
172 195 0
171 194 0
172 195 0
172 195 0
172 195 0
171 194 0
172 195 0
172 196 0
172 195 0
172 195 0
172 195 0
171 194 0
172 195 0
173 196 0
170 192 0
172 195 0
173 196 0
169 192 0
172 195 0
169 192 0
171 194 0
172 195 0
171 193 0
172 195 0
171 193 0
172 195 0
169 193 0
171 194 0
172 195 0
169 193 0
170 192 0
173 195 0
171 194 0
169 192 0
171 194 0
170 193 0
172 195 0
172 194 0
172 194 0
170 193 0
170 193 0
170 194 0
172 195 0
171 194 0
169 192 0
170 191 0
170 193 0
170 193 0
172 194 0
167 191 0
169 191 0
171 192 0
171 193 0
170 193 0
168 191 0
169 191 0
169 192 0
170 193 0
172 194 0
173 195 0
170 193 0
170 193 0
172 195 0
171 194 0
172 195 0
171 194 0
168 191 0
172 193 18
171 194 0
170 193 0
169 191 0
172 195 0
173 195 25
172 195 36
170 193 33
168 191 34
171 192 40
171 192 31
170 192 31
166 188 18
167 189 38
166 188 48
168 189 50
168 187 68
165 186 59
167 186 65
167 186 53
167 186 73
167 188 65
166 184 55
167 187 45
167 185 63
164 181 65
166 183 42
167 185 59
169 185 53
167 183 62
167 185 58
170 185 59
168 184 52
171 184 76
166 182 60
171 188 71
171 189 57
173 192 74
170 187 61
170 187 70
171 190 83
173 191 94
170 188 82
171 191 88
173 192 76
170 189 76
169 187 84
170 188 76
170 188 76
171 189 86
170 187 84
171 190 67
170 190 78
165 184 67
166 187 97
163 180 76
165 183 80
166 184 72
165 183 74
167 187 78
165 184 65
163 181 74
163 180 74
164 182 40
164 183 70
168 185 74
166 185 54
167 185 72
160 178 47
162 180 62
167 186 76
164 183 60
159 175 47
160 179 47
165 184 51
161 181 31
161 180 60
156 175 40
158 179 31
161 181 0
160 180 25
160 181 25
157 177 18
159 179 18
158 178 0
158 179 0
156 176 0
157 178 0
160 180 0
159 179 0
161 179 0
152 171 0
157 176 0
154 172 0
152 171 0
151 170 0
152 169 0
155 173 0
155 173 0
152 169 0
155 173 0
151 170 0
157 176 0
155 173 0
157 176 0
156 174 0
152 171 0
154 171 0
153 172 0
151 171 0
149 166 0
150 167 0
159 178 0
155 175 0
152 170 0
151 170 0
153 172 0
155 174 0
156 177 0
156 177 0
154 172 0
149 167 0
152 172 0
155 173 0
156 176 0
151 169 0
155 174 0
158 178 0
160 181 0
160 179 0
153 172 0
155 175 0
155 175 0
156 176 0
154 173 0
155 176 0
153 172 0
157 177 0
156 177 0
158 180 0
156 178 0
159 178 0
158 176 0
159 180 0
154 172 0
160 181 0
156 175 0
153 173 0
160 181 0
153 174 0
163 185 0
154 173 0
161 181 0
157 179 0
161 181 0
160 180 0
157 176 0
158 178 0
160 180 0
166 186 0
161 182 0
161 181 0
160 182 0
159 180 0
158 177 0
163 184 0
161 181 0
161 182 0
162 182 0
159 180 0
158 177 0
167 189 0
162 182 0
162 184 0
156 176 0
161 180 0
157 178 0
162 182 0
160 178 0
163 183 0
159 178 0
163 184 0
165 186 0
163 184 0
161 180 0
163 184 0
163 184 0
167 189 0
165 186 0
166 186 0
168 190 0
164 184 0
165 186 0
165 188 0
165 186 0
166 186 0
166 186 0
164 186 0
166 187 0
165 184 0
161 181 0
165 185 0
166 186 0
165 186 0
166 187 0
169 190 0
167 187 0
167 188 0
167 189 0
166 189 0
165 185 0
165 186 0
163 184 0
167 188 0
167 189 0
167 187 0
169 190 0
169 190 0
168 190 0
168 190 0
168 189 0
169 191 0
167 189 0
169 190 0
169 191 0
168 191 0
169 191 0
170 191 0
169 190 0
168 190 0
168 189 0
167 188 0
168 189 0
170 193 0
169 190 0
168 188 0
170 193 0
169 191 0
168 189 0
170 193 0
168 191 0
169 190 0
167 189 0
169 191 0
168 189 0
166 187 0
170 190 0
171 193 0
168 191 0
170 192 0
170 192 0
170 193 0
165 186 0
169 192 0
171 192 0
170 192 0
168 190 0
171 193 0
171 193 0
169 191 0
170 193 0
169 192 0
170 191 0
170 192 0
169 191 0
171 194 0
171 192 0
169 191 0
170 192 0
171 193 0
170 193 0
170 192 0
170 192 0
174 195 0
172 194 0
170 192 0
172 194 0
171 193 0
172 194 0
173 195 0
170 192 0
171 193 0
170 192 0
171 194 0
171 194 0
172 194 0
170 191 0
172 194 0
173 196 0
169 191 0
173 197 0
172 194 0
171 194 0
172 195 0
171 194 0
169 192 0
174 196 0
173 195 0
171 194 0
170 192 0
171 194 0
171 193 0
173 196 0
173 195 0
172 195 0
172 194 0
171 193 0
172 195 0
172 195 0
172 194 0
172 195 0
173 196 0
171 194 0
171 194 0
171 194 0
173 196 0
174 196 0
174 197 0
173 196 0
172 195 0
174 196 0
173 197 0
174 197 0
171 195 0
172 195 0
173 196 0
172 195 0
173 196 0
172 195 0
174 197 0
173 196 0
174 197 0
172 196 0
173 196 0
173 196 0
172 195 0
171 194 0
171 195 0
171 194 0
171 194 0
173 196 0
174 197 0
173 196 0
170 194 0
173 196 0
172 195 0
171 194 0
173 196 0
173 196 0
172 195 0
173 196 0
173 196 0
170 193 0
172 194 0
173 195 0
171 194 0
171 195 0
172 194 0
170 194 0
170 193 0
171 193 0
171 194 0
169 193 0
172 195 0
170 192 0
172 195 0
170 191 0
172 195 0
170 192 0
172 195 0
171 194 0
169 191 0
171 194 0
171 192 0
170 193 0
171 193 0
172 195 0
169 192 0
172 195 0
168 190 0
171 194 0
170 192 0
173 195 0
168 191 0
172 195 0
169 192 0
170 192 0
169 192 0
172 194 0
171 193 0
170 193 0
171 193 0
172 194 0
171 194 0
170 193 0
173 194 0
171 194 0
173 196 0
170 192 0
173 195 0
172 195 0
172 195 0
173 196 0
172 194 18
171 193 18
169 192 25
172 194 28
169 192 18
170 191 22
168 190 28
166 188 18
168 188 12
171 192 12
170 192 46
167 188 33
166 188 33
166 185 55
164 185 50
165 184 38
169 188 49
166 186 59
166 183 49
163 182 48
167 184 70
168 186 52
164 182 48
167 183 60
169 186 66
167 186 60
171 186 50
166 184 47
168 185 51
167 182 55
172 190 88
169 185 51
172 191 68
168 185 59
171 186 75
169 186 67
168 184 52
174 193 67
175 192 78
171 189 76
172 191 90
173 191 78
171 190 86
171 189 82
169 187 92
169 187 80
168 186 62
170 188 74
167 183 74
167 185 72
167 184 78
167 186 76
161 179 67
168 186 74
164 181 84
164 181 70
165 183 62
167 185 65
166 184 57
167 187 80
167 186 82
166 183 65
166 185 65
163 180 60
168 186 62
163 181 67
165 183 65
167 184 65
169 187 51
162 180 47
163 181 31
163 182 47
161 181 31
163 182 57
161 179 31
159 179 36
163 183 25
165 185 31
162 182 31
161 182 0
160 179 0
163 181 0
160 180 0
156 174 0
157 176 0
157 176 0
157 176 0
156 176 0
155 173 0
152 172 0
148 167 0
153 171 0
155 174 0
156 175 0
152 168 0
157 175 0
151 168 0
157 177 0
155 174 0
154 173 0
159 179 0
151 170 0
158 177 0
156 175 0
152 172 0
153 173 0
155 174 0
158 178 0
154 172 0
154 174 0
155 176 0
158 177 0
149 167 0
152 171 0
151 169 0
156 176 0
154 172 0
157 176 0
155 174 0
157 178 0
154 174 0
156 174 0
156 176 0
157 175 0
160 180 0
155 175 0
153 173 0
155 174 0
156 176 0
149 169 0
158 179 0
159 180 0
156 176 0
156 175 0
158 177 0
157 177 0
155 175 0
152 171 0
160 180 0
156 176 0
157 178 0
157 177 0
159 178 0
157 176 0
159 180 0
160 180 0
155 176 0
156 177 0
156 176 0
154 175 0
158 178 0
161 181 0
160 178 0
158 178 0
161 180 0
160 179 0
161 182 0
159 178 0
162 182 0
161 181 0
159 180 0
159 179 0
160 179 0
160 182 0
156 176 0
160 179 0
163 183 0
156 175 0
159 179 0
161 183 0
162 183 0
159 178 0
159 180 0
165 186 0
165 186 0
164 184 0
161 181 0
165 186 0
163 183 0
163 183 0
161 182 0
163 185 0
165 185 0
161 182 0
166 187 0
159 180 0
166 187 0
164 184 0
160 179 0
164 185 0
166 187 0
160 181 0
168 188 0
169 191 0
169 192 0
162 183 0
167 187 0
165 187 0
163 183 0
163 185 0
165 187 0
165 187 0
164 186 0
168 190 0
166 187 0
169 189 0
164 185 0
165 187 0
165 186 0
171 193 0
164 184 0
165 185 0
166 188 0
165 186 0
167 189 0
165 186 0
169 191 0
168 190 0
169 189 0
168 188 0
166 186 0
167 190 0
168 190 0
168 190 0
167 189 0
169 190 0
168 190 0
169 190 0
167 188 0
165 187 0
169 190 0
171 193 0
168 190 0
168 189 0
169 191 0
171 192 0
168 191 0
169 192 0
168 190 0
171 193 0
168 190 0
166 186 0
169 191 0
169 192 0
171 193 0
170 191 0
170 192 0
170 192 0
168 191 0
170 191 0
167 188 0
171 193 0
171 194 0
172 195 0
170 190 0
171 193 0
171 193 0
171 193 0
170 193 0
168 190 0
170 192 0
170 193 0
171 193 0
172 194 0
171 193 0
169 192 0
173 195 0
170 193 0
172 194 0
173 194 0
171 193 0
170 191 0
173 195 0
173 195 0
172 194 0
172 193 0
172 194 0
173 194 0
172 195 0
171 193 0
173 196 0
173 195 0
170 192 0
173 195 0
173 195 0
171 193 0
173 196 0
172 195 0
171 194 0
174 196 0
172 194 0
171 194 0
170 192 0
172 195 0
171 194 0
172 194 0
173 196 0
171 194 0
173 195 0
172 194 0
169 192 0
172 194 0
171 194 0
170 192 0
173 195 0
171 194 0
172 195 0
173 195 0
171 193 0
171 195 0
172 196 0
173 196 0
172 195 0
171 195 0
172 194 0
173 194 0
173 196 0
171 193 0
173 196 0
174 196 0
171 194 0
172 195 0
173 196 0
174 197 0
173 196 0
172 195 0
172 195 0
172 195 0
171 194 0
173 195 0
171 194 0
173 195 0
172 195 0
174 197 0
171 194 0
172 194 0
172 194 0
173 195 0
171 194 0
170 194 0
173 195 0
173 195 0
172 195 0
170 193 0
171 194 0
171 194 0
173 196 0
172 195 0
172 195 0
173 196 0
171 193 0
172 194 0
173 196 0
168 192 0
174 196 0
169 191 0
169 192 0
171 194 0
170 193 0
172 195 0
171 194 0
172 195 0
172 194 0
173 196 0
170 193 0
171 193 0
169 192 0
171 194 0
171 194 0
172 195 0
172 196 0
172 194 0
172 195 0
169 192 0
171 193 0
170 192 0
170 193 0
170 192 0
170 192 0
170 193 0
170 193 0
170 193 0
170 193 0
170 193 0
170 192 0
169 191 0
171 193 0
170 192 0
171 194 0
171 195 0
172 195 0
170 191 0
171 194 0
173 196 0
171 194 0
172 195 0
170 193 0
170 193 0
172 194 12
172 194 0
171 193 0
172 194 0
172 195 0
171 194 4
170 193 12
168 191 13
169 192 28
170 192 22
168 189 36
169 189 0
171 193 33
167 187 39
166 187 36
162 182 43
162 181 44
167 186 45
170 189 51
166 185 56
162 181 47
167 185 58
165 183 56
163 180 45
168 186 37
164 180 44
166 183 55
167 182 35
165 183 58
165 182 53
165 181 51
163 179 44
165 182 45
171 186 67
169 187 66
172 190 68
172 190 68
170 189 70
171 190 86
175 193 88
171 190 84
172 189 74
170 187 72
171 188 74
168 186 67
172 188 76
171 190 74
167 183 70
171 189 86
169 188 74
168 187 74
166 186 74
164 180 76
166 185 70
166 184 76
165 183 74
168 187 65
168 187 65
165 184 65
171 190 88
169 186 82
164 184 62
161 181 57
167 186 76
166 184 65
167 186 74
160 177 65
161 180 54
170 188 65
171 191 70
163 181 72
166 184 54
163 182 60
164 185 51
161 178 18
163 183 40
162 182 18
164 184 25
163 182 0
158 178 44
165 185 0
163 184 0
164 182 0
160 179 0
153 175 0
155 173 0
159 179 0
155 175 0
156 175 0
155 173 0
155 175 0
154 172 0
152 172 0
152 171 0
155 173 0
158 176 0
158 176 0
152 170 0
156 176 0
153 171 0
153 170 0
154 174 0
154 171 0
153 171 0
159 178 0
159 179 0
151 170 0
150 169 0
160 180 0
155 172 0
158 177 0
156 177 0
153 171 0
154 173 0
158 177 0
153 172 0
161 181 0
158 178 0
155 174 0
148 169 0
154 174 0
155 172 0
155 175 0
156 175 0
154 174 0
159 178 0
158 177 0
158 178 0
157 177 0
158 179 0
158 178 0
155 174 0
154 173 0
154 174 0
164 184 0
155 173 0
158 177 0
152 170 0
157 176 0
161 181 0
156 176 0
155 171 0
156 176 0
159 177 0
157 177 0
160 181 0
159 178 0
159 181 0
158 178 0
158 178 0
159 180 0
156 176 0
161 181 0
154 175 0
152 171 0
161 181 0
159 180 0
159 180 0
163 184 0
159 178 0
160 181 0
161 180 0
158 179 0
157 177 0
159 181 0
161 182 0
157 178 0
159 180 0
162 182 0
161 181 0
161 180 0
160 181 0
167 188 0
160 182 0
161 180 0
162 184 0
162 184 0
162 183 0
163 185 0
162 183 0
164 184 0
163 182 0
163 183 0
165 187 0
157 177 0
161 181 0
162 183 0
164 185 0
167 189 0
167 188 0
163 184 0
163 185 0
160 181 0
164 185 0
160 182 0
164 185 0
164 186 0
161 182 0
167 187 0
165 186 0
169 192 0
163 182 0
165 188 0
167 189 0
165 186 0
163 183 0
166 187 0
167 189 0
165 185 0
167 187 0
168 190 0
168 190 0
167 189 0
168 190 0
166 189 0
167 189 0
170 192 0
165 185 0
169 190 0
168 188 0
166 187 0
169 189 0
168 189 0
168 190 0
168 188 0
168 190 0
167 189 0
168 189 0
170 191 0
166 187 0
169 190 0
170 192 0
167 189 0
169 190 0
167 188 0
171 193 0
168 189 0
169 190 0
169 190 0
168 189 0
170 192 0
169 192 0
167 188 0
169 192 0
168 190 0
170 192 0
170 192 0
168 190 0
171 192 0
168 191 0
171 192 0
172 194 0
169 191 0
169 191 0
171 192 0
169 192 0
172 194 0
169 190 0
172 195 0
167 188 0
168 190 0
172 194 0
170 193 0
170 192 0
171 193 0
170 192 0
170 193 0
171 195 0
169 193 0
171 194 0
169 193 0
172 195 0
169 191 0
169 191 0
171 193 0
174 195 0
172 194 0
169 191 0
171 194 0
172 195 0
172 194 0
171 193 0
171 194 0
171 193 0
172 194 0
172 194 0
170 193 0
172 195 0
172 195 0
174 196 0
170 193 0
172 194 0
173 195 0
172 195 0
172 196 0
172 193 0
174 196 0
172 194 0
173 194 0
171 193 0
173 195 0
173 196 0
172 195 0
169 192 0
173 196 0
173 195 0
172 194 0
173 195 0
171 195 0
172 194 0
172 195 0
173 196 0
173 195 0
173 196 0
173 195 0
172 196 0
173 195 0
173 196 0
175 198 0
173 195 0
172 195 0
174 197 0
173 196 0
170 193 0
174 196 0
170 194 0
172 195 0
171 194 0
172 195 0
172 195 0
170 193 0
172 195 0
172 195 0
172 195 0
172 196 0
172 195 0
173 196 0
173 196 0
173 196 0
170 194 0
175 198 0
172 194 0
172 195 0
173 196 0
173 197 0
170 192 0
172 195 0
171 195 0
172 195 0
171 194 0
174 197 0
170 192 0
171 195 0
171 194 0
171 194 0
170 192 0
172 194 0
173 196 0
173 196 0
171 193 0
171 194 0
170 193 0
170 193 0
171 193 0
172 196 0
171 194 0
170 193 0
171 193 0
172 194 0
171 195 0
170 193 0
171 193 0
170 194 0
172 196 0
171 194 0
170 193 0
169 191 0
169 191 0
170 192 0
167 190 0
171 193 0
171 193 0
168 191 0
170 192 0
173 195 0
172 195 0
171 193 0
170 193 0
169 191 0
169 191 0
170 192 0
173 196 0
169 192 0
170 193 0
173 195 0
171 194 0
172 195 0
172 195 0
170 193 0
172 195 0
173 195 0
174 197 0
170 192 0
169 192 0
170 192 12
167 188 18
169 191 0
171 193 0
167 189 22
169 191 14
172 193 31
170 191 18
167 188 27
168 189 18
165 184 35
168 187 50
167 185 44
162 181 46
169 189 60
162 180 43
168 186 37
164 183 48
169 186 35
165 181 59
167 182 54
162 178 45
164 180 60
168 185 54
169 187 48
171 188 51
168 185 40
169 185 48
172 190 71
171 189 67
172 189 61
172 189 63
171 187 71
171 189 55
172 190 70
174 190 65
171 189 70
173 193 88
170 189 86
169 189 62
169 188 78
172 189 86
168 185 70
165 184 60
167 186 72
169 187 78
166 184 82
168 187 82
167 185 54
168 187 74
167 185 76
166 186 70
165 182 62
167 183 78
165 183 60
164 182 65
169 187 72
168 185 60
165 182 62
165 184 74
166 186 62
167 184 62
166 184 62
163 182 67
166 184 57
165 183 54
159 178 57
167 186 60
165 184 47
167 186 40
159 178 47
164 183 25
162 180 36
165 185 18
161 181 25
164 183 18
164 184 0
160 180 0
162 183 18
158 177 0
155 174 0
162 182 0
155 174 0
160 179 0
153 172 0
158 178 0
153 172 0
158 178 0
160 179 0
157 174 0
153 170 0
157 174 0
156 174 0
150 167 0
154 173 0
156 175 0
152 169 0
157 175 0
156 174 0
154 174 0
156 175 0
158 177 0
155 174 0
157 175 0
159 178 0
160 180 0
157 175 0
156 175 0
151 171 0
157 176 0
157 177 0
156 176 0
155 174 0
154 172 0
155 175 0
155 175 0
152 171 0
158 178 0
158 179 0
153 173 0
158 177 0
158 177 0
154 173 0
157 178 0
156 176 0
160 182 0
157 177 0
163 182 0
155 175 0
158 176 0
157 177 0
157 176 0
157 176 0
162 181 0
159 179 0
159 179 0
163 182 0
157 177 0
160 180 0
158 176 0
158 178 0
157 178 0
160 180 0
158 177 0
156 174 0
160 181 0
156 176 0
154 174 0
159 180 0
157 176 0
157 178 0
155 174 0
157 177 0
158 179 0
161 181 0
159 180 0
165 186 0
160 181 0
164 184 0
159 180 0
162 182 0
159 180 0
161 181 0
162 182 0
162 183 0
162 182 0
161 181 0
160 181 0
165 187 0
160 182 0
161 182 0
164 183 0
161 182 0
166 186 0
164 184 0
164 186 0
163 183 0
165 186 0
163 184 0
163 185 0
165 186 0
164 185 0
165 186 0
162 182 0
163 184 0
167 189 0
163 184 0
165 186 0
166 188 0
165 186 0
165 187 0
166 188 0
164 185 0
166 186 0
163 183 0
163 183 0
168 189 0
168 189 0
167 189 0
167 188 0
164 185 0
168 191 0
167 188 0
167 186 0
167 190 0
163 183 0
168 189 0
169 191 0
166 187 0
165 187 0
168 190 0
166 186 0
168 187 0
167 189 0
169 189 0
167 189 0
166 185 0
167 189 0
168 189 0
167 188 0
168 189 0
168 189 0
166 187 0
167 190 0
167 189 0
169 190 0
166 188 0
164 186 0
170 191 0
170 191 0
168 190 0
171 193 0
171 192 0
169 191 0
170 191 0
168 190 0
170 192 0
168 190 0
169 191 0
168 190 0
169 190 0
170 193 0
169 191 0
171 193 0
168 190 0
169 192 0
170 193 0
169 191 0
169 192 0
171 193 0
169 191 0
170 193 0
171 192 0
172 194 0
170 192 0
170 191 0
171 193 0
171 192 0
168 190 0
170 191 0
172 195 0
172 193 0
170 191 0
171 195 0
169 191 0
170 191 0
173 195 0
172 195 0
170 192 0
172 194 0
171 194 0
169 191 0
171 195 0
171 193 0
172 194 0
172 195 0
170 191 0
173 195 0
171 193 0
172 195 0
170 191 0
172 194 0
172 195 0
172 194 0
171 192 0
172 195 0
171 194 0
172 195 0
172 194 0
171 194 0
173 197 0
171 195 0
171 194 0
172 195 0
172 194 0
172 195 0
171 193 0
172 194 0
173 196 0
173 195 0
173 195 0
172 195 0
173 195 0
173 196 0
172 194 0
173 195 0
172 195 0
173 195 0
173 196 0
173 195 0
172 195 0
173 196 0
171 194 0
172 195 0
171 195 0
174 197 0
171 194 0
173 196 0
173 196 0
174 197 0
173 195 0
171 194 0
170 194 0
173 195 0
172 195 0
173 196 0
172 195 0
172 196 0
173 196 0
173 196 0
172 194 0
169 193 0
173 196 0
172 195 0
171 194 0
173 195 0
173 196 0
173 196 0
173 195 0
173 196 0
173 195 0
171 193 0
171 194 0
171 194 0
174 197 0
173 195 0
171 194 0
169 192 0
172 195 0
172 195 0
170 193 0
170 193 0
172 194 0
174 196 0
170 193 0
172 195 0
172 194 0
170 192 0
171 194 0
171 194 0
170 193 0
169 192 0
169 191 0
171 195 0
171 194 0
171 194 0
170 193 0
170 192 0
171 194 0
170 193 0
170 193 0
171 194 0
172 194 0
171 194 0
169 191 0
171 192 0
171 193 0
170 193 0
170 193 0
170 193 0
171 195 0
171 193 0
170 193 0
169 191 0
171 193 0
169 190 0
171 193 0
169 192 0
170 192 0
170 193 0
169 192 0
172 194 0
170 193 0
172 195 0
173 195 0
171 193 0
171 194 0
171 194 0
171 193 18
169 192 0
170 193 0
169 191 0
169 190 12
169 191 0
169 190 0
168 190 22
171 193 22
168 189 25
168 187 49
166 187 25
169 188 37
167 185 40
170 189 44
166 185 42
169 186 34
168 187 41
166 184 48
169 186 63
167 183 47
164 180 42
168 186 38
167 184 50
167 185 48
167 183 51
169 186 45
169 184 46
166 184 57
168 186 43
165 181 62
172 189 56
168 185 53
172 190 63
171 190 57
171 188 63
170 188 78
173 192 74
173 193 80
171 190 80
169 187 80
170 190 86
167 187 70
167 185 62
171 189 74
166 181 62
167 187 67
167 186 70
168 186 70
164 182 51
168 187 78
166 185 62
169 187 82
166 184 74
170 189 82
168 186 70
167 186 74
162 180 65
164 182 65
168 186 76
170 189 67
167 185 65
164 184 60
165 182 74
166 185 54
168 186 72
166 186 47
166 186 47
162 181 44
163 182 51
164 186 36
161 180 31
167 188 36
162 182 25
164 185 0
159 178 25
162 184 18
163 184 0
162 182 18
157 175 0
159 179 0
158 177 0
158 177 0
157 177 0
161 181 0
155 175 0
152 171 0
152 170 0
157 176 0
158 178 0
159 177 0
154 172 0
153 171 0
156 175 0
154 173 0
157 177 0
155 174 0
157 176 0
153 172 0
154 172 0
154 173 0
154 174 0
157 176 0
153 170 0
155 175 0
157 176 0
156 175 0
156 177 0
153 172 0
155 174 0
158 178 0
157 177 0
160 180 0
155 175 0
157 177 0
152 172 0
156 176 0
160 180 0
157 177 0
155 174 0
158 176 0
159 179 0
158 177 0
157 175 0
158 179 0
155 176 0
158 179 0
153 171 0
155 175 0
156 176 0
156 175 0
161 182 0
159 176 0
160 180 0
163 184 0
159 179 0
160 180 0
156 177 0
155 177 0
152 172 0
156 176 0
158 179 0
159 180 0
158 177 0
159 178 0
159 179 0
159 177 0
158 178 0
159 180 0
158 179 0
154 175 0
159 177 0
156 175 0
158 179 0
159 179 0
165 186 0
162 182 0
162 183 0
158 178 0
161 181 0
163 184 0
159 178 0
164 185 0
161 181 0
164 185 0
163 184 0
164 186 0
155 175 0
163 184 0
160 180 0
163 183 0
163 183 0
163 184 0
163 183 0
159 180 0
160 180 0
161 182 0
166 188 0
166 186 0
162 183 0
165 185 0
165 187 0
166 188 0
165 186 0
166 187 0
162 183 0
167 189 0
165 186 0
163 185 0
163 184 0
162 183 0
168 189 0
167 189 0
166 187 0
164 185 0
170 191 0
166 188 0
167 187 0
169 190 0
167 188 0
166 188 0
166 187 0
168 188 0
167 190 0
167 189 0
164 185 0
163 183 0
166 187 0
165 188 0
166 188 0
165 186 0
167 188 0
169 190 0
170 192 0
169 189 0
168 189 0
168 189 0
168 189 0
169 190 0
168 191 0
168 189 0
169 190 0
166 188 0
171 194 0
168 190 0
168 189 0
168 190 0
167 188 0
167 189 0
169 191 0
169 189 0
170 192 0
167 190 0
168 189 0
170 192 0
170 193 0
167 187 0
169 191 0
170 192 0
171 193 0
168 191 0
170 194 0
169 191 0
169 191 0
170 191 0
170 192 0
170 192 0
170 192 0
169 190 0
172 194 0
169 191 0
171 192 0
171 192 0
172 193 0
172 194 0
171 193 0
172 194 0
170 191 0
170 193 0
170 191 0
170 191 0
169 192 0
168 189 0
172 194 0
171 193 0
171 193 0
171 193 0
170 192 0
171 193 0
171 194 0
169 192 0
173 196 0
171 193 0
170 191 0
172 194 0
173 196 0
170 193 0
170 192 0
172 194 0
170 192 0
171 193 0
171 193 0
172 195 0
171 194 0
172 194 0
171 192 0
172 194 0
172 195 0
171 193 0
170 192 0
171 194 0
173 195 0
174 197 0
170 192 0
171 193 0
171 193 0
173 195 0
170 193 0
171 194 0
169 192 0
173 195 0
173 196 0
171 194 0
171 193 0
171 194 0
173 196 0
172 195 0
174 196 0
171 194 0
172 195 0
173 196 0
171 194 0
172 194 0
174 196 0
172 195 0
173 196 0
173 196 0
172 195 0
172 195 0
173 196 0
172 196 0
173 196 0
174 197 0
171 193 0
174 196 0
172 194 0
172 195 0
173 196 0
172 195 0
172 195 0
171 195 0
173 196 0
170 193 0
173 197 0
173 196 0
172 195 0
174 196 0
173 197 0
172 195 0
173 195 0
170 191 0
173 195 0
173 196 0
171 193 0
173 196 0
171 194 0
172 195 0
172 195 0
173 194 0
172 195 0
172 195 0
169 193 0
170 192 0
171 193 0
171 194 0
170 193 0
171 195 0
171 194 0
171 194 0
172 193 0
170 192 0
171 194 0
169 192 0
171 194 0
172 195 0
172 196 0
169 192 0
170 192 0
173 196 0
171 194 0
169 192 0
172 195 0
171 193 0
171 194 0
170 192 0
171 193 0
172 195 0
171 193 0
169 192 0
170 192 0
172 194 0
170 193 0
170 192 0
170 192 0
170 192 0
168 191 0
171 194 0
168 190 0
172 194 0
171 194 0
168 189 0
172 195 0
171 193 0
172 195 0
170 193 0
172 195 0
172 196 0
173 195 0
171 193 0
171 194 0
172 194 0
172 195 0
172 194 0
171 194 12
169 191 0
170 192 15
170 192 28
168 190 12
169 190 12
167 188 21
163 183 26
165 186 31
167 187 42
166 184 40
165 183 42
168 187 51
168 185 39
167 183 36
165 183 56
166 184 54
164 182 61
167 184 29
164 179 55
168 184 57
168 184 46
163 177 49
167 185 57
164 179 44
167 183 51
169 186 65
173 190 65
170 185 58
171 188 62
167 185 80
172 191 62
173 191 80
172 191 64
173 191 67
171 191 76
169 186 78
171 190 72
168 187 72
168 185 70
168 186 78
169 187 74
166 184 72
168 188 72
168 187 62
168 187 76
164 181 78
166 184 67
165 182 70
166 184 65
168 184 67
167 187 60
168 185 74
166 184 65
167 185 82
165 181 62
172 190 62
166 183 70
165 182 47
169 189 76
168 187 70
162 181 72
165 184 57
168 186 51
165 184 51
165 184 36
162 183 18
158 177 36
164 184 36
163 183 25
163 184 31
163 183 18
157 177 25
164 184 18
158 177 18
165 186 18
165 185 0
157 178 0
160 182 0
163 182 0
159 178 0
158 178 0
158 176 0
156 174 0
160 179 0
155 175 0
155 175 0
160 179 0
156 175 0
154 171 0
155 174 0
153 172 0
157 175 0
157 177 0
156 174 0
153 172 0
153 172 0
156 173 0
158 176 0
158 176 0
157 176 0
152 170 0
155 175 0
155 174 0
154 173 0
160 180 0
156 175 0
156 175 0
154 174 0
156 175 0
157 178 0
155 173 0
159 178 0
156 176 0
155 176 0
153 174 0
159 179 0
154 174 0
154 172 0
159 179 0
160 180 0
157 177 0
161 182 0
159 179 0
152 172 0
155 174 0
157 177 0
152 171 0
160 178 0
157 178 0
157 178 0
155 176 0
158 179 0
155 175 0
158 178 0
159 180 0
157 177 0
158 179 0
158 180 0
157 177 0
158 178 0
154 175 0
160 180 0
162 183 0
159 178 0
160 180 0
159 181 0
160 180 0
158 179 0
165 186 0
158 179 0
154 174 0
162 182 0
162 183 0
162 182 0
165 184 0
160 180 0
159 179 0
159 179 0
154 174 0
161 182 0
159 180 0
160 180 0
163 184 0
160 180 0
160 182 0
160 180 0
163 184 0
162 183 0
164 186 0
164 185 0
163 183 0
163 184 0
161 182 0
159 179 0
165 186 0
162 182 0
162 183 0
164 186 0
163 183 0
164 186 0
162 183 0
163 184 0
166 186 0
164 185 0
165 186 0
168 189 0
168 189 0
167 188 0
163 184 0
166 186 0
167 188 0
163 185 0
167 189 0
167 189 0
159 179 0
166 188 0
165 187 0
167 189 0
168 189 0
165 185 0
167 188 0
166 188 0
167 188 0
167 189 0
164 186 0
170 192 0
169 190 0
167 188 0
165 185 0
166 188 0
167 189 0
169 191 0
170 191 0
169 190 0
163 184 0
169 192 0
171 193 0
168 190 0
168 190 0
168 188 0
167 187 0
165 187 0
167 190 0
168 190 0
168 191 0
165 187 0
170 191 0
168 191 0
167 189 0
168 191 0
168 189 0
169 191 0
168 190 0
168 191 0
169 191 0
167 190 0
169 192 0
169 190 0
170 192 0
170 191 0
170 192 0
169 190 0
170 190 0
170 192 0
171 193 0
170 191 0
169 190 0
171 193 0
170 192 0
171 193 0
169 191 0
172 194 0
170 192 0
168 190 0
171 191 0
170 192 0
170 192 0
168 190 0
170 191 0
170 193 0
172 194 0
171 192 0
170 193 0
172 194 0
170 192 0
173 195 0
171 194 0
170 193 0
171 194 0
172 194 0
171 194 0
173 194 0
171 193 0
171 193 0
169 191 0
172 194 0
174 196 0
171 194 0
171 193 0
171 194 0
173 195 0
171 192 0
172 195 0
171 192 0
172 194 0
171 193 0
171 192 0
171 193 0
169 191 0
171 193 0
172 194 0
173 195 0
173 195 0
172 193 0
173 195 0
173 194 0
172 195 0
171 195 0
174 197 0
172 195 0
171 193 0
173 195 0
172 195 0
172 195 0
171 195 0
173 197 0
171 193 0
170 193 0
173 195 0
173 196 0
170 194 0
171 194 0
172 194 0
173 195 0
173 196 0
172 196 0
169 192 0
173 196 0
173 196 0
171 194 0
172 195 0
172 195 0
172 195 0
171 194 0
172 195 0
173 197 0
170 194 0
172 195 0
173 196 0
171 194 0
171 194 0
172 195 0
174 196 0
171 195 0
169 191 0
172 195 0
173 196 0
171 193 0
172 195 0
171 193 0
173 196 0
171 195 0
172 195 0
172 193 0
173 196 0
171 193 0
172 196 0
170 193 0
172 195 0
170 192 0
172 195 0
172 195 0
173 195 0
171 194 0
171 194 0
172 195 0
170 192 0
172 194 0
173 195 0
171 195 0
171 194 0
171 194 0
170 194 0
173 195 0
171 193 0
172 194 0
172 195 0
169 193 0
171 194 0
171 194 0
169 191 0
173 195 0
173 196 0
172 194 0
169 192 0
167 190 0
169 191 0
172 194 0
170 192 0
172 195 0
170 191 0
172 195 0
170 192 0
172 194 0
171 194 0
171 192 0
169 190 0
172 194 0
171 194 0
172 193 0
170 193 0
170 193 0
170 194 0
171 194 0
171 194 0
171 193 0
173 194 14
172 195 0
171 194 0
171 194 0
169 191 0
172 194 18
169 191 18
171 191 24
165 184 20
166 184 27
168 188 24
165 183 34
166 185 22
166 183 34
162 179 39
166 184 38
165 183 40
168 186 48
163 178 20
166 181 47
169 186 50
169 187 36
169 186 50
168 185 36
171 188 50
167 183 40
169 186 40
170 188 40
168 182 53
168 184 46
170 185 50
170 188 45
168 188 62
172 191 72
173 192 73
172 189 67
171 188 66
172 190 88
173 190 78
168 187 62
174 192 76
172 191 78
172 191 86
169 186 76
167 184 70
166 184 65
169 187 78
167 184 67
166 184 80
167 186 67
167 185 70
167 182 72
168 187 67
169 188 80
166 184 72
165 182 76
169 188 86
171 187 62
165 183 70
170 189 72
166 185 67
168 187 74
169 187 51
168 184 57
168 188 60
166 185 57
167 185 57
161 180 54
169 188 40
164 183 47
163 182 36
165 186 31
163 182 31
164 184 18
165 185 25
165 184 25
167 187 0
164 185 0
162 184 0
162 180 0
163 183 0
158 178 0
160 179 0
160 180 0
159 178 0
158 178 0
156 174 0
153 170 0
155 174 0
159 177 0
153 172 0
159 178 0
159 177 0
157 176 0
158 176 0
156 175 0
158 177 0
157 174 0
152 171 0
161 180 0
154 173 0
152 168 0
154 174 0
156 176 0
154 172 0
154 174 0
156 176 0
154 174 0
157 177 0
152 172 0
154 174 0
153 172 0
154 173 0
157 178 0
153 171 0
154 172 0
159 179 0
154 173 0
159 181 0
157 176 0
155 175 0
154 174 0
156 176 0
154 173 0
160 180 0
159 179 0
154 173 0
159 178 0
155 176 0
157 176 0
160 180 0
157 176 0
156 176 0
156 177 0
160 181 0
155 174 0
154 175 0
157 176 0
162 184 0
159 179 0
158 178 0
158 177 0
156 178 0
162 182 0
162 183 0
159 179 0
160 180 0
159 178 0
160 180 0
162 183 0
162 182 0
157 177 0
163 183 0
159 178 0
161 182 0
160 181 0
161 182 0
161 181 0
164 183 0
161 182 0
161 179 0
161 182 0
165 186 0
162 183 0
168 190 0
164 184 0
160 181 0
164 185 0
162 180 0
164 185 0
164 185 0
159 180 0
161 181 0
165 186 0
164 185 0
164 185 0
163 183 0
163 184 0
164 186 0
165 185 0
164 184 0
166 188 0
165 187 0
160 181 0
161 183 0
163 184 0
163 185 0
167 188 0
165 187 0
165 187 0
166 187 0
167 188 0
165 186 0
166 186 0
167 187 0
167 188 0
165 186 0
163 183 0
168 190 0
164 186 0
163 184 0
169 190 0
166 187 0
167 188 0
164 185 0
166 188 0
167 188 0
168 189 0
166 188 0
167 189 0
166 188 0
165 186 0
168 189 0
168 191 0
169 190 0
168 189 0
167 189 0
167 189 0
167 189 0
168 191 0
171 192 0
170 192 0
169 191 0
170 192 0
164 186 0
167 190 0
166 186 0
168 191 0
168 189 0
168 191 0
168 190 0
168 189 0
169 192 0
169 191 0
169 190 0
171 193 0
169 191 0
167 190 0
169 190 0
170 192 0
170 191 0
168 191 0
170 192 0
167 189 0
170 192 0
169 189 0
170 193 0
170 192 0
170 191 0
172 194 0
169 192 0
171 193 0
170 192 0
171 193 0
171 193 0
170 193 0
169 191 0
172 194 0
170 193 0
170 193 0
171 193 0
171 193 0
173 195 0
172 194 0
172 195 0
170 191 0
172 195 0
172 193 0
170 192 0
171 191 0
171 193 0
170 192 0
169 192 0
168 190 0
173 196 0
172 194 0
173 196 0
170 192 0
171 195 0
174 196 0
171 194 0
173 194 0
171 194 0
174 196 0
171 193 0
172 193 0
173 197 0
171 195 0
172 193 0
174 195 0
171 193 0
169 192 0
173 195 0
170 193 0
172 193 0
173 196 0
173 196 0
173 195 0
173 195 0
173 196 0
172 194 0
171 195 0
172 194 0
171 193 0
173 196 0
172 195 0
171 193 0
172 195 0
171 194 0
172 193 0
172 195 0
172 195 0
171 194 0
173 196 0
172 195 0
172 195 0
172 194 0
171 194 0
171 194 0
173 195 0
173 195 0
174 197 0
173 196 0
174 196 0
172 194 0
171 194 0
173 195 0
173 197 0
173 196 0
173 196 0
172 195 0
172 195 0
173 195 0
170 194 0
172 195 0
172 194 0
173 196 0
172 196 0
173 196 0
172 194 0
172 195 0
172 195 0
171 195 0
172 195 0
170 193 0
171 194 0
173 196 0
170 194 0
170 192 0
171 193 0
171 193 0
171 194 0
169 192 0
174 197 0
173 196 0
171 193 0
171 194 0
169 191 0
172 194 0
171 194 0
172 195 0
171 194 0
172 194 0
170 193 0
170 191 0
171 194 0
174 196 0
173 196 0
171 195 0
171 194 0
170 193 0
169 192 0
171 194 0
171 194 0
169 192 0
171 193 0
171 194 0
170 193 0
171 194 0
170 193 0
168 191 0
170 192 0
173 195 0
170 193 0
171 194 0
171 194 0
171 194 0
170 192 0
172 194 0
171 194 0
169 191 0
170 192 0
171 193 0
170 192 0
172 194 0
168 190 0
171 192 0
171 194 0
171 192 0
173 194 0
171 193 0
170 193 12
172 194 0
170 192 0
170 191 18
170 191 13
168 189 16
171 191 18
169 185 39
167 186 31
165 181 27
164 178 39
167 184 30
164 180 38
167 184 42
164 182 41
169 187 46
167 184 40
169 184 47
168 184 28
167 183 45
167 185 58
164 181 39
170 186 46
166 182 43
168 186 54
174 191 59
168 184 54
166 181 50
170 187 55
167 183 60
169 186 51
169 187 58
170 188 64
174 191 82
173 191 51
176 195 74
174 194 67
173 192 76
174 193 78
173 192 72
172 190 72
170 188 74
168 186 82
171 190 80
168 187 74
169 187 76
169 188 76
165 183 74
168 186 74
170 188 67
164 183 72
168 188 70
167 185 72
169 187 74
168 186 70
170 189 76
167 185 72
170 187 72
164 182 76
166 185 60
164 182 62
169 188 67
167 186 54
165 184 47
164 182 67
164 184 40
168 188 51
165 184 25
166 186 18
166 185 36
165 184 18
162 183 25
162 182 18
160 181 0
163 184 18
166 185 0
164 185 0
163 182 0
154 174 0
162 181 0
160 179 0
158 179 0
162 181 0
161 180 18
157 176 0
157 176 0
161 180 0
157 175 0
154 174 0
150 167 0
153 172 0
153 172 0
156 175 0
153 172 0
153 172 0
154 174 0
155 175 0
159 177 0
152 171 0
163 183 0
158 177 0
156 175 0
158 177 0
157 178 0
157 176 0
157 175 0
155 176 0
157 175 0
155 177 0
156 174 0
158 177 0
159 180 0
160 180 0
156 174 0
159 179 0
154 173 0
154 174 0
155 174 0
159 179 0
156 176 0
158 178 0
156 176 0
157 177 0
155 175 0
157 178 0
157 177 0
158 178 0
158 179 0
160 181 0
159 180 0
158 179 0
156 177 0
157 176 0
160 179 0
159 180 0
157 176 0
159 180 0
159 179 0
157 177 0
159 179 0
159 178 0
157 176 0
157 176 0
160 181 0
163 185 0
163 184 0
161 181 0
158 179 0
159 179 0
162 183 0
161 182 0
161 181 0
164 184 0
162 181 0
160 180 0
160 179 0
162 182 0
159 180 0
156 177 0
163 181 0
162 183 0
159 179 0
163 184 0
164 185 0
165 185 0
161 182 0
166 188 0
163 185 0
163 184 0
163 185 0
161 182 0
167 187 0
167 188 0
164 185 0
164 183 0
166 187 0
166 187 0
163 184 0
164 185 0
161 180 0
163 184 0
162 180 0
164 184 0
166 187 0
171 193 0
161 183 0
163 184 0
163 183 0
159 180 0
168 190 0
163 184 0
166 186 0
165 186 0
166 187 0
168 190 0
164 185 0
168 190 0
168 190 0
168 190 0
168 189 0
167 187 0
167 190 0
169 189 0
169 190 0
168 190 0
168 190 0
166 188 0
169 191 0
170 192 0
168 190 0
165 186 0
167 188 0
167 190 0
165 186 0
165 186 0
168 189 0
167 188 0
167 188 0
170 192 0
164 187 0
166 188 0
165 186 0
168 189 0
167 190 0
168 190 0
168 192 0
169 189 0
169 191 0
170 193 0
172 193 0
170 192 0
168 190 0
169 190 0
167 188 0
169 190 0
170 192 0
169 191 0
169 191 0
171 194 0
169 191 0
169 191 0
168 188 0
169 191 0
166 188 0
168 190 0
170 192 0
169 190 0
168 190 0
169 192 0
169 191 0
169 192 0
168 190 0
169 191 0
170 192 0
171 193 0
171 193 0
172 194 0
167 188 0
171 192 0
169 191 0
172 194 0
171 193 0
172 193 0
169 192 0
171 192 0
170 193 0
170 194 0
171 194 0
171 194 0
173 195 0
172 193 0
171 193 0
173 196 0
170 192 0
172 193 0
170 193 0
172 194 0
171 194 0
173 195 0
171 193 0
174 195 0
170 192 0
170 192 0
172 195 0
172 195 0
172 195 0
172 194 0
171 192 0
173 196 0
171 193 0
173 195 0
172 193 0
172 195 0
171 195 0
171 194 0
172 195 0
172 195 0
173 196 0
173 196 0
172 194 0
172 195 0
173 195 0
170 192 0
174 197 0
173 196 0
173 195 0
171 193 0
170 193 0
173 195 0
171 193 0
173 196 0
172 195 0
172 195 0
172 195 0
173 197 0
171 195 0
172 195 0
173 195 0
173 195 0
174 196 0
172 195 0
172 195 0
172 195 0
172 195 0
172 195 0
172 195 0
172 196 0
173 196 0
171 194 0
172 195 0
171 194 0
172 195 0
174 196 0
173 195 0
172 195 0
172 194 0
173 196 0
173 196 0
171 193 0
171 194 0
173 196 0
171 194 0
173 195 0
172 194 0
173 196 0
172 195 0
171 193 0
170 192 0
173 196 0
171 194 0
172 195 0
173 196 0
172 195 0
172 194 0
171 195 0
171 194 0
171 194 0
170 193 0
170 193 0
172 194 0
173 196 0
170 192 0
172 195 0
172 194 0
171 193 0
171 195 0
167 190 0
173 195 0
171 193 0
171 193 0
168 190 0
172 195 0
172 194 0
172 195 0
170 192 0
169 192 0
168 191 0
171 193 0
168 190 0
171 193 0
172 194 0
173 194 0
169 193 0
170 192 0
170 193 0
168 190 0
171 193 0
173 194 0
173 196 0
169 191 0
172 194 0
172 195 0
173 195 0
170 192 0
170 193 0
171 194 0
170 192 0
169 191 0
170 192 0
170 193 0
172 195 0
172 194 0
170 190 0
171 193 0
166 187 9
169 189 18
169 188 28
165 182 21
166 182 33
166 184 28
167 182 45
162 179 30
166 183 37
161 177 33
167 184 47
168 186 34
166 182 42
167 182 38
167 183 40
165 183 39
162 179 45
167 182 49
168 183 41
168 184 53
168 185 57
168 185 64
167 181 43
171 187 54
166 183 57
172 187 46
168 186 61
168 186 50
172 188 76
173 192 61
170 188 55
173 190 74
173 193 70
172 191 54
172 189 74
172 190 70
169 187 67
172 190 72
168 186 67
167 185 47
168 186 47
168 187 70
170 189 72
168 185 72
171 189 72
170 187 62
168 187 76
169 186 70
166 184 78
172 190 70
168 187 74
167 186 76
169 187 60
167 185 54
172 190 78
170 189 62
169 188 60
168 186 60
169 188 57
166 184 47
167 188 36
163 184 31
165 184 44
165 184 25
165 184 31
166 186 0
161 183 31
165 184 25
166 187 31
164 184 0
164 183 0
162 182 0
166 187 0
163 181 0
162 182 0
158 178 0
159 179 18
158 177 0
160 177 0
159 178 18
156 174 0
158 177 0
156 174 0
157 176 0
158 176 0
165 185 0
158 179 0
157 176 0
152 171 0
159 176 0
159 179 0
157 177 0
160 180 0
160 178 0
160 179 0
156 175 0
155 173 0
158 177 0
156 175 0
153 173 0
158 178 0
161 179 0
159 177 0
157 178 0
155 174 0
161 180 0
162 182 0
154 172 0
164 184 0
160 179 0
158 178 0
156 176 0
158 179 0
162 183 0
156 175 0
155 175 0
156 175 0
159 179 0
157 179 0
153 173 0
158 179 0
156 175 0
155 175 0
163 181 0
154 175 0
158 178 0
156 177 0
163 183 0
161 181 0
159 178 0
163 184 0
159 179 0
162 184 0
158 177 0
165 186 0
160 181 0
159 179 0
162 183 0
157 177 0
160 182 0
161 182 0
163 182 0
162 180 0
161 181 0
158 178 0
164 184 0
157 178 0
162 182 0
159 181 0
162 183 0
162 182 0
161 182 0
158 178 0
162 182 0
162 182 0
162 184 0
160 180 0
162 182 0
161 180 0
159 180 0
160 181 0
163 184 0
159 179 0
167 189 0
164 185 0
166 187 0
165 185 0
162 182 0
165 186 0
164 184 0
169 191 0
165 186 0
164 185 0
165 186 0
165 187 0
161 183 0
164 183 0
168 190 0
164 185 0
165 186 0
165 186 0
165 187 0
165 185 0
169 191 0
167 189 0
167 188 0
165 187 0
168 189 0
167 188 0
170 190 0
168 189 0
166 188 0
167 188 0
168 189 0
166 189 0
163 184 0
169 190 0
165 185 0
164 185 0
170 190 0
166 187 0
166 187 0
167 190 0
170 192 0
167 189 0
168 191 0
166 188 0
166 188 0
163 183 0
169 191 0
165 187 0
169 191 0
169 190 0
167 189 0
170 191 0
169 191 0
170 190 0
167 189 0
168 191 0
169 191 0
169 190 0
171 193 0
168 191 0
168 190 0
166 187 0
169 192 0
167 188 0
169 190 0
167 189 0
170 191 0
170 191 0
169 191 0
170 193 0
171 194 0
166 188 0
168 189 0
169 192 0
167 190 0
169 191 0
170 193 0
168 189 0
172 193 0
171 194 0
168 190 0
172 195 0
170 191 0
169 191 0
169 191 0
172 194 0
166 189 0
168 191 0
169 192 0
171 193 0
172 193 0
170 192 0
171 194 0
171 194 0
171 193 0
172 195 0
168 191 0
172 194 0
171 193 0
170 192 0
169 192 0
170 194 0
170 191 0
172 195 0
171 194 0
170 192 0
172 194 0
172 194 0
172 195 0
170 193 0
172 195 0
169 192 0
171 193 0
171 193 0
171 194 0
174 196 0
171 195 0
172 194 0
173 195 0
171 194 0
171 194 0
173 195 0
172 194 0
171 195 0
171 195 0
173 196 0
173 195 0
173 195 0
171 193 0
172 195 0
170 193 0
170 193 0
172 194 0
172 193 0
172 195 0
173 195 0
173 196 0
173 195 0
172 196 0
173 196 0
174 197 0
170 192 0
171 193 0
172 195 0
172 195 0
172 195 0
172 195 0
171 194 0
174 197 0
172 195 0
173 196 0
173 196 0
172 195 0
173 196 0
172 195 0
173 197 0
171 194 0
173 196 0
170 194 0
173 196 0
172 195 0
171 194 0
173 195 0
172 196 0
172 195 0
172 195 0
173 196 0
172 194 0
173 197 0
173 195 0
171 194 0
173 197 0
170 193 0
173 196 0
173 196 0
171 194 0
172 196 0
170 192 0
172 195 0
172 195 0
172 195 0
171 194 0
170 193 0
171 194 0
173 196 0
173 196 0
172 195 0
171 193 0
172 194 0
169 192 0
172 195 0
172 194 0
171 193 0
169 192 0
171 194 0
172 194 0
170 192 0
171 193 0
172 196 0
171 194 0
171 192 0
171 194 0
172 195 0
173 195 0
172 193 0
171 193 0
171 193 0
169 192 0
171 194 0
171 194 0
172 195 0
170 192 0
170 193 0
172 194 0
170 194 0
170 192 0
171 194 0
171 193 0
171 192 0
170 192 0
169 191 0
169 192 0
170 193 0
170 194 0
171 193 0
170 193 0
171 193 0
170 193 0
171 193 0
174 196 0
170 192 0
171 193 0
171 193 0
171 193 0
172 193 0
169 190 0
170 188 22
167 186 21
168 187 18
167 184 32
166 182 32
164 178 36
163 178 32
160 175 35
163 176 38
158 172 43
164 175 51
163 180 25
165 183 15
168 187 31
169 185 40
168 183 31
167 183 40
164 180 48
169 185 66
171 186 57
169 185 55
169 185 64
169 186 59
171 186 76
171 186 60
165 178 58
172 188 54
172 189 70
169 184 72
172 189 67
171 189 73
172 190 64
173 192 67
174 193 65
172 189 72
172 190 62
174 192 80
172 191 72
171 190 74
174 193 90
169 187 76
170 188 80
168 185 72
167 184 62
172 190 74
171 191 78
170 189 76
170 187 86
171 189 74
167 185 76
168 186 62
165 184 57
169 186 62
168 188 60
167 186 76
169 188 47
169 187 60
167 185 57
171 192 54
166 187 31
167 187 54
166 185 36
166 186 31
166 187 36
166 186 36
164 183 31
168 189 31
163 182 18
164 185 25
162 181 18
164 184 18
161 181 0
163 184 0
166 187 0
165 184 0
161 178 0
157 178 0
163 182 0
156 176 0
158 177 0
161 180 0
160 178 0
158 176 0
159 177 0
157 175 0
163 182 0
158 176 0
154 172 0
156 176 0
156 176 0
159 178 0
156 175 0
155 174 0
154 173 0
158 177 0
155 173 0
162 181 0
158 178 0
155 173 0
164 183 0
159 177 0
154 172 0
158 176 0
157 178 0
155 173 0
153 171 0
158 179 0
157 177 0
160 179 0
156 177 0
155 173 0
161 178 0
160 180 0
159 179 0
156 177 0
161 181 0
158 178 0
164 184 0
160 181 0
157 177 0
161 183 0
158 179 0
155 175 0
157 177 0
162 183 0
162 182 0
157 177 0
162 184 0
162 184 0
159 179 0
160 180 0
163 182 0
161 182 0
159 179 0
162 183 0
160 180 0
159 179 0
159 180 0
160 181 0
159 178 0
158 178 0
163 184 0
159 181 0
161 182 0
161 183 0
160 180 0
162 182 0
164 184 0
163 184 0
163 184 0
159 180 0
160 181 0
160 182 0
156 176 0
164 185 0
163 185 0
160 180 0
161 182 0
163 184 0
162 184 0
162 183 0
165 187 0
161 179 0
165 187 0
163 184 0
163 184 0
163 184 0
163 184 0
163 184 0
164 183 0
164 185 0
166 187 0
165 187 0
164 186 0
166 186 0
167 188 0
163 185 0
162 181 0
163 186 0
162 184 0
165 186 0
164 186 0
164 186 0
165 187 0
166 187 0
164 184 0
167 188 0
165 186 0
164 184 0
165 186 0
163 184 0
164 185 0
168 190 0
165 185 0
168 189 0
166 188 0
165 186 0
163 185 0
164 187 0
168 189 0
166 188 0
163 185 0
167 188 0
166 188 0
167 188 0
168 187 0
168 191 0
164 185 0
167 188 0
164 186 0
169 191 0
166 189 0
166 188 0
167 189 0
169 190 0
167 189 0
168 189 0
170 192 0
168 190 0
168 190 0
167 189 0
167 190 0
168 189 0
169 189 0
168 190 0
170 193 0
168 188 0
167 189 0
169 192 0
169 191 0
170 190 0
171 192 0
170 192 0
169 192 0
171 193 0
168 191 0
168 190 0
171 194 0
170 192 0
165 188 0
172 193 0
170 191 0
170 191 0
168 189 0
171 193 0
170 192 0
172 195 0
169 191 0
169 190 0
169 191 0
170 192 0
169 192 0
168 191 0
171 193 0
170 192 0
168 190 0
170 192 0
171 194 0
171 192 0
170 193 0
170 190 0
169 191 0
171 193 0
169 190 0
170 193 0
169 191 0
171 192 0
172 193 0
170 192 0
174 196 0
171 193 0
170 193 0
171 194 0
172 194 0
170 193 0
172 193 0
170 192 0
173 196 0
172 195 0
172 195 0
173 195 0
174 195 0
172 193 0
171 193 0
172 194 0
170 193 0
171 194 0
173 195 0
172 195 0
171 194 0
172 194 0
173 196 0
172 195 0
173 196 0
174 197 0
173 195 0
172 195 0
172 195 0
172 195 0
173 195 0
172 195 0
172 195 0
170 193 0
172 195 0
172 195 0
173 196 0
172 195 0
171 193 0
174 196 0
172 194 0
172 194 0
174 196 0
173 196 0
174 197 0
172 195 0
172 195 0
172 195 0
173 196 0
171 195 0
170 192 0
171 194 0
172 195 0
173 197 0
172 196 0
172 194 0
173 196 0
172 195 0
172 195 0
171 194 0
172 194 0
173 196 0
172 195 0
173 195 0
172 196 0
173 196 0
172 194 0
172 195 0
174 195 0
171 194 0
172 195 0
173 196 0
170 193 0
173 196 0
174 197 0
171 195 0
172 196 0
172 195 0
170 193 0
172 195 0
173 196 0
171 194 0
172 195 0
170 193 0
173 196 0
172 194 0
172 194 0
171 194 0
174 196 0
172 195 0
171 193 0
170 193 0
169 192 0
169 192 0
172 195 0
173 196 0
171 193 0
172 193 0
172 194 0
171 194 0
171 194 0
171 193 0
170 193 0
170 192 0
171 193 0
170 192 0
172 194 0
172 195 0
170 192 0
173 195 0
168 191 0
171 194 0
171 194 0
169 191 0
171 194 0
170 192 0
170 192 0
169 190 0
168 190 0
172 194 0
173 194 0
169 190 0
171 192 0
170 191 0
170 192 0
173 195 0
170 193 0
170 192 0
171 194 0
169 189 9
170 191 5
169 190 0
168 187 31
164 183 23
164 181 37
165 181 32
168 182 35
161 177 30
163 177 35
164 175 48
163 178 40
161 172 44
165 183 34
162 176 34
164 176 51
168 184 31
167 184 46
168 183 39
168 184 43
169 186 45
168 187 33
166 183 61
170 186 53
168 185 46
169 184 63
171 188 45
170 187 62
172 189 60
174 191 67
172 188 53
170 189 64
174 194 65
174 192 63
176 195 79
172 191 65
175 194 78
171 187 72
172 191 70
171 188 70
171 187 67
171 190 62
171 188 74
168 186 60
171 188 78
169 187 78
168 188 60
170 188 76
167 185 54
171 190 70
168 186 67
169 186 54
170 188 57
171 189 54
173 191 74
170 187 54
168 186 62
170 189 57
168 187 51
168 187 36
167 186 44
166 187 36
165 184 54
165 185 31
166 186 36
164 184 25
165 185 40
165 186 0
163 183 0
166 185 0
168 188 0
167 187 25
164 183 18
163 185 0
165 184 0
163 184 0
159 179 0
160 179 0
157 177 0
158 177 0
157 175 0
159 175 0
156 176 0
161 180 0
160 177 0
159 179 0
156 174 0
161 178 0
156 175 0
153 172 0
156 174 0
159 178 0
156 174 0
161 181 0
160 180 0
152 171 0
160 180 0
158 176 0
156 176 0
159 179 0
162 182 0
157 177 0
159 179 0
155 175 0
159 179 0
157 177 0
159 179 0
160 180 0
155 176 0
154 172 0
158 177 0
158 177 0
158 179 0
156 174 0
156 174 0
155 176 0
158 178 0
160 181 0
159 178 0
161 180 0
160 180 0
154 174 0
158 176 0
162 184 0
157 177 0
155 175 0
162 182 0
157 176 0
162 183 0
162 183 0
160 182 0
156 176 0
162 183 0
157 177 0
160 180 0
156 176 0
160 182 0
159 180 0
158 180 0
157 178 0
159 179 0
162 182 0
162 185 0
159 180 0
160 180 0
165 186 0
164 186 0
158 177 0
163 183 0
156 177 0
166 187 0
162 182 0
164 185 0
163 183 0
166 188 0
165 188 0
164 185 0
163 185 0
163 182 0
162 184 0
160 181 0
163 183 0
163 183 0
165 185 0
160 179 0
160 180 0
160 181 0
161 182 0
164 184 0
165 186 0
163 185 0
163 184 0
161 182 0
167 189 0
162 183 0
165 186 0
166 187 0
162 184 0
164 186 0
161 184 0
163 183 0
165 187 0
161 181 0
168 190 0
162 183 0
169 191 0
165 185 0
167 188 0
165 187 0
164 186 0
165 186 0
164 184 0
164 185 0
166 186 0
166 187 0
166 187 0
166 188 0
168 190 0
163 184 0
168 191 0
167 190 0
169 191 0
164 185 0
169 191 0
168 189 0
166 188 0
165 185 0
169 192 0
166 188 0
167 187 0
166 188 0
168 189 0
166 187 0
168 191 0
167 188 0
167 189 0
166 188 0
169 191 0
168 189 0
169 191 0
167 189 0
169 190 0
166 187 0
169 191 0
171 192 0
170 192 0
168 189 0
167 188 0
170 192 0
170 191 0
168 190 0
170 191 0
170 192 0
168 190 0
166 188 0
168 189 0
171 193 0
170 192 0
169 190 0
170 192 0
171 194 0
169 191 0
169 190 0
170 193 0
168 190 0
168 189 0
170 192 0
169 191 0
170 192 0
171 193 0
172 193 0
170 192 0
169 192 0
170 194 0
171 193 0
170 192 0
171 192 0
169 193 0
172 195 0
169 191 0
171 193 0
170 193 0
172 193 0
170 192 0
171 193 0
171 193 0
172 194 0
168 191 0
170 192 0
172 194 0
169 192 0
171 194 0
171 193 0
170 193 0
173 196 0
172 194 0
173 195 0
171 194 0
171 193 0
172 194 0
172 195 0
170 193 0
172 194 0
168 191 0
171 194 0
171 193 0
172 195 0
172 194 0
172 194 0
171 194 0
172 194 0
173 195 0
174 197 0
169 191 0
174 196 0
171 194 0
173 195 0
172 194 0
173 196 0
173 196 0
171 194 0
172 195 0
171 194 0
173 195 0
171 194 0
171 194 0
171 194 0
172 195 0
173 197 0
174 196 0
174 197 0
171 193 0
172 194 0
173 196 0
173 195 0
173 196 0
172 196 0
174 196 0
172 195 0
173 196 0
172 195 0
174 197 0
171 193 0
172 195 0
172 195 0
171 194 0
170 193 0
174 197 0
172 195 0
171 194 0
170 193 0
172 195 0
171 193 0
173 195 0
172 195 0
173 196 0
171 194 0
172 195 0
173 195 0
172 194 0
170 193 0
173 196 0
172 195 0
170 193 0
173 196 0
171 193 0
172 194 0
170 193 0
173 196 0
172 195 0
171 194 0
171 194 0
173 195 0
171 194 0
169 193 0
171 194 0
171 193 0
171 194 0
171 194 0
173 196 0
171 194 0
174 196 0
171 195 0
172 195 0
171 194 0
171 194 0
168 189 0
169 191 0
171 194 0
170 193 0
172 195 0
172 194 0
169 191 0
170 193 0
171 194 0
170 193 0
170 192 0
173 195 0
173 196 0
171 194 0
170 192 0
171 193 0
171 194 0
170 192 0
173 195 0
171 193 0
171 193 0
169 191 0
169 192 0
171 193 0
171 193 0
171 194 0
172 194 0
170 191 0
169 190 0
168 190 0
170 193 0
169 192 0
169 190 0
171 193 0
172 194 0
167 187 13
165 184 28
168 185 26
169 186 32
161 175 29
163 177 31
162 176 40
160 174 39
164 175 45
162 175 39
162 172 52
163 173 38
164 175 44
166 181 40
163 176 41
166 182 39
165 180 43
168 181 45
166 181 36
168 184 47
169 187 38
166 181 63
169 186 51
170 186 63
168 185 62
170 186 53
168 184 58
172 188 56
168 186 58
176 193 80
176 194 71
170 189 60
173 192 74
172 190 60
175 192 80
172 190 67
172 190 65
171 190 65
175 194 90
168 187 54
172 190 67
171 189 76
172 190 82
171 186 60
172 190 74
166 183 57
174 194 70
170 188 54
172 190 70
170 188 78
170 188 67
168 185 76
166 183 72
168 186 57
166 183 40
168 186 44
167 185 67
170 190 51
165 185 51
167 186 47
171 189 44
167 188 40
169 189 0
164 185 31
168 188 25
170 191 25
167 187 18
167 188 25
164 185 25
161 181 0
168 188 0
164 185 0
164 184 0
166 187 0
162 181 0
160 178 0
159 177 0
163 183 0
163 181 0
167 186 0
159 178 0
156 175 18
155 175 0
161 182 0
157 174 0
158 176 0
161 179 0
157 175 0
164 182 0
156 175 0
161 180 0
158 176 0
157 176 0
157 177 0
160 178 0
161 179 0
158 177 0
154 174 0
156 177 0
150 169 0
155 173 0
162 182 0
159 178 0
159 175 0
157 176 0
161 181 0
159 178 0
159 179 0
160 179 0
158 178 0
158 177 0
161 181 0
161 182 0
161 181 0
156 175 0
157 176 0
152 171 0
155 176 0
155 175 0
154 173 0
158 178 0
157 176 0
159 180 0
156 174 0
163 185 0
160 180 0
163 184 0
160 181 0
160 180 0
163 183 0
159 179 0
162 182 0
160 181 0
159 179 0
159 179 0
162 183 0
162 184 0
161 180 0
161 184 0
159 180 0
160 181 0
158 178 0
160 181 0
163 184 0
157 179 0
161 182 0
164 184 0
159 179 0
163 185 0
165 186 0
165 187 0
162 184 0
164 186 0
162 181 0
158 178 0
163 184 0
163 182 0
163 183 0
164 184 0
160 180 0
163 184 0
167 187 0
165 187 0
163 185 0
160 181 0
160 181 0
163 183 0
163 184 0
165 186 0
163 183 0
162 183 0
163 185 0
165 187 0
162 183 0
166 187 0
164 186 0
167 187 0
166 189 0
164 186 0
165 186 0
166 189 0
166 188 0
167 187 0
168 190 0
162 184 0
169 190 0
168 190 0
165 185 0
166 186 0
166 188 0
166 187 0
164 186 0
165 186 0
169 191 0
166 188 0
165 186 0
166 188 0
164 185 0
167 186 0
168 190 0
170 192 0
165 183 0
166 187 0
167 188 0
167 190 0
167 188 0
167 189 0
164 186 0
167 188 0
168 189 0
168 189 0
169 190 0
167 190 0
168 189 0
166 187 0
169 190 0
170 192 0
167 190 0
166 188 0
168 189 0
171 193 0
168 189 0
168 190 0
170 192 0
168 189 0
169 190 0
168 191 0
170 191 0
166 187 0
169 192 0
167 189 0
173 193 0
169 190 0
170 193 0
170 192 0
172 193 0
167 189 0
167 189 0
170 192 0
170 193 0
170 193 0
170 192 0
171 192 0
172 194 0
171 193 0
169 191 0
173 195 0
169 191 0
170 192 0
171 194 0
169 192 0
168 189 0
171 194 0
169 190 0
170 193 0
172 193 0
168 190 0
169 191 0
169 192 0
172 195 0
171 193 0
171 194 0
170 191 0
171 194 0
171 193 0
172 194 0
171 193 0
172 194 0
170 193 0
169 192 0
170 193 0
171 193 0
170 192 0
172 195 0
170 192 0
172 195 0
172 194 0
171 193 0
171 192 0
172 195 0
172 195 0
171 192 0
173 194 0
171 193 0
171 193 0
172 195 0
171 193 0
168 191 0
170 192 0
173 195 0
170 193 0
172 195 0
171 193 0
170 193 0
171 193 0
170 193 0
172 195 0
171 193 0
170 193 0
172 195 0
174 196 0
173 196 0
171 194 0
171 194 0
173 195 0
171 194 0
172 195 0
172 196 0
172 195 0
174 196 0
173 196 0
170 194 0
173 196 0
173 196 0
175 197 0
173 196 0
173 195 0
172 195 0
173 197 0
172 195 0
173 196 0
173 196 0
173 196 0
171 194 0
172 194 0
172 195 0
173 196 0
171 194 0
171 195 0
172 195 0
171 195 0
171 194 0
173 196 0
173 196 0
174 196 0
171 194 0
172 195 0
169 192 0
173 197 0
173 196 0
171 194 0
172 194 0
171 194 0
171 192 0
171 195 0
171 194 0
171 194 0
171 194 0
174 197 0
174 196 0
172 194 0
173 195 0
173 196 0
172 194 0
170 193 0
173 196 0
173 195 0
171 194 0
171 194 0
173 196 0
171 194 0
170 193 0
171 194 0
170 193 0
169 191 0
171 193 0
169 191 0
172 194 0
173 194 0
172 196 0
171 192 0
169 192 0
172 194 0
171 194 0
171 193 0
172 195 0
172 194 0
172 194 0
169 192 0
170 193 0
170 193 0
171 193 0
171 194 0
171 192 0
171 193 0
171 194 0
171 192 0
168 189 0
172 193 0
172 193 0
171 192 0
169 191 0
170 193 0
169 190 0
169 192 0
170 192 0
170 190 0
170 191 0
170 190 0
171 192 14
168 186 15
165 182 25
166 183 25
166 181 32
165 177 42
165 177 42
163 177 35
160 169 43
161 172 45
157 164 47
162 170 53
163 177 44
159 171 49
161 174 44
166 177 50
161 173 47
163 178 38
171 185 58
173 188 45
167 182 50
168 183 63
171 189 45
169 184 44
170 185 45
172 188 68
171 187 58
174 190 64
173 190 56
171 188 58
172 190 65
175 193 78
171 189 54
172 190 57
173 189 72
174 191 67
172 190 65
173 190 70
172 191 65
169 189 67
173 191 65
167 186 67
175 195 67
172 189 72
173 191 78
174 193 65
170 189 67
174 191 76
170 186 67
167 184 72
174 192 70
172 190 70
172 190 60
170 188 57
171 189 60
167 185 60
171 190 65
168 187 47
171 190 54
167 187 36
168 187 25
161 182 40
163 183 31
169 189 36
167 187 18
167 187 18
166 187 31
167 189 31
163 181 0
163 185 0
162 182 0
165 184 0
165 185 0
164 184 0
163 183 0
159 178 0
164 185 0
165 185 0
164 182 0
158 177 0
160 181 0
160 180 0
160 179 0
159 178 0
161 179 0
160 180 0
154 172 0
161 180 0
160 178 0
158 177 0
161 181 0
161 179 0
163 182 0
159 180 0
157 176 0
158 178 0
160 180 0
154 171 0
160 179 0
158 178 0
162 182 0
153 172 0
157 176 0
161 181 0
162 181 0
160 181 0
158 178 0
161 180 0
159 179 0
159 179 0
161 180 0
151 171 0
156 175 0
158 178 0
161 181 0
155 175 0
161 182 0
160 178 0
160 179 0
162 183 0
159 181 0
162 182 0
158 177 0
153 173 0
161 182 0
155 174 0
155 176 0
157 177 0
159 180 0
160 181 0
160 180 0
162 182 0
157 176 0
159 177 0
159 179 0
161 180 0
164 184 0
154 173 0
163 184 0
161 183 0
161 182 0
164 185 0
165 186 0
162 184 0
159 179 0
164 184 0
165 187 0
161 181 0
164 184 0
157 178 0
160 181 0
161 182 0
167 188 0
162 183 0
164 185 0
161 181 0
163 184 0
164 184 0
165 185 0
158 177 0
162 182 0
167 189 0
163 184 0
160 182 0
160 181 0
165 187 0
162 183 0
162 182 0
163 184 0
169 191 0
167 187 0
166 187 0
166 187 0
168 187 0
166 189 0
163 184 0
165 186 0
164 184 0
166 187 0
164 185 0
163 183 0
167 189 0
169 189 0
166 189 0
162 184 0
165 187 0
165 187 0
164 185 0
165 187 0
167 187 0
166 186 0
165 186 0
166 188 0
166 187 0
170 192 0
167 188 0
168 190 0
168 191 0
164 186 0
163 183 0
167 188 0
168 190 0
165 187 0
169 190 0
168 190 0
168 190 0
168 190 0
168 189 0
165 186 0
165 187 0
167 188 0
169 190 0
169 190 0
171 193 0
167 189 0
167 188 0
168 191 0
168 190 0
169 192 0
171 193 0
170 192 0
169 191 0
170 192 0
169 191 0
171 194 0
170 192 0
169 191 0
167 188 0
170 192 0
169 192 0
171 194 0
171 191 0
170 192 0
169 191 0
171 193 0
169 192 0
168 190 0
171 194 0
170 192 0
170 193 0
170 191 0
168 190 0
170 192 0
169 190 0
171 194 0
171 193 0
172 194 0
172 194 0
170 192 0
171 193 0
170 193 0
169 191 0
167 190 0
171 193 0
170 193 0
174 196 0
168 189 0
171 194 0
171 193 0
169 191 0
170 193 0
172 195 0
172 194 0
171 194 0
171 193 0
171 193 0
173 195 0
171 193 0
170 192 0
171 194 0
170 193 0
172 194 0
171 193 0
172 194 0
174 196 0
168 190 0
171 194 0
172 195 0
170 192 0
172 194 0
171 194 0
172 195 0
169 192 0
171 193 0
170 193 0
171 194 0
172 195 0
171 193 0
172 194 0
173 196 0
171 195 0
173 195 0
171 193 0
172 194 0
172 193 0
172 194 0
170 193 0
171 194 0
173 194 0
172 194 0
171 194 0
172 194 0
172 194 0
171 194 0
172 195 0
169 192 0
172 196 0
173 196 0
173 195 0
172 195 0
172 196 0
174 196 0
171 194 0
172 195 0
173 195 0
174 196 0
173 195 0
172 196 0
172 196 0
172 195 0
172 194 0
172 194 0
173 197 0
173 196 0
172 194 0
172 195 0
173 196 0
171 194 0
172 195 0
172 195 0
171 194 0
171 194 0
171 194 0
172 195 0
173 196 0
171 193 0
173 196 0
172 195 0
170 193 0
174 197 0
171 195 0
172 195 0
172 195 0
173 196 0
172 195 0
173 196 0
171 193 0
173 196 0
172 194 0
173 196 0
170 194 0
172 194 0
171 194 0
172 195 0
171 194 0
172 195 0
173 195 0
171 194 0
171 194 0
172 195 0
171 194 0
173 197 0
172 195 0
171 194 0
172 194 0
171 193 0
170 193 0
172 195 0
170 192 0
169 192 0
169 193 0
169 192 0
172 194 0
172 194 0
170 193 0
172 195 0
170 192 0
172 194 0
173 196 0
170 193 0
171 194 0
168 190 0
169 190 0
171 195 0
170 192 0
170 192 0
171 193 0
170 191 0
170 192 0
171 191 0
172 194 0
169 191 0
172 193 0
170 193 0
170 191 0
170 192 0
169 190 0
169 188 0
168 189 0
171 192 9
168 187 23
169 189 18
164 180 20
164 179 37
163 176 34
168 183 35
159 170 37
156 165 46
155 163 42
157 169 37
162 173 47
153 160 39
158 169 45
156 166 48
160 168 49
167 178 40
161 170 50
166 179 52
168 181 48
164 179 41
166 177 50
167 183 49
169 183 45
169 187 50
171 186 39
172 188 55
173 190 54
171 187 56
169 187 58
174 193 60
173 190 58
176 195 67
172 191 54
173 191 65
172 192 57
172 189 47
175 193 54
173 191 62
171 187 72
173 191 74
170 188 65
172 190 65
170 188 60
173 189 70
173 190 67
168 184 57
171 189 78
170 188 62
168 187 57
171 189 70
166 184 44
171 190 62
170 186 57
171 190 54
167 184 47
166 184 47
170 189 36
167 187 31
171 191 31
169 188 36
167 188 25
163 184 31
169 190 25
169 190 18
164 184 0
167 189 18
167 188 18
168 188 0
162 182 0
165 186 0
164 183 0
163 181 0
166 187 0
165 185 0
161 180 0
161 179 0
162 183 0
166 186 0
162 182 0
161 182 0
162 180 0
155 174 0
161 180 0
163 183 0
159 178 0
161 181 0
161 181 0
160 178 0
156 176 0
157 175 0
154 174 0
159 180 0
157 176 0
164 185 0
157 176 0
158 177 0
158 176 0
157 177 0
160 179 0
157 178 0
158 177 0
156 174 0
164 183 0
160 176 0
154 174 0
161 180 0
157 177 0
159 178 0
159 177 0
160 181 0
164 184 0
156 174 0
159 180 0
163 183 0
164 185 0
161 182 0
156 173 0
160 180 0
157 176 0
159 180 0
162 180 0
163 182 0
159 178 0
160 181 0
161 182 0
159 180 0
159 182 0
162 183 0
163 184 0
158 180 0
156 176 0
163 184 0
162 183 0
160 183 0
156 176 0
161 181 0
161 181 0
159 181 0
164 184 0
157 178 0
163 184 0
160 180 0
163 184 0
165 186 0
161 182 0
164 184 0
163 183 0
161 182 0
162 183 0
163 183 0
165 187 0
160 180 0
163 186 0
163 184 0
166 187 0
161 182 0
164 185 0
163 184 0
164 187 0
166 187 0
167 188 0
160 181 0
166 187 0
161 182 0
163 184 0
165 188 0
163 185 0
161 182 0
167 189 0
164 184 0
162 183 0
165 188 0
167 190 0
165 187 0
166 188 0
165 186 0
162 183 0
164 185 0
164 185 0
165 187 0
167 189 0
167 189 0
165 186 0
166 187 0
166 188 0
166 186 0
167 189 0
166 188 0
167 189 0
167 189 0
166 186 0
167 188 0
169 191 0
169 190 0
170 192 0
168 189 0
169 192 0
165 187 0
169 190 0
170 193 0
166 188 0
164 187 0
169 191 0
168 190 0
168 188 0
168 190 0
166 186 0
165 187 0
169 190 0
167 189 0
170 193 0
167 188 0
168 190 0
169 191 0
168 189 0
168 189 0
166 187 0
167 189 0
170 192 0
168 191 0
167 189 0
170 191 0
165 186 0
170 192 0
167 190 0
167 188 0
170 193 0
170 193 0
170 194 0
165 187 0
167 189 0
167 188 0
169 189 0
170 192 0
169 191 0
170 192 0
170 192 0
169 191 0
170 192 0
170 193 0
170 192 0
171 194 0
170 193 0
169 191 0
171 193 0
170 193 0
168 190 0
171 194 0
169 190 0
170 191 0
171 193 0
171 192 0
171 193 0
171 193 0
169 192 0
168 190 0
170 192 0
168 191 0
171 193 0
169 192 0
168 191 0
172 194 0
169 191 0
171 192 0
170 191 0
170 192 0
170 192 0
172 194 0
171 193 0
172 195 0
172 195 0
172 196 0
173 196 0
172 195 0
171 193 0
171 193 0
172 194 0
171 195 0
171 193 0
173 195 0
171 194 0
171 194 0
170 194 0
171 193 0
174 197 0
171 194 0
172 195 0
172 195 0
172 194 0
171 193 0
172 195 0
172 195 0
172 194 0
174 196 0
169 193 0
172 193 0
171 195 0
173 196 0
172 194 0
173 195 0
171 194 0
174 197 0
170 194 0
171 193 0
172 194 0
172 195 0
172 195 0
172 195 0
172 195 0
171 194 0
173 196 0
173 195 0
172 195 0
173 197 0
174 197 0
174 196 0
174 197 0
173 197 0
172 195 0
172 195 0
172 194 0
173 197 0
171 194 0
170 193 0
173 197 0
172 195 0
173 195 0
173 196 0
172 195 0
173 196 0
171 194 0
172 195 0
171 195 0
170 193 0
173 196 0
172 194 0
171 194 0
171 193 0
173 196 0
172 194 0
173 196 0
172 195 0
172 196 0
173 196 0
171 194 0
172 195 0
170 193 0
172 196 0
173 195 0
170 193 0
173 195 0
171 193 0
171 193 0
171 195 0
172 195 0
172 195 0
169 192 0
172 194 0
173 196 0
172 195 0
171 194 0
171 194 0
172 195 0
170 193 0
172 194 0
174 196 0
171 194 0
172 194 0
170 192 0
171 193 0
174 196 0
172 195 0
171 194 0
170 192 0
169 192 0
171 192 0
171 193 0
170 192 0
172 194 0
171 194 0
173 194 0
172 194 0
173 195 0
171 193 0
172 194 0
170 192 0
171 192 0
169 191 0
171 193 0
171 193 0
170 191 0
169 191 0
170 189 0
171 193 0
169 191 0
169 192 0
169 190 0
168 188 0
167 189 0
168 187 17
166 186 11
168 184 29
166 183 32
165 180 31
165 175 43
162 173 36
160 176 32
158 166 38
163 170 50
162 168 50
155 164 43
165 172 55
163 173 46
158 169 33
157 164 50
161 173 38
160 171 38
165 178 45
161 175 43
165 176 36
165 180 50
167 183 54
169 182 45
169 185 46
172 188 48
170 186 59
170 188 18
169 186 55
169 186 46
173 191 74
173 190 56
173 192 65
171 190 54
174 194 60
173 190 65
171 190 51
174 193 67
172 190 57
171 188 72
172 189 67
175 192 74
171 189 72
169 183 54
168 186 62
171 189 65
172 190 76
171 191 62
170 187 60
172 191 62
166 185 51
171 190 40
167 186 57
168 188 47
171 190 60
169 190 36
168 188 51
167 188 31
170 189 44
167 186 36
170 190 31
167 189 36
169 189 25
164 186 18
164 184 18
168 189 25
165 184 18
162 183 0
166 188 18
164 185 0
167 186 0
164 184 0
162 182 0
163 182 0
162 180 0
163 182 0
166 186 0
163 181 0
165 183 0
163 182 0
166 184 0
165 184 0
163 182 0
161 181 0
165 185 0
159 179 0
156 175 0
160 179 0
166 186 0
159 180 0
152 173 0
161 181 0
162 181 0
157 176 0
163 181 0
161 181 0
159 179 0
159 179 0
157 175 0
162 182 0
158 178 0
158 176 0
157 178 0
157 178 0
156 176 0
161 180 0
158 177 0
161 182 0
161 180 0
159 179 0
164 185 0
162 181 0
165 185 0
160 181 0
158 177 0
158 178 0
153 171 0
157 176 0
161 181 0
158 178 0
156 177 0
160 182 0
163 184 0
158 177 0
157 176 0
158 179 0
160 180 0
158 180 0
162 183 0
159 179 0
159 179 0
163 183 0
158 178 0
163 185 0
160 180 0
161 181 0
161 181 0
161 183 0
162 183 0
161 182 0
161 182 0
160 181 0
162 183 0
160 179 0
157 177 0
163 182 0
160 182 0
162 183 0
164 185 0
162 182 0
164 184 0
162 183 0
162 183 0
164 185 0
164 185 0
160 181 0
161 180 0
162 182 0
164 184 0
167 188 0
165 185 0
162 183 0
160 181 0
163 185 0
165 185 0
165 186 0
166 188 0
163 184 0
163 183 0
163 183 0
166 189 0
163 185 0
165 187 0
165 187 0
165 186 0
163 184 0
165 186 0
162 184 0
166 186 0
168 189 0
166 188 0
166 187 0
168 189 0
168 190 0
165 184 0
167 189 0
164 185 0
167 188 0
167 190 0
167 188 0
165 187 0
166 187 0
168 190 0
164 186 0
165 186 0
164 186 0
165 185 0
169 190 0
165 187 0
166 187 0
168 189 0
166 187 0
167 190 0
165 187 0
170 191 0
166 189 0
167 187 0
167 190 0
170 191 0
166 186 0
167 189 0
165 187 0
169 191 0
167 189 0
169 190 0
170 192 0
168 190 0
168 190 0
168 190 0
170 192 0
167 189 0
172 194 0
168 189 0
169 191 0
169 192 0
169 191 0
168 190 0
169 190 0
170 193 0
171 193 0
170 193 0
169 191 0
170 192 0
168 188 0
170 192 0
171 194 0
170 192 0
171 193 0
169 191 0
170 192 0
172 195 0
169 191 0
169 191 0
171 193 0
170 192 0
171 194 0
168 189 0
170 192 0
171 193 0
171 193 0
171 192 0
170 191 0
171 194 0
173 194 0
172 193 0
169 190 0
170 193 0
169 191 0
172 195 0
170 193 0
171 193 0
169 190 0
169 191 0
171 194 0
172 194 0
172 194 0
170 193 0
171 194 0
172 195 0
172 195 0
169 190 0
170 193 0
171 193 0
172 195 0
172 193 0
171 194 0
172 195 0
173 196 0
170 193 0
173 195 0
171 193 0
171 193 0
172 194 0
170 193 0
172 194 0
170 193 0
172 195 0
174 196 0
172 193 0
173 195 0
171 194 0
173 195 0
172 194 0
172 194 0
172 194 0
172 194 0
172 195 0
172 194 0
171 194 0
172 195 0
175 197 0
172 194 0
173 196 0
172 195 0
172 195 0
171 193 0
174 197 0
172 195 0
173 195 0
172 194 0
171 195 0
172 195 0
172 194 0
172 194 0
172 195 0
171 194 0
173 196 0
171 193 0
174 197 0
174 196 0
172 196 0
173 195 0
172 195 0
172 194 0
174 197 0
175 198 0
173 196 0
172 194 0
172 196 0
171 194 0
172 195 0
171 194 0
174 196 0
172 194 0
173 196 0
172 195 0
174 197 0
174 197 0
172 194 0
172 196 0
171 194 0
171 194 0
171 194 0
172 195 0
173 195 0
172 195 0
172 194 0
170 192 0
175 197 0
171 195 0
173 196 0
172 194 0
170 193 0
173 195 0
170 192 0
170 193 0
171 194 0
172 195 0
172 195 0
172 195 0
172 196 0
173 196 0
171 194 0
171 195 0
172 195 0
169 192 0
171 194 0
167 190 0
170 193 0
171 193 0
172 195 0
172 195 0
171 194 0
168 192 0
171 194 0
171 194 0
172 194 0
171 193 0
171 193 0
172 194 0
168 191 0
169 190 0
173 196 0
171 193 0
170 191 0
170 193 0
171 191 0
171 194 0
171 193 0
169 190 0
173 194 0
170 191 0
170 192 0
167 188 0
169 189 0
171 191 0
169 192 0
171 192 0
167 189 0
169 190 10
167 185 9
169 187 15
166 184 27
163 176 31
161 174 29
158 170 32
161 170 38
162 172 42
160 168 43
155 161 42
161 167 49
156 168 41
160 169 41
158 166 42
163 174 47
160 168 46
164 170 48
156 166 46
160 173 43
164 177 42
168 181 36
166 179 47
165 178 52
168 181 50
170 183 51
169 182 48
169 184 62
170 187 52
173 191 62
171 188 69
172 190 57
172 190 63
174 192 65
172 190 69
172 191 57
174 193 70
172 191 57
172 191 51
172 191 65
172 189 65
169 188 44
171 188 78
171 189 44
170 189 74
167 183 51
173 192 60
172 190 65
169 187 60
170 187 54
169 187 31
171 191 54
169 187 47
169 187 47
172 192 18
169 188 47
168 188 47
168 189 31
168 188 36
172 192 40
165 185 25
168 187 44
168 189 44
172 193 31
166 186 18
168 189 0
166 187 0
165 185 18
164 184 0
164 185 18
164 185 0
168 189 0
164 183 0
164 184 18
166 185 0
164 183 0
163 185 18
164 184 0
163 182 0
158 176 0
164 183 0
158 178 0
162 181 0
160 180 0
161 179 0
159 177 0
158 177 0
158 176 0
161 180 0
154 171 0
158 177 0
158 178 0
160 181 0
158 176 0
162 180 0
159 178 0
158 177 0
160 182 0
159 178 0
161 179 0
158 177 0
161 179 0
159 180 0
157 177 0
160 181 0
160 179 0
159 180 0
157 177 0
158 177 0
157 177 0
157 177 0
159 178 0
163 184 0
160 180 0
161 181 0
158 177 0
160 179 0
159 180 0
161 182 0
156 175 0
163 182 0
163 184 0
157 178 0
160 181 0
158 179 0
163 184 0
160 179 0
158 179 0
160 182 0
160 179 0
161 182 0
161 181 0
162 183 0
160 180 0
161 182 0
161 182 0
162 182 0
163 184 0
161 181 0
160 180 0
159 182 0
159 179 0
165 185 0
160 181 0
163 184 0
160 181 0
161 182 0
162 182 0
162 182 0
160 180 0
163 183 0
166 187 0
162 183 0
165 186 0
161 182 0
168 189 0
162 182 0
164 185 0
165 186 0
163 184 0
164 186 0
163 184 0
166 187 0
166 188 0
163 183 0
163 183 0
165 184 0
165 185 0
164 186 0
163 185 0
163 185 0
166 187 0
163 185 0
165 188 0
166 188 0
164 186 0
167 188 0
165 186 0
163 184 0
165 188 0
164 185 0
165 185 0
166 188 0
164 185 0
164 185 0
164 185 0
167 188 0
164 186 0
165 186 0
164 185 0
166 187 0
164 185 0
168 190 0
168 188 0
167 188 0
165 186 0
169 189 0
164 185 0
165 187 0
168 190 0
169 191 0
168 190 0
167 189 0
167 189 0
167 189 0
167 186 0
169 191 0
166 186 0
169 190 0
169 191 0
168 190 0
168 189 0
170 192 0
169 191 0
165 186 0
167 189 0
168 189 0
170 193 0
169 190 0
169 192 0
168 188 0
168 189 0
169 190 0
170 191 0
172 193 0
167 189 0
167 189 0
169 192 0
168 190 0
168 191 0
169 191 0
168 191 0
167 189 0
169 191 0
169 191 0
168 191 0
170 192 0
170 192 0
170 192 0
171 194 0
171 193 0
170 192 0
171 193 0
170 192 0
169 191 0
171 193 0
170 191 0
168 190 0
169 192 0
170 192 0
169 191 0
172 194 0
171 193 0
172 193 0
170 192 0
171 193 0
170 192 0
172 195 0
172 193 0
170 193 0
171 193 0
170 192 0
174 196 0
170 193 0
171 194 0
171 193 0
172 194 0
171 193 0
171 193 0
171 193 0
171 194 0
172 194 0
171 194 0
170 192 0
169 190 0
169 191 0
171 194 0
172 195 0
170 192 0
172 195 0
170 193 0
172 194 0
171 194 0
174 196 0
171 194 0
172 193 0
171 194 0
172 194 0
172 195 0
171 194 0
172 195 0
174 196 0
173 196 0
172 194 0
171 193 0
173 195 0
173 195 0
173 196 0
171 193 0
172 194 0
173 195 0
174 196 0
172 196 0
172 195 0
172 194 0
172 194 0
173 196 0
172 194 0
171 193 0
173 195 0
172 195 0
173 196 0
173 194 0
172 195 0
170 193 0
174 197 0
170 193 0
172 195 0
173 196 0
172 196 0
174 197 0
174 196 0
173 196 0
171 194 0
172 195 0
173 196 0
173 196 0
172 194 0
172 195 0
173 196 0
172 195 0
172 195 0
172 195 0
172 195 0
172 195 0
171 194 0
173 196 0
170 193 0
173 197 0
172 195 0
172 195 0
173 196 0
172 195 0
172 194 0
171 194 0
172 195 0
172 195 0
171 194 0
173 196 0
173 195 0
171 195 0
172 195 0
173 196 0
172 194 0
172 194 0
171 194 0
172 195 0
171 194 0
173 196 0
171 193 0
172 195 0
171 194 0
172 195 0
173 195 0
170 193 0
172 195 0
171 194 0
172 195 0
170 193 0
171 194 0
172 194 0
170 192 0
172 195 0
171 195 0
169 192 0
169 192 0
172 195 0
172 194 0
171 193 0
169 192 0
171 194 0
171 194 0
171 192 0
167 190 0
171 194 0
170 192 0
171 192 0
168 190 0
170 190 0
171 193 0
168 188 0
173 194 0
170 191 0
170 192 0
169 191 0
169 189 12
168 188 0
170 192 0
169 190 0
169 189 0
170 189 0
166 184 14
167 186 14
168 186 19
167 184 28
163 178 31
160 172 38
164 177 42
154 164 45
159 166 48
156 163 47
157 165 42
161 167 48
160 168 49
157 162 49
162 166 55
164 173 45
161 170 47
163 174 43
162 171 42
165 175 53
165 174 54
163 172 52
166 176 52
167 180 42
167 180 58
164 176 57
168 183 42
169 186 50
172 189 57
169 186 50
173 192 44
171 189 56
174 192 51
172 190 57
172 192 31
174 192 57
173 191 60
172 191 25
171 190 47
170 189 51
171 191 44
175 193 67
170 189 60
169 187 51
169 188 54
170 186 57
170 186 57
169 187 47
170 190 18
166 187 40
169 189 51
167 184 36
170 189 40
173 192 40
170 189 44
167 187 0
167 186 25
170 191 18
165 184 18
169 187 0
171 192 25
167 188 18
169 189 0
164 184 18
167 188 0
169 189 18
167 187 0
165 186 18
168 188 0
168 188 0
167 187 0
165 185 0
163 184 0
167 186 0
164 183 0
169 187 0
165 184 0
162 182 0
163 182 0
164 183 0
164 183 0
163 182 0
161 180 0
162 180 0
159 179 0
155 174 0
162 182 0
157 174 0
161 182 0
159 179 0
162 180 0
154 172 0
162 182 0
158 178 0
159 179 0
158 178 0
158 177 0
160 179 0
160 180 0
161 181 0
155 176 0
162 182 0
160 180 0
162 182 0
162 180 0
159 179 0
159 180 0
161 181 0
157 175 0
158 178 0
161 181 0
158 178 0
161 181 0
163 184 0
160 181 0
164 185 0
159 179 0
156 176 0
161 182 0
157 177 0
164 183 0
158 178 0
163 184 0
162 182 0
161 181 0
163 185 0
158 178 0
160 181 0
163 185 0
162 182 0
161 181 0
160 182 0
159 179 0
162 182 0
162 184 0
159 179 0
164 187 0
162 183 0
160 181 0
160 182 0
164 184 0
163 183 0
162 182 0
164 185 0
164 183 0
161 184 0
162 184 0
162 183 0
158 180 0
161 181 0
160 180 0
164 186 0
163 183 0
162 183 0
163 184 0
165 186 0
162 184 0
164 186 0
168 191 0
162 184 0
161 183 0
165 186 0
165 186 0
162 183 0
162 182 0
163 184 0
167 188 0
160 179 0
154 174 0
166 186 0
167 188 0
163 185 0
163 185 0
162 182 0
167 189 0
164 185 0
166 188 0
162 182 0
162 182 0
167 189 0
166 186 0
167 187 0
166 186 0
167 189 0
165 187 0
166 187 0
169 191 0
167 189 0
164 185 0
170 192 0
165 187 0
164 186 0
166 187 0
171 193 0
167 188 0
169 192 0
167 188 0
167 189 0
166 186 0
169 192 0
168 191 0
167 189 0
165 186 0
167 190 0
166 188 0
171 193 0
166 189 0
168 190 0
167 189 0
165 186 0
168 190 0
168 190 0
169 192 0
167 190 0
170 192 0
164 185 0
169 191 0
171 193 0
169 190 0
170 193 0
169 191 0
166 187 0
169 189 0
168 190 0
169 192 0
170 192 0
171 193 0
165 187 0
170 192 0
169 192 0
170 193 0
167 189 0
169 191 0
170 192 0
169 191 0
172 194 0
171 192 0
170 192 0
169 191 0
169 192 0
171 193 0
168 189 0
170 192 0
169 190 0
170 193 0
171 193 0
170 193 0
170 192 0
170 193 0
169 191 0
171 192 0
168 191 0
171 193 0
171 193 0
172 194 0
171 193 0
168 189 0
170 191 0
170 193 0
171 193 0
172 194 0
171 193 0
171 192 0
172 194 0
171 194 0
169 191 0
171 192 0
170 192 0
171 194 0
172 195 0
171 194 0
171 194 0
172 194 0
171 193 0
173 194 0
172 195 0
172 195 0
171 193 0
172 195 0
172 195 0
170 193 0
170 193 0
170 192 0
171 195 0
173 196 0
172 195 0
172 195 0
170 193 0
171 194 0
172 195 0
170 193 0
173 196 0
172 195 0
172 195 0
171 193 0
172 195 0
172 194 0
171 194 0
172 195 0
172 194 0
172 195 0
171 193 0
172 196 0
171 194 0
172 195 0
172 195 0
172 194 0
174 196 0
171 193 0
172 194 0
172 195 0
173 197 0
172 194 0
174 196 0
173 196 0
172 195 0
172 195 0
171 194 0
173 196 0
171 195 0
173 195 0
172 195 0
172 195 0
173 195 0
171 193 0
173 196 0
173 196 0
173 197 0
173 196 0
172 195 0
171 194 0
174 196 0
174 195 0
174 197 0
172 195 0
174 197 0
172 195 0
173 196 0
174 196 0
172 194 0
171 194 0
170 193 0
173 196 0
173 196 0
171 194 0
173 196 0
173 196 0
174 197 0
173 196 0
170 192 0
170 193 0
174 197 0
171 194 0
171 194 0
171 194 0
172 194 0
172 194 0
172 194 0
172 194 0
172 195 0
171 194 0
171 194 0
170 193 0
170 193 0
172 193 0
174 196 0
172 195 0
171 194 0
172 195 0
169 192 0
170 193 0
171 194 0
173 195 0
172 195 0
170 193 0
171 194 0
173 196 0
173 195 0
171 193 0
171 193 0
170 191 0
170 192 0
171 191 0
170 193 0
170 191 0
170 191 0
172 194 0
170 191 0
169 191 0
170 192 0
171 193 0
171 193 0
172 193 0
167 189 0
170 191 0
169 189 0
171 191 0
168 189 0
168 188 0
169 190 9
173 191 17
169 188 17
167 185 16
165 180 28
163 179 32
158 171 36
159 170 38
165 175 40
159 162 60
160 169 40
162 168 48
157 166 44
159 166 51
161 171 46
156 162 47
156 163 51
164 170 45
161 170 49
161 170 47
166 176 47
163 174 45
161 172 42
163 175 40
166 176 46
163 177 40
166 182 40
169 184 45
166 180 49
169 184 35
170 188 50
173 192 27
169 189 40
171 189 61
171 189 31
175 194 51
172 191 51
170 189 44
173 193 40
170 190 51
173 192 60
174 193 57
168 186 54
174 194 72
173 190 54
170 188 36
171 190 44
174 193 44
170 189 36
167 184 44
170 190 67
168 188 44
170 189 18
170 188 31
170 190 36
167 186 31
167 188 36
170 189 25
170 191 18
170 189 0
170 188 31
171 193 31
167 186 0
169 189 18
170 190 0
165 186 0
167 187 0
168 188 0
165 186 0
166 185 0
168 189 0
164 183 0
161 180 18
162 182 0
168 188 18
168 188 0
164 184 0
167 187 0
163 182 0
164 181 0
163 181 0
162 182 0
160 179 0
163 182 0
160 179 0
161 178 0
162 181 0
157 176 0
162 184 0
161 179 0
162 182 0
162 183 0
164 183 0
159 181 0
159 179 0
157 177 0
160 180 0
162 182 0
160 179 0
159 178 0
156 175 0
159 181 0
164 183 0
163 183 0
157 177 0
160 181 0
156 175 0
162 183 0
164 184 0
161 181 0
163 184 0
162 181 0
162 182 0
161 180 0
156 176 0
161 182 0
160 180 0
161 180 0
158 178 0
161 182 0
158 178 0
162 183 0
162 181 0
162 183 0
161 181 0
158 179 0
161 180 0
159 180 0
164 185 0
158 178 0
162 182 0
163 183 0
164 185 0
159 180 0
163 183 0
162 182 0
164 186 0
160 181 0
163 185 0
162 182 0
163 184 0
159 179 0
161 180 0
166 187 0
164 185 0
165 185 0
165 187 0
167 188 0
164 185 0
162 183 0
160 181 0
164 185 0
166 188 0
162 182 0
163 184 0
164 186 0
166 188 0
163 185 0
164 185 0
162 183 0
166 188 0
165 186 0
165 186 0
163 183 0
163 184 0
165 187 0
166 188 0
162 182 0
164 186 0
168 189 0
164 185 0
167 187 0
166 188 0
165 185 0
166 187 0
163 185 0
168 189 0
164 185 0
170 191 0
161 182 0
165 185 0
168 189 0
164 186 0
164 184 0
164 186 0
166 186 0
162 184 0
168 189 0
167 187 0
164 185 0
167 188 0
168 190 0
166 186 0
168 189 0
166 186 0
166 187 0
170 190 0
166 189 0
172 195 0
166 187 0
167 189 0
169 192 0
164 185 0
165 186 0
169 190 0
166 188 0
164 186 0
168 191 0
166 186 0
168 189 0
170 192 0
168 190 0
168 190 0
170 192 0
168 188 0
170 193 0
168 190 0
166 189 0
170 193 0
169 189 0
168 190 0
167 188 0
169 191 0
167 189 0
169 191 0
168 189 0
171 194 0
169 190 0
171 192 0
168 190 0
168 188 0
170 190 0
169 192 0
168 190 0
170 190 0
171 191 0
170 193 0
171 192 0
168 190 0
171 193 0
169 191 0
169 191 0
168 191 0
168 189 0
169 191 0
171 193 0
172 195 0
171 194 0
170 193 0
170 192 0
171 194 0
170 192 0
169 191 0
168 190 0
170 193 0
172 195 0
170 192 0
170 192 0
172 194 0
169 191 0
170 192 0
173 193 0
174 195 0
171 193 0
171 194 0
169 193 0
171 193 0
171 192 0
171 192 0
173 194 0
172 195 0
171 192 0
170 192 0
172 194 0
170 192 0
172 194 0
172 195 0
172 195 0
172 194 0
170 193 0
171 194 0
174 197 0
171 192 0
171 193 0
172 194 0
171 193 0
173 195 0
170 191 0
173 196 0
171 193 0
172 195 0
172 196 0
173 195 0
173 196 0
172 194 0
172 193 0
171 193 0
172 195 0
173 196 0
171 194 0
170 193 0
172 195 0
172 195 0
171 193 0
171 194 0
173 196 0
173 196 0
174 197 0
173 196 0
172 195 0
172 195 0
173 196 0
172 194 0
173 196 0
173 196 0
171 194 0
173 196 0
173 196 0
174 197 0
171 194 0
171 194 0
174 197 0
173 196 0
174 196 0
172 195 0
172 196 0
173 196 0
174 197 0
172 194 0
173 196 0
174 196 0
172 195 0
173 196 0
174 196 0
172 195 0
170 194 0
171 193 0
171 194 0
172 195 0
172 195 0
173 196 0
173 196 0
172 195 0
173 196 0
174 197 0
172 194 0
172 195 0
173 195 0
173 196 0
171 194 0
173 195 0
173 195 0
173 196 0
171 194 0
173 196 0
172 194 0
171 194 0
170 193 0
172 195 0
171 195 0
172 194 0
172 195 0
171 194 0
170 193 0
172 195 0
171 193 0
174 197 0
171 194 0
173 196 0
171 193 0
172 194 0
171 194 0
170 193 0
173 195 0
172 194 0
170 193 0
172 195 0
169 191 0
170 192 0
169 191 0
169 192 0
170 192 0
170 192 0
170 191 0
170 191 0
169 190 0
170 192 0
170 190 0
169 190 0
170 192 0
168 190 0
169 190 0
170 191 0
171 192 0
169 189 0
169 190 0
170 189 0
171 192 0
170 191 0
170 192 0
171 191 0
167 183 9
168 189 9
167 185 24
165 184 21
163 178 28
164 177 28
161 172 40
161 171 39
161 172 37
161 171 41
160 168 43
162 171 43
161 170 40
156 164 44
157 165 47
158 164 48
156 164 40
159 166 47
161 171 42
157 168 44
163 173 41
163 175 50
157 169 31
166 174 60
166 173 43
166 182 39
168 181 45
170 185 43
169 184 37
168 186 48
169 189 38
171 190 32
169 189 40
171 190 18
172 192 60
171 189 36
176 195 54
173 191 40
171 191 44
168 187 36
168 188 54
172 190 47
171 191 44
171 190 44
171 191 44
171 189 31
171 191 47
168 186 36
164 183 31
168 187 36
170 189 18
169 188 31
170 190 18
167 187 25
167 186 18
172 192 25
169 188 25
169 189 25
169 189 18
169 190 0
168 189 18
166 187 0
170 190 0
166 187 0
168 188 0
169 190 0
166 186 0
162 181 0
169 189 0
167 188 0
166 188 0
165 185 18
161 180 0
164 182 0
165 184 0
165 184 0
165 184 0
163 182 0
164 183 0
163 181 0
161 181 0
164 185 0
162 180 0
158 177 0
162 180 0
163 181 0
161 181 0
161 181 0
162 183 0
159 179 0
158 177 0
160 178 0
159 180 0
163 182 0
160 180 0
160 180 0
159 179 0
159 180 0
158 178 0
162 181 0
161 182 0
166 187 0
161 181 0
158 177 0
156 174 0
158 176 0
162 181 0
160 181 0
158 178 0
165 186 0
162 181 0
163 183 0
164 186 0
162 183 0
162 182 0
159 178 0
161 181 0
160 181 0
157 178 0
162 183 0
163 185 0
160 180 0
164 185 0
160 181 0
164 186 0
160 181 0
163 184 0
160 181 0
164 185 0
165 185 0
160 180 0
163 184 0
164 185 0
162 183 0
164 186 0
162 181 0
160 181 0
163 183 0
161 182 0
167 188 0
159 180 0
162 184 0
167 188 0
159 179 0
165 186 0
161 180 0
159 181 0
161 178 0
164 186 0
160 181 0
158 178 0
161 182 0
166 186 0
164 186 0
161 182 0
166 187 0
167 188 0
162 182 0
162 181 0
164 185 0
162 183 0
162 183 0
165 185 0
165 185 0
168 190 0
165 184 0
163 185 0
164 186 0
165 186 0
164 184 0
163 183 0
165 186 0
163 185 0
166 187 0
163 184 0
167 189 0
164 186 0
165 187 0
167 190 0
166 188 0
168 189 0
165 187 0
166 187 0
166 188 0
166 188 0
162 182 0
165 187 0
165 186 0
167 189 0
168 189 0
167 187 0
168 190 0
166 188 0
168 190 0
164 187 0
168 189 0
170 192 0
166 188 0
167 189 0
169 191 0
168 191 0
169 191 0
170 190 0
168 189 0
170 191 0
170 191 0
166 186 0
169 191 0
168 190 0
171 193 0
165 188 0
167 189 0
168 189 0
170 193 0
167 187 0
168 190 0
168 190 0
167 189 0
168 190 0
170 192 0
171 193 0
170 193 0
168 189 0
170 191 0
167 190 0
169 190 0
167 189 0
170 191 0
173 195 0
168 190 0
170 192 0
169 191 0
170 192 0
169 192 0
171 193 0
170 191 0
169 191 0
170 191 0
171 193 0
169 192 0
169 191 0
168 191 0
169 192 0
170 193 0
170 192 0
170 192 0
168 190 0
169 192 0
168 189 0
169 192 0
170 193 0
170 193 0
170 192 0
170 192 0
171 195 0
170 193 0
172 195 0
169 191 0
172 193 0
170 194 0
172 195 0
172 195 0
171 192 0
171 195 0
171 193 0
170 193 0
170 193 0
173 196 0
172 194 0
170 192 0
173 194 0
171 193 0
170 192 0
172 195 0
173 195 0
171 193 0
171 193 0
171 192 0
172 194 0
173 194 0
173 196 0
172 194 0
173 195 0
172 194 0
170 193 0
174 196 0
173 195 0
173 195 0
172 194 0
173 196 0
170 193 0
173 197 0
171 193 0
169 191 0
171 194 0
172 194 0
172 195 0
171 193 0
171 194 0
171 193 0
173 196 0
174 197 0
173 196 0
173 196 0
174 197 0
172 195 0
173 196 0
172 196 0
173 196 0
173 196 0
173 195 0
172 194 0
173 195 0
172 195 0
174 197 0
171 194 0
174 197 0
172 196 0
174 198 0
171 194 0
173 196 0
174 197 0
174 197 0
172 195 0
173 196 0
172 195 0
172 196 0
175 197 0
174 196 0
172 196 0
173 195 0
173 195 0
172 195 0
172 195 0
171 194 0
173 196 0
172 196 0
171 193 0
171 195 0
172 195 0
172 195 0
173 196 0
172 195 0
171 195 0
173 197 0
173 196 0
173 195 0
172 195 0
172 196 0
172 195 0
173 195 0
171 195 0
172 195 0
173 195 0
173 196 0
173 196 0
172 195 0
173 195 0
172 196 0
171 193 0
170 194 0
172 196 0
174 197 0
171 194 0
172 195 0
171 194 0
171 193 0
172 194 0
172 195 0
171 193 0
173 194 0
172 195 0
173 196 0
173 195 0
170 192 0
172 195 0
171 194 0
169 192 0
170 192 0
170 191 0
170 192 0
172 195 0
169 191 0
169 192 0
168 189 0
169 190 0
170 191 0
171 192 0
168 191 0
171 191 0
169 192 0
170 192 0
170 191 0
167 187 0
170 191 0
167 188 0
169 187 0
164 183 0
170 191 0
167 186 0
171 191 0
169 189 12
167 187 12
168 186 18
166 184 22
162 178 26
166 182 26
167 180 34
161 174 38
160 169 45
163 173 44
161 168 49
158 168 47
164 170 58
159 167 48
162 170 44
161 169 46
159 166 51
159 166 49
162 172 44
161 170 46
158 168 45
163 171 49
163 175 44
165 178 44
162 172 42
166 181 42
166 183 38
165 178 38
165 181 30
173 193 41
173 193 51
169 187 36
170 188 40
173 192 51
172 191 25
172 192 47
171 191 44
172 192 25
170 190 36
168 187 47
172 190 36
168 187 36
169 188 47
171 191 40
169 190 0
172 190 36
170 190 25
169 189 31
171 190 18
170 188 36
169 189 31
171 192 25
171 190 18
166 186 31
172 193 18
167 187 18
171 192 25
166 187 0
168 189 18
168 187 0
170 190 0
167 188 0
168 188 0
167 188 0
165 185 0
170 191 0
168 187 0
164 182 0
165 185 0
164 185 0
165 186 0
167 185 0
165 184 0
163 182 0
167 187 0
159 176 0
164 183 0
167 187 0
165 182 0
163 182 0
164 182 0
162 182 0
163 182 0
164 183 0
160 180 0
164 184 0
163 183 0
161 179 0
164 185 0
162 183 0
159 180 0
163 182 0
161 181 0
160 178 0
158 179 0
159 181 0
158 176 0
161 182 0
163 182 0
162 183 0
161 182 0
153 174 0
165 186 0
163 183 0
160 180 0
158 178 0
163 182 0
162 182 0
163 182 0
162 182 0
163 184 0
163 183 0
164 184 0
163 184 0
162 183 0
163 183 0
164 185 0
161 180 0
162 184 0
161 182 0
164 185 0
160 181 0
161 181 0
161 182 0
163 184 0
161 183 0
162 184 0
158 179 0
162 181 0
163 184 0
164 186 0
161 181 0
162 183 0
160 181 0
161 183 0
163 183 0
164 185 0
161 182 0
159 180 0
162 183 0
165 186 0
159 178 0
165 186 0
162 184 0
166 188 0
160 181 0
163 184 0
164 185 0
165 186 0
166 187 0
163 183 0
163 184 0
161 181 0
164 187 0
163 184 0
163 181 0
165 188 0
166 185 0
165 187 0
165 186 0
166 188 0
162 184 0
166 188 0
165 187 0
161 182 0
163 184 0
168 189 0
163 184 0
170 192 0
164 186 0
163 184 0
166 187 0
164 186 0
165 186 0
166 186 0
168 190 0
168 189 0
166 188 0
163 185 0
165 185 0
165 186 0
164 186 0
165 186 0
165 187 0
165 185 0
162 183 0
164 186 0
166 187 0
163 183 0
164 187 0
167 189 0
166 188 0
169 191 0
169 190 0
167 189 0
169 190 0
164 186 0
164 185 0
169 190 0
169 190 0
165 187 0
164 186 0
168 190 0
164 186 0
166 188 0
166 189 0
170 192 0
169 190 0
169 192 0
168 190 0
167 187 0
169 191 0
168 191 0
168 190 0
166 188 0
169 191 0
169 191 0
165 186 0
168 190 0
170 192 0
168 189 0
169 191 0
169 190 0
169 191 0
171 192 0
170 191 0
168 190 0
169 191 0
166 188 0
169 192 0
166 188 0
169 192 0
172 194 0
170 190 0
168 190 0
171 194 0
167 189 0
170 192 0
171 192 0
170 192 0
172 194 0
170 192 0
171 195 0
170 192 0
171 193 0
173 194 0
170 192 0
171 193 0
170 191 0
169 192 0
171 194 0
172 194 0
172 194 0
170 193 0
171 193 0
171 194 0
172 194 0
170 192 0
170 191 0
170 192 0
173 196 0
171 193 0
170 191 0
172 195 0
171 194 0
172 194 0
171 193 0
169 192 0
170 192 0
170 192 0
171 194 0
172 196 0
171 192 0
172 196 0
173 195 0
171 193 0
171 193 0
173 195 0
170 192 0
172 195 0
172 195 0
172 195 0
171 193 0
171 194 0
170 193 0
169 192 0
169 192 0
171 193 0
172 195 0
174 196 0
171 193 0
172 195 0
173 196 0
172 195 0
172 195 0
172 194 0
171 194 0
172 195 0
172 194 0
172 194 0
172 194 0
172 193 0
172 196 0
174 196 0
173 197 0
173 195 0
171 194 0
173 195 0
173 197 0
173 196 0
172 195 0
173 196 0
173 196 0
172 195 0
171 193 0
171 194 0
172 195 0
170 194 0
172 195 0
172 195 0
172 195 0
172 195 0
173 196 0
171 195 0
171 194 0
170 193 0
173 196 0
173 196 0
173 195 0
173 195 0
171 194 0
174 197 0
172 196 0
172 195 0
172 195 0
172 195 0
171 194 0
170 193 0
173 196 0
171 194 0
172 195 0
172 196 0
174 196 0
173 196 0
170 193 0
172 195 0
170 193 0
172 194 0
173 196 0
172 194 0
171 194 0
174 197 0
172 194 0
172 196 0
172 196 0
172 195 0
172 194 0
172 195 0
170 192 0
173 195 0
172 195 0
171 195 0
173 196 0
172 195 0
171 194 0
172 194 0
171 194 0
171 194 0
173 195 0
169 191 0
171 194 0
170 195 0
172 194 0
170 192 0
171 193 0
171 193 0
171 194 0
171 193 0
174 195 0
172 194 0
170 191 0
168 190 0
172 194 0
170 192 0
167 189 0
169 190 0
170 192 0
172 193 0
172 193 0
171 192 0
168 189 0
171 191 0
169 190 0
168 188 0
171 193 0
168 189 0
171 191 0
169 189 0
171 191 0
169 188 0
170 189 0
165 184 9
169 186 23
168 184 18
167 182 14
169 188 21
163 177 38
167 181 34
165 179 31
164 172 46
160 168 45
159 170 37
161 167 47
156 163 46
163 171 46
161 171 31
160 167 47
163 172 44
162 174 33
160 169 53
161 173 30
165 173 54
165 176 50
164 175 53
163 179 25
164 177 48
165 182 35
167 182 32
171 188 32
168 186 25
169 188 47
167 187 0
170 189 31
168 188 40
172 192 25
172 192 57
170 188 36
172 191 25
167 188 31
168 187 36
167 186 25
167 186 31
167 186 31
169 187 31
169 188 31
168 187 18
170 190 25
170 189 25
173 192 40
172 193 25
171 191 25
171 191 31
172 193 0
171 190 0
171 190 25
170 191 0
169 189 0
167 187 18
166 185 0
170 191 0
166 185 18
166 187 0
166 186 0
169 190 0
167 187 0
168 188 0
160 179 0
168 187 18
165 183 0
163 181 0
167 187 0
162 181 0
164 183 18
163 182 18
167 185 0
165 183 0
164 184 0
167 187 0
161 180 0
163 181 0
162 180 0
162 181 0
163 181 0
160 178 0
158 177 0
163 182 0
160 179 0
163 184 0
163 182 0
165 184 0
165 187 0
162 182 0
157 177 0
159 177 0
162 183 0
161 180 0
164 185 0
155 175 0
162 181 0
158 178 0
162 182 0
163 184 0
159 180 0
159 178 0
162 183 0
163 182 0
159 179 0
164 185 0
160 181 0
162 183 0
163 184 0
162 182 0
159 178 0
163 184 0
160 181 0
163 184 0
161 181 0
161 182 0
160 180 0
162 183 0
161 180 0
157 177 0
163 184 0
159 180 0
165 186 0
160 181 0
161 182 0
161 182 0
160 181 0
161 181 0
160 180 0
159 179 0
163 183 0
162 183 0
162 182 0
161 182 0
162 183 0
163 183 0
162 183 0
164 184 0
161 181 0
165 185 0
164 184 0
164 184 0
161 181 0
160 182 0
164 185 0
164 185 0
163 184 0
162 184 0
166 188 0
164 185 0
163 186 0
167 188 0
168 189 0
162 182 0
168 189 0
160 181 0
166 188 0
166 187 0
165 187 0
164 185 0
164 185 0
165 187 0
167 189 0
168 189 0
163 185 0
164 186 0
165 186 0
167 190 0
167 189 0
163 183 0
163 186 0
169 190 0
163 184 0
166 189 0
170 192 0
165 187 0
165 187 0
164 186 0
167 189 0
168 189 0
167 188 0
167 188 0
163 186 0
165 185 0
164 187 0
164 186 0
168 191 0
169 191 0
169 191 0
168 190 0
161 182 0
169 191 0
169 191 0
165 188 0
168 189 0
169 190 0
168 189 0
169 191 0
165 187 0
168 190 0
166 187 0
172 195 0
167 189 0
169 190 0
167 188 0
169 192 0
169 191 0
168 190 0
169 191 0
172 195 0
170 193 0
170 192 0
170 191 0
169 192 0
168 191 0
168 190 0
171 193 0
168 190 0
168 188 0
169 190 0
170 192 0
170 192 0
169 191 0
170 192 0
169 192 0
168 189 0
168 189 0
168 190 0
169 190 0
167 190 0
173 195 0
173 195 0
169 192 0
169 191 0
168 191 0
168 191 0
169 191 0
169 191 0
168 190 0
168 190 0
170 192 0
169 191 0
168 191 0
170 192 0
172 195 0
171 194 0
172 195 0
169 191 0
171 193 0
172 195 0
167 190 0
171 193 0
170 193 0
170 193 0
172 195 0
171 193 0
172 194 0
171 194 0
172 194 0
174 196 0
173 196 0
170 191 0
172 196 0
169 191 0
173 195 0
171 193 0
172 194 0
172 195 0
172 195 0
170 193 0
170 191 0
172 195 0
172 193 0
172 194 0
171 194 0
171 194 0
171 194 0
170 192 0
172 194 0
172 195 0
171 194 0
171 194 0
172 194 0
173 195 0
173 196 0
171 194 0
172 195 0
172 195 0
169 192 0
173 196 0
171 193 0
171 194 0
172 195 0
172 195 0
173 196 0
172 195 0
172 194 0
175 197 0
171 194 0
173 196 0
172 194 0
172 195 0
173 197 0
173 195 0
172 195 0
173 195 0
172 194 0
173 197 0
173 195 0
173 195 0
173 196 0
170 193 0
172 195 0
173 196 0
174 197 0
170 194 0
170 194 0
173 196 0
171 195 0
173 197 0
171 194 0
172 194 0
172 195 0
174 197 0
174 197 0
173 196 0
170 193 0
171 194 0
173 197 0
172 196 0
172 195 0
171 194 0
171 194 0
172 195 0
172 195 0
171 194 0
171 194 0
172 196 0
172 196 0
174 196 0
173 195 0
173 196 0
171 194 0
173 196 0
172 194 0
171 194 0
172 195 0
171 194 0
172 195 0
171 194 0
172 195 0
170 194 0
172 195 0
172 196 0
172 195 0
173 196 0
172 195 0
171 193 0
173 195 0
172 194 0
172 194 0
171 194 0
172 194 0
171 194 0
172 194 0
174 196 0
172 195 0
171 194 0
173 195 0
170 193 0
170 193 0
171 193 0
170 192 0
171 193 0
171 194 0
170 192 0
170 191 0
172 194 0
171 191 0
169 191 0
171 193 0
169 191 0
171 192 0
169 190 0
170 191 0
171 192 0
167 188 0
172 194 0
169 190 0
170 192 0
167 186 0
169 190 0
169 190 0
170 191 0
168 189 0
169 191 0
173 193 0
168 188 0
168 187 0
170 191 0
170 190 0
169 187 9
167 185 19
168 186 15
168 185 25
164 178 25
166 180 31
164 178 28
163 176 30
166 177 47
159 166 42
159 169 47
161 174 38
160 170 37
159 167 50
162 173 41
164 171 46
165 174 48
161 170 47
160 168 45
159 165 48
162 174 43
165 178 42
166 180 38
164 178 41
169 185 32
169 184 39
167 187 31
171 191 31
168 187 36
169 188 36
170 189 18
171 191 25
171 190 40
169 189 18
169 189 25
169 188 31
171 191 25
170 189 18
171 190 18
170 190 25
168 188 31
170 189 18
171 191 25
168 188 25
170 190 0
168 187 0
168 187 0
168 188 0
169 190 18
167 187 18
168 188 25
170 189 18
166 186 0
169 191 0
166 184 0
171 193 0
166 186 0
169 189 0
169 188 0
169 188 0
169 190 0
164 184 0
167 188 0
167 187 0
165 184 0
164 183 0
167 188 0
166 186 0
165 184 0
163 183 0
164 183 0
162 180 0
167 185 0
162 181 0
161 180 18
160 179 0
160 180 0
165 185 0
164 183 0
162 183 0
161 182 0
165 185 0
158 177 0
162 182 0
166 185 0
160 177 0
158 177 0
161 181 0
159 178 0
164 183 0
163 184 0
159 178 0
164 185 0
160 180 0
162 180 0
161 180 0
159 178 0
161 178 0
161 182 0
161 182 0
160 181 0
159 181 0
157 177 0
161 182 0
160 180 0
161 181 0
160 182 0
164 185 0
163 182 0
161 181 0
160 180 0
163 184 0
161 181 0
164 183 0
159 179 0
166 187 0
162 183 0
164 184 0
159 179 0
164 185 0
164 185 0
161 182 0
161 182 0
162 184 0
158 178 0
161 182 0
162 183 0
160 180 0
164 183 0
160 180 0
161 181 0
161 182 0
163 185 0
164 185 0
164 186 0
159 180 0
165 185 0
163 183 0
162 184 0
166 187 0
164 185 0
164 185 0
162 183 0
162 181 0
163 183 0
163 183 0
165 186 0
164 186 0
165 186 0
166 188 0
164 185 0
164 184 0
167 187 0
165 188 0
163 183 0
162 182 0
166 188 0
166 187 0
166 187 0
166 187 0
162 184 0
165 187 0
162 183 0
165 185 0
165 185 0
164 184 0
164 184 0
165 185 0
170 190 0
164 185 0
167 188 0
167 187 0
166 189 0
165 187 0
164 186 0
169 189 0
167 188 0
168 190 0
166 187 0
167 190 0
169 190 0
168 188 0
165 186 0
167 189 0
166 187 0
165 186 0
166 188 0
166 188 0
167 187 0
165 187 0
165 188 0
166 189 0
166 188 0
165 186 0
168 190 0
168 191 0
167 187 0
167 189 0
169 190 0
168 190 0
167 189 0
167 189 0
166 186 0
167 190 0
166 186 0
169 192 0
171 194 0
165 188 0
167 189 0
171 193 0
171 191 0
171 193 0
169 190 0
171 194 0
169 191 0
168 191 0
169 191 0
168 190 0
169 190 0
171 193 0
171 193 0
168 191 0
171 192 0
171 193 0
170 192 0
171 192 0
169 191 0
171 193 0
168 189 0
167 189 0
170 193 0
168 190 0
170 193 0
169 191 0
168 190 0
168 190 0
171 193 0
171 193 0
171 194 0
171 194 0
171 193 0
171 194 0
170 193 0
170 192 0
173 196 0
171 193 0
169 192 0
169 192 0
168 189 0
172 194 0
171 193 0
169 191 0
170 193 0
169 193 0
171 194 0
172 195 0
173 195 0
170 192 0
170 192 0
174 197 0
170 192 0
170 192 0
171 193 0
172 195 0
171 193 0
173 196 0
171 193 0
171 194 0
171 193 0
171 194 0
171 193 0
171 194 0
171 194 0
173 195 0
171 193 0
171 194 0
172 194 0
172 195 0
172 195 0
172 194 0
171 194 0
170 192 0
173 195 0
173 195 0
171 194 0
173 196 0
172 194 0
172 193 0
172 195 0
173 194 0
172 194 0
172 195 0
172 194 0
174 197 0
172 194 0
172 196 0
172 193 0
171 194 0
173 195 0
171 194 0
172 195 0
173 196 0
172 194 0
174 195 0
172 196 0
173 195 0
173 196 0
171 194 0
171 194 0
173 196 0
172 194 0
173 195 0
174 198 0
173 196 0
173 196 0
172 194 0
174 197 0
173 197 0
171 194 0
173 196 0
172 196 0
173 195 0
171 194 0
170 194 0
174 197 0
173 196 0
173 195 0
172 195 0
173 196 0
174 197 0
172 194 0
172 195 0
172 195 0
169 192 0
173 196 0
172 195 0
173 196 0
172 195 0
170 194 0
172 195 0
172 196 0
172 195 0
170 193 0
173 195 0
173 196 0
172 195 0
169 192 0
172 194 0
172 195 0
171 194 0
169 192 0
170 193 0
174 197 0
174 196 0
172 195 0
171 194 0
172 195 0
171 194 0
170 192 0
171 193 0
171 194 0
171 195 0
171 194 0
171 194 0
173 195 0
171 194 0
172 195 0
171 194 0
171 193 0
170 193 0
169 191 0
172 194 0
171 192 0
171 193 0
170 192 0
169 190 0
173 195 0
170 191 0
168 190 0
169 190 0
171 192 0
172 194 0
170 190 0
171 192 0
169 190 0
168 189 0
169 191 0
168 188 0
169 190 0
167 187 0
168 188 0
169 188 0
168 188 0
167 185 0
169 190 0
168 187 0
168 188 0
166 186 0
169 190 0
170 189 0
168 188 0
169 187 9
168 187 9
165 183 14
165 180 24
166 181 7
166 180 31
166 180 28
162 174 36
163 172 46
163 171 42
162 171 44
160 170 39
161 168 45
161 169 42
161 170 50
160 167 45
160 169 48
164 176 37
164 174 38
164 176 36
168 178 45
164 177 31
163 180 33
169 186 30
167 184 29
168 186 22
169 190 0
171 191 25
170 190 0
167 187 0
169 189 18
169 188 18
172 193 18
170 188 25
171 190 47
169 190 25
168 188 0
171 193 25
168 187 0
170 190 18
168 187 31
169 188 0
171 191 36
171 191 18
169 190 18
168 187 36
168 188 18
168 188 18
170 190 0
168 188 25
168 188 0
169 190 0
169 190 0
167 188 0
165 184 0
167 187 18
168 188 18
169 189 0
167 187 0
168 187 0
167 186 0
167 188 0
165 185 0
163 183 0
170 189 0
167 187 0
166 185 0
164 185 0
163 182 0
166 185 0
168 187 0
163 182 0
165 186 0
163 182 0
161 180 0
164 183 0
165 185 0
159 179 0
161 181 0
166 186 0
160 179 0
163 181 0
163 184 0
162 183 0
163 183 0
162 182 0
167 187 0
162 181 0
158 179 0
164 184 0
162 184 0
161 182 0
161 180 0
161 181 0
159 179 0
164 185 0
158 177 0
163 183 0
164 185 0
163 182 0
161 182 0
162 182 0
161 179 0
164 186 0
161 182 0
159 179 0
160 182 0
163 183 0
157 177 0
162 182 0
164 184 0
159 179 0
158 178 0
160 182 0
160 180 0
160 180 0
161 182 0
164 183 0
161 181 0
161 183 0
159 179 0
166 188 0
160 182 0
162 182 0
160 180 0
163 185 0
163 182 0
162 185 0
164 184 0
159 179 0
164 185 0
164 185 0
166 186 0
162 182 0
163 184 0
162 182 0
161 182 0
162 184 0
163 183 0
167 190 0
164 184 0
161 182 0
165 186 0
165 186 0
165 185 0
162 183 0
166 187 0
161 182 0
169 190 0
165 189 0
166 189 0
164 183 0
164 186 0
164 184 0
164 185 0
164 184 0
164 185 0
165 187 0
163 184 0
162 182 0
167 188 0
164 184 0
166 188 0
168 190 0
166 187 0
166 187 0
166 189 0
160 181 0
163 184 0
163 184 0
169 192 0
169 190 0
162 183 0
168 190 0
163 184 0
167 190 0
165 186 0
164 185 0
166 186 0
166 188 0
169 192 0
166 187 0
166 188 0
170 192 0
168 188 0
165 185 0
168 191 0
168 189 0
168 190 0
168 190 0
169 192 0
169 190 0
168 190 0
167 188 0
170 192 0
169 191 0
169 191 0
170 191 0
166 187 0
171 192 0
168 190 0
168 190 0
166 187 0
167 188 0
168 190 0
170 191 0
167 188 0
166 187 0
170 192 0
170 191 0
170 192 0
170 192 0
167 189 0
168 190 0
171 193 0
167 189 0
169 191 0
167 189 0
168 190 0
169 191 0
171 193 0
170 191 0
170 193 0
164 186 0
171 192 0
171 192 0
169 190 0
171 192 0
168 191 0
169 190 0
169 190 0
170 192 0
170 193 0
170 192 0
170 192 0
170 192 0
169 191 0
170 192 0
168 190 0
170 192 0
169 192 0
169 192 0
169 191 0
170 192 0
169 191 0
170 193 0
169 192 0
170 193 0
171 193 0
172 195 0
171 192 0
170 192 0
170 192 0
170 192 0
171 193 0
171 194 0
171 194 0
173 194 0
171 192 0
171 193 0
171 192 0
170 192 0
172 194 0
171 193 0
172 194 0
170 192 0
170 192 0
171 194 0
172 196 0
172 194 0
172 194 0
172 195 0
170 193 0
172 194 0
171 194 0
169 192 0
172 194 0
173 195 0
173 195 0
172 193 0
172 194 0
172 195 0
172 194 0
173 196 0
173 197 0
173 197 0
172 194 0
171 193 0
171 194 0
173 196 0
171 194 0
173 195 0
173 195 0
172 195 0
173 195 0
173 196 0
173 196 0
172 194 0
172 195 0
172 194 0
173 196 0
171 194 0
171 195 0
172 196 0
174 197 0
172 194 0
173 195 0
173 196 0
172 195 0
173 196 0
173 196 0
172 195 0
173 196 0
173 196 0
173 196 0
173 196 0
173 196 0
174 197 0
171 194 0
174 197 0
172 195 0
171 194 0
170 193 0
173 196 0
172 195 0
173 195 0
172 195 0
172 195 0
172 195 0
170 193 0
172 195 0
171 194 0
172 195 0
172 194 0
172 194 0
170 193 0
173 196 0
171 195 0
171 195 0
173 196 0
172 194 0
170 194 0
171 194 0
172 193 0
172 194 0
171 194 0
172 195 0
173 196 0
171 195 0
172 195 0
170 193 0
173 196 0
172 194 0
171 194 0
173 196 0
172 195 0
172 194 0
171 195 0
173 196 0
172 194 0
170 193 0
172 195 0
170 193 0
172 194 0
168 191 0
171 193 0
171 194 0
170 193 0
171 194 0
171 192 0
171 193 0
170 193 0
172 192 0
168 190 0
169 190 0
170 192 0
172 194 0
172 192 0
172 194 0
170 191 0
168 190 0
171 190 0
171 192 0
171 191 0
169 190 0
170 191 0
169 189 0
169 187 0
167 187 0
170 188 0
167 188 0
172 192 0
169 190 0
169 187 0
168 188 0
168 188 0
170 189 0
167 185 0
169 189 0
170 190 0
167 185 0
169 189 0
168 187 14
167 185 9
169 186 17
168 187 21
165 180 27
167 183 24
166 179 40
164 173 43
163 174 42
161 172 34
163 171 36
160 171 40
164 177 37
162 169 46
163 170 46
157 168 42
164 175 33
166 175 45
163 179 41
166 181 35
166 183 36
169 186 18
167 183 26
168 187 28
170 189 18
169 190 0
170 191 18
167 187 18
168 187 31
169 187 18
169 188 18
171 190 0
172 193 31
169 189 0
169 188 25
166 187 0
170 190 18
170 189 25
170 189 0
169 189 0
170 190 18
167 187 18
169 189 0
170 191 0
170 189 0
167 187 18
169 189 0
167 188 0
168 188 0
167 187 0
168 188 0
171 192 0
170 190 0
168 188 0
168 187 18
169 188 0
169 188 0
167 186 0
166 185 0
167 187 0
167 187 0
167 188 0
167 186 0
163 182 0
163 182 0
167 185 0
168 187 0
164 182 0
167 186 0
166 184 0
163 182 0
167 185 0
165 184 0
164 185 0
161 180 0
164 182 0
164 184 0
161 181 0
165 184 0
166 186 0
164 185 0
163 182 0
163 182 0
161 181 0
164 186 0
157 177 0
164 185 0
165 185 0
164 183 0
163 183 0
163 183 0
163 181 0
163 185 0
161 183 0
161 181 0
167 186 0
159 180 0
159 179 0
165 185 0
160 182 0
166 185 0
158 178 0
164 183 0
164 184 0
162 183 0
162 183 0
163 184 0
161 180 0
158 178 0
160 181 0
162 183 0
164 185 0
165 185 0
163 184 0
163 183 0
162 183 0
161 182 0
163 184 0
161 182 0
164 185 0
166 188 0
162 181 0
163 184 0
164 183 0
163 184 0
164 184 0
163 184 0
160 180 0
164 186 0
165 185 0
163 183 0
163 185 0
163 184 0
163 183 0
161 182 0
162 183 0
165 185 0
167 187 0
161 182 0
165 187 0
164 185 0
163 185 0
163 184 0
161 182 0
163 184 0
164 185 0
167 188 0
164 186 0
166 188 0
164 184 0
162 181 0
159 180 0
165 186 0
163 186 0
164 185 0
165 187 0
165 187 0
162 182 0
167 189 0
166 187 0
164 184 0
168 190 0
166 187 0
164 185 0
167 189 0
166 189 0
170 191 0
165 187 0
166 189 0
165 185 0
168 189 0
166 188 0
167 189 0
167 189 0
165 186 0
166 189 0
166 187 0
166 188 0
169 189 0
167 188 0
168 188 0
167 189 0
167 189 0
167 188 0
166 189 0
168 189 0
163 185 0
168 190 0
166 188 0
169 192 0
166 188 0
166 188 0
169 191 0
167 188 0
167 190 0
167 188 0
170 191 0
167 188 0
167 189 0
167 190 0
168 189 0
170 191 0
170 192 0
168 190 0
169 192 0
168 189 0
167 189 0
169 192 0
170 192 0
169 191 0
169 191 0
169 190 0
170 192 0
166 189 0
171 193 0
170 192 0
168 190 0
167 189 0
168 189 0
170 192 0
171 193 0
169 191 0
170 192 0
170 192 0
172 195 0
171 192 0
170 193 0
168 191 0
171 192 0
167 189 0
172 194 0
172 193 0
169 191 0
173 195 0
171 194 0
168 189 0
170 191 0
169 191 0
171 194 0
169 190 0
172 194 0
170 192 0
172 194 0
172 194 0
173 195 0
171 194 0
170 192 0
172 195 0
172 195 0
171 194 0
172 193 0
172 194 0
170 193 0
170 192 0
171 193 0
173 195 0
169 192 0
170 192 0
171 193 0
170 192 0
171 194 0
172 195 0
170 192 0
174 196 0
170 192 0
172 195 0
171 194 0
171 194 0
172 194 0
172 193 0
173 197 0
172 194 0
171 194 0
172 194 0
172 196 0
172 194 0
171 194 0
171 194 0
172 196 0
172 195 0
172 195 0
169 192 0
172 195 0
172 193 0
172 195 0
172 195 0
172 194 0
170 192 0
172 194 0
173 195 0
172 194 0
171 193 0
173 197 0
172 195 0
172 196 0
173 196 0
172 194 0
172 194 0
172 194 0
173 196 0
171 194 0
173 195 0
172 195 0
169 193 0
172 194 0
172 195 0
172 195 0
173 195 0
172 195 0
172 196 0
174 196 0
174 196 0
173 195 0
172 194 0
172 195 0
173 195 0
173 196 0
173 195 0
175 198 0
171 195 0
172 194 0
172 195 0
173 196 0
172 194 0
173 197 0
171 195 0
172 195 0
174 197 0
173 194 0
171 194 0
171 194 0
173 196 0
171 194 0
172 195 0
171 193 0
171 193 0
174 197 0
172 195 0
173 195 0
174 197 0
172 195 0
172 195 0
173 196 0
171 195 0
170 192 0
172 194 0
172 194 0
173 195 0
174 197 0
171 194 0
173 195 0
173 195 0
171 195 0
172 195 0
172 195 0
172 194 0
172 195 0
171 193 0
170 192 0
171 193 0
172 194 0
170 192 0
172 194 0
170 192 0
173 195 0
172 192 0
169 192 0
170 194 0
169 190 0
170 190 0
170 192 0
172 193 0
168 189 0
170 191 0
171 193 0
170 191 0
169 191 0
169 189 0
170 192 0
170 189 0
167 188 0
170 191 0
169 190 0
171 192 0
169 190 0
168 187 0
171 191 0
171 192 0
169 189 0
167 185 0
171 190 0
171 192 0
169 189 0
170 191 0
169 190 0
170 190 0
170 191 0
168 185 0
167 188 0
169 189 0
168 187 0
169 187 0
169 188 0
167 183 13
167 183 29
168 185 23
169 184 27
166 182 29
166 177 32
167 180 28
167 182 31
165 175 43
162 175 32
166 176 42
161 173 35
164 176 40
166 177 44
166 177 37
164 175 43
164 176 38
164 181 21
168 189 20
168 189 20
167 186 0
169 189 0
169 188 18
170 190 0
170 189 0
171 190 25
166 185 18
169 188 0
170 190 25
170 190 25
171 192 0
167 187 0
170 190 0
171 192 18
166 184 0
171 192 0
171 191 18
170 190 0
169 189 0
168 188 0
169 188 0
172 192 0
170 190 0
168 188 0
169 189 0
168 188 0
170 190 18
168 188 0
172 192 0
169 188 18
171 190 0
166 186 0
167 187 0
170 189 0
165 184 0
170 188 0
168 187 0
166 186 0
163 181 0
166 185 0
167 186 0
164 183 0
166 185 0
169 187 0
164 184 0
166 186 0
168 189 0
164 184 0
166 185 0
163 183 0
163 183 0
160 181 0
164 184 0
166 186 0
164 184 0
160 181 0
165 185 0
164 185 0
163 183 0
160 179 0
161 181 0
164 184 0
164 185 0
162 182 0
161 181 0
164 185 0
161 181 0
163 182 0
163 184 0
162 183 0
159 179 0
162 182 0
165 187 0
162 182 0
164 184 0
162 182 0
163 183 0
162 183 0
162 184 0
162 184 0
160 182 0
160 181 0
162 183 0
158 178 0
161 181 0
165 186 0
165 187 0
162 183 0
166 188 0
164 185 0
164 184 0
162 183 0
164 184 0
159 180 0
163 184 0
161 182 0
166 188 0
167 188 0
162 183 0
165 187 0
162 183 0
165 185 0
166 187 0
160 182 0
166 188 0
163 185 0
161 182 0
163 184 0
159 180 0
164 184 0
166 187 0
168 189 0
164 187 0
161 182 0
165 186 0
162 182 0
166 188 0
167 188 0
162 183 0
167 188 0
162 181 0
166 186 0
163 183 0
162 184 0
167 188 0
163 184 0
164 186 0
165 185 0
164 186 0
164 185 0
166 188 0
166 186 0
163 185 0
164 187 0
167 188 0
166 188 0
165 187 0
166 188 0
167 189 0
165 188 0
162 183 0
166 186 0
165 187 0
166 187 0
168 189 0
166 188 0
165 186 0
167 189 0
165 187 0
167 190 0
168 189 0
170 190 0
165 186 0
165 187 0
167 188 0
165 187 0
165 187 0
167 189 0
167 189 0
166 187 0
168 189 0
169 190 0
168 190 0
169 191 0
167 189 0
166 185 0
166 187 0
164 186 0
168 190 0
166 188 0
169 191 0
168 190 0
171 193 0
167 189 0
167 189 0
167 189 0
166 187 0
166 187 0
167 189 0
168 190 0
170 192 0
168 190 0
166 189 0
169 192 0
170 191 0
171 192 0
169 191 0
167 189 0
170 191 0
168 191 0
169 191 0
169 191 0
169 192 0
169 191 0
167 187 0
166 188 0
168 190 0
170 191 0
169 190 0
168 191 0
169 191 0
169 190 0
166 188 0
172 195 0
170 192 0
168 188 0
169 191 0
171 194 0
170 193 0
169 189 0
169 192 0
170 193 0
170 192 0
171 193 0
172 194 0
170 192 0
170 193 0
171 193 0
171 193 0
170 192 0
170 192 0
171 192 0
172 196 0
171 193 0
172 194 0
171 193 0
171 193 0
170 192 0
170 192 0
170 193 0
171 194 0
172 195 0
173 196 0
172 194 0
170 192 0
171 194 0
169 192 0
171 193 0
171 193 0
173 195 0
171 194 0
171 193 0
172 194 0
170 193 0
171 193 0
171 193 0
170 193 0
173 195 0
173 197 0
171 194 0
173 196 0
172 195 0
172 194 0
171 193 0
170 194 0
171 194 0
173 196 0
171 193 0
172 195 0
172 195 0
171 193 0
172 195 0
172 195 0
172 195 0
173 196 0
173 195 0
170 193 0
170 193 0
172 195 0
172 195 0
172 195 0
172 195 0
171 194 0
171 193 0
171 194 0
171 194 0
171 194 0
174 196 0
173 196 0
172 194 0
172 195 0
171 193 0
170 192 0
173 195 0
172 196 0
172 195 0
173 196 0
173 196 0
172 196 0
173 196 0
173 196 0
172 196 0
172 196 0
173 196 0
171 194 0
170 193 0
172 195 0
171 194 0
173 196 0
172 195 0
173 195 0
173 196 0
172 196 0
173 196 0
173 196 0
172 196 0
173 196 0
173 195 0
173 197 0
173 195 0
172 195 0
172 195 0
172 195 0
173 196 0
171 194 0
174 196 0
171 194 0
172 195 0
173 196 0
172 194 0
173 196 0
172 195 0
173 196 0
172 194 0
172 194 0
171 194 0
173 196 0
172 196 0
171 194 0
171 195 0
172 194 0
173 195 0
171 195 0
172 196 0
173 194 0
171 193 0
171 194 0
170 193 0
171 193 0
170 191 0
173 194 0
171 193 0
171 193 0
170 192 0
171 193 0
167 189 0
169 191 0
168 188 0
171 193 0
171 193 0
168 189 0
169 189 0
169 190 0
171 193 0
170 192 0
169 189 0
170 191 0
168 189 0
167 187 0
169 188 0
170 190 0
170 191 0
170 191 0
170 189 0
164 182 0
168 187 0
171 192 0
168 188 0
169 189 0
170 190 0
170 190 0
170 191 0
169 189 0
168 187 0
171 189 18
172 193 0
170 189 0
169 188 0
171 190 0
172 192 0
170 190 9
169 188 9
168 188 7
171 189 14
169 185 28
167 184 15
171 187 22
166 180 32
169 181 37
170 187 28
165 178 38
166 176 35
161 171 42
163 178 30
162 175 36
164 181 26
165 181 25
166 183 37
168 186 22
165 185 14
171 191 0
171 190 18
168 188 0
170 189 18
170 189 18
166 185 0
168 188 25
170 190 18
170 188 25
171 192 0
170 190 18
170 190 18
170 189 0
169 190 0
169 189 18
168 189 18
169 188 0
170 193 0
170 190 0
170 190 0
167 188 0
167 186 0
168 188 0
166 188 0
170 189 0
169 188 0
165 184 0
171 192 0
169 188 0
169 188 0
170 190 0
170 189 0
167 187 0
168 187 0
165 185 0
169 190 0
165 184 0
169 189 18
164 184 0
164 185 0
165 184 0
163 182 0
167 185 0
161 181 0
167 187 0
165 185 0
165 184 0
164 184 0
164 185 0
165 185 0
161 181 0
167 187 0
161 180 0
164 183 0
165 185 0
164 183 0
161 181 0
163 183 0
166 187 0
165 184 0
165 185 0
161 182 0
162 182 0
163 182 0
164 184 0
159 179 0
163 184 0
159 176 0
161 182 0
162 182 0
167 187 0
165 186 0
160 178 0
162 183 0
160 181 0
161 182 0
162 182 0
161 183 0
164 184 0
162 184 0
163 184 0
165 187 0
158 179 0
164 183 0
163 182 0
162 182 0
167 187 0
164 186 0
162 183 0
162 184 0
163 184 0
159 179 0
161 182 0
165 186 0
158 178 0
165 186 0
164 185 0
159 180 0
165 186 0
165 186 0
165 187 0
164 185 0
166 188 0
164 185 0
164 186 0
163 184 0
165 186 0
161 181 0
165 186 0
166 187 0
165 186 0
165 188 0
164 185 0
161 181 0
167 187 0
161 182 0
162 183 0
164 185 0
164 187 0
164 187 0
161 182 0
166 188 0
162 182 0
165 184 0
168 190 0
163 185 0
159 180 0
166 188 0
163 184 0
166 188 0
166 188 0
167 189 0
161 183 0
168 189 0
167 189 0
166 187 0
165 188 0
166 185 0
167 188 0
163 185 0
169 190 0
164 185 0
163 184 0
168 190 0
167 189 0
168 189 0
166 188 0
169 190 0
169 190 0
168 189 0
164 187 0
167 188 0
167 189 0
165 184 0
166 187 0
172 194 0
169 192 0
168 190 0
169 191 0
168 190 0
165 186 0
167 190 0
168 189 0
168 190 0
165 186 0
170 192 0
167 190 0
166 186 0
166 187 0
168 190 0
168 192 0
170 191 0
169 190 0
166 186 0
167 188 0
169 190 0
169 192 0
169 190 0
168 190 0
169 192 0
171 192 0
169 189 0
171 193 0
169 192 0
171 193 0
171 193 0
169 190 0
168 190 0
171 193 0
169 190 0
170 192 0
168 189 0
167 188 0
167 188 0
171 193 0
169 192 0
171 194 0
170 191 0
170 192 0
173 195 0
170 192 0
171 193 0
165 187 0
167 189 0
167 189 0
167 189 0
170 192 0
168 191 0
172 195 0
169 191 0
172 194 0
169 190 0
172 194 0
171 194 0
170 193 0
169 192 0
172 194 0
170 191 0
170 192 0
172 195 0
169 191 0
170 193 0
170 193 0
173 194 0
172 194 0
171 193 0
170 192 0
172 195 0
170 192 0
169 191 0
171 193 0
172 194 0
172 195 0
170 192 0
170 193 0
171 194 0
168 190 0
173 194 0
171 193 0
171 193 0
171 194 0
170 193 0
173 196 0
172 195 0
170 192 0
171 193 0
172 195 0
173 196 0
172 195 0
171 193 0
172 194 0
172 194 0
172 194 0
174 195 0
169 192 0
170 193 0
172 196 0
171 194 0
171 194 0
174 196 0
171 194 0
171 193 0
171 194 0
171 195 0
172 194 0
173 196 0
172 195 0
170 192 0
172 195 0
173 195 0
172 195 0
173 194 0
172 194 0
172 195 0
171 194 0
173 194 0
173 195 0
173 196 0
172 195 0
170 192 0
172 194 0
173 197 0
172 195 0
173 196 0
173 195 0
171 194 0
173 196 0
172 195 0
173 196 0
173 196 0
174 197 0
172 195 0
174 197 0
172 196 0
171 195 0
172 196 0
174 196 0
169 193 0
174 197 0
174 197 0
173 196 0
173 196 0
172 196 0
173 196 0
172 195 0
173 196 0
173 195 0
173 196 0
172 195 0
170 192 0
173 196 0
169 192 0
173 196 0
172 195 0
173 196 0
174 196 0
173 195 0
170 193 0
171 194 0
171 194 0
172 196 0
171 194 0
172 195 0
173 196 0
172 195 0
171 193 0
173 196 0
172 195 0
169 193 0
172 194 0
172 194 0
170 193 0
170 191 0
172 195 0
168 191 0
171 194 0
173 195 0
170 193 0
171 194 0
171 192 0
172 195 0
171 193 0
169 191 0
173 195 0
169 192 0
170 190 0
172 195 0
170 193 0
171 193 0
169 191 0
173 194 0
169 190 0
166 187 0
167 188 0
170 191 0
170 191 0
168 187 0
168 190 0
169 190 0
169 189 0
169 190 0
171 191 0
168 188 0
169 190 0
170 189 0
169 190 0
166 187 0
169 190 0
169 188 0
169 188 0
167 185 0
171 191 0
168 188 0
168 188 0
169 189 0
166 186 0
168 186 18
172 192 0
166 186 0
169 187 0
169 188 0
171 191 0
170 189 9
167 185 15
171 190 9
170 186 19
169 187 26
171 186 28
166 184 16
164 180 30
169 184 28
166 182 27
166 181 25
165 180 27
166 179 34
164 179 34
163 178 21
166 185 10
168 186 0
170 189 0
170 190 0
170 190 0
172 191 0
169 188 0
169 188 0
170 189 0
171 191 0
168 187 0
167 185 0
170 190 0
171 191 0
170 191 0
168 186 0
168 189 0
167 187 0
171 191 0
169 188 0
166 186 0
169 187 0
170 189 0
166 186 18
169 188 0
172 192 0
171 191 0
170 189 18
167 186 0
170 190 0
169 188 0
170 190 0
165 184 0
166 185 0
163 181 0
166 186 0
167 185 0
169 189 0
167 188 0
168 187 0
167 187 0
165 185 0
168 188 0
167 187 0
168 188 0
166 184 0
166 186 0
168 186 0
167 183 0
160 178 0
167 187 0
163 183 0
159 179 0
165 184 0
166 185 0
163 183 0
168 186 0
165 185 0
163 183 0
164 184 0
165 184 0
165 184 0
163 184 0
160 181 0
162 182 0
165 185 0
163 184 0
164 184 0
161 181 0
163 182 0
161 181 0
162 182 0
162 182 0
165 185 0
162 182 0
163 182 0
161 181 0
165 186 0
163 183 0
164 186 0
163 184 0
162 182 0
164 186 0
164 185 0
163 184 0
162 182 0
163 183 0
161 181 0
163 186 0
162 184 0
160 180 0
164 184 0
163 184 0
163 185 0
163 184 0
163 184 0
166 186 0
166 188 0
160 181 0
163 182 0
160 179 0
165 186 0
163 184 0
159 180 0
164 185 0
163 183 0
165 187 0
164 185 0
163 181 0
165 186 0
162 184 0
165 186 0
160 179 0
167 186 0
165 187 0
165 186 0
161 182 0
164 184 0
162 182 0
163 185 0
167 187 0
162 184 0
167 189 0
166 187 0
166 188 0
168 190 0
164 185 0
168 191 0
167 188 0
166 185 0
165 187 0
166 187 0
165 185 0
167 190 0
165 186 0
162 184 0
168 189 0
167 189 0
166 187 0
168 190 0
164 184 0
166 187 0
168 191 0
168 189 0
167 188 0
166 188 0
167 189 0
165 186 0
163 185 0
167 187 0
164 185 0
171 192 0
165 186 0
168 190 0
167 189 0
164 186 0
167 188 0
166 189 0
168 189 0
166 187 0
168 189 0
168 190 0
168 188 0
169 191 0
167 190 0
168 190 0
168 189 0
171 194 0
165 185 0
167 189 0
168 188 0
168 190 0
169 192 0
167 188 0
169 191 0
164 186 0
167 189 0
169 189 0
168 189 0
169 191 0
165 187 0
167 189 0
170 191 0
167 189 0
167 189 0
167 188 0
169 191 0
168 189 0
170 194 0
168 191 0
168 190 0
170 193 0
167 189 0
171 194 0
167 189 0
169 191 0
168 190 0
170 192 0
168 191 0
165 187 0
171 192 0
170 192 0
171 192 0
169 192 0
171 194 0
171 192 0
170 193 0
168 189 0
171 193 0
172 195 0
170 192 0
168 190 0
172 194 0
170 192 0
172 194 0
168 189 0
170 192 0
168 191 0
170 193 0
172 194 0
172 194 0
169 191 0
172 193 0
174 196 0
171 193 0
169 190 0
171 192 0
170 193 0
172 193 0
169 192 0
172 194 0
170 193 0
170 192 0
171 194 0
170 193 0
171 194 0
171 193 0
172 195 0
173 195 0
172 195 0
171 193 0
171 194 0
170 193 0
171 195 0
174 195 0
171 195 0
172 195 0
171 193 0
173 196 0
173 195 0
172 195 0
172 194 0
172 194 0
173 196 0
172 194 0
171 192 0
172 194 0
171 194 0
172 196 0
173 195 0
171 195 0
170 193 0
172 195 0
171 194 0
172 195 0
173 196 0
173 196 0
174 196 0
173 195 0
171 193 0
171 193 0
172 195 0
171 193 0
172 195 0
172 194 0
172 196 0
174 197 0
171 195 0
172 194 0
173 196 0
172 195 0
171 194 0
172 195 0
171 194 0
172 194 0
174 196 0
171 193 0
174 196 0
172 195 0
173 196 0
173 195 0
170 193 0
171 193 0
172 195 0
173 196 0
175 198 0
173 196 0
171 195 0
171 194 0
172 195 0
171 194 0
171 194 0
172 195 0
173 196 0
173 196 0
172 195 0
173 196 0
173 196 0
171 194 0
172 196 0
172 194 0
172 195 0
172 195 0
173 195 0
172 195 0
171 194 0
171 194 0
172 195 0
170 194 0
173 195 0
172 196 0
171 195 0
172 195 0
173 196 0
171 194 0
173 195 0
173 194 0
172 195 0
170 193 0
172 194 0
169 192 0
172 194 0
169 192 0
172 195 0
172 194 0
171 192 0
173 195 0
169 190 0
172 195 0
171 193 0
171 195 0
172 195 0
172 194 0
171 193 0
168 190 0
170 193 0
171 193 0
170 191 0
171 193 0
172 193 0
171 192 0
173 194 0
170 192 0
170 190 0
171 193 0
171 191 0
170 190 0
169 191 0
169 189 0
169 190 0
168 190 0
168 190 0
170 190 0
170 190 0
168 188 0
168 187 0
167 185 0
171 190 0
169 190 0
172 192 0
169 188 0
167 186 0
169 188 0
170 191 0
169 187 0
168 188 0
168 186 0
172 190 0
172 191 0
170 189 0
170 190 0
167 185 0
171 189 0
171 191 0
171 192 0
169 188 0
170 189 18
170 189 0
169 190 0
170 189 14
170 187 17
169 189 9
169 187 21
172 189 22
163 177 28
168 183 21
167 185 17
165 182 22
166 184 22
170 186 23
168 186 14
172 193 0
169 188 0
170 190 0
170 189 0
170 191 0
171 191 0
168 188 0
169 189 0
168 187 0
167 186 0
169 188 0
170 188 0
169 189 0
169 186 0
169 188 18
169 189 0
166 184 0
168 188 0
168 187 0
169 189 0
167 187 0
168 186 0
168 188 0
170 189 0
170 190 18
167 186 0
169 188 0
167 185 0
168 186 18
163 180 0
165 185 0
172 191 0
168 187 0
168 187 0
171 189 0
170 189 18
164 185 0
168 189 0
168 188 0
168 187 0
166 185 0
168 187 0
169 189 0
166 185 0
168 187 0
167 184 0
169 189 0
164 183 0
163 183 0
169 188 0
165 186 0
162 181 0
163 183 0
167 186 0
163 182 0
167 187 0
162 184 0
166 185 0
163 183 0
161 182 0
163 183 0
167 188 0
165 186 0
163 183 0
165 187 0
163 182 0
159 179 0
168 189 0
161 181 0
166 188 0
163 183 0
160 181 0
165 185 0
163 184 0
159 179 0
165 186 0
158 178 0
166 188 0
164 184 0
163 183 0
166 187 0
160 180 0
161 181 0
163 185 0
164 185 0
163 184 0
162 183 0
162 184 0
162 184 0
165 185 0
163 183 0
161 182 0
162 183 0
164 185 0
163 184 0
163 184 0
158 179 0
161 182 0
164 184 0
165 186 0
163 183 0
165 187 0
165 186 0
160 180 0
162 182 0
164 186 0
162 183 0
165 186 0
165 187 0
162 183 0
167 188 0
166 187 0
165 187 0
163 184 0
159 179 0
166 187 0
163 184 0
168 188 0
165 187 0
164 185 0
163 185 0
161 182 0
166 187 0
167 186 0
165 187 0
166 187 0
166 188 0
164 185 0
169 191 0
166 186 0
170 190 0
166 188 0
168 191 0
165 187 0
162 183 0
165 187 0
166 188 0
166 187 0
166 187 0
164 185 0
164 186 0
165 187 0
164 185 0
169 190 0
166 187 0
169 190 0
167 188 0
166 187 0
171 194 0
165 185 0
168 190 0
169 191 0
169 191 0
167 188 0
167 188 0
169 191 0
166 188 0
166 188 0
166 187 0
166 189 0
165 186 0
167 188 0
169 191 0
168 190 0
169 190 0
169 189 0
167 189 0
169 190 0
167 189 0
167 189 0
172 193 0
166 188 0
167 189 0
167 189 0
167 189 0
167 188 0
168 189 0
170 191 0
171 193 0
169 191 0
168 190 0
167 189 0
168 189 0
168 190 0
168 191 0
171 193 0
167 188 0
170 192 0
170 192 0
171 194 0
167 189 0
170 191 0
170 192 0
169 191 0
168 191 0
169 191 0
168 189 0
168 190 0
171 194 0
171 193 0
171 193 0
172 194 0
168 191 0
168 189 0
171 193 0
170 192 0
172 194 0
170 193 0
171 193 0
170 192 0
169 193 0
171 193 0
171 193 0
168 192 0
170 193 0
169 190 0
172 195 0
173 195 0
170 191 0
172 193 0
172 195 0
169 192 0
170 193 0
169 191 0
171 193 0
171 193 0
170 192 0
171 194 0
170 191 0
171 193 0
171 193 0
171 191 0
173 195 0
172 195 0
172 195 0
173 196 0
172 194 0
170 192 0
171 193 0
171 194 0
172 195 0
170 191 0
172 194 0
173 195 0
171 194 0
171 194 0
171 193 0
172 195 0
169 192 0
172 194 0
174 196 0
171 192 0
171 194 0
173 195 0
171 194 0
172 195 0
173 196 0
170 192 0
173 195 0
172 195 0
170 192 0
171 193 0
171 194 0
172 195 0
172 194 0
171 192 0
172 194 0
173 195 0
171 194 0
173 195 0
172 194 0
172 195 0
173 196 0
171 194 0
173 195 0
173 196 0
171 194 0
172 196 0
172 195 0
172 195 0
174 197 0
172 195 0
174 196 0
171 195 0
173 196 0
170 193 0
172 195 0
172 195 0
173 196 0
172 195 0
171 195 0
174 197 0
173 196 0
173 196 0
173 197 0
174 196 0
172 195 0
171 194 0
173 196 0
172 195 0
173 196 0
172 195 0
172 195 0
174 197 0
173 196 0
172 195 0
171 193 0
173 196 0
173 196 0
172 195 0
173 196 0
173 196 0
170 193 0
174 197 0
173 195 0
173 195 0
173 196 0
173 195 0
172 196 0
172 195 0
173 196 0
171 195 0
171 193 0
171 195 0
171 194 0
173 196 0
173 195 0
172 194 0
174 196 0
171 193 0
172 195 0
173 195 0
173 194 0
172 193 0
173 195 0
171 193 0
170 193 0
171 193 0
170 193 0
170 193 0
171 194 0
171 193 0
171 192 0
170 193 0
173 194 0
170 192 0
171 192 0
170 192 0
169 192 0
170 191 0
169 188 0
170 191 0
168 189 0
170 191 0
170 192 0
167 189 0
169 191 0
167 188 0
170 191 0
169 188 0
167 188 0
170 190 0
168 188 0
167 187 0
168 187 0
168 189 0
169 189 0
169 189 0
171 192 0
167 188 0
171 190 0
171 191 0
172 191 0
169 187 0
169 189 0
169 187 0
169 189 0
171 191 0
169 190 0
169 190 0
171 190 0
168 188 0
170 189 0
168 186 0
170 189 0
169 187 0
172 191 0
171 191 0
171 192 0
169 189 0
170 188 0
170 189 17
169 187 15
170 189 17
171 190 14
167 186 15
168 185 24
163 180 9
166 185 18
169 188 0
170 189 0
167 186 0
171 191 0
170 189 0
171 191 18
169 187 0
168 187 0
170 190 0
170 191 0
170 189 0
170 188 0
169 187 0
169 188 0
169 188 0
170 189 0
168 187 0
171 190 0
171 190 0
167 186 0
172 189 0
168 186 0
169 189 0
169 188 18
167 187 0
169 188 0
168 186 0
165 184 0
173 193 0
169 187 0
166 183 0
167 185 0
169 188 0
167 185 0
171 190 18
168 188 0
166 183 0
164 183 0
167 185 0
169 189 0
168 189 0
168 188 0
167 186 0
168 188 0
168 187 0
168 189 0
167 187 0
166 187 0
165 186 0
166 186 0
166 186 0
164 184 0
164 182 0
166 186 0
163 182 0
167 186 0
165 184 0
167 186 0
158 178 0
164 185 0
164 184 0
161 179 0
163 182 0
162 181 0
164 185 0
164 184 0
162 182 0
165 187 0
166 188 0
162 181 0
164 185 0
160 180 0
162 184 0
165 186 0
163 184 0
162 183 0
160 178 0
165 186 0
165 186 0
162 185 0
162 183 0
163 183 0
164 184 0
160 182 0
164 183 0
161 182 0
162 183 0
162 182 0
162 184 0
163 183 0
162 182 0
161 182 0
159 180 0
166 188 0
164 184 0
163 182 0
164 184 0
161 182 0
165 185 0
163 183 0
167 187 0
163 184 0
164 186 0
164 185 0
165 187 0
166 186 0
161 183 0
166 188 0
166 187 0
162 182 0
161 183 0
165 186 0
164 185 0
165 187 0
164 185 0
164 185 0
163 185 0
162 184 0
164 186 0
162 185 0
169 190 0
167 188 0
165 187 0
167 189 0
165 186 0
166 186 0
165 186 0
167 189 0
165 186 0
164 185 0
165 188 0
167 189 0
167 187 0
167 189 0
165 186 0
166 187 0
168 190 0
167 189 0
167 189 0
166 187 0
168 190 0
165 186 0
168 189 0
165 186 0
165 187 0
166 186 0
164 184 0
166 187 0
165 185 0
166 187 0
168 190 0
170 192 0
168 190 0
168 189 0
164 184 0
168 190 0
167 189 0
168 188 0
169 190 0
165 186 0
168 189 0
168 190 0
168 190 0
168 189 0
169 191 0
171 194 0
166 187 0
172 193 0
169 192 0
167 189 0
168 190 0
170 192 0
168 190 0
169 191 0
170 192 0
169 191 0
170 192 0
167 188 0
170 193 0
170 192 0
167 188 0
168 190 0
169 192 0
165 187 0
167 188 0
171 194 0
165 187 0
170 192 0
168 190 0
169 191 0
168 189 0
169 191 0
170 190 0
172 196 0
169 192 0
167 189 0
168 190 0
171 193 0
171 193 0
167 189 0
172 192 0
169 192 0
170 192 0
167 188 0
170 192 0
170 192 0
169 191 0
167 189 0
171 192 0
168 190 0
168 189 0
169 191 0
172 195 0
167 188 0
169 191 0
170 192 0
170 193 0
170 192 0
170 192 0
167 189 0
170 192 0
170 193 0
170 192 0
172 195 0
170 192 0
174 196 0
170 194 0
170 193 0
170 191 0
172 194 0
171 193 0
173 195 0
171 194 0
170 191 0
171 195 0
172 194 0
171 194 0
170 193 0
171 193 0
169 192 0
169 191 0
168 191 0
169 191 0
173 195 0
171 193 0
172 194 0
172 194 0
170 193 0
173 196 0
171 194 0
170 193 0
171 195 0
173 195 0
171 192 0
172 194 0
173 196 0
172 195 0
174 196 0
171 195 0
172 194 0
172 195 0
172 195 0
173 195 0
172 194 0
171 194 0
174 197 0
172 195 0
174 196 0
173 196 0
174 197 0
170 193 0
171 194 0
173 196 0
172 195 0
171 194 0
172 195 0
173 196 0
171 193 0
173 197 0
172 194 0
173 195 0
172 195 0
172 195 0
173 195 0
174 197 0
174 196 0
172 195 0
174 197 0
171 194 0
173 196 0
173 197 0
173 196 0
172 196 0
172 195 0
171 195 0
172 195 0
172 195 0
173 196 0
173 196 0
172 195 0
173 197 0
172 196 0
173 196 0
172 195 0
173 195 0
173 196 0
172 195 0
174 197 0
173 196 0
173 196 0
172 195 0
173 196 0
172 195 0
172 195 0
171 195 0
172 195 0
173 197 0
173 195 0
171 194 0
170 193 0
171 194 0
174 197 0
172 195 0
171 194 0
169 192 0
173 196 0
171 195 0
172 196 0
172 195 0
172 195 0
169 193 0
174 197 0
171 193 0
170 192 0
172 195 0
171 194 0
171 193 0
171 193 0
172 194 0
169 193 0
171 192 0
170 191 0
170 191 0
172 193 0
169 190 0
169 190 0
170 191 0
170 192 0
171 192 0
167 188 0
171 193 0
171 191 0
169 191 0
173 194 0
170 192 0
170 192 0
170 192 0
171 193 0
168 189 0
170 189 0
170 191 0
168 189 0
169 188 0
170 191 0
173 193 0
165 185 0
168 187 0
169 189 0
169 189 0
166 187 0
168 188 0
169 190 0
171 192 0
169 189 0
169 190 0
170 190 0
168 189 0
170 190 0
168 185 0
169 190 18
170 189 0
171 190 0
170 189 0
170 188 0
170 190 0
172 192 0
172 192 0
170 189 0
172 191 0
168 187 0
172 192 0
170 189 0
172 192 0
170 189 0
170 190 0
170 188 9
171 190 14
166 185 0
171 189 17
169 186 5
170 188 0
168 189 0
168 188 0
167 186 0
170 190 0
168 187 0
167 188 0
169 187 18
170 190 0
172 191 0
170 188 0
171 190 0
167 186 0
169 189 18
168 188 0
170 188 0
169 188 0
172 190 0
168 186 0
168 188 0
168 187 0
166 185 0
168 187 0
169 188 0
168 186 0
168 187 0
164 183 0
167 186 0
168 186 0
171 189 0
167 186 0
168 186 0
169 187 0
169 187 0
170 188 0
167 185 0
169 189 0
170 189 0
170 189 0
165 183 0
168 188 0
169 189 0
165 184 0
165 182 0
167 189 0
166 187 0
168 187 0
165 184 0
163 182 0
166 186 0
166 185 0
167 187 0
164 185 0
165 184 0
164 184 0
168 188 0
163 182 0
164 184 0
166 186 0
166 186 0
160 180 0
161 182 0
165 186 0
166 185 0
164 185 0
165 186 0
162 183 0
164 186 0
167 187 0
165 186 0
159 180 0
161 180 0
164 185 0
160 176 0
158 179 0
161 181 0
159 179 0
164 185 0
167 186 0
162 181 0
166 186 0
165 185 0
162 182 0
165 187 0
164 185 0
163 183 0
160 181 0
162 183 0
164 185 0
163 184 0
162 183 0
162 182 0
162 183 0
163 183 0
161 181 0
165 186 0
166 188 0
166 187 0
165 186 0
166 188 0
164 186 0
162 184 0
166 187 0
164 186 0
163 184 0
166 187 0
161 184 0
166 187 0
163 185 0
160 181 0
161 183 0
163 183 0
161 183 0
165 186 0
164 185 0
163 184 0
165 187 0
162 182 0
164 183 0
164 185 0
165 186 0
167 188 0
162 184 0
164 185 0
165 185 0
167 190 0
165 185 0
165 186 0
165 185 0
166 187 0
164 185 0
167 188 0
168 190 0
164 186 0
165 188 0
166 187 0
163 184 0
165 187 0
167 190 0
165 187 0
167 188 0
168 189 0
165 187 0
168 190 0
166 188 0
166 188 0
168 190 0
166 186 0
168 191 0
170 191 0
166 188 0
169 190 0
168 188 0
165 186 0
168 191 0
168 191 0
168 190 0
165 188 0
166 187 0
170 191 0
168 188 0
168 190 0
166 188 0
168 190 0
167 187 0
165 185 0
164 186 0
167 189 0
167 190 0
169 191 0
169 192 0
170 192 0
167 190 0
170 194 0
169 191 0
167 190 0
167 189 0
171 191 0
168 191 0
168 190 0
172 193 0
169 191 0
169 192 0
166 189 0
169 191 0
169 191 0
172 194 0
170 193 0
170 191 0
168 190 0
170 191 0
168 189 0
170 192 0
168 191 0
171 194 0
171 192 0
168 190 0
169 190 0
169 190 0
172 193 0
171 192 0
167 188 0
169 190 0
170 193 0
169 192 0
169 191 0
170 192 0
170 193 0
170 191 0
172 194 0
170 193 0
171 194 0
169 191 0
170 192 0
170 191 0
169 190 0
170 192 0
171 194 0
167 189 0
168 190 0
171 192 0
169 192 0
169 191 0
170 192 0
171 193 0
169 191 0
167 189 0
170 192 0
173 196 0
171 195 0
171 193 0
171 194 0
171 194 0
170 193 0
169 190 0
171 193 0
172 192 0
171 193 0
170 192 0
169 192 0
172 193 0
171 193 0
172 194 0
169 191 0
171 194 0
171 194 0
170 193 0
170 192 0
171 195 0
171 193 0
170 192 0
172 194 0
173 196 0
172 194 0
172 195 0
173 195 0
171 193 0
172 194 0
171 194 0
173 195 0
173 196 0
173 196 0
172 195 0
172 195 0
172 195 0
171 194 0
175 197 0
173 197 0
170 192 0
171 195 0
173 196 0
173 196 0
172 195 0
173 195 0
171 194 0
173 195 0
172 195 0
174 196 0
173 196 0
172 194 0
171 193 0
172 194 0
172 194 0
172 195 0
170 193 0
173 195 0
170 193 0
173 196 0
173 194 0
174 196 0
172 195 0
173 196 0
171 195 0
172 195 0
173 196 0
173 196 0
172 195 0
173 197 0
172 195 0
173 196 0
173 195 0
172 196 0
171 195 0
173 195 0
169 193 0
173 197 0
171 195 0
171 194 0
174 197 0
173 196 0
172 194 0
173 195 0
173 196 0
173 196 0
171 194 0
172 194 0
172 195 0
173 196 0
172 195 0
172 195 0
174 196 0
173 195 0
173 196 0
170 194 0
173 196 0
171 193 0
171 194 0
172 195 0
170 192 0
173 196 0
172 194 0
171 194 0
172 194 0
171 193 0
172 194 0
171 193 0
170 193 0
172 194 0
172 195 0
171 192 0
169 192 0
171 193 0
170 192 0
169 189 0
171 191 0
170 191 0
170 193 0
169 190 0
168 189 0
170 191 0
170 190 0
171 192 0
170 192 0
169 190 0
170 191 0
171 193 0
168 188 0
169 189 0
170 192 0
169 189 0
168 187 0
169 190 0
171 191 0
169 190 0
170 189 0
166 185 0
169 189 0
171 191 0
169 191 0
167 187 0
167 187 0
168 187 0
167 186 0
168 188 0
170 189 0
170 189 0
169 187 0
167 186 0
169 187 0
169 189 0
172 192 0
172 192 0
169 189 0
168 185 0
170 188 0
169 187 0
171 191 0
171 189 18
171 191 0
170 188 0
173 194 0
169 188 0
172 192 0
169 188 18
170 188 0
169 186 0
169 188 0
166 185 0
171 190 0
166 185 0
169 189 0
169 186 0
173 193 0
169 187 0
170 189 0
167 185 0
171 191 0
167 186 0
170 189 0
168 187 0
168 187 0
173 191 0
171 191 0
168 187 0
171 190 0
167 186 0
169 187 0
171 190 18
169 188 0
167 184 0
171 190 0
170 189 18
170 188 0
168 187 0
167 184 0
170 190 0
171 189 0
170 188 0
164 181 0
169 188 18
169 187 0
167 187 0
167 186 0
169 188 0
167 187 0
171 190 0
169 189 0
170 189 0
165 185 0
169 189 0
169 189 0
170 191 0
169 189 0
166 185 0
168 187 0
168 187 0
164 183 0
166 185 0
166 185 0
163 182 0
167 188 0
168 189 0
167 187 0
165 185 0
167 188 0
163 183 0
167 188 0
165 185 0
162 181 0
163 184 0
165 184 0
166 186 0
159 179 0
167 188 0
168 188 0
166 186 0
165 186 0
166 186 0
164 184 0
168 189 0
165 186 0
164 184 0
164 186 0
164 184 0
164 184 0
163 183 0
161 183 0
160 181 0
166 187 0
164 184 0
163 185 0
166 186 0
166 186 0
162 184 0
164 186 0
161 180 0
167 188 0
166 187 0
164 184 0
162 183 0
161 180 0
162 183 0
164 184 0
163 185 0
162 181 0
162 184 0
165 185 0
160 181 0
164 184 0
163 185 0
163 184 0
159 180 0
165 186 0
164 184 0
167 187 0
164 185 0
165 186 0
166 186 0
162 183 0
165 187 0
165 186 0
166 188 0
164 187 0
165 185 0
163 184 0
166 185 0
165 187 0
167 189 0
166 188 0
163 184 0
160 181 0
163 184 0
162 184 0
166 187 0
163 185 0
169 190 0
165 187 0
169 190 0
164 184 0
166 188 0
167 189 0
167 188 0
164 186 0
165 186 0
165 187 0
168 189 0
168 190 0
165 186 0
167 188 0
168 188 0
163 184 0
166 187 0
165 188 0
168 190 0
165 187 0
167 189 0
168 190 0
166 187 0
168 189 0
164 187 0
167 189 0
167 189 0
162 181 0
165 186 0
169 189 0
166 188 0
166 187 0
170 192 0
169 190 0
168 188 0
169 191 0
166 188 0
165 187 0
167 189 0
166 188 0
169 192 0
166 189 0
167 190 0
171 194 0
167 189 0
167 189 0
170 193 0
167 188 0
169 191 0
170 193 0
169 191 0
167 188 0
168 189 0
169 191 0
167 190 0
169 192 0
171 193 0
167 186 0
169 192 0
169 190 0
170 191 0
170 193 0
170 192 0
170 191 0
170 191 0
166 189 0
168 190 0
168 191 0
170 192 0
171 193 0
171 194 0
170 192 0
170 193 0
168 190 0
170 191 0
172 194 0
170 192 0
170 193 0
170 191 0
168 190 0
169 191 0
169 191 0
170 192 0
167 188 0
171 193 0
171 192 0
171 193 0
171 193 0
169 191 0
171 193 0
169 192 0
169 191 0
169 191 0
171 194 0
172 196 0
173 195 0
171 193 0
170 192 0
170 191 0
172 193 0
169 191 0
168 190 0
170 192 0
171 193 0
168 190 0
172 196 0
169 192 0
170 193 0
171 194 0
172 195 0
170 193 0
173 195 0
172 195 0
172 195 0
172 194 0
171 193 0
171 193 0
171 193 0
172 195 0
173 195 0
173 196 0
172 195 0
172 194 0
173 194 0
172 194 0
172 195 0
173 195 0
171 194 0
172 195 0
171 193 0
172 193 0
170 194 0
173 196 0
171 194 0
172 194 0
172 195 0
173 196 0
171 193 0
172 194 0
171 193 0
171 193 0
171 195 0
173 195 0
171 194 0
173 196 0
172 194 0
172 194 0
173 195 0
172 195 0
170 193 0
172 195 0
172 194 0
171 194 0
173 196 0
173 196 0
174 196 0
172 194 0
173 196 0
172 195 0
172 194 0
173 196 0
173 196 0
173 196 0
173 195 0
174 197 0
174 197 0
172 195 0
172 195 0
173 195 0
173 196 0
172 196 0
173 196 0
171 194 0
172 195 0
174 197 0
173 195 0
172 195 0
174 197 0
171 195 0
173 195 0
174 197 0
172 195 0
172 196 0
171 195 0
172 195 0
175 198 0
171 194 0
172 195 0
173 196 0
173 196 0
172 195 0
172 196 0
172 196 0
170 193 0
172 195 0
173 196 0
171 194 0
173 196 0
170 192 0
172 194 0
172 194 0
173 196 0
172 195 0
173 195 0
172 195 0
172 194 0
170 193 0
170 191 0
170 191 0
172 195 0
173 196 0
170 191 0
171 194 0
169 191 0
172 194 0
172 194 0
171 193 0
171 193 0
171 193 0
168 191 0
170 191 0
172 193 0
170 191 0
170 192 0
170 192 0
172 195 0
171 192 0
169 190 0
169 189 0
170 190 0
168 188 0
170 192 0
172 193 0
169 191 0
167 186 0
171 192 0
170 190 0
169 187 0
170 192 0
165 185 0
167 187 0
168 188 0
169 189 0
171 192 0
169 189 0
169 191 0
169 187 0
167 186 0
167 188 0
170 190 0
169 190 0
172 192 0
170 188 0
172 191 0
169 189 0
172 189 0
173 193 0
172 191 0
170 190 0
170 190 0
171 191 0
169 189 0
173 194 0
171 191 0
170 190 0
173 193 0
171 189 0
169 189 0
170 189 0
173 192 0
167 185 0
169 189 0
169 189 0
171 190 0
172 192 0
171 190 0
169 187 0
168 187 0
168 187 0
169 189 0
169 189 0
173 192 0
169 188 0
169 189 18
168 187 0
169 187 0
171 191 0
170 188 0
168 187 0
171 190 0
172 191 0
170 188 0
169 187 0
170 189 0
168 187 0
170 189 0
168 187 0
171 189 0
164 182 0
171 189 0
169 186 0
170 189 0
168 185 0
169 187 0
167 184 0
169 190 0
167 186 0
169 188 0
169 187 0
169 189 0
165 184 0
166 186 0
172 192 0
164 185 0
167 186 0
168 188 0
166 185 0
169 188 0
169 189 0
166 186 0
166 185 0
167 186 0
166 187 0
165 185 0
167 188 0
165 185 0
163 183 0
167 188 0
164 183 0
167 185 0
165 185 0
165 186 0
164 183 0
165 185 0
165 184 0
163 184 0
164 184 0
166 187 0
163 183 0
165 185 0
165 187 0
164 184 0
165 184 0
165 185 0
161 182 0
163 183 0
164 183 0
164 185 0
166 188 0
165 186 0
163 182 0
164 185 0
162 182 0
166 187 0
164 186 0
165 187 0
163 184 0
168 190 0
164 184 0
163 185 0
160 180 0
164 186 0
162 183 0
166 188 0
163 186 0
165 187 0
164 186 0
162 183 0
166 189 0
164 185 0
162 183 0
166 187 0
164 183 0
163 185 0
164 186 0
165 187 0
164 186 0
165 186 0
166 187 0
163 185 0
166 188 0
164 184 0
164 185 0
165 186 0
164 185 0
161 182 0
163 183 0
163 184 0
165 186 0
165 186 0
165 186 0
166 187 0
167 189 0
163 184 0
167 188 0
166 188 0
166 187 0
167 187 0
165 187 0
167 189 0
165 187 0
164 186 0
166 187 0
164 184 0
166 187 0
167 187 0
167 188 0
165 187 0
162 184 0
168 190 0
168 190 0
169 192 0
166 187 0
167 188 0
167 188 0
166 188 0
166 187 0
164 185 0
169 190 0
169 190 0
167 189 0
164 185 0
168 190 0
166 186 0
169 189 0
167 188 0
167 189 0
171 192 0
167 189 0
166 188 0
168 190 0
165 185 0
167 189 0
168 191 0
165 187 0
168 189 0
166 187 0
164 186 0
168 188 0
166 189 0
167 188 0
167 189 0
166 188 0
169 192 0
168 190 0
167 190 0
168 191 0
170 191 0
172 193 0
166 188 0
169 191 0
166 188 0
168 188 0
170 193 0
170 191 0
170 192 0
169 191 0
167 188 0
170 192 0
168 189 0
165 187 0
168 190 0
169 191 0
171 193 0
169 190 0
170 192 0
169 190 0
169 192 0
170 191 0
168 190 0
170 192 0
171 193 0
168 190 0
169 191 0
168 191 0
170 193 0
169 192 0
169 192 0
168 190 0
171 194 0
171 193 0
168 190 0
171 193 0
171 193 0
167 189 0
170 193 0
172 194 0
171 193 0
172 195 0
169 190 0
171 193 0
170 192 0
172 195 0
171 193 0
172 194 0
172 194 0
172 194 0
169 192 0
170 193 0
171 194 0
173 195 0
170 192 0
169 191 0
171 194 0
172 194 0
170 192 0
169 192 0
171 193 0
171 192 0
172 195 0
171 194 0
171 194 0
171 193 0
173 196 0
168 191 0
171 193 0
174 196 0
174 196 0
172 195 0
171 193 0
173 195 0
172 194 0
174 195 0
170 193 0
171 193 0
172 194 0
172 195 0
173 195 0
171 193 0
172 194 0
173 195 0
173 195 0
171 194 0
172 194 0
173 196 0
172 194 0
172 194 0
173 196 0
172 194 0
171 194 0
169 191 0
171 194 0
173 195 0
172 194 0
173 195 0
173 196 0
171 193 0
173 193 0
171 194 0
173 196 0
170 193 0
172 194 0
172 196 0
172 195 0
171 194 0
171 194 0
173 194 0
173 196 0
171 194 0
173 195 0
171 193 0
174 197 0
172 195 0
172 196 0
174 197 0
172 194 0
173 196 0
173 196 0
172 195 0
173 196 0
173 197 0
173 196 0
173 196 0
173 197 0
173 196 0
173 197 0
172 196 0
173 196 0
172 195 0
172 195 0
172 195 0
174 197 0
174 197 0
172 194 0
171 195 0
173 196 0
172 195 0
173 196 0
171 194 0
172 195 0
173 196 0
172 195 0
171 194 0
172 195 0
172 196 0
172 196 0
174 197 0
174 197 0
170 193 0
171 194 0
172 195 0
172 195 0
170 193 0
172 194 0
172 194 0
171 194 0
173 196 0
172 194 0
174 196 0
170 193 0
172 195 0
172 194 0
172 196 0
172 195 0
172 193 0
170 193 0
172 193 0
170 191 0
170 193 0
172 194 0
171 192 0
172 194 0
169 191 0
169 190 0
169 190 0
171 191 0
169 189 0
169 191 0
165 184 0
171 192 0
171 191 0
169 189 0
168 188 0
170 191 0
169 189 0
170 189 0
168 185 0
169 189 0
169 188 0
169 189 0
170 189 0
168 188 0
168 187 0
168 187 0
170 190 0
166 187 0
171 190 0
171 189 0
174 194 0
173 193 0
169 189 0
171 191 0
171 190 0
169 190 0
171 189 0
171 189 0
171 192 0
173 193 0
170 190 0
173 192 0
170 190 0
170 189 0
168 188 0
170 189 0
169 189 0
173 192 0
170 189 0
173 192 0
171 190 0
170 189 0
170 189 0
171 191 0
170 190 0
171 191 0
168 186 0
171 190 0
171 190 0
170 190 0
173 193 0
170 189 0
169 188 0
169 187 0
171 191 0
170 189 0
168 186 0
170 189 0
171 189 0
170 190 0
170 189 0
172 191 0
168 188 0
169 188 0
171 190 0
168 187 0
167 186 0
169 187 0
168 186 0
171 189 0
170 190 0
168 186 0
168 186 0
169 188 0
164 184 0
170 189 0
169 187 0
167 185 0
168 185 0
168 186 0
170 190 0
169 189 0
170 190 0
169 189 0
167 187 0
168 188 0
166 185 0
171 191 0
167 187 0
165 186 0
164 183 0
164 184 0
164 184 0
169 188 0
167 188 0
165 184 0
167 187 0
168 186 0
169 187 0
168 189 0
169 189 0
166 187 0
168 189 0
169 189 0
165 185 0
164 183 0
165 186 0
162 183 0
163 184 0
165 186 0
165 187 0
163 182 0
162 181 0
164 183 0
162 182 0
165 185 0
167 186 0
164 184 0
164 185 0
164 186 0
163 185 0
164 184 0
162 182 0
167 188 0
163 182 0
165 187 0
161 183 0
165 183 0
160 181 0
165 186 0
164 185 0
165 185 0
160 180 0
162 183 0
164 185 0
164 185 0
164 186 0
165 185 0
167 189 0
165 186 0
162 184 0
167 189 0
164 185 0
166 187 0
163 184 0
163 184 0
159 178 0
162 182 0
165 187 0
164 185 0
166 187 0
164 185 0
165 186 0
165 186 0
167 188 0
168 190 0
163 185 0
164 185 0
164 186 0
162 184 0
166 188 0
164 186 0
163 184 0
166 187 0
163 185 0
167 188 0
166 187 0
168 190 0
165 186 0
164 185 0
168 189 0
164 185 0
164 186 0
167 188 0
166 187 0
165 189 0
165 187 0
167 190 0
167 188 0
165 186 0
167 188 0
164 185 0
166 187 0
168 188 0
167 187 0
167 190 0
170 191 0
168 189 0
167 190 0
164 184 0
170 190 0
168 189 0
168 189 0
169 190 0
165 187 0
165 188 0
168 190 0
165 188 0
170 191 0
169 191 0
168 190 0
167 189 0
168 189 0
167 188 0
170 191 0
165 187 0
165 186 0
169 191 0
170 191 0
171 193 0
168 190 0
169 191 0
165 187 0
167 188 0
167 190 0
169 191 0
167 190 0
166 187 0
171 193 0
170 193 0
169 191 0
167 188 0
171 192 0
168 189 0
166 188 0
166 188 0
169 191 0
171 193 0
166 188 0
169 191 0
168 190 0
168 191 0
168 190 0
171 193 0
167 189 0
171 194 0
170 190 0
168 190 0
167 189 0
168 190 0
169 192 0
169 190 0
172 193 0
169 190 0
170 191 0
171 194 0
167 189 0
172 195 0
171 193 0
169 191 0
170 192 0
169 191 0
172 193 0
167 190 0
171 192 0
170 192 0
171 194 0
171 195 0
171 193 0
170 193 0
169 192 0
171 193 0
170 192 0
170 193 0
170 192 0
169 192 0
170 192 0
173 195 0
169 190 0
168 190 0
172 195 0
171 193 0
172 194 0
170 193 0
170 192 0
168 190 0
171 193 0
169 191 0
169 192 0
172 195 0
171 194 0
171 194 0
172 195 0
172 193 0
172 194 0
171 194 0
173 195 0
174 196 0
173 195 0
172 194 0
172 194 0
171 193 0
172 194 0
170 193 0
173 195 0
172 194 0
171 193 0
172 194 0
173 196 0
171 194 0
172 195 0
174 197 0
171 194 0
172 194 0
172 195 0
170 193 0
172 195 0
171 194 0
173 196 0
171 193 0
171 195 0
173 195 0
171 193 0
171 194 0
172 195 0
172 195 0
172 195 0
173 196 0
172 195 0
174 197 0
168 191 0
170 193 0
173 196 0
172 194 0
172 196 0
174 196 0
170 193 0
171 194 0
173 195 0
172 196 0
173 195 0
173 196 0
172 194 0
173 196 0
174 197 0
172 195 0
172 194 0
172 196 0
172 195 0
172 195 0
174 197 0
173 196 0
172 194 0
175 197 0
172 196 0
172 195 0
174 197 0
173 196 0
173 196 0
172 195 0
171 194 0
172 195 0
171 194 0
173 197 0
172 195 0
173 196 0
172 195 0
170 193 0
172 195 0
172 195 0
173 196 0
173 195 0
172 194 0
170 193 0
174 197 0
172 195 0
173 196 0
172 195 0
171 195 0
172 195 0
171 194 0
171 194 0
172 195 0
173 195 0
173 195 0
172 196 0
169 192 0
172 195 0
172 194 0
172 194 0
171 192 0
172 195 0
171 193 0
171 194 0
172 194 0
170 192 0
172 195 0
173 194 0
171 192 0
170 191 0
171 192 0
170 192 0
171 192 0
170 189 0
169 191 0
171 191 0
170 191 0
169 191 0
168 188 0
171 191 0
170 190 0
169 189 0
166 186 0
171 192 0
167 188 0
169 189 0
171 190 0
170 190 0
169 189 0
170 191 0
169 189 0
170 191 0
169 190 0
169 189 0
169 190 0
168 187 0
168 186 0
169 187 0
170 188 0
169 189 0
169 190 0
172 192 0
169 188 0
169 189 0
168 187 0
169 187 0
168 186 0
169 189 0
172 192 0
172 191 0
171 191 0
170 190 0
169 188 0
171 188 0
170 190 0
172 192 0
169 187 0
170 189 0
169 188 0
170 188 0
171 190 0
168 187 0
170 187 0
170 190 0
167 186 0
171 190 0
170 188 0
170 189 0
169 186 0
170 188 0
170 189 0
168 186 0
170 188 0
170 189 0
170 188 0
169 190 0
172 190 0
168 187 0
166 184 0
166 186 0
168 188 0
169 186 0
167 184 18
171 190 0
172 191 0
167 185 0
170 188 0
167 185 0
168 186 0
169 188 0
169 187 0
169 188 0
166 185 0
170 190 0
170 189 0
166 185 0
167 185 0
167 187 0
170 191 0
169 188 0
172 192 0
170 188 0
170 189 0
171 191 0
171 192 0
167 187 0
168 188 0
169 189 0
165 184 0
166 187 0
167 187 0
165 184 0
166 186 0
167 187 0
164 184 0
169 190 0
168 187 0
166 186 0
161 182 0
165 186 0
165 185 0
166 185 0
163 183 0
163 183 0
165 187 0
165 185 0
166 185 0
168 188 0
164 184 0
165 186 0
163 185 0
164 183 0
166 187 0
164 185 0
164 183 0
165 185 0
165 186 0
164 184 0
163 184 0
163 184 0
165 186 0
164 186 0
163 183 0
162 183 0
163 184 0
162 183 0
164 184 0
163 183 0
164 185 0
164 186 0
162 181 0
167 189 0
166 186 0
166 187 0
165 185 0
163 184 0
165 186 0
167 188 0
163 184 0
163 184 0
165 186 0
164 184 0
163 185 0
161 182 0
163 182 0
165 185 0
166 187 0
162 184 0
166 188 0
161 182 0
166 187 0
165 188 0
165 187 0
166 188 0
168 189 0
168 190 0
164 185 0
164 185 0
164 185 0
167 187 0
168 189 0
166 187 0
165 185 0
166 188 0
168 189 0
168 189 0
169 191 0
165 187 0
166 186 0
163 184 0
167 188 0
167 188 0
169 191 0
166 187 0
167 190 0
166 187 0
167 189 0
166 188 0
166 187 0
164 185 0
164 185 0
170 191 0
166 188 0
166 189 0
169 191 0
165 187 0
166 189 0
168 189 0
166 188 0
167 188 0
164 185 0
166 188 0
170 192 0
167 188 0
167 190 0
170 193 0
164 186 0
168 191 0
166 189 0
168 190 0
164 186 0
167 189 0
165 187 0
166 188 0
166 188 0
165 187 0
167 190 0
167 189 0
169 191 0
166 187 0
169 189 0
170 192 0
170 192 0
170 192 0
166 188 0
168 189 0
168 189 0
167 189 0
168 191 0
167 189 0
170 191 0
165 186 0
169 191 0
170 191 0
170 192 0
168 190 0
169 192 0
169 191 0
170 191 0
171 193 0
167 190 0
168 190 0
168 191 0
167 190 0
169 192 0
168 191 0
169 191 0
172 194 0
169 192 0
171 193 0
168 189 0
171 192 0
167 190 0
170 193 0
169 191 0
171 193 0
168 191 0
169 190 0
168 190 0
171 192 0
170 193 0
170 193 0
169 191 0
169 192 0
170 192 0
170 192 0
168 190 0
173 195 0
170 193 0
169 191 0
170 192 0
172 195 0
172 194 0
173 195 0
167 189 0
169 190 0
171 194 0
168 191 0
169 190 0
172 193 0
171 194 0
170 192 0
170 193 0
173 194 0
169 192 0
171 193 0
172 195 0
171 193 0
173 196 0
172 195 0
168 190 0
172 194 0
170 192 0
172 194 0
171 194 0
170 192 0
171 193 0
171 194 0
170 192 0
172 193 0
169 192 0
173 196 0
171 194 0
173 195 0
171 193 0
172 194 0
172 195 0
170 192 0
170 193 0
171 193 0
170 193 0
172 195 0
170 192 0
173 195 0
172 195 0
173 195 0
170 192 0
170 192 0
171 193 0
172 195 0
173 195 0
171 194 0
171 192 0
171 195 0
172 194 0
172 195 0
174 196 0
173 195 0
170 192 0
171 193 0
172 195 0
172 196 0
173 196 0
173 196 0
174 196 0
172 195 0
173 195 0
174 196 0
171 192 0
173 195 0
172 195 0
171 194 0
171 194 0
173 196 0
172 194 0
173 196 0
173 196 0
173 195 0
174 197 0
174 196 0
172 196 0
173 196 0
173 195 0
173 196 0
173 196 0
174 197 0
173 197 0
173 196 0
172 196 0
172 195 0
174 197 0
172 196 0
173 196 0
174 197 0
172 195 0
173 196 0
172 195 0
172 195 0
173 195 0
173 196 0
170 194 0
171 193 0
174 197 0
173 196 0
173 196 0
172 194 0
173 195 0
173 196 0
173 196 0
172 194 0
173 195 0
171 193 0
172 195 0
171 193 0
172 195 0
172 193 0
172 194 0
173 195 0
170 192 0
171 193 0
173 195 0
172 194 0
171 193 0
168 190 0
170 192 0
168 190 0
172 193 0
171 193 0
172 194 0
170 192 0
172 194 0
170 190 0
170 191 0
170 192 0
170 190 0
171 193 0
170 190 0
170 191 0
167 187 0
168 188 0
169 190 0
169 189 0
170 192 0
170 191 0
170 190 0
167 186 0
169 189 0
167 187 0
171 192 0
170 190 0
166 186 0
169 189 0
170 190 0
170 188 0
167 187 0
168 186 0
169 189 0
170 189 0
171 189 0
169 190 0
169 188 0
169 189 0
171 191 0
168 187 0
169 189 0
170 191 0
171 191 0
169 189 0
172 192 0
173 192 0
170 189 0
171 189 0
170 188 0
172 192 0
171 190 0
171 190 0
171 192 0
171 192 0
172 192 0
170 189 0
171 191 0
169 188 0
168 187 0
168 188 0
170 190 0
166 185 0
168 186 0
169 188 0
172 190 18
170 190 0
171 189 0
173 192 0
172 191 0
170 188 0
170 189 0
172 191 0
168 188 0
170 189 0
169 187 0
169 188 0
170 188 0
168 186 18
170 189 0
167 185 0
170 188 0
168 187 0
171 190 0
168 187 0
169 187 0
167 186 0
169 187 18
171 191 0
166 185 0
168 186 0
168 188 0
169 187 0
172 191 0
173 193 0
167 187 0
168 187 0
166 186 0
168 187 0
171 192 0
166 187 0
169 189 0
172 193 0
168 188 0
168 187 0
168 188 0
170 191 0
165 185 0
168 187 0
167 187 0
168 188 0
166 187 0
164 184 0
167 187 0
167 187 0
164 184 0
161 181 0
167 188 0
166 185 0
169 189 0
162 184 0
164 183 0
165 184 0
160 181 0
160 179 0
169 190 0
162 181 0
164 182 0
163 182 0
168 188 0
165 186 0
165 186 0
164 187 0
166 185 0
162 181 0
164 185 0
164 185 0
168 190 0
165 186 0
166 186 0
167 187 0
167 188 0
161 181 0
165 185 0
163 183 0
159 179 0
163 185 0
167 188 0
164 185 0
164 186 0
161 182 0
166 187 0
164 185 0
166 186 0
165 184 0
165 186 0
162 183 0
166 187 0
164 185 0
163 184 0
165 185 0
163 184 0
165 187 0
165 187 0
168 190 0
163 184 0
166 188 0
163 185 0
166 187 0
164 187 0
167 188 0
164 185 0
163 184 0
164 185 0
167 189 0
165 186 0
164 184 0
164 184 0
165 187 0
163 185 0
164 186 0
165 184 0
165 186 0
164 186 0
164 186 0
166 185 0
170 193 0
166 186 0
166 188 0
165 186 0
167 189 0
163 184 0
169 190 0
168 190 0
166 187 0
165 186 0
166 187 0
167 187 0
169 190 0
166 187 0
165 187 0
167 190 0
166 187 0
168 190 0
166 189 0
166 189 0
169 192 0
169 190 0
165 187 0
167 189 0
170 192 0
169 191 0
169 191 0
167 188 0
169 191 0
169 192 0
164 186 0
168 188 0
167 189 0
167 190 0
168 190 0
168 188 0
166 188 0
167 187 0
167 189 0
170 189 0
168 190 0
169 192 0
168 189 0
168 189 0
168 187 0
169 191 0
171 193 0
170 191 0
168 190 0
167 188 0
169 190 0
169 192 0
168 191 0
169 191 0
168 190 0
166 189 0
170 193 0
170 191 0
170 193 0
168 191 0
169 190 0
169 193 0
170 193 0
169 191 0
169 190 0
169 191 0
170 191 0
169 190 0
169 191 0
168 192 0
168 190 0
169 191 0
170 192 0
169 192 0
169 192 0
171 193 0
170 192 0
169 191 0
169 192 0
172 194 0
169 193 0
171 195 0
169 192 0
170 193 0
169 191 0
170 192 0
171 194 0
170 192 0
171 194 0
169 192 0
170 192 0
171 194 0
171 194 0
171 193 0
167 189 0
171 193 0
171 193 0
171 194 0
171 193 0
171 193 0
171 194 0
171 193 0
173 195 0
170 192 0
170 193 0
172 194 0
172 195 0
168 190 0
171 193 0
171 195 0
170 191 0
172 194 0
170 192 0
170 193 0
170 192 0
169 193 0
169 192 0
171 193 0
172 194 0
172 195 0
171 192 0
169 193 0
173 196 0
171 194 0
170 192 0
173 195 0
170 193 0
171 194 0
171 194 0
171 194 0
172 193 0
172 195 0
172 195 0
172 195 0
171 193 0
171 194 0
172 193 0
173 195 0
171 194 0
171 195 0
170 192 0
171 193 0
172 195 0
169 193 0
171 194 0
173 195 0
171 194 0
172 196 0
173 194 0
172 194 0
172 195 0
171 193 0
173 196 0
173 196 0
172 195 0
171 194 0
172 195 0
173 196 0
172 194 0
171 194 0
173 197 0
172 195 0
172 195 0
173 195 0
172 195 0
173 196 0
173 196 0
171 193 0
174 197 0
173 196 0
172 196 0
171 195 0
173 195 0
173 196 0
170 193 0
173 196 0
171 194 0
172 195 0
171 195 0
171 195 0
173 196 0
172 195 0
172 195 0
173 195 0
172 195 0
173 197 0
172 196 0
174 197 0
173 196 0
173 196 0
171 195 0
172 195 0
172 195 0
172 195 0
173 195 0
171 194 0
173 196 0
171 194 0
172 195 0
173 196 0
173 196 0
172 195 0
173 196 0
171 194 0
172 194 0
172 193 0
171 193 0
171 194 0
171 193 0
171 193 0
170 192 0
172 194 0
169 192 0
172 195 0
170 192 0
171 193 0
171 192 0
170 191 0
169 191 0
167 188 0
171 192 0
171 193 0
168 190 0
171 193 0
170 191 0
171 193 0
169 190 0
167 188 0
167 188 0
170 190 0
170 191 0
169 191 0
168 188 0
165 184 0
166 186 0
167 187 0
167 188 0
167 186 0
169 189 0
169 190 0
168 189 0
170 189 0
166 185 0
170 189 0
169 189 0
169 189 0
168 187 0
168 187 0
166 184 0
171 190 0
168 186 0
171 190 0
169 190 0
172 192 0
167 188 0
172 192 0
169 188 0
170 187 0
170 189 0
171 190 0
171 192 0
171 190 0
170 188 0
173 192 0
169 186 0
173 193 0
172 190 0
172 192 0
172 192 0
171 189 0
170 188 0
171 190 0
169 186 0
171 190 0
174 193 0
170 189 0
171 191 0
169 187 0
169 188 0
170 189 0
169 187 0
170 190 0
171 190 0
170 188 0
173 190 0
169 187 0
172 190 0
170 189 0
170 189 0
170 189 0
164 181 0
168 187 0
171 190 0
168 187 0
170 188 0
170 189 0
171 190 0
170 189 0
168 186 0
167 184 0
168 188 0
169 189 0
169 186 0
173 190 0
170 189 0
170 188 0
166 186 0
168 187 0
169 187 0
167 186 0
167 186 0
171 190 0
168 189 0
170 190 0
168 187 0
168 188 0
170 191 0
172 192 0
172 193 0
169 190 0
167 186 0
169 190 0
168 188 0
166 186 0
167 188 0
168 188 0
169 188 0
167 185 0
169 189 0
165 185 0
165 185 0
165 186 0
171 192 0
170 191 0
167 189 0
163 184 0
164 183 0
165 188 0
165 186 0
166 187 0
165 184 0
164 184 0
167 187 0
165 186 0
165 185 0
164 187 0
167 189 0
165 186 0
166 187 0
167 189 0
162 182 0
164 185 0
164 186 0
169 190 0
162 182 0
168 189 0
163 183 0
165 186 0
163 184 0
164 184 0
162 182 0
165 185 0
163 184 0
166 186 0
165 186 0
167 188 0
164 186 0
165 186 0
164 186 0
166 187 0
165 187 0
167 187 0
162 182 0
164 183 0
165 186 0
162 184 0
167 186 0
166 187 0
167 187 0
165 188 0
167 189 0
165 186 0
168 189 0
163 184 0
167 188 0
166 188 0
165 186 0
167 189 0
165 185 0
167 189 0
167 190 0
168 188 0
163 184 0
167 187 0
167 187 0
164 186 0
167 189 0
167 189 0
163 184 0
167 188 0
163 184 0
166 189 0
165 186 0
166 187 0
166 187 0
168 190 0
162 184 0
165 186 0
161 182 0
165 187 0
166 187 0
166 187 0
171 192 0
166 187 0
168 189 0
165 188 0
165 188 0
167 188 0
167 188 0
166 188 0
167 190 0
168 189 0
166 188 0
167 188 0
164 187 0
168 190 0
167 189 0
167 189 0
165 186 0
171 192 0
168 190 0
166 189 0
167 188 0
169 191 0
163 185 0
167 189 0
167 190 0
167 189 0
168 189 0
166 188 0
169 191 0
167 188 0
170 192 0
168 191 0
168 190 0
169 189 0
169 191 0
167 188 0
171 193 0
169 192 0
168 189 0
169 190 0
168 190 0
169 191 0
169 190 0
168 190 0
168 190 0
171 193 0
167 190 0
167 189 0
169 190 0
165 186 0
171 194 0
169 193 0
169 191 0
167 190 0
170 192 0
170 193 0
171 193 0
169 191 0
171 193 0
167 190 0
169 189 0
170 191 0
169 192 0
170 192 0
168 190 0
170 192 0
169 191 0
170 191 0
171 193 0
170 193 0
169 192 0
170 192 0
170 193 0
170 193 0
170 193 0
169 193 0
171 193 0
170 192 0
171 195 0
170 193 0
169 192 0
171 193 0
172 195 0
168 190 0
170 193 0
171 193 0
170 192 0
170 192 0
171 193 0
173 195 0
170 193 0
171 194 0
171 193 0
169 191 0
172 195 0
172 195 0
172 195 0
172 195 0
171 193 0
169 191 0
172 195 0
172 195 0
171 193 0
172 195 0
170 192 0
171 193 0
170 192 0
169 192 0
170 192 0
171 194 0
172 194 0
173 195 0
171 194 0
172 194 0
173 196 0
171 194 0
171 194 0
172 195 0
173 196 0
172 195 0
172 195 0
170 192 0
171 193 0
172 195 0
171 193 0
173 196 0
171 194 0
172 193 0
172 195 0
170 193 0
172 195 0
174 196 0
173 195 0
172 195 0
173 196 0
174 196 0
171 194 0
172 195 0
172 196 0
172 195 0
172 194 0
171 194 0
173 195 0
172 195 0
174 197 0
171 193 0
173 196 0
173 195 0
172 194 0
173 196 0
173 196 0
173 195 0
174 197 0
171 194 0
173 197 0
173 196 0
172 196 0
172 196 0
171 194 0
173 195 0
172 195 0
173 196 0
173 196 0
172 194 0
172 195 0
174 197 0
171 193 0
172 195 0
174 196 0
172 194 0
172 195 0
172 196 0
172 196 0
172 194 0
173 197 0
172 195 0
172 195 0
171 194 0
172 195 0
172 195 0
172 196 0
173 196 0
172 195 0
173 196 0
173 196 0
173 196 0
171 194 0
173 195 0
172 195 0
172 195 0
172 194 0
172 194 0
170 192 0
171 193 0
173 195 0
172 195 0
171 193 0
172 194 0
170 193 0
170 192 0
171 191 0
169 192 0
172 194 0
169 191 0
169 190 0
170 191 0
170 190 0
172 193 0
170 192 0
169 189 0
169 189 0
169 189 0
171 193 0
167 186 0
168 188 0
168 188 0
169 189 0
172 193 0
167 189 0
170 189 0
168 188 0
171 192 0
170 191 0
166 186 0
170 187 0
169 189 0
166 185 0
171 191 0
166 186 0
172 193 0
169 189 0
167 185 0
168 186 0
172 193 0
169 190 0
169 188 0
171 191 0
171 190 0
171 191 0
169 190 0
168 187 0
168 187 0
168 187 0
171 191 0
170 190 0
169 188 0
173 193 0
172 189 0
169 188 0
170 189 0
172 193 0
172 191 0
172 192 0
171 190 0
169 187 0
171 189 0
171 190 0
171 191 0
170 190 0
171 190 0
170 188 0
169 188 0
170 190 0
170 189 0
170 188 0
171 191 0
171 191 0
168 186 0
170 188 0
167 185 0
171 188 0
171 190 0
170 189 0
168 187 0
169 190 0
169 187 0
170 188 0
169 188 0
169 186 0
171 189 0
169 187 0
169 189 0
171 190 0
169 187 0
168 186 0
166 184 0
170 189 0
168 184 0
171 190 18
166 183 0
169 188 0
168 187 0
168 188 0
170 189 0
169 188 0
173 194 0
166 186 0
171 192 0
170 190 0
169 189 0
167 188 0
168 188 0
168 188 0
172 193 0
167 188 0
169 190 0
172 192 0
169 189 0
168 190 0
167 187 0
166 187 0
166 187 0
167 187 0
168 188 0
166 188 0
168 190 0
165 184 0
165 184 0
161 181 0
165 185 0
166 187 0
164 184 0
169 190 0
163 183 0
164 185 0
165 186 0
169 189 0
167 188 0
166 187 0
165 186 0
165 184 0
167 189 0
167 188 0
164 186 0
163 181 0
165 187 0
166 186 0
166 186 0
165 186 0
166 187 0
166 187 0
164 184 0
168 190 0
162 183 0
164 184 0
164 185 0
162 183 0
162 181 0
165 185 0
168 189 0
162 182 0
164 184 0
165 187 0
162 182 0
163 184 0
166 186 0
164 185 0
165 186 0
168 191 0
162 182 0
162 184 0
161 181 0
162 182 0
164 186 0
167 188 0
166 189 0
167 189 0
166 187 0
167 189 0
168 189 0
166 188 0
165 186 0
165 184 0
163 183 0
165 186 0
165 185 0
161 182 0
166 188 0
164 185 0
167 191 0
167 188 0
160 182 0
164 185 0
165 186 0
163 184 0
166 188 0
163 186 0
167 188 0
166 188 0
164 186 0
168 191 0
171 193 0
165 187 0
168 190 0
164 185 0
166 187 0
168 191 0
167 188 0
166 187 0
170 192 0
167 189 0
163 182 0
166 188 0
168 190 0
167 188 0
168 190 0
168 189 0
167 188 0
166 188 0
169 191 0
169 192 0
169 191 0
167 190 0
166 186 0
168 189 0
168 189 0
169 191 0
167 189 0
168 188 0
168 189 0
168 191 0
166 188 0
169 191 0
168 188 0
164 186 0
169 190 0
166 189 0
169 191 0
169 192 0
169 191 0
168 189 0
168 190 0
164 186 0
165 186 0
172 195 0
169 191 0
167 190 0
169 191 0
167 190 0
169 190 0
168 190 0
168 189 0
170 190 0
169 191 0
167 188 0
171 192 0
166 188 0
171 193 0
167 189 0
168 190 0
171 194 0
169 191 0
170 193 0
170 192 0
168 190 0
169 192 0
168 191 0
169 191 0
171 194 0
171 193 0
168 190 0
171 193 0
170 192 0
169 191 0
171 194 0
170 193 0
170 193 0
168 191 0
169 192 0
171 193 0
173 194 0
171 193 0
169 192 0
169 191 0
168 191 0
170 192 0
169 191 0
172 195 0
169 191 0
170 192 0
171 194 0
172 194 0
169 191 0
171 194 0
170 193 0
169 192 0
170 194 0
171 194 0
170 192 0
172 196 0
170 192 0
169 191 0
171 194 0
172 195 0
172 194 0
172 194 0
169 191 0
172 195 0
171 194 0
171 195 0
171 194 0
172 194 0
172 194 0
171 194 0
170 193 0
172 194 0
171 194 0
172 194 0
170 192 0
173 196 0
170 193 0
169 191 0
172 194 0
174 196 0
172 195 0
175 197 0
171 193 0
172 195 0
173 196 0
171 194 0
171 194 0
172 194 0
172 195 0
171 193 0
172 195 0
169 191 0
170 192 0
171 193 0
172 195 0
170 193 0
173 196 0
172 193 0
173 196 0
171 195 0
173 196 0
173 195 0
172 194 0
172 195 0
172 195 0
172 194 0
173 195 0
172 194 0
171 194 0
173 196 0
172 195 0
173 195 0
173 196 0
171 194 0
174 196 0
172 195 0
172 196 0
174 196 0
173 196 0
172 195 0
173 196 0
173 196 0
172 196 0
173 196 0
173 196 0
174 197 0
173 197 0
173 196 0
173 196 0
172 196 0
175 198 0
172 195 0
173 196 0
173 197 0
173 196 0
172 194 0
173 196 0
172 195 0
172 195 0
172 195 0
173 196 0
172 195 0
171 194 0
170 192 0
174 196 0
173 196 0
173 196 0
174 196 0
171 195 0
172 195 0
174 197 0
172 195 0
173 195 0
174 196 0
173 196 0
172 195 0
173 195 0
173 195 0
173 195 0
171 194 0
173 197 0
169 192 0
171 193 0
171 194 0
172 194 0
171 193 0
170 190 0
171 192 0
169 191 0
170 192 0
172 194 0
172 194 0
169 190 0
171 192 0
168 189 0
170 192 0
170 190 0
168 188 0
172 192 0
167 187 0
166 186 0
168 188 0
172 192 0
171 191 0
168 188 0
169 187 0
167 187 0
168 189 0
170 190 0
168 189 0
169 189 0
167 184 0
170 190 0
168 188 0
167 188 0
170 188 0
171 190 0
170 190 0
168 187 0
169 189 0
165 185 0
167 188 0
170 190 0
168 188 0
170 190 0
170 190 0
171 191 0
170 189 0
170 191 0
171 191 0
173 191 0
170 190 0
171 190 0
168 187 0
168 187 0
170 188 0
172 191 0
170 189 0
171 188 0
174 194 0
172 192 0
172 193 0
169 190 0
166 185 0
167 186 0
171 190 0
170 189 0
169 189 0
169 189 0
172 192 0
168 186 0
170 190 0
170 189 0
169 188 0
169 187 0
171 190 0
172 190 0
170 190 0
170 189 0
167 185 0
165 183 0
170 189 0
170 188 0
166 183 0
169 187 0
167 186 0
171 190 0
168 187 0
169 186 0
170 189 0
170 189 0
170 189 0
169 189 0
171 189 0
164 182 0
169 189 0
171 189 0
169 187 0
168 187 0
168 186 0
168 186 0
169 186 0
166 185 0
169 188 0
169 189 0
170 190 0
172 192 0
169 189 0
171 193 0
168 189 0
168 189 0
167 186 0
167 186 0
165 184 0
170 191 0
169 190 0
168 189 0
166 188 0
167 187 0
167 187 0
167 187 0
169 190 0
167 188 0
168 188 0
166 187 0
165 186 0
165 185 0
165 186 0
168 189 0
166 186 0
167 188 0
162 181 0
167 189 0
163 183 0
168 188 0
163 184 0
169 190 0
160 181 0
167 187 0
164 186 0
164 184 0
165 185 0
165 186 0
169 190 0
167 188 0
163 184 0
163 184 0
165 185 0
165 187 0
163 184 0
169 188 0
165 187 0
159 177 0
166 188 0
167 188 0
166 188 0
170 190 0
166 187 0
167 188 0
163 184 0
166 186 0
163 183 0
167 188 0
167 189 0
166 186 0
167 189 0
171 193 0
167 189 0
166 188 0
167 187 0
164 185 0
165 186 0
165 187 0
166 187 0
167 188 0
166 187 0
165 187 0
167 188 0
163 185 0
165 186 0
164 186 0
165 187 0
166 187 0
165 187 0
165 186 0
168 189 0
166 189 0
166 189 0
167 188 0
166 187 0
165 187 0
168 190 0
166 189 0
168 191 0
163 183 0
167 188 0
165 186 0
165 187 0
166 188 0
168 189 0
165 187 0
168 189 0
163 183 0
165 187 0
167 189 0
167 189 0
168 188 0
164 185 0
169 191 0
166 188 0
166 186 0
169 190 0
167 188 0
167 188 0
168 190 0
168 189 0
167 187 0
170 190 0
167 190 0
169 191 0
166 188 0
170 193 0
170 192 0
165 188 0
168 189 0
170 192 0
169 190 0
166 189 0
168 191 0
168 191 0
165 185 0
169 190 0
170 192 0
165 187 0
172 194 0
169 191 0
171 192 0
167 189 0
168 189 0
170 193 0
170 191 0
168 189 0
167 189 0
169 191 0
169 191 0
168 189 0
167 189 0
167 189 0
168 191 0
169 191 0
170 192 0
168 191 0
166 189 0
170 192 0
172 194 0
171 194 0
170 192 0
170 193 0
166 189 0
170 191 0
171 194 0
172 193 0
171 193 0
169 191 0
169 192 0
170 193 0
170 192 0
171 192 0
169 192 0
171 193 0
169 192 0
170 192 0
169 191 0
170 192 0
172 195 0
170 192 0
170 192 0
169 192 0
170 193 0
169 192 0
169 192 0
171 193 0
170 192 0
169 189 0
170 193 0
168 191 0
170 193 0
170 193 0
171 194 0
170 193 0
172 194 0
170 192 0
170 192 0
171 195 0
170 194 0
171 193 0
167 190 0
173 195 0
172 195 0
171 195 0
173 196 0
172 195 0
172 194 0
171 194 0
171 194 0
170 192 0
169 191 0
169 191 0
170 193 0
170 193 0
171 194 0
172 195 0
171 194 0
170 193 0
174 195 0
169 192 0
173 195 0
170 192 0
171 194 0
171 193 0
170 194 0
173 195 0
172 194 0
172 194 0
171 194 0
172 195 0
171 194 0
172 194 0
171 194 0
172 194 0
169 192 0
170 192 0
172 194 0
171 194 0
172 196 0
172 195 0
171 194 0
170 194 0
171 194 0
170 192 0
172 195 0
171 193 0
172 194 0
172 195 0
171 195 0
172 194 0
172 194 0
170 192 0
173 196 0
171 195 0
172 195 0
172 194 0
171 194 0
171 194 0
172 194 0
175 197 0
172 194 0
173 196 0
172 196 0
173 196 0
171 194 0
173 196 0
173 196 0
171 194 0
172 195 0
172 195 0
173 196 0
173 196 0
174 197 0
173 196 0
173 196 0
173 197 0
172 195 0
173 196 0
174 197 0
174 197 0
171 194 0
173 196 0
173 196 0
172 196 0
173 196 0
171 194 0
172 196 0
173 196 0
172 196 0
172 195 0
174 197 0
172 194 0
170 194 0
173 194 0
173 196 0
172 195 0
172 195 0
173 195 0
171 194 0
168 191 0
170 193 0
172 195 0
172 195 0
172 194 0
172 193 0
171 193 0
172 194 0
170 193 0
173 194 0
170 192 0
171 194 0
169 189 0
171 192 0
170 190 0
170 192 0
170 192 0
171 193 0
168 188 0
172 194 0
166 186 0
169 191 0
171 192 0
169 191 0
171 191 0
168 189 0
168 189 0
171 191 0
168 188 0
168 188 0
170 190 0
170 189 0
172 193 0
171 191 0
172 193 0
170 190 0
168 188 0
167 186 0
168 189 0
168 188 0
166 184 0
170 189 0
167 186 0
169 188 0
167 186 0
170 189 0
169 190 0
169 188 0
169 189 0
170 191 0
169 190 0
170 191 0
168 188 0
167 186 0
170 191 0
170 189 0
171 191 0
170 189 0
169 190 0
172 192 0
172 191 0
172 192 0
170 190 0
169 188 0
171 190 0
168 186 0
172 191 0
169 188 0
171 190 0
174 193 0
172 192 0
170 190 0
172 191 0
168 185 0
169 189 0
173 192 0
170 189 0
172 193 0
170 189 0
168 187 0
171 190 0
173 194 0
170 190 0
168 185 0
171 189 0
169 189 0
166 184 0
172 191 0
169 187 0
170 190 0
169 189 0
167 184 0
171 191 0
167 185 0
169 188 0
170 188 0
171 190 0
169 189 0
166 184 0
168 187 0
168 187 0
168 188 0
169 187 0
169 188 0
167 186 0
170 189 0
169 187 0
170 189 0
172 192 0
167 188 0
171 191 0
169 190 0
169 188 0
168 189 0
170 190 0
171 191 0
172 193 0
169 190 0
169 190 0
168 189 0
167 188 0
168 188 0
166 186 0
165 186 0
170 190 0
165 186 0
166 187 0
166 187 0
168 189 0
167 186 0
165 186 0
165 186 0
166 188 0
166 186 0
165 185 0
165 186 0
168 189 0
170 191 0
167 189 0
163 185 0
164 185 0
165 186 0
166 187 0
163 183 0
168 188 0
164 185 0
164 185 0
163 184 0
163 186 0
166 187 0
164 185 0
166 187 0
164 185 0
164 186 0
168 189 0
165 187 0
162 183 0
163 184 0
166 187 0
164 184 0
166 187 0
163 185 0
167 188 0
165 186 0
164 184 0
166 188 0
163 185 0
166 188 0
165 185 0
165 187 0
165 185 0
166 187 0
164 183 0
168 189 0
165 187 0
167 188 0
165 187 0
164 185 0
165 187 0
166 186 0
166 187 0
166 188 0
166 187 0
163 185 0
166 188 0
167 188 0
164 186 0
165 186 0
166 187 0
168 190 0
165 187 0
167 188 0
167 187 0
167 189 0
166 186 0
167 188 0
168 190 0
166 187 0
164 185 0
166 188 0
164 187 0
166 187 0
165 187 0
169 191 0
166 186 0
167 188 0
166 187 0
168 190 0
167 189 0
168 190 0
164 186 0
167 189 0
168 190 0
168 189 0
169 189 0
163 185 0
168 189 0
165 187 0
167 190 0
168 189 0
168 190 0
168 190 0
164 185 0
164 183 0
165 188 0
168 191 0
167 190 0
164 184 0
166 186 0
170 191 0
167 188 0
170 193 0
169 191 0
163 187 0
169 190 0
168 190 0
167 190 0
168 190 0
167 189 0
171 193 0
165 186 0
167 190 0
168 191 0
167 188 0
169 192 0
166 189 0
168 189 0
169 192 0
167 187 0
170 191 0
169 191 0
167 188 0
170 191 0
168 191 0
169 191 0
170 192 0
169 190 0
169 191 0
167 190 0
168 190 0
168 190 0
170 193 0
168 191 0
170 193 0
169 191 0
167 189 0
169 192 0
169 191 0
168 190 0
169 192 0
169 191 0
169 191 0
170 193 0
168 190 0
168 189 0
168 190 0
172 193 0
170 192 0
172 195 0
168 191 0
171 195 0
171 192 0
169 193 0
170 192 0
170 193 0
172 193 0
171 193 0
172 194 0
172 194 0
170 192 0
171 193 0
171 193 0
172 195 0
171 192 0
171 193 0
169 192 0
171 193 0
171 192 0
171 194 0
172 195 0
170 192 0
169 190 0
169 192 0
172 194 0
171 193 0
170 192 0
170 192 0
170 192 0
171 193 0
171 194 0
171 193 0
171 193 0
172 194 0
170 193 0
172 194 0
172 194 0
170 191 0
171 195 0
172 195 0
170 193 0
172 194 0
173 195 0
171 194 0
171 194 0
172 194 0
173 195 0
172 194 0
171 194 0
172 194 0
169 192 0
171 194 0
171 194 0
171 193 0
172 195 0
172 195 0
171 194 0
172 194 0
171 193 0
173 196 0
173 195 0
173 196 0
172 194 0
171 194 0
172 194 0
172 195 0
171 193 0
174 196 0
171 194 0
172 194 0
171 194 0
171 193 0
172 195 0
172 195 0
170 192 0
173 196 0
172 194 0
173 196 0
174 196 0
173 196 0
172 195 0
171 194 0
173 195 0
173 195 0
172 195 0
173 195 0
172 194 0
174 197 0
173 197 0
174 197 0
174 197 0
173 197 0
173 196 0
173 196 0
174 197 0
173 197 0
171 194 0
172 195 0
173 196 0
172 195 0
172 195 0
172 196 0
171 194 0
173 197 0
173 197 0
171 195 0
172 195 0
174 197 0
171 194 0
172 196 0
172 195 0
174 197 0
172 195 0
173 195 0
173 197 0
170 193 0
172 195 0
171 194 0
174 197 0
171 195 0
173 195 0
170 193 0
173 195 0
173 195 0
172 195 0
169 192 0
171 193 0
170 192 0
171 193 0
173 195 0
174 196 0
171 193 0
169 190 0
169 190 0
166 186 0
171 190 0
171 193 0
170 192 0
169 189 0
167 187 0
172 193 0
171 191 0
169 189 0
168 189 0
169 189 0
170 192 0
171 192 0
171 191 0
167 187 0
171 192 0
170 189 0
167 186 0
169 190 0
169 190 0
170 190 0
168 186 0
168 188 0
170 190 0
170 189 0
170 191 0
170 192 0
168 189 0
168 190 0
169 188 0
167 187 0
170 189 0
171 191 0
166 186 0
169 188 0
171 191 0
172 192 0
171 191 0
170 188 0
171 190 0
172 191 0
172 192 0
170 190 0
172 191 0
168 188 0
170 190 0
171 191 0
172 192 0
172 192 0
169 189 0
172 192 0
169 186 0
171 190 0
170 190 0
172 191 0
170 188 0
168 187 0
170 188 0
172 191 0
168 185 0
172 189 0
171 192 0
170 188 0
171 190 0
169 189 0
169 188 0
169 188 0
170 188 0
166 182 0
168 188 0
171 188 0
168 186 0
171 190 0
164 183 0
170 188 0
167 186 0
171 189 0
172 190 0
171 190 0
171 190 0
168 186 0
171 190 0
173 190 0
170 189 0
170 189 0
169 189 0
169 190 0
170 190 0
169 188 0
170 189 0
171 192 0
170 189 0
169 190 0
168 187 0
167 186 0
168 187 0
171 192 0
171 192 0
170 191 0
171 191 0
170 190 0
169 191 0
168 189 0
168 188 0
170 191 0
169 189 0
168 190 0
167 187 0
167 188 0
171 192 0
168 189 0
168 187 0
170 191 0
169 189 0
169 190 0
169 190 0
166 187 0
166 187 0
166 187 0
165 185 0
162 184 0
166 187 0
168 189 0
166 187 0
167 189 0
165 186 0
167 187 0
165 186 0
163 185 0
166 187 0
163 184 0
162 182 0
166 188 0
164 184 0
164 183 0
165 185 0
164 186 0
166 187 0
164 187 0
167 188 0
163 184 0
163 186 0
165 188 0
167 188 0
168 190 0
163 184 0
167 188 0
164 185 0
167 190 0
165 186 0
164 186 0
166 188 0
163 184 0
166 185 0
166 186 0
166 187 0
162 182 0
167 189 0
164 186 0
164 186 0
166 187 0
168 190 0
164 185 0
165 186 0
165 187 0
168 189 0
169 191 0
161 183 0
164 185 0
164 185 0
166 188 0
167 188 0
168 191 0
166 187 0
163 184 0
165 187 0
162 183 0
163 183 0
169 190 0
166 187 0
165 186 0
162 184 0
166 189 0
166 188 0
168 190 0
166 186 0
167 189 0
167 189 0
168 188 0
168 190 0
167 189 0
170 193 0
166 188 0
169 189 0
166 187 0
166 186 0
166 188 0
170 192 0
167 190 0
163 185 0
167 189 0
165 187 0
164 186 0
166 188 0
165 187 0
166 190 0
168 190 0
168 189 0
167 189 0
169 190 0
167 189 0
168 189 0
167 190 0
167 188 0
168 189 0
168 190 0
167 190 0
165 187 0
168 190 0
165 187 0
168 190 0
169 191 0
171 193 0
165 187 0
169 191 0
170 192 0
169 190 0
164 185 0
166 188 0
168 189 0
170 193 0
168 191 0
169 191 0
170 193 0
169 191 0
169 191 0
167 189 0
170 192 0
166 189 0
168 190 0
169 190 0
170 192 0
168 190 0
168 190 0
169 191 0
170 192 0
170 193 0
167 189 0
167 188 0
171 193 0
169 191 0
166 187 0
171 193 0
168 189 0
169 191 0
169 191 0
169 191 0
170 191 0
168 191 0
170 191 0
171 192 0
171 192 0
172 194 0
170 191 0
168 190 0
170 192 0
171 194 0
171 193 0
170 191 0
169 192 0
170 191 0
170 192 0
167 189 0
169 191 0
171 194 0
171 193 0
170 192 0
170 191 0
168 190 0
173 195 0
170 192 0
170 192 0
169 191 0
170 192 0
170 193 0
170 193 0
169 191 0
173 195 0
169 192 0
170 193 0
172 194 0
172 195 0
172 194 0
171 193 0
171 194 0
169 190 0
171 193 0
173 195 0
172 195 0
173 195 0
171 193 0
171 192 0
171 193 0
174 196 0
173 196 0
171 193 0
172 194 0
173 194 0
174 196 0
172 194 0
174 196 0
172 195 0
173 195 0
171 194 0
172 194 0
171 193 0
170 193 0
172 194 0
173 196 0
171 194 0
173 196 0
172 196 0
171 195 0
172 194 0
171 194 0
173 196 0
172 195 0
172 195 0
171 194 0
170 194 0
174 197 0
173 196 0
172 194 0
174 196 0
172 195 0
173 196 0
173 196 0
173 196 0
174 196 0
171 193 0
172 194 0
172 196 0
172 194 0
173 196 0
172 195 0
172 194 0
171 194 0
171 193 0
171 195 0
171 195 0
174 197 0
174 197 0
172 194 0
173 196 0
173 196 0
172 195 0
173 196 0
172 195 0
174 196 0
172 195 0
171 195 0
174 197 0
171 194 0
172 195 0
172 195 0
174 196 0
174 197 0
172 195 0
172 195 0
172 195 0
173 196 0
173 196 0
173 196 0
174 196 0
170 194 0
173 196 0
172 196 0
172 195 0
174 196 0
172 195 0
171 194 0
172 194 0
171 194 0
169 192 0
171 194 0
172 195 0
169 192 0
172 194 0
172 195 0
172 194 0
171 194 0
170 192 0
169 190 0
170 192 0
170 193 0
170 192 0
169 190 0
173 196 0
170 191 0
171 192 0
168 191 0
171 192 0
168 191 0
169 189 0
170 192 0
170 192 0
170 191 0
170 191 0
169 190 0
171 192 0
168 188 0
169 189 0
171 191 0
170 190 0
171 193 0
167 188 0
168 189 0
168 189 0
168 187 0
167 187 0
168 188 0
168 186 0
171 191 0
168 187 0
168 186 0
167 185 0
169 187 0
169 190 0
171 191 0
168 189 0
167 184 0
170 191 0
170 191 0
171 190 0
169 189 0
172 191 0
172 192 0
172 191 0
172 192 0
170 190 0
172 193 0
167 186 0
170 190 0
168 187 0
169 189 0
169 188 0
170 188 0
172 191 0
169 189 0
168 185 0
173 191 0
168 187 0
172 193 0
171 190 0
172 191 0
169 189 0
170 191 0
168 185 0
168 188 0
170 188 0
169 188 0
170 190 0
168 187 0
170 189 0
167 186 0
171 190 0
173 193 0
170 189 0
167 187 0
170 189 0
169 189 0
170 189 0
166 184 0
168 188 0
170 190 0
170 189 0
172 193 0
169 189 0
169 187 0
172 191 0
163 182 0
170 190 0
170 189 0
170 189 0
167 186 0
169 189 0
169 188 0
166 186 0
167 187 0
170 190 0
167 187 0
168 187 0
165 185 0
168 189 0
169 188 0
165 185 0
168 188 0
168 188 0
172 192 0
170 189 0
170 191 0
170 190 0
167 187 0
170 191 0
170 191 0
171 192 0
170 192 0
167 188 0
163 183 0
170 190 0
169 191 0
165 186 0
167 187 0
167 188 0
165 187 0
167 188 0
166 188 0
168 189 0
169 190 0
165 186 0
165 187 0
166 188 0
166 186 0
166 187 0
167 187 0
165 187 0
169 192 0
165 186 0
165 186 0
166 186 0
163 184 0
166 186 0
166 187 0
166 188 0
164 185 0
166 187 0
165 187 0
166 187 0
164 184 0
164 184 0
168 189 0
166 186 0
166 187 0
164 185 0
165 186 0
166 189 0
165 188 0
164 185 0
164 184 0
166 188 0
169 190 0
164 185 0
163 184 0
166 188 0
166 189 0
163 184 0
168 190 0
168 191 0
164 185 0
166 188 0
167 189 0
163 184 0
164 185 0
163 183 0
165 186 0
166 188 0
164 184 0
164 186 0
169 190 0
168 191 0
165 187 0
167 188 0
164 185 0
168 190 0
168 190 0
168 190 0
167 189 0
168 190 0
168 189 0
166 187 0
165 186 0
168 189 0
168 188 0
168 190 0
171 193 0
167 187 0
168 188 0
165 186 0
167 189 0
166 186 0
168 190 0
169 191 0
166 187 0
166 187 0
169 191 0
168 188 0
167 189 0
167 188 0
168 189 0
167 187 0
166 188 0
168 190 0
167 188 0
166 188 0
167 189 0
170 192 0
168 191 0
168 190 0
165 187 0
169 192 0
166 188 0
167 188 0
168 190 0
165 187 0
169 192 0
168 191 0
168 189 0
165 187 0
168 191 0
167 189 0
169 192 0
170 191 0
170 192 0
167 189 0
169 190 0
170 191 0
166 188 0
170 192 0
171 194 0
170 192 0
166 189 0
166 189 0
167 189 0
173 195 0
169 191 0
167 189 0
170 193 0
168 190 0
167 190 0
168 189 0
170 191 0
170 192 0
169 192 0
168 189 0
170 193 0
170 192 0
171 193 0
170 192 0
169 192 0
170 191 0
170 192 0
170 192 0
169 191 0
172 193 0
169 191 0
171 193 0
168 191 0
171 193 0
171 192 0
168 190 0
168 190 0
170 193 0
170 193 0
170 193 0
167 189 0
169 192 0
169 191 0
171 193 0
170 193 0
171 193 0
170 192 0
171 192 0
171 193 0
172 195 0
171 193 0
170 193 0
169 191 0
172 194 0
171 194 0
170 193 0
170 192 0
171 194 0
171 194 0
171 193 0
171 194 0
171 193 0
172 194 0
172 195 0
170 192 0
171 193 0
170 193 0
170 192 0
170 193 0
170 193 0
170 192 0
172 194 0
172 195 0
173 195 0
170 192 0
172 195 0
169 192 0
170 192 0
169 191 0
170 193 0
173 196 0
170 193 0
171 194 0
172 194 0
171 195 0
173 196 0
173 195 0
172 195 0
170 194 0
173 197 0
172 196 0
172 194 0
171 194 0
173 196 0
172 194 0
172 194 0
172 194 0
171 194 0
171 194 0
172 194 0
173 196 0
174 196 0
173 196 0
172 195 0
170 193 0
172 195 0
173 196 0
174 197 0
172 195 0
171 195 0
172 195 0
170 192 0
173 196 0
171 194 0
173 196 0
172 195 0
173 196 0
172 194 0
171 195 0
172 194 0
172 194 0
171 194 0
173 195 0
172 195 0
171 195 0
174 197 0
173 197 0
173 196 0
170 192 0
172 195 0
171 194 0
172 195 0
173 196 0
173 196 0
172 195 0
173 197 0
173 196 0
174 196 0
173 195 0
171 194 0
173 196 0
173 196 0
174 197 0
171 194 0
173 196 0
171 193 0
171 195 0
173 196 0
172 195 0
172 195 0
171 194 0
173 195 0
173 196 0
172 194 0
175 197 0
173 196 0
171 194 0
172 194 0
172 196 0
172 194 0
173 195 0
173 196 0
171 194 0
172 195 0
172 195 0
171 194 0
173 195 0
173 196 0
170 193 0
169 191 0
171 193 0
174 196 0
169 191 0
170 191 0
171 191 0
170 191 0
171 193 0
171 192 0
166 185 0
170 190 0
171 192 0
169 191 0
170 190 0
170 191 0
170 189 0
167 188 0
171 191 0
169 190 0
170 191 0
169 189 0
171 191 0
168 189 0
169 188 0
172 192 0
170 189 0
167 186 0
167 187 0
168 186 0
168 189 0
169 188 0
170 190 0
170 189 0
169 189 0
169 189 0
171 190 0
170 189 0
168 189 0
169 189 0
168 188 0
171 192 0
171 192 0
172 192 0
171 190 0
172 192 0
169 190 0
170 188 0
171 192 0
170 190 0
171 192 0
170 190 0
172 191 0
170 191 0
171 188 0
171 190 0
169 188 0
170 190 0
172 192 0
169 191 0
170 190 0
172 191 0
169 187 0
168 186 0
169 188 0
172 191 0
171 192 0
172 190 0
168 187 0
170 190 0
170 190 0
169 188 0
167 185 0
168 188 0
170 190 0
169 189 0
169 189 0
170 189 0
169 186 0
171 189 0
172 192 0
170 188 0
170 190 0
166 184 0
168 185 0
172 191 0
170 190 0
170 189 0
169 188 0
168 185 0
169 188 0
170 190 0
167 185 0
169 188 0
166 185 0
171 191 0
169 189 0
169 188 0
169 189 0
168 187 0
167 186 0
170 189 0
171 190 0
168 187 0
169 189 0
168 188 0
174 195 0
167 187 0
169 190 0
171 192 0
171 191 0
167 187 0
168 189 0
169 188 0
165 187 0
169 189 0
168 188 0
169 190 0
166 187 0
167 188 0
167 187 0
167 186 0
172 192 0
166 188 0
171 193 0
168 189 0
168 191 0
165 186 0
164 185 0
162 184 0
167 187 0
166 187 0
166 187 0
167 189 0
165 185 0
167 188 0
167 188 0
165 186 0
165 186 0
165 187 0
163 184 0
164 186 0
162 183 0
162 183 0
167 188 0
164 185 0
164 184 0
166 187 0
165 184 0
167 189 0
163 184 0
163 183 0
163 184 0
162 184 0
162 183 0
163 185 0
163 183 0
167 189 0
164 183 0
168 190 0
166 188 0
167 189 0
165 187 0
164 186 0
167 190 0
167 189 0
168 190 0
167 189 0
162 182 0
168 189 0
165 187 0
168 190 0
167 188 0
169 190 0
164 186 0
165 186 0
168 190 0
167 190 0
167 188 0
163 184 0
167 190 0
168 188 0
167 189 0
161 183 0
168 188 0
167 188 0
168 189 0
165 187 0
168 190 0
165 187 0
166 187 0
166 188 0
168 190 0
168 189 0
166 186 0
167 188 0
167 188 0
167 190 0
167 188 0
165 186 0
168 191 0
167 188 0
168 189 0
170 192 0
166 188 0
166 188 0
169 191 0
166 188 0
170 192 0
167 187 0
169 191 0
165 187 0
165 186 0
166 187 0
168 191 0
169 191 0
165 187 0
167 189 0
167 189 0
166 188 0
169 191 0
166 188 0
166 187 0
169 190 0
170 191 0
168 190 0
167 189 0
167 188 0
168 191 0
166 188 0
170 193 0
168 190 0
168 190 0
169 191 0
171 192 0
167 188 0
170 192 0
169 191 0
169 191 0
169 191 0
167 190 0
168 190 0
168 190 0
171 193 0
171 193 0
166 188 0
170 191 0
170 192 0
170 192 0
171 192 0
169 192 0
170 193 0
171 194 0
168 190 0
169 192 0
169 191 0
169 190 0
168 190 0
171 193 0
165 185 0
170 192 0
171 192 0
172 194 0
168 190 0
172 193 0
169 192 0
171 194 0
169 191 0
171 193 0
170 192 0
169 189 0
170 192 0
170 191 0
168 190 0
172 193 0
170 192 0
169 192 0
168 190 0
171 195 0
174 196 0
172 195 0
171 194 0
171 194 0
170 192 0
171 193 0
173 196 0
172 195 0
172 195 0
171 195 0
170 192 0
171 193 0
171 194 0
167 190 0
171 194 0
171 194 0
171 194 0
170 192 0
172 195 0
172 194 0
171 193 0
171 193 0
172 194 0
171 194 0
173 195 0
173 195 0
171 194 0
172 195 0
169 192 0
172 195 0
171 194 0
171 194 0
172 195 0
171 194 0
172 195 0
171 193 0
171 194 0
172 194 0
171 194 0
170 191 0
170 193 0
171 194 0
173 196 0
171 193 0
171 194 0
172 195 0
171 194 0
171 194 0
173 195 0
172 194 0
174 196 0
170 192 0
173 195 0
172 195 0
172 194 0
172 194 0
171 194 0
172 195 0
174 197 0
173 195 0
172 196 0
172 195 0
172 194 0
172 193 0
171 193 0
171 195 0
172 195 0
173 196 0
172 195 0
174 196 0
172 194 0
173 195 0
170 193 0
173 196 0
172 195 0
173 196 0
174 196 0
173 195 0
172 195 0
172 195 0
172 196 0
172 194 0
174 196 0
172 195 0
173 196 0
173 196 0
172 194 0
172 195 0
174 197 0
171 194 0
173 196 0
173 197 0
172 195 0
172 195 0
173 195 0
171 195 0
172 196 0
172 196 0
172 196 0
172 195 0
173 196 0
172 195 0
170 193 0
173 196 0
173 196 0
173 196 0
171 194 0
173 195 0
172 195 0
172 195 0
171 194 0
170 194 0
171 195 0
172 195 0
172 195 0
172 194 0
169 192 0
172 195 0
172 194 0
171 194 0
171 193 0
170 192 0
169 190 0
171 194 0
171 194 0
170 191 0
170 191 0
171 191 0
170 192 0
170 190 0
170 191 0
167 190 0
169 189 0
169 191 0
173 194 0
169 190 0
170 191 0
169 189 0
171 191 0
166 185 0
169 189 0
170 192 0
170 189 0
170 191 0
168 187 0
170 190 0
168 187 0
167 186 0
168 188 0
171 190 0
170 190 0
168 187 0
169 191 0
166 184 0
164 184 0
168 187 0
169 188 0
166 185 0
167 185 0
170 191 0
169 189 0
170 190 0
173 194 0
170 190 0
171 190 0
170 190 0
171 191 0
171 188 0
169 189 0
169 188 0
172 191 0
169 189 0
170 190 0
171 190 0
171 192 0
170 191 0
173 192 0
170 189 0
169 187 0
171 189 0
170 191 0
170 190 0
170 188 0
169 189 0
168 185 0
168 187 0
168 187 0
171 190 0
172 190 0
172 191 0
171 191 0
170 188 0
169 187 0
173 192 0
168 189 0
167 187 0
171 189 0
167 185 0
167 186 0
169 188 0
169 188 0
171 189 0
170 189 0
168 187 0
170 189 0
168 187 0
171 191 0
170 189 0
168 187 0
170 189 0
167 186 0
169 188 0
168 186 0
167 185 0
168 188 0
173 192 0
173 193 0
168 187 0
168 188 0
170 192 0
173 195 0
169 190 0
170 189 0
171 192 0
169 189 0
169 190 0
169 190 0
171 192 0
171 191 0
168 187 0
167 187 0
170 191 0
168 189 0
168 187 0
169 191 0
169 190 0
167 188 0
167 189 0
169 190 0
170 190 0
168 188 0
166 188 0
169 191 0
169 191 0
166 186 0
168 188 0
168 189 0
165 184 0
170 191 0
166 188 0
166 187 0
166 187 0
163 185 0
168 189 0
165 187 0
166 187 0
166 186 0
166 187 0
165 186 0
165 186 0
166 187 0
165 187 0
168 189 0
166 187 0
167 188 0
164 186 0
168 189 0
166 188 0
168 188 0
167 189 0
166 187 0
166 185 0
166 187 0
165 184 0
167 189 0
168 189 0
170 191 0
168 191 0
162 183 0
169 192 0
167 188 0
165 188 0
163 184 0
165 187 0
165 187 0
165 186 0
165 187 0
164 187 0
165 186 0
168 189 0
169 190 0
169 191 0
168 188 0
163 185 0
165 187 0
164 185 0
168 191 0
166 187 0
166 187 0
167 188 0
167 190 0
167 187 0
166 187 0
163 185 0
165 187 0
164 186 0
165 187 0
168 190 0
167 188 0
165 185 0
165 187 0
166 188 0
166 187 0
169 190 0
167 190 0
162 182 0
168 190 0
167 187 0
166 188 0
166 187 0
168 190 0
167 188 0
164 185 0
168 190 0
170 193 0
166 188 0
166 189 0
167 188 0
165 187 0
166 188 0
168 190 0
165 188 0
169 191 0
167 188 0
169 192 0
166 188 0
169 190 0
168 189 0
168 189 0
166 188 0
168 190 0
166 188 0
168 189 0
168 191 0
165 186 0
168 190 0
168 191 0
169 192 0
169 191 0
171 193 0
172 194 0
169 191 0
170 191 0
167 189 0
171 192 0
169 192 0
167 188 0
168 188 0
167 187 0
167 189 0
169 190 0
169 191 0
170 192 0
170 194 0
167 189 0
168 191 0
165 187 0
169 191 0
169 191 0
170 192 0
168 191 0
171 193 0
167 189 0
170 191 0
171 193 0
172 194 0
169 191 0
170 191 0
168 190 0
169 191 0
169 192 0
170 193 0
168 191 0
167 189 0
171 193 0
169 191 0
171 193 0
170 191 0
171 193 0
167 189 0
170 192 0
172 194 0
171 193 0
172 195 0
172 194 0
169 192 0
167 189 0
171 193 0
170 192 0
170 192 0
169 192 0
172 195 0
170 192 0
170 192 0
170 193 0
171 193 0
171 194 0
170 192 0
170 192 0
172 194 0
168 189 0
171 194 0
172 194 0
171 193 0
169 192 0
169 191 0
171 194 0
174 196 0
172 194 0
168 190 0
169 191 0
171 192 0
173 195 0
172 196 0
171 194 0
172 195 0
172 195 0
173 195 0
169 192 0
172 194 0
171 194 0
169 190 0
173 195 0
171 194 0
172 193 0
173 196 0
169 192 0
171 195 0
171 193 0
171 194 0
171 194 0
172 195 0
174 196 0
170 193 0
171 194 0
171 194 0
173 196 0
171 192 0
170 192 0
170 192 0
171 195 0
171 194 0
173 196 0
172 193 0
171 193 0
173 195 0
171 194 0
171 194 0
173 195 0
171 193 0
173 196 0
173 196 0
174 197 0
171 193 0
172 196 0
172 193 0
173 196 0
173 195 0
173 196 0
170 193 0
173 195 0
172 195 0
171 194 0
173 196 0
172 194 0
173 195 0
173 196 0
171 194 0
172 195 0
172 195 0
173 196 0
172 194 0
173 196 0
171 195 0
172 195 0
173 197 0
172 194 0
173 196 0
171 194 0
172 196 0
173 196 0
172 195 0
174 196 0
174 197 0
172 195 0
173 195 0
171 194 0
172 195 0
171 194 0
173 196 0
173 196 0
174 197 0
171 194 0
172 195 0
172 194 0
173 197 0
173 195 0
173 196 0
172 195 0
173 196 0
172 195 0
172 194 0
173 196 0
173 196 0
171 195 0
170 191 0
174 196 0
171 194 0
171 193 0
170 193 0
172 193 0
173 193 0
172 194 0
172 193 0
169 190 0
172 195 0
171 192 0
171 193 0
171 192 0
168 189 0
172 193 0
169 190 0
171 192 0
170 192 0
166 187 0
170 191 0
169 190 0
168 187 0
167 188 0
169 191 0
170 190 0
168 189 0
170 190 0
171 190 0
170 190 0
169 189 0
170 188 0
172 191 0
169 189 0
168 188 0
168 187 0
167 186 0
170 191 0
170 190 0
168 187 0
166 185 0
170 191 0
170 188 0
171 192 0
170 191 0
167 186 0
169 189 0
171 190 0
167 188 0
167 186 0
172 190 0
171 190 0
167 188 0
170 190 0
170 189 0
170 189 0
170 189 0
167 186 0
171 191 0
170 189 0
169 189 0
169 188 0
172 192 0
167 187 0
171 190 0
170 188 0
170 190 0
169 188 0
170 189 0
168 187 0
168 187 0
168 187 0
169 187 0
167 185 0
171 191 0
168 186 0
167 186 0
169 188 0
169 188 0
169 188 0
171 191 0
168 186 0
167 186 0
168 186 0
172 190 0
171 192 0
168 188 0
168 186 0
171 189 0
165 183 0
167 187 0
165 181 0
170 191 0
172 191 0
169 187 0
169 188 0
168 187 0
168 188 0
170 188 0
170 190 0
168 188 0
168 190 0
169 189 0
168 187 0
171 192 0
170 190 0
169 190 0
168 188 0
168 189 0
170 191 0
169 190 0
168 189 0
173 193 0
170 191 0
168 189 0
170 192 0
165 186 0
169 191 0
169 190 0
165 187 0
167 189 0
167 187 0
169 190 0
166 188 0
168 188 0
171 191 0
168 191 0
166 186 0
166 187 0
169 191 0
171 192 0
166 187 0
168 189 0
164 184 0
168 190 0
167 188 0
166 187 0
168 189 0
166 187 0
162 181 0
167 188 0
167 189 0
164 186 0
168 190 0
166 186 0
170 191 0
167 188 0
165 187 0
163 185 0
167 188 0
163 183 0
166 187 0
165 185 0
167 189 0
165 187 0
168 189 0
166 187 0
166 188 0
166 187 0
167 189 0
166 188 0
164 185 0
168 190 0
166 188 0
167 190 0
165 185 0
163 185 0
167 188 0
165 187 0
167 188 0
166 186 0
166 186 0
163 183 0
167 189 0
166 187 0
165 185 0
166 186 0
165 186 0
168 191 0
167 189 0
168 190 0
165 187 0
169 190 0
166 188 0
168 192 0
167 187 0
163 184 0
165 185 0
164 185 0
168 191 0
168 189 0
169 191 0
166 187 0
167 190 0
169 191 0
168 190 0
167 188 0
167 190 0
169 190 0
167 189 0
167 189 0
169 190 0
167 189 0
167 188 0
169 191 0
163 184 0
167 188 0
170 192 0
167 188 0
169 192 0
166 188 0
167 187 0
168 191 0
165 187 0
171 193 0
167 190 0
169 189 0
171 192 0
168 189 0
170 192 0
164 183 0
168 190 0
168 191 0
168 191 0
167 190 0
169 191 0
168 190 0
170 191 0
167 190 0
169 192 0
168 190 0
171 193 0
169 191 0
170 192 0
168 191 0
168 189 0
167 190 0
167 188 0
169 190 0
168 190 0
167 189 0
169 192 0
168 191 0
170 193 0
172 193 0
171 192 0
170 193 0
168 189 0
169 191 0
171 192 0
170 193 0
169 191 0
171 193 0
171 194 0
166 189 0
170 192 0
169 191 0
168 190 0
168 190 0
168 192 0
169 190 0
170 193 0
168 191 0
172 194 0
169 192 0
168 189 0
171 193 0
169 192 0
169 192 0
170 193 0
170 191 0
170 192 0
171 194 0
168 189 0
171 194 0
170 192 0
170 193 0
171 194 0
169 192 0
171 193 0
171 194 0
170 193 0
171 194 0
170 192 0
171 194 0
172 194 0
170 193 0
169 191 0
169 192 0
172 193 0
171 192 0
171 193 0
170 192 0
172 194 0
173 195 0
170 193 0
171 194 0
172 195 0
170 194 0
172 193 0
171 193 0
168 191 0
171 194 0
171 194 0
171 193 0
172 194 0
170 193 0
170 191 0
172 194 0
172 195 0
172 195 0
170 193 0
172 194 0
173 195 0
170 193 0
172 195 0
172 195 0
173 196 0
170 191 0
173 196 0
173 196 0
173 197 0
170 193 0
171 193 0
172 194 0
171 194 0
173 195 0
171 194 0
173 195 0
170 194 0
170 193 0
170 192 0
172 196 0
172 195 0
174 196 0
172 195 0
174 196 0
173 196 0
172 195 0
171 194 0
173 196 0
173 196 0
171 193 0
172 195 0
173 196 0
173 196 0
174 195 0
172 195 0
172 195 0
172 194 0
171 194 0
173 196 0
173 197 0
171 195 0
172 194 0
171 194 0
175 197 0
174 196 0
173 195 0
173 196 0
173 196 0
173 196 0
171 194 0
173 196 0
172 195 0
173 196 0
171 193 0
173 197 0
173 196 0
173 196 0
173 196 0
172 196 0
172 196 0
174 197 0
173 196 0
173 195 0
174 196 0
173 196 0
172 196 0
171 194 0
172 195 0
174 197 0
172 195 0
171 195 0
173 196 0
172 195 0
173 197 0
173 197 0
171 195 0
172 195 0
171 194 0
173 196 0
172 195 0
173 196 0
174 197 0
171 194 0
173 196 0
172 196 0
174 197 0
172 195 0
171 192 0
171 194 0
172 194 0
172 194 0
171 193 0
171 193 0
171 194 0
169 190 0
171 192 0
169 190 0
168 189 0
171 192 0
171 193 0
168 188 0
169 190 0
169 191 0
170 191 0
170 192 0
170 191 0
171 192 0
171 191 0
170 193 0
168 186 0
170 190 0
169 190 0
169 190 0
168 187 0
171 191 0
168 187 0
170 189 0
171 192 0
169 188 0
169 189 0
172 193 0
167 184 0
171 191 0
167 189 0
171 191 0
168 186 0
168 187 0
167 186 0
170 189 0
171 191 0
170 190 0
172 191 0
169 189 0
168 188 0
172 191 0
169 191 0
170 190 0
169 188 0
169 188 0
170 192 0
171 190 0
170 190 0
170 191 0
172 193 0
171 191 0
172 191 0
169 191 0
172 190 0
168 187 0
171 189 0
171 192 0
169 191 0
170 189 0
170 190 0
171 191 0
173 193 0
169 189 0
167 186 0
169 189 0
169 188 0
170 190 0
171 191 0
168 187 0
169 189 0
171 192 0
169 187 0
166 185 0
171 190 0
169 187 0
169 189 0
168 186 0
170 189 0
170 190 0
167 186 0
168 187 0
171 190 0
168 186 0
168 187 0
167 186 0
168 187 0
165 185 0
171 192 0
167 186 0
167 187 0
171 190 0
169 189 0
169 189 0
170 190 0
169 188 0
169 188 0
170 190 0
170 190 0
169 190 0
168 188 0
170 189 0
169 188 0
169 188 0
168 188 0
171 191 0
171 192 0
170 191 0
169 187 0
169 190 0
168 190 0
169 191 0
169 190 0
169 189 0
169 191 0
169 190 0
169 189 0
169 190 0
169 189 0
165 187 0
169 190 0
168 190 0
168 189 0
164 185 0
166 186 0
166 187 0
167 188 0
169 189 0
167 188 0
165 186 0
170 190 0
169 191 0
168 188 0
166 187 0
166 187 0
167 188 0
166 186 0
168 189 0
163 184 0
164 187 0
164 186 0
166 186 0
166 187 0
165 186 0
165 185 0
168 189 0
167 189 0
165 186 0
165 186 0
166 187 0
164 185 0
164 186 0
168 189 0
164 186 0
166 189 0
168 189 0
166 188 0
165 187 0
167 189 0
168 188 0
168 189 0
168 188 0
167 189 0
166 187 0
163 184 0
166 189 0
166 188 0
167 189 0
169 191 0
167 187 0
164 185 0
165 187 0
166 186 0
168 191 0
165 186 0
167 188 0
165 186 0
163 185 0
165 187 0
169 189 0
168 190 0
167 189 0
167 189 0
162 182 0
168 190 0
165 186 0
164 185 0
167 187 0
166 185 0
166 189 0
168 190 0
168 190 0
165 186 0
168 190 0
167 188 0
167 188 0
169 191 0
165 186 0
164 187 0
168 189 0
169 190 0
167 188 0
166 187 0
167 191 0
169 190 0
169 192 0
169 192 0
165 186 0
167 189 0
168 190 0
171 192 0
169 190 0
170 192 0
169 191 0
170 192 0
168 190 0
167 190 0
167 187 0
168 190 0
169 191 0
169 191 0
170 191 0
171 193 0
167 188 0
165 187 0
169 191 0
167 188 0
167 189 0
168 190 0
170 192 0
170 191 0
166 188 0
168 190 0
170 191 0
169 190 0
169 191 0
170 192 0
167 190 0
168 190 0
165 188 0
167 189 0
168 189 0
168 191 0
170 192 0
169 192 0
171 192 0
170 192 0
170 192 0
169 191 0
169 193 0
170 192 0
171 192 0
169 191 0
168 192 0
167 187 0
170 192 0
171 193 0
172 193 0
171 194 0
170 192 0
170 193 0
171 193 0
170 194 0
168 188 0
167 188 0
171 192 0
169 192 0
169 192 0
172 195 0
169 192 0
168 192 0
169 191 0
168 190 0
171 193 0
168 189 0
169 192 0
168 191 0
169 192 0
172 195 0
169 192 0
171 193 0
172 194 0
171 192 0
170 193 0
172 194 0
171 193 0
171 194 0
168 191 0
172 195 0
169 191 0
171 193 0
168 190 0
173 195 0
173 195 0
170 193 0
171 194 0
169 192 0
171 194 0
172 194 0
173 195 0
171 194 0
172 193 0
169 191 0
171 194 0
171 194 0
172 194 0
171 194 0
170 193 0
171 193 0
170 192 0
170 192 0
172 195 0
171 194 0
173 195 0
172 195 0
172 194 0
171 194 0
172 195 0
173 195 0
173 196 0
172 195 0
170 193 0
172 193 0
171 194 0
172 196 0
171 194 0
169 191 0
171 194 0
173 197 0
172 195 0
172 194 0
171 194 0
171 192 0
172 194 0
172 194 0
171 193 0
173 195 0
172 195 0
171 193 0
173 196 0
173 195 0
172 195 0
171 195 0
172 196 0
173 196 0
173 196 0
173 195 0
171 193 0
172 195 0
172 196 0
174 197 0
171 194 0
173 196 0
172 195 0
172 194 0
174 195 0
172 194 0
174 197 0
175 197 0
173 196 0
172 195 0
173 196 0
173 196 0
172 195 0
174 197 0
173 196 0
173 196 0
174 197 0
173 196 0
171 193 0
173 195 0
171 194 0
173 196 0
172 195 0
173 197 0
172 195 0
172 196 0
173 196 0
172 195 0
174 196 0
173 196 0
173 195 0
171 195 0
172 195 0
173 196 0
172 196 0
174 196 0
172 195 0
171 194 0
170 194 0
171 195 0
169 193 0
170 192 0
171 194 0
171 193 0
171 194 0
171 193 0
171 193 0
172 194 0
172 193 0
172 195 0
170 193 0
169 191 0
170 192 0
170 192 0
171 193 0
172 194 0
168 190 0
167 188 0
169 191 0
172 192 0
171 192 0
172 194 0
167 188 0
172 191 0
169 189 0
169 188 0
168 189 0
168 189 0
169 190 0
168 188 0
169 190 0
166 186 0
171 191 0
166 186 0
169 188 0
168 188 0
170 191 0
167 187 0
170 190 0
169 189 0
168 187 0
168 188 0
173 193 0
167 185 0
168 188 0
170 190 0
169 190 0
171 190 0
171 189 0
170 189 0
172 192 0
170 189 0
167 186 0
171 192 0
168 187 0
173 193 0
167 187 0
171 190 0
170 189 0
168 189 0
168 188 0
172 192 0
168 186 0
169 189 0
173 193 0
170 189 0
168 189 0
170 189 0
167 184 0
166 185 0
171 190 0
170 190 0
169 189 0
168 189 0
170 188 0
170 190 0
168 188 0
171 189 0
172 192 0
166 185 0
169 189 0
170 189 0
169 187 0
169 189 0
171 191 0
169 188 0
165 184 0
169 187 0
169 189 0
167 186 0
168 187 0
169 188 0
166 184 0
169 187 0
170 191 0
170 187 0
170 190 0
170 189 0
167 186 0
169 188 0
167 186 0
171 191 0
166 186 0
167 187 0
170 189 0
167 187 0
171 192 0
170 189 0
170 190 0
168 188 0
169 190 0
172 194 0
171 191 0
172 193 0
168 190 0
168 190 0
171 191 0
167 188 0
169 191 0
172 194 0
168 189 0
171 192 0
169 191 0
169 189 0
170 191 0
168 188 0
169 192 0
170 192 0
166 187 0
170 191 0
171 192 0
167 188 0
167 189 0
169 191 0
167 187 0
165 187 0
167 189 0
163 182 0
166 187 0
167 188 0
169 190 0
167 189 0
164 185 0
168 189 0
162 183 0
168 189 0
168 189 0
167 188 0
164 186 0
161 181 0
167 189 0
166 187 0
165 186 0
167 187 0
167 188 0
166 188 0
168 188 0
165 187 0
167 190 0
167 188 0
161 181 0
165 186 0
170 193 0
165 187 0
164 186 0
167 188 0
164 185 0
166 188 0
164 184 0
163 183 0
163 185 0
165 186 0
165 185 0
166 187 0
165 187 0
166 188 0
172 194 0
167 189 0
167 189 0
165 187 0
164 183 0
165 188 0
166 188 0
168 188 0
167 190 0
168 189 0
167 189 0
168 190 0
166 189 0
167 188 0
167 189 0
165 187 0
170 192 0
167 188 0
166 188 0
165 188 0
166 188 0
166 187 0
166 187 0
169 190 0
168 190 0
166 186 0
164 184 0
167 189 0
168 190 0
167 189 0
166 187 0
166 187 0
167 187 0
168 191 0
169 191 0
170 190 0
167 188 0
168 191 0
170 192 0
168 189 0
168 189 0
170 193 0
167 188 0
169 191 0
169 190 0
167 188 0
169 192 0
170 192 0
170 191 0
166 187 0
169 192 0
168 190 0
168 189 0
167 189 0
167 188 0
169 192 0
165 186 0
168 191 0
166 188 0
167 188 0
167 189 0
168 189 0
168 191 0
167 189 0
169 190 0
167 189 0
168 189 0
170 193 0
169 191 0
167 189 0
169 191 0
169 190 0
166 188 0
170 193 0
170 193 0
170 193 0
167 189 0
169 191 0
168 190 0
169 191 0
171 192 0
168 190 0
168 191 0
170 191 0
170 192 0
170 192 0
170 191 0
169 192 0
168 191 0
170 193 0
170 193 0
168 190 0
171 193 0
171 193 0
169 193 0
170 192 0
170 193 0
170 193 0
170 192 0
172 194 0
169 191 0
169 191 0
171 193 0
171 193 0
169 192 0
171 194 0
169 191 0
171 193 0
169 192 0
170 192 0
170 191 0
172 194 0
170 192 0
172 194 0
170 193 0
170 192 0
171 195 0
170 191 0
171 193 0
173 196 0
170 194 0
171 193 0
173 196 0
171 193 0
170 191 0
171 194 0
171 193 0
171 194 0
172 195 0
170 194 0
172 194 0
170 193 0
172 194 0
169 191 0
171 194 0
171 192 0
172 195 0
171 194 0
172 195 0
171 193 0
172 195 0
173 195 0
172 195 0
172 195 0
170 194 0
173 195 0
170 193 0
171 193 0
171 194 0
173 195 0
171 194 0
173 195 0
173 196 0
171 193 0
172 194 0
173 196 0
172 195 0
173 196 0
171 194 0
174 196 0
173 195 0
171 194 0
171 194 0
174 197 0
173 195 0
171 194 0
172 195 0
174 196 0
173 194 0
173 196 0
171 193 0
173 195 0
170 193 0
172 195 0
172 195 0
173 195 0
172 194 0
172 195 0
173 195 0
172 195 0
172 194 0
171 193 0
171 194 0
170 193 0
172 195 0
172 195 0
173 196 0
170 193 0
172 195 0
173 195 0
173 196 0
173 195 0
172 196 0
171 194 0
