P3
400 225
255
204 226 255
204 226 255
204 226 255
204 226 255
204 226 255
204 226 255
204 226 255
204 226 255
204 226 255
204 226 255
204 226 255
204 226 255
204 226 255
204 226 255
204 226 255
203 226 255
203 226 255
203 226 255
203 226 255
203 226 255
203 226 255
203 226 255
203 226 255
203 225 255
203 225 255
203 225 255
203 225 255
203 225 255
203 225 255
203 225 255
203 225 255
203 225 255
202 225 255
202 225 255
202 225 255
202 225 255
202 225 255
202 225 255
202 225 255
202 225 255
202 225 255
202 225 255
202 225 255
202 225 255
202 225 255
202 225 255
202 225 255
202 225 255
201 225 255
201 225 255
201 225 255
201 225 255
201 225 255
201 224 255
201 224 255
201 224 255
201 224 255
201 224 255
201 224 255
201 224 255
201 224 255
201 224 255
201 224 255
200 224 255
200 224 255
200 224 255
200 224 255
200 224 255
200 224 255
200 224 255
200 224 255
200 224 255
200 224 255
200 224 255
200 224 255
200 224 255
200 224 255
199 224 255
199 224 255
199 224 255
199 223 255
199 223 255
199 223 255
199 223 255
199 223 255
199 223 255
199 223 255
199 223 255
199 223 255
199 223 255
199 223 255
199 223 255
198 223 255
198 223 255
198 223 255
198 223 255
198 223 255
198 223 255
198 223 255
198 223 255
198 223 255
198 223 255
198 223 255
198 223 255
198 223 255
198 223 255
197 223 255
197 222 255
197 222 255
197 222 255
197 222 255
197 222 255
197 222 255
197 222 255
197 222 255
197 222 255
197 222 255
197 222 255
197 222 255
197 222 255
197 222 255
196 222 255
196 222 255
196 222 255
196 222 255
196 222 255
196 222 255
196 222 255
196 222 255
196 222 255
196 222 255
196 222 255
196 222 255
196 222 255
196 222 255
196 221 255
196 221 255
195 221 255
195 221 255
195 221 255
195 221 255
195 221 255
195 221 255
195 220 254
159 136 156
134 63 69
131 58 63
127 52 57
136 60 65
125 51 55
128 52 57
127 53 57
129 54 59
122 45 49
118 39 43
122 51 55
125 52 56
118 44 48
122 50 55
124 53 58
119 45 49
124 52 57
125 52 56
123 51 55
122 48 52
115 41 45
126 49 53
122 51 55
115 41 45
112 41 44
117 42 46
115 43 47
114 46 50
117 45 48
122 48 52
120 47 51
108 35 38
119 42 45
125 54 58
116 43 47
116 49 53
114 42 46
108 38 41
115 47 51
117 45 49
119 46 50
117 47 51
115 43 46
111 40 44
109 39 42
117 45 49
115 41 45
114 46 50
113 41 45
111 40 44
111 42 46
119 47 51
108 41 45
113 39 42
112 47 50
110 41 44
112 38 41
115 37 41
112 39 42
111 35 38
114 44 48
124 52 57
116 45 49
119 44 48
115 40 44
120 44 48
118 41 44
114 39 42
115 35 39
118 43 47
115 44 47
126 50 55
124 51 56
119 49 53
117 44 48
120 44 47
117 42 45
118 45 49
122 49 53
124 50 55
121 47 51
116 42 45
121 48 52
116 39 43
127 48 52
118 44 48
126 51 55
118 47 51
121 49 53
125 48 52
118 43 46
124 49 52
116 41 45
131 53 58
124 51 55
128 48 53
125 48 53
129 55 60
123 43 47
127 49 53
127 52 56
126 48 53
125 51 55
124 49 54
138 62 67
125 49 53
127 51 55
131 58 63
131 54 59
137 67 74
164 143 164
194 219 253
195 221 255
195 221 255
195 221 255
195 221 255
195 221 255
195 221 255
196 221 255
196 221 255
196 222 255
196 222 255
196 222 255
196 222 255
196 222 255
196 222 255
196 222 255
196 222 255
196 222 255
196 222 255
196 222 255
196 222 255
196 222 255
196 222 255
197 222 255
197 222 255
197 222 255
197 222 255
197 222 255
197 222 255
197 222 255
197 222 255
197 222 255
197 222 255
197 222 255
197 222 255
197 222 255
197 222 255
197 223 255
198 223 255
198 223 255
198 223 255
198 223 255
198 223 255
198 223 255
198 223 255
198 223 255
198 223 255
198 223 255
198 223 255
198 223 255
198 223 255
198 223 255
199 223 255
199 223 255
199 223 255
199 223 255
199 223 255
199 223 255
199 223 255
199 223 255
199 223 255
199 223 255
199 223 255
199 223 255
199 224 255
199 224 255
200 224 255
200 224 255
200 224 255
200 224 255
200 224 255
200 224 255
200 224 255
200 224 255
200 224 255
200 224 255
200 224 255
200 224 255
200 224 255
200 224 255
200 224 255
201 224 255
201 224 255
201 224 255
201 224 255
201 224 255
201 224 255
201 224 255
201 224 255
201 224 255
201 224 255
201 225 255
201 225 255
201 225 255
201 225 255
201 225 255
202 225 255
202 225 255
202 225 255
202 225 255
202 225 255
202 225 255
202 225 255
202 225 255
202 225 255
202 225 255
202 225 255
202 225 255
202 225 255
202 225 255
202 225 255
202 225 255
203 225 255
203 225 255
203 225 255
203 225 255
203 225 255
203 225 255
203 225 255
203 225 255
203 225 255
203 226 255
203 226 255
203 226 255
203 226 255
203 226 255
203 226 255
203 226 255
203 226 255
204 226 255
204 226 255
204 226 255
204 226 255
204 226 255
204 226 255
204 226 255
204 226 255
204 226 255
204 226 255
204 226 255
204 226 255
204 226 255
204 226 255
204 226 255
204 226 255
204 226 255
204 226 255
204 226 255
204 226 255
204 226 255
204 226 255
204 226 255
204 226 255
204 226 255
204 226 255
204 226 255
204 226 255
204 226 255
204 226 255
204 226 255
204 226 255
204 226 255
203 226 255
203 226 255
203 226 255
203 226 255
203 226 255
203 226 255
203 226 255
203 225 255
203 225 255
203 225 255
203 225 255
203 225 255
203 225 255
203 225 255
203 225 255
203 225 255
202 225 255
202 225 255
202 225 255
202 225 255
202 225 255
202 225 255
202 225 255
202 225 255
202 225 255
202 225 255
202 225 255
202 225 255
202 225 255
202 225 255
202 225 255
202 225 255
201 225 255
201 225 255
201 225 255
201 225 255
201 225 255
201 224 255
201 224 255
201 224 255
201 224 255
201 224 255
201 224 255
201 224 255
201 224 255
201 224 255
201 224 255
200 224 255
200 224 255
200 224 255
200 224 255
200 224 255
200 224 255
200 224 255
200 224 255
200 224 255
200 224 255
200 224 255
200 224 255
200 224 255
200 224 255
199 224 255
199 224 255
199 224 255
199 223 255
199 223 255
199 223 255
199 223 255
199 223 255
199 223 255
199 223 255
199 223 255
199 223 255
199 223 255
199 223 255
199 223 255
198 223 255
198 223 255
198 223 255
198 223 255
198 223 255
198 223 255
198 223 255
198 223 255
198 223 255
198 223 255
198 223 255
198 223 255
198 223 255
198 223 255
197 223 255
197 222 255
197 222 255
197 222 255
197 222 255
197 222 255
197 222 255
197 222 255
197 222 255
197 222 255
197 222 255
197 222 255
197 222 255
197 222 255
197 222 255
196 222 255
196 222 255
196 222 255
196 222 255
196 222 255
196 222 255
196 222 255
196 222 255
196 222 255
196 222 255
196 222 255
196 222 255
196 222 255
196 222 255
196 222 255
196 221 255
195 221 255
195 221 255
195 221 255
195 221 255
195 221 255
194 218 252
161 134 153
141 71 78
144 72 78
137 62 68
136 64 70
134 63 69
131 59 64
130 58 63
132 60 65
131 58 63
126 52 57
132 59 64
128 54 59
122 51 55
129 56 61
126 55 59
130 56 61
122 51 55
129 56 61
126 60 65
125 52 56
111 40 44
128 56 61
127 56 60
119 49 53
119 47 51
113 40 43
125 55 59
126 55 59
120 48 52
123 51 55
113 39 43
115 44 47
109 38 41
117 47 51
124 54 58
113 42 46
126 52 56
118 42 45
119 49 54
119 47 50
118 44 47
113 40 44
116 48 52
108 32 35
116 45 49
117 43 46
115 46 49
114 46 49
117 48 51
114 46 50
116 43 47
114 41 45
110 37 40
109 39 43
118 46 50
119 50 54
114 43 47
121 50 55
111 37 41
119 48 52
123 49 53
112 39 42
119 50 54
118 42 46
118 44 48
120 48 53
123 52 56
114 46 50
120 48 52
118 45 49
123 48 52
118 45 49
125 53 57
127 52 56
118 46 50
120 48 52
123 48 52
120 44 48
119 42 46
128 56 61
121 49 53
127 49 54
115 41 45
123 50 55
127 53 57
124 53 58
119 46 50
123 47 52
126 54 59
129 54 58
126 49 53
127 55 59
125 52 56
129 55 60
126 52 57
124 55 60
127 55 59
133 57 62
124 50 54
126 54 59
128 57 62
136 66 72
129 57 62
135 62 68
140 66 72
137 66 72
138 66 72
139 71 78
163 137 157
195 220 253
195 221 255
195 221 255
195 221 255
195 221 255
195 221 255
196 221 255
196 222 255
196 222 255
196 222 255
196 222 255
196 222 255
196 222 255
196 222 255
196 222 255
196 222 255
196 222 255
196 222 255
196 222 255
196 222 255
196 222 255
196 222 255
197 222 255
197 222 255
197 222 255
197 222 255
197 222 255
197 222 255
197 222 255
197 222 255
197 222 255
197 222 255
197 222 255
197 222 255
197 222 255
197 222 255
197 223 255
198 223 255
198 223 255
198 223 255
198 223 255
198 223 255
198 223 255
198 223 255
198 223 255
198 223 255
198 223 255
198 223 255
198 223 255
198 223 255
198 223 255
199 223 255
199 223 255
199 223 255
199 223 255
199 223 255
199 223 255
199 223 255
199 223 255
199 223 255
199 223 255
199 223 255
199 223 255
199 224 255
199 224 255
200 224 255
200 224 255
200 224 255
200 224 255
200 224 255
200 224 255
200 224 255
200 224 255
200 224 255
200 224 255
200 224 255
200 224 255
200 224 255
200 224 255
200 224 255
201 224 255
201 224 255
201 224 255
201 224 255
201 224 255
201 224 255
201 224 255
201 224 255
201 224 255
201 224 255
201 225 255
201 225 255
201 225 255
201 225 255
201 225 255
202 225 255
202 225 255
202 225 255
202 225 255
202 225 255
202 225 255
202 225 255
202 225 255
202 225 255
202 225 255
202 225 255
202 225 255
202 225 255
202 225 255
202 225 255
202 225 255
203 225 255
203 225 255
203 225 255
203 225 255
203 225 255
203 225 255
203 225 255
203 225 255
203 225 255
203 226 255
203 226 255
203 226 255
203 226 255
203 226 255
203 226 255
203 226 255
204 226 255
204 226 255
204 226 255
204 226 255
204 226 255
204 226 255
204 226 255
204 226 255
204 226 255
204 226 255
204 226 255
204 226 255
204 226 255
204 226 255
204 226 255
204 226 255
204 226 255
204 226 255
205 226 255
205 226 255
204 226 255
204 226 255
204 226 255
204 226 255
204 226 255
204 226 255
204 226 255
204 226 255
204 226 255
204 226 255
204 226 255
204 226 255
204 226 255
204 226 255
204 226 255
204 226 255
204 226 255
204 226 255
203 226 255
203 226 255
203 226 255
203 226 255
203 226 255
203 226 255
203 226 255
203 225 255
203 225 255
203 225 255
203 225 255
203 225 255
203 225 255
203 225 255
203 225 255
203 225 255
202 225 255
202 225 255
202 225 255
202 225 255
202 225 255
202 225 255
202 225 255
202 225 255
202 225 255
202 225 255
202 225 255
202 225 255
202 225 255
202 225 255
202 225 255
202 225 255
201 225 255
201 225 255
201 225 255
201 225 255
201 225 255
201 224 255
201 224 255
201 224 255
201 224 255
201 224 255
201 224 255
201 224 255
201 224 255
201 224 255
201 224 255
200 224 255
200 224 255
200 224 255
200 224 255
200 224 255
200 224 255
200 224 255
200 224 255
200 224 255
200 224 255
200 224 255
200 224 255
200 224 255
200 224 255
200 224 255
199 224 255
199 224 255
199 223 255
199 223 255
199 223 255
199 223 255
199 223 255
199 223 255
199 223 255
199 223 255
199 223 255
199 223 255
199 223 255
199 223 255
198 223 255
198 223 255
198 223 255
198 223 255
198 223 255
198 223 255
198 223 255
198 223 255
198 223 255
198 223 255
198 223 255
198 223 255
198 223 255
198 223 255
197 223 255
197 222 255
197 222 255
197 222 255
197 222 255
197 222 255
197 222 255
197 222 255
197 222 255
197 222 255
197 222 255
197 222 255
197 222 255
197 222 255
197 222 255
196 222 255
196 222 255
196 222 255
196 222 255
196 222 255
196 222 255
196 222 255
196 222 255
196 222 255
196 222 255
196 222 255
196 222 255
196 222 255
196 222 255
196 222 255
196 221 255
195 221 255
195 221 255
195 221 255
195 221 255
194 218 252
162 133 151
141 70 77
141 72 80
136 68 74
144 76 83
132 65 71
135 64 70
136 67 73
128 57 63
140 69 75
136 65 70
126 55 61
129 58 63
132 61 67
131 59 64
133 62 68
132 61 66
120 50 55
123 53 58
123 51 55
123 52 56
132 57 61
130 61 66
125 53 57
131 58 63
119 50 54
122 52 56
116 44 48
116 46 50
126 57 61
126 54 59
125 52 56
118 45 49
125 55 60
119 48 53
118 47 51
110 43 47
117 47 51
125 52 56
115 46 50
112 42 45
120 49 53
111 40 43
107 42 46
116 50 54
113 48 51
121 52 56
116 49 53
118 53 57
116 48 52
117 47 51
108 39 42
111 49 52
112 44 47
113 44 48
123 51 55
120 45 49
117 44 47
118 47 51
120 48 52
120 47 51
121 52 56
124 53 58
117 43 47
125 51 55
120 48 53
123 50 54
126 56 60
117 46 50
121 48 52
124 49 53
125 51 55
120 48 52
122 48 52
121 48 52
127 53 58
125 55 60
129 60 65
117 45 49
125 53 58
124 51 55
125 48 52
123 47 51
127 58 63
128 54 59
124 48 53
123 51 55
124 53 57
132 64 69
129 52 56
128 54 59
126 50 55
130 56 61
129 58 63
128 52 56
130 56 61
132 61 66
135 62 67
129 55 60
133 60 65
134 64 70
137 67 73
138 66 72
140 68 74
137 66 73
142 70 77
139 68 75
163 139 159
194 219 252
195 221 255
195 221 255
195 221 255
195 221 255
196 221 255
196 222 255
196 222 255
196 222 255
196 222 255
196 222 255
196 222 255
196 222 255
196 222 255
196 222 255
196 222 255
196 222 255
196 222 255
196 222 255
196 222 255
196 222 255
197 222 255
197 222 255
197 222 255
197 222 255
197 222 255
197 222 255
197 222 255
197 222 255
197 222 255
197 222 255
197 222 255
197 222 255
197 222 255
197 222 255
197 223 255
198 223 255
198 223 255
198 223 255
198 223 255
198 223 255
198 223 255
198 223 255
198 223 255
198 223 255
198 223 255
198 223 255
198 223 255
198 223 255
198 223 255
199 223 255
199 223 255
199 223 255
199 223 255
199 223 255
199 223 255
199 223 255
199 223 255
199 223 255
199 223 255
199 223 255
199 223 255
199 224 255
199 224 255
200 224 255
200 224 255
200 224 255
200 224 255
200 224 255
200 224 255
200 224 255
200 224 255
200 224 255
200 224 255
200 224 255
200 224 255
200 224 255
200 224 255
200 224 255
201 224 255
201 224 255
201 224 255
201 224 255
201 224 255
201 224 255
201 224 255
201 224 255
201 224 255
201 224 255
201 225 255
201 225 255
201 225 255
201 225 255
201 225 255
202 225 255
202 225 255
202 225 255
202 225 255
202 225 255
202 225 255
202 225 255
202 225 255
202 225 255
202 225 255
202 225 255
202 225 255
202 225 255
202 225 255
202 225 255
202 225 255
203 225 255
203 225 255
203 225 255
203 225 255
203 225 255
203 225 255
203 225 255
203 225 255
203 225 255
203 226 255
203 226 255
203 226 255
203 226 255
203 226 255
203 226 255
203 226 255
204 226 255
204 226 255
204 226 255
204 226 255
204 226 255
204 226 255
204 226 255
204 226 255
204 226 255
204 226 255
204 226 255
204 226 255
204 226 255
204 226 255
204 226 255
204 226 255
204 226 255
204 226 255
205 226 255
205 226 255
205 226 255
205 226 255
205 226 255
205 226 255
204 226 255
204 226 255
204 226 255
204 226 255
204 226 255
204 226 255
204 226 255
204 226 255
204 226 255
204 226 255
204 226 255
204 226 255
204 226 255
204 226 255
204 226 255
204 226 255
204 226 255
204 226 255
203 226 255
203 226 255
203 226 255
203 226 255
203 226 255
203 226 255
203 226 255
203 226 255
203 225 255
203 225 255
203 225 255
203 225 255
203 225 255
203 225 255
203 225 255
203 225 255
203 225 255
202 225 255
202 225 255
202 225 255
202 225 255
202 225 255
202 225 255
202 225 255
202 225 255
202 225 255
202 225 255
202 225 255
202 225 255
202 225 255
202 225 255
202 225 255
201 225 255
201 225 255
201 225 255
201 225 255
201 225 255
201 224 255
201 224 255
201 224 255
201 224 255
201 224 255
201 224 255
201 224 255
201 224 255
201 224 255
201 224 255
200 224 255
200 224 255
200 224 255
200 224 255
200 224 255
200 224 255
200 224 255
200 224 255
200 224 255
200 224 255
200 224 255
200 224 255
200 224 255
200 224 255
200 224 255
199 224 255
199 224 255
199 223 255
199 223 255
199 223 255
199 223 255
199 223 255
199 223 255
199 223 255
199 223 255
199 223 255
199 223 255
199 223 255
199 223 255
198 223 255
198 223 255
198 223 255
198 223 255
198 223 255
198 223 255
198 223 255
198 223 255
198 223 255
198 223 255
198 223 255
198 223 255
198 223 255
198 223 255
197 223 255
197 222 255
197 222 255
197 222 255
197 222 255
197 222 255
197 222 255
197 222 255
197 222 255
197 222 255
197 222 255
197 222 255
197 222 255
197 222 255
197 222 255
196 222 255
196 222 255
196 222 255
196 222 255
196 222 255
196 222 255
196 222 255
196 222 255
196 222 255
196 222 255
196 222 255
196 222 255
196 222 255
196 222 255
196 222 255
196 221 255
196 221 255
195 221 255
195 221 255
194 218 252
164 135 154
138 69 76
142 74 81
137 69 76
134 67 74
133 66 72
142 74 81
135 64 71
131 65 70
138 68 74
140 71 77
131 62 67
132 64 70
124 54 59
128 60 65
129 59 65
126 54 58
123 54 59
125 55 60
124 54 59
128 56 61
126 59 64
127 56 61
137 68 74
127 56 61
114 52 56
129 60 65
122 52 57
118 49 53
120 48 52
123 54 58
122 54 58
120 46 49
122 54 58
116 46 50
127 57 62
122 53 58
125 54 59
125 56 61
124 52 57
123 51 55
112 36 39
117 46 50
119 49 53
118 47 51
115 47 50
114 44 48
119 49 53
117 48 52
115 46 50
118 53 58
114 45 49
114 45 49
112 41 44
112 40 43
116 44 48
128 55 60
120 50 54
118 48 52
123 52 56
122 51 55
122 50 55
120 48 53
126 52 56
117 44 47
123 50 54
121 52 56
127 57 62
129 57 62
128 58 63
122 48 53
127 50 55
122 50 55
118 48 52
128 58 63
124 47 52
128 54 59
125 53 58
122 50 55
127 57 62
129 58 63
126 56 61
130 58 63
136 63 68
133 59 64
133 61 66
130 61 66
130 57 62
128 57 62
130 60 65
128 53 58
132 63 68
131 62 67
138 65 71
129 60 66
132 66 72
140 69 75
135 67 73
137 67 73
135 65 72
142 73 81
136 66 72
142 73 79
137 62 69
140 71 78
162 133 152
193 217 251
195 221 255
195 221 255
196 221 255
196 221 255
196 222 255
196 222 255
196 222 255
196 222 255
196 222 255
196 222 255
196 222 255
196 222 255
196 222 255
196 222 255
196 222 255
196 222 255
196 222 255
196 222 255
196 222 255
197 222 255
197 222 255
197 222 255
197 222 255
197 222 255
197 222 255
197 222 255
197 222 255
197 222 255
197 222 255
197 222 255
197 222 255
197 222 255
197 222 255
197 223 255
198 223 255
198 223 255
198 223 255
198 223 255
198 223 255
198 223 255
198 223 255
198 223 255
198 223 255
198 223 255
198 223 255
198 223 255
198 223 255
198 223 255
199 223 255
199 223 255
199 223 255
199 223 255
199 223 255
199 223 255
199 223 255
199 223 255
199 223 255
199 223 255
199 223 255
199 223 255
199 224 255
199 224 255
200 224 255
200 224 255
200 224 255
200 224 255
200 224 255
200 224 255
200 224 255
200 224 255
200 224 255
200 224 255
200 224 255
200 224 255
200 224 255
200 224 255
200 224 255
201 224 255
201 224 255
201 224 255
201 224 255
201 224 255
201 224 255
201 224 255
201 224 255
201 224 255
201 224 255
201 225 255
201 225 255
201 225 255
201 225 255
201 225 255
202 225 255
202 225 255
202 225 255
202 225 255
202 225 255
202 225 255
202 225 255
202 225 255
202 225 255
202 225 255
202 225 255
202 225 255
202 225 255
202 225 255
202 225 255
203 225 255
203 225 255
203 225 255
203 225 255
203 225 255
203 225 255
203 225 255
203 225 255
203 225 255
203 226 255
203 226 255
203 226 255
203 226 255
203 226 255
203 226 255
203 226 255
203 226 255
204 226 255
204 226 255
204 226 255
204 226 255
204 226 255
204 226 255
204 226 255
204 226 255
204 226 255
204 226 255
204 226 255
204 226 255
204 226 255
204 226 255
204 226 255
204 226 255
204 226 255
204 226 255
205 226 255
205 226 255
205 226 255
205 226 255
205 226 255
205 226 255
205 226 255
205 226 255
205 226 255
205 226 255
205 226 255
204 226 255
204 226 255
204 226 255
204 226 255
204 226 255
204 226 255
204 226 255
204 226 255
204 226 255
204 226 255
204 226 255
204 226 255
204 226 255
204 226 255
204 226 255
204 226 255
204 226 255
203 226 255
203 226 255
203 226 255
203 226 255
203 226 255
203 226 255
203 226 255
203 226 255
203 225 255
203 225 255
203 225 255
203 225 255
203 225 255
203 225 255
203 225 255
203 225 255
203 225 255
202 225 255
202 225 255
202 225 255
202 225 255
202 225 255
202 225 255
202 225 255
202 225 255
202 225 255
202 225 255
202 225 255
202 225 255
202 225 255
202 225 255
202 225 255
201 225 255
201 225 255
201 225 255
201 225 255
201 225 255
201 224 255
201 224 255
201 224 255
201 224 255
201 224 255
201 224 255
201 224 255
201 224 255
201 224 255
201 224 255
200 224 255
200 224 255
200 224 255
200 224 255
200 224 255
200 224 255
200 224 255
200 224 255
200 224 255
200 224 255
200 224 255
200 224 255
200 224 255
200 224 255
200 224 255
199 224 255
199 224 255
199 223 255
199 223 255
199 223 255
199 223 255
199 223 255
199 223 255
199 223 255
199 223 255
199 223 255
199 223 255
199 223 255
199 223 255
198 223 255
198 223 255
198 223 255
198 223 255
198 223 255
198 223 255
198 223 255
198 223 255
198 223 255
198 223 255
198 223 255
198 223 255
198 223 255
198 223 255
197 223 255
197 222 255
197 222 255
197 222 255
197 222 255
197 222 255
197 222 255
197 222 255
197 222 255
197 222 255
197 222 255
197 222 255
197 222 255
197 222 255
197 222 255
197 222 255
196 222 255
196 222 255
196 222 255
196 222 255
196 222 255
196 222 255
196 222 255
196 222 255
196 222 255
196 222 255
196 222 255
196 222 255
196 222 255
196 222 255
196 222 255
196 221 255
196 221 255
193 217 250
163 133 152
144 73 80
140 68 74
142 72 79
134 66 72
131 63 70
141 71 78
133 65 71
138 66 73
137 67 73
136 66 73
136 65 71
132 65 71
132 64 69
129 59 64
133 63 68
137 65 70
132 62 68
134 62 67
125 55 60
125 58 63
128 57 62
125 57 62
119 43 47
127 56 61
124 54 59
127 60 65
130 58 63
122 54 59
131 62 68
128 55 59
122 54 59
126 59 64
122 51 56
119 49 53
123 53 58
120 52 57
126 57 62
123 54 58
117 48 52
120 47 51
116 53 57
126 55 60
118 49 53
119 50 55
118 50 54
120 52 56
118 49 53
117 46 50
123 49 53
114 46 50
119 52 57
121 53 57
115 47 51
121 51 55
122 54 59
123 53 57
120 48 53
122 49 54
122 52 56
121 50 55
124 52 57
125 54 58
129 56 61
133 60 65
121 45 48
124 55 60
127 56 60
128 56 61
124 49 53
125 52 57
129 58 63
130 55 60
126 54 59
130 59 64
124 51 56
134 61 66
128 57 62
127 55 60
127 57 62
130 58 63
129 56 61
128 54 58
128 55 60
133 62 68
127 54 58
129 60 65
135 65 71
132 63 68
131 64 69
133 62 68
139 68 74
135 64 70
132 62 68
136 64 70
138 66 72
132 65 72
138 67 73
144 73 80
138 68 75
140 66 73
142 72 80
140 74 81
162 138 158
195 220 254
196 221 255
196 221 255
196 222 255
196 222 255
196 222 255
196 222 255
196 222 255
196 222 255
196 222 255
196 222 255
196 222 255
196 222 255
196 222 255
196 222 255
196 222 255
196 222 255
196 222 255
197 222 255
197 222 255
197 222 255
197 222 255
197 222 255
197 222 255
197 222 255
197 222 255
197 222 255
197 222 255
197 222 255
197 222 255
197 222 255
197 222 255
197 222 255
197 223 255
198 223 255
198 223 255
198 223 255
198 223 255
198 223 255
198 223 255
198 223 255
198 223 255
198 223 255
198 223 255
198 223 255
198 223 255
198 223 255
198 223 255
199 223 255
199 223 255
199 223 255
199 223 255
199 223 255
199 223 255
199 223 255
199 223 255
199 223 255
199 223 255
199 223 255
199 223 255
199 224 255
199 224 255
200 224 255
200 224 255
200 224 255
200 224 255
200 224 255
200 224 255
200 224 255
200 224 255
200 224 255
200 224 255
200 224 255
200 224 255
200 224 255
200 224 255
200 224 255
201 224 255
201 224 255
201 224 255
201 224 255
201 224 255
201 224 255
201 224 255
201 224 255
201 224 255
201 224 255
201 225 255
201 225 255
201 225 255
201 225 255
201 225 255
202 225 255
202 225 255
202 225 255
202 225 255
202 225 255
202 225 255
202 225 255
202 225 255
202 225 255
202 225 255
202 225 255
202 225 255
202 225 255
202 225 255
202 225 255
203 225 255
203 225 255
203 225 255
203 225 255
203 225 255
203 225 255
203 225 255
203 225 255
203 225 255
203 226 255
203 226 255
203 226 255
203 226 255
203 226 255
203 226 255
203 226 255
204 226 255
204 226 255
204 226 255
204 226 255
204 226 255
204 226 255
204 226 255
204 226 255
204 226 255
204 226 255
204 226 255
204 226 255
204 226 255
204 226 255
204 226 255
204 226 255
204 226 255
204 226 255
205 226 255
205 226 255
205 226 255
205 226 255
205 226 255
205 226 255
205 226 255
205 227 255
205 227 255
205 226 255
205 226 255
205 226 255
205 226 255
205 226 255
205 226 255
205 226 255
204 226 255
204 226 255
204 226 255
204 226 255
204 226 255
204 226 255
204 226 255
204 226 255
204 226 255
204 226 255
204 226 255
204 226 255
204 226 255
204 226 255
204 226 255
204 226 255
204 226 255
204 226 255
203 226 255
203 226 255
203 226 255
203 226 255
203 226 255
203 226 255
203 226 255
203 225 255
203 225 255
203 225 255
203 225 255
203 225 255
203 225 255
203 225 255
203 225 255
203 225 255
202 225 255
202 225 255
202 225 255
202 225 255
202 225 255
202 225 255
202 225 255
202 225 255
202 225 255
202 225 255
202 225 255
202 225 255
202 225 255
202 225 255
202 225 255
202 225 255
201 225 255
201 225 255
201 225 255
201 225 255
201 224 255
201 224 255
201 224 255
201 224 255
201 224 255
201 224 255
201 224 255
201 224 255
201 224 255
201 224 255
200 224 255
200 224 255
200 224 255
200 224 255
200 224 255
200 224 255
200 224 255
200 224 255
200 224 255
200 224 255
200 224 255
200 224 255
200 224 255
200 224 255
200 224 255
199 224 255
199 224 255
199 223 255
199 223 255
199 223 255
199 223 255
199 223 255
199 223 255
199 223 255
199 223 255
199 223 255
199 223 255
199 223 255
199 223 255
198 223 255
198 223 255
198 223 255
198 223 255
198 223 255
198 223 255
198 223 255
198 223 255
198 223 255
198 223 255
198 223 255
198 223 255
198 223 255
198 223 255
198 223 255
197 222 255
197 222 255
197 222 255
197 222 255
197 222 255
197 222 255
197 222 255
197 222 255
197 222 255
197 222 255
197 222 255
197 222 255
197 222 255
197 222 255
197 222 255
196 222 255
196 222 255
196 222 255
196 222 255
196 222 255
196 222 255
196 222 255
196 222 255
196 222 255
196 222 255
196 222 255
196 222 255
196 222 255
196 222 255
196 222 255
196 222 255
194 218 252
162 131 149
146 75 82
145 76 83
137 70 77
139 73 80
135 67 74
141 71 78
137 67 73
137 70 76
131 65 71
135 69 76
133 63 69
142 72 79
125 59 65
133 63 69
130 63 68
128 56 61
127 59 64
132 60 65
127 59 65
134 63 68
125 59 64
127 58 64
123 55 60
127 54 58
126 58 63
129 56 61
128 61 66
130 60 65
125 57 62
129 58 63
131 60 65
123 53 58
120 52 57
121 51 56
124 56 61
130 59 64
130 60 65
124 55 60
126 57 62
121 51 55
127 59 64
124 58 63
117 50 54
119 55 60
118 53 58
119 52 56
114 47 51
118 48 52
116 47 51
116 46 50
122 50 54
124 54 59
121 55 59
124 56 60
128 59 64
120 50 54
127 51 56
126 56 60
124 52 57
127 57 62
124 53 58
128 58 63
125 53 57
122 54 58
122 50 55
122 49 53
127 56 61
120 50 54
126 52 57
128 56 61
125 55 60
132 63 68
127 55 60
128 56 61
128 55 60
125 54 59
121 52 57
125 56 61
133 62 68
131 62 67
131 61 66
128 63 68
133 64 70
129 60 66
131 64 70
131 62 68
130 59 65
137 64 70
140 71 77
130 63 68
132 58 63
141 69 76
141 73 80
142 74 81
138 73 80
143 72 79
138 70 76
143 74 81
141 70 77
142 71 78
158 134 153
194 220 254
196 222 255
196 222 255
196 222 255
196 222 255
196 222 255
196 222 255
196 222 255
196 222 255
196 222 255
196 222 255
196 222 255
196 222 255
196 222 255
196 222 255
196 222 255
196 222 255
197 222 255
197 222 255
197 222 255
197 222 255
197 222 255
197 222 255
197 222 255
197 222 255
197 222 255
197 222 255
197 222 255
197 222 255
197 222 255
197 222 255
197 222 255
198 223 255
198 223 255
198 223 255
198 223 255
198 223 255
198 223 255
198 223 255
198 223 255
198 223 255
198 223 255
198 223 255
198 223 255
198 223 255
198 223 255
198 223 255
199 223 255
199 223 255
199 223 255
199 223 255
199 223 255
199 223 255
199 223 255
199 223 255
199 223 255
199 223 255
199 223 255
199 223 255
199 224 255
199 224 255
200 224 255
200 224 255
200 224 255
200 224 255
200 224 255
200 224 255
200 224 255
200 224 255
200 224 255
200 224 255
200 224 255
200 224 255
200 224 255
200 224 255
200 224 255
201 224 255
201 224 255
201 224 255
201 224 255
201 224 255
201 224 255
201 224 255
201 224 255
201 224 255
201 224 255
201 225 255
201 225 255
201 225 255
201 225 255
202 225 255
202 225 255
202 225 255
202 225 255
202 225 255
202 225 255
202 225 255
202 225 255
202 225 255
202 225 255
202 225 255
202 225 255
202 225 255
202 225 255
202 225 255
202 225 255
203 225 255
203 225 255
203 225 255
203 225 255
203 225 255
203 225 255
203 225 255
203 225 255
203 225 255
203 226 255
203 226 255
203 226 255
203 226 255
203 226 255
203 226 255
203 226 255
204 226 255
204 226 255
204 226 255
204 226 255
204 226 255
204 226 255
204 226 255
204 226 255
204 226 255
204 226 255
204 226 255
204 226 255
204 226 255
204 226 255
204 226 255
204 226 255
204 226 255
204 226 255
205 226 255
205 226 255
205 226 255
205 226 255
205 226 255
205 226 255
205 226 255
205 227 255
205 227 255
205 227 255
205 227 255
205 227 255
205 227 255
205 226 255
205 226 255
205 226 255
205 226 255
205 226 255
205 226 255
205 226 255
205 226 255
204 226 255
204 226 255
204 226 255
204 226 255
204 226 255
204 226 255
204 226 255
204 226 255
204 226 255
204 226 255
204 226 255
204 226 255
204 226 255
204 226 255
204 226 255
204 226 255
204 226 255
203 226 255
203 226 255
203 226 255
203 226 255
203 226 255
203 226 255
203 226 255
203 225 255
203 225 255
203 225 255
203 225 255
203 225 255
203 225 255
203 225 255
203 225 255
203 225 255
202 225 255
202 225 255
202 225 255
202 225 255
202 225 255
202 225 255
202 225 255
202 225 255
202 225 255
202 225 255
202 225 255
202 225 255
202 225 255
202 225 255
202 225 255
202 225 255
201 225 255
201 225 255
201 225 255
201 225 255
201 224 255
201 224 255
201 224 255
201 224 255
201 224 255
201 224 255
201 224 255
201 224 255
201 224 255
201 224 255
201 224 255
200 224 255
200 224 255
200 224 255
200 224 255
200 224 255
200 224 255
200 224 255
200 224 255
200 224 255
200 224 255
200 224 255
200 224 255
200 224 255
200 224 255
199 224 255
199 224 255
199 223 255
199 223 255
199 223 255
199 223 255
199 223 255
199 223 255
199 223 255
199 223 255
199 223 255
199 223 255
199 223 255
199 223 255
198 223 255
198 223 255
198 223 255
198 223 255
198 223 255
198 223 255
198 223 255
198 223 255
198 223 255
198 223 255
198 223 255
198 223 255
198 223 255
198 223 255
198 223 255
197 222 255
197 222 255
197 222 255
197 222 255
197 222 255
197 222 255
197 222 255
197 222 255
197 222 255
197 222 255
197 222 255
197 222 255
197 222 255
197 222 255
197 222 255
197 222 255
196 222 255
196 222 255
196 222 255
196 222 255
196 222 255
196 222 255
196 222 255
196 222 255
196 222 255
196 222 255
196 222 255
196 222 255
196 222 255
196 222 255
195 220 253
164 140 160
145 75 83
134 65 72
135 66 72
146 75 82
139 69 75
134 65 71
133 64 69
138 68 75
141 72 79
135 65 71
135 70 77
130 62 68
130 65 72
132 65 71
132 65 71
128 62 68
129 59 64
131 62 67
127 61 67
128 63 69
133 65 71
133 65 71
123 55 59
127 60 65
124 62 67
128 60 65
123 54 59
128 63 69
128 62 67
122 52 57
128 59 64
124 56 60
122 50 54
124 58 63
125 53 57
130 64 69
127 56 61
123 56 61
124 57 62
124 59 64
117 48 52
126 59 64
121 56 60
123 54 59
121 54 59
125 60 65
118 54 59
119 49 53
119 51 55
123 47 51
117 49 53
125 58 63
128 56 61
122 49 53
119 50 55
122 51 56
120 52 56
128 56 61
121 48 52
127 56 61
128 58 63
126 56 61
126 53 57
120 50 54
129 57 62
127 57 62
125 56 60
133 66 72
118 50 55
132 63 69
122 50 54
122 55 60
125 57 62
128 56 61
132 60 66
129 57 62
137 68 74
126 60 66
133 64 70
132 63 69
131 62 68
134 67 73
133 63 69
128 60 66
133 62 68
139 72 78
137 70 77
134 65 70
139 70 77
137 66 72
133 65 71
139 70 77
134 67 73
143 73 80
133 64 70
142 73 80
138 71 78
145 77 85
159 131 149
195 219 253
196 222 255
196 222 255
196 222 255
196 222 255
196 222 255
196 222 255
196 222 255
196 222 255
196 222 255
196 222 255
196 222 255
196 222 255
196 222 255
196 222 255
196 222 255
197 222 255
197 222 255
197 222 255
197 222 255
197 222 255
197 222 255
197 222 255
197 222 255
197 222 255
197 222 255
197 222 255
197 222 255
197 222 255
197 222 255
197 222 255
198 223 255
198 223 255
198 223 255
198 223 255
198 223 255
198 223 255
198 223 255
198 223 255
198 223 255
198 223 255
198 223 255
198 223 255
198 223 255
198 223 255
198 223 255
199 223 255
199 223 255
199 223 255
199 223 255
199 223 255
199 223 255
199 223 255
199 223 255
199 223 255
199 223 255
199 223 255
199 223 255
199 224 255
199 224 255
200 224 255
200 224 255
200 224 255
200 224 255
200 224 255
200 224 255
200 224 255
200 224 255
200 224 255
200 224 255
200 224 255
200 224 255
200 224 255
200 224 255
201 224 255
201 224 255
201 224 255
201 224 255
201 224 255
201 224 255
201 224 255
201 224 255
201 224 255
201 224 255
201 224 255
201 225 255
201 225 255
201 225 255
201 225 255
202 225 255
202 225 255
202 225 255
202 225 255
202 225 255
202 225 255
202 225 255
202 225 255
202 225 255
202 225 255
202 225 255
202 225 255
202 225 255
202 225 255
202 225 255
202 225 255
203 225 255
203 225 255
203 225 255
203 225 255
203 225 255
203 225 255
203 225 255
203 225 255
203 225 255
203 226 255
203 226 255
203 226 255
203 226 255
203 226 255
203 226 255
203 226 255
204 226 255
204 226 255
204 226 255
204 226 255
204 226 255
204 226 255
204 226 255
204 226 255
204 226 255
204 226 255
204 226 255
204 226 255
204 226 255
204 226 255
204 226 255
204 226 255
204 226 255
205 226 255
205 226 255
205 226 255
205 226 255
205 226 255
205 226 255
205 226 255
205 226 255
205 227 255
205 227 255
205 227 255
205 227 255
205 227 255
205 227 255
205 227 255
205 227 255
205 227 255
205 227 255
205 227 255
205 226 255
205 226 255
205 226 255
205 226 255
205 226 255
205 226 255
205 226 255
204 226 255
204 226 255
204 226 255
204 226 255
204 226 255
204 226 255
204 226 255
204 226 255
204 226 255
204 226 255
204 226 255
204 226 255
204 226 255
204 226 255
204 226 255
204 226 255
204 226 255
203 226 255
203 226 255
203 226 255
203 226 255
203 226 255
203 226 255
203 226 255
203 226 255
203 225 255
203 225 255
203 225 255
203 225 255
203 225 255
203 225 255
203 225 255
203 225 255
203 225 255
202 225 255
202 225 255
202 225 255
202 225 255
202 225 255
202 225 255
202 225 255
202 225 255
202 225 255
202 225 255
202 225 255
202 225 255
202 225 255
202 225 255
202 225 255
201 225 255
201 225 255
201 225 255
201 225 255
201 224 255
201 224 255
201 224 255
201 224 255
201 224 255
201 224 255
201 224 255
201 224 255
201 224 255
201 224 255
201 224 255
200 224 255
200 224 255
200 224 255
200 224 255
200 224 255
200 224 255
200 224 255
200 224 255
200 224 255
200 224 255
200 224 255
200 224 255
200 224 255
200 224 255
199 224 255
199 224 255
199 223 255
199 223 255
199 223 255
199 223 255
199 223 255
199 223 255
199 223 255
199 223 255
199 223 255
199 223 255
199 223 255
199 223 255
198 223 255
198 223 255
198 223 255
198 223 255
198 223 255
198 223 255
198 223 255
198 223 255
198 223 255
198 223 255
198 223 255
198 223 255
198 223 255
198 223 255
198 223 255
197 223 255
197 222 255
197 222 255
197 222 255
197 222 255
197 222 255
197 222 255
197 222 255
197 222 255
197 222 255
197 222 255
197 222 255
197 222 255
197 222 255
197 222 255
197 222 255
196 222 255
196 222 255
196 222 255
196 222 255
196 222 255
196 222 255
196 222 255
196 222 255
196 222 255
196 222 255
196 222 255
196 222 255
196 222 255
194 218 251
159 135 154
142 74 81
144 77 85
146 77 85
135 64 70
133 64 70
141 72 79
140 72 79
130 64 70
137 70 77
131 60 65
127 62 67
129 63 69
137 68 75
130 63 69
129 60 65
135 67 74
123 56 61
135 68 74
126 59 64
133 62 67
121 57 62
129 62 68
126 56 62
126 60 65
122 55 59
128 60 66
122 52 57
126 59 65
125 59 64
126 58 63
120 53 58
128 58 63
124 57 62
130 57 62
123 51 56
122 50 55
124 55 60
125 55 60
115 50 54
128 57 62
119 52 56
123 53 58
122 54 59
130 61 66
125 58 64
116 49 53
123 56 61
114 45 49
120 50 54
133 62 67
119 52 56
124 55 60
124 49 54
119 52 56
125 55 60
121 50 55
126 57 62
123 55 60
125 57 62
121 53 57
127 53 58
125 55 60
121 51 55
124 54 59
123 53 58
125 56 61
123 49 53
132 61 67
132 61 66
129 58 63
132 61 66
139 69 76
123 54 59
138 68 74
135 64 70
133 63 69
132 62 68
131 58 63
133 66 72
134 64 70
136 67 73
138 67 73
137 69 75
143 74 81
133 65 71
129 63 69
132 66 72
138 70 77
142 70 77
141 73 80
138 67 74
139 70 77
142 73 81
134 67 74
145 75 82
149 82 90
164 141 161
195 219 253
196 222 255
196 222 255
196 222 255
196 222 255
196 222 255
196 222 255
196 222 255
196 222 255
196 222 255
196 222 255
196 222 255
196 222 255
196 222 255
197 222 255
197 222 255
197 222 255
197 222 255
197 222 255
197 222 255
197 222 255
197 222 255
197 222 255
197 222 255
197 222 255
197 222 255
197 222 255
197 222 255
197 222 255
197 223 255
198 223 255
198 223 255
198 223 255
198 223 255
198 223 255
198 223 255
198 223 255
198 223 255
198 223 255
198 223 255
198 223 255
198 223 255
198 223 255
198 223 255
198 223 255
199 223 255
199 223 255
199 223 255
199 223 255
199 223 255
199 223 255
199 223 255
199 223 255
199 223 255
199 223 255
199 223 255
199 223 255
199 224 255
199 224 255
200 224 255
200 224 255
200 224 255
200 224 255
200 224 255
200 224 255
200 224 255
200 224 255
200 224 255
200 224 255
200 224 255
200 224 255
200 224 255
200 224 255
201 224 255
201 224 255
201 224 255
201 224 255
201 224 255
201 224 255
201 224 255
201 224 255
201 224 255
201 224 255
201 224 255
201 225 255
201 225 255
201 225 255
201 225 255
202 225 255
202 225 255
202 225 255
202 225 255
202 225 255
202 225 255
202 225 255
202 225 255
202 225 255
202 225 255
202 225 255
202 225 255
202 225 255
202 225 255
202 225 255
203 225 255
203 225 255
203 225 255
203 225 255
203 225 255
203 225 255
203 225 255
203 225 255
203 225 255
203 226 255
203 226 255
203 226 255
203 226 255
203 226 255
203 226 255
203 226 255
203 226 255
204 226 255
204 226 255
204 226 255
204 226 255
204 226 255
204 226 255
204 226 255
204 226 255
204 226 255
204 226 255
204 226 255
204 226 255
204 226 255
204 226 255
204 226 255
204 226 255
204 226 255
205 226 255
205 226 255
205 226 255
205 226 255
205 226 255
205 226 255
205 226 255
205 227 255
205 227 255
205 227 255
205 227 255
205 227 255
205 227 255
205 227 255
205 227 255
205 227 255
205 227 255
205 227 255
205 227 255
205 227 255
205 227 255
205 227 255
205 227 255
205 226 255
205 226 255
205 226 255
205 226 255
205 226 255
205 226 255
205 226 255
204 226 255
204 226 255
204 226 255
204 226 255
204 226 255
204 226 255
204 226 255
204 226 255
204 226 255
204 226 255
204 226 255
204 226 255
204 226 255
204 226 255
204 226 255
204 226 255
204 226 255
204 226 255
203 226 255
203 226 255
203 226 255
203 226 255
203 226 255
203 226 255
203 226 255
203 225 255
203 225 255
203 225 255
203 225 255
203 225 255
203 225 255
203 225 255
203 225 255
203 225 255
202 225 255
202 225 255
202 225 255
202 225 255
202 225 255
202 225 255
202 225 255
202 225 255
202 225 255
202 225 255
202 225 255
202 225 255
202 225 255
202 225 255
202 225 255
201 225 255
201 225 255
201 225 255
201 225 255
201 225 255
201 224 255
201 224 255
201 224 255
201 224 255
201 224 255
201 224 255
201 224 255
201 224 255
201 224 255
201 224 255
200 224 255
200 224 255
200 224 255
200 224 255
200 224 255
200 224 255
200 224 255
200 224 255
200 224 255
200 224 255
200 224 255
200 224 255
200 224 255
200 224 255
199 224 255
199 224 255
199 224 255
199 223 255
199 223 255
199 223 255
199 223 255
199 223 255
199 223 255
199 223 255
199 223 255
199 223 255
199 223 255
199 223 255
199 223 255
198 223 255
198 223 255
198 223 255
198 223 255
198 223 255
198 223 255
198 223 255
198 223 255
198 223 255
198 223 255
198 223 255
198 223 255
198 223 255
198 223 255
197 223 255
197 222 255
197 222 255
197 222 255
197 222 255
197 222 255
197 222 255
197 222 255
197 222 255
197 222 255
197 222 255
197 222 255
197 222 255
197 222 255
197 222 255
197 222 255
196 222 255
196 222 255
196 222 255
196 222 255
196 222 255
196 222 255
196 222 255
196 222 255
196 222 255
196 222 255
196 222 255
196 222 255
195 219 253
163 132 150
143 76 83
140 71 79
137 69 75
141 72 79
140 74 81
138 72 79
139 71 78
137 70 77
123 59 65
137 69 75
134 69 76
128 62 68
140 72 79
134 65 71
133 67 74
135 66 72
130 62 68
133 62 68
129 63 69
126 59 65
127 61 67
131 65 71
130 60 66
132 64 70
125 57 63
124 56 61
128 61 67
129 60 65
129 62 68
123 57 62
124 59 65
122 56 61
124 58 63
128 60 65
120 54 59
124 51 56
126 60 65
127 61 67
129 61 67
120 50 55
120 51 56
125 56 61
123 55 60
124 53 58
119 54 59
119 51 55
127 62 67
129 61 67
127 58 63
125 56 61
123 56 60
127 58 64
120 53 57
124 53 57
128 58 63
129 60 66
129 58 63
128 59 64
130 61 66
125 51 56
130 60 66
127 57 62
127 59 65
132 64 70
127 59 64
130 60 66
132 63 69
130 61 67
131 61 67
132 63 69
129 59 64
126 56 62
126 56 61
131 62 68
133 66 73
132 63 69
138 68 75
130 65 71
134 65 71
131 63 69
131 67 74
139 67 74
134 65 71
137 67 73
143 74 81
141 71 78
143 75 82
136 67 73
141 71 78
142 72 79
135 65 72
147 78 86
140 70 77
137 67 74
162 135 154
195 221 254
196 222 255
196 222 255
196 222 255
196 222 255
196 222 255
196 222 255
196 222 255
196 222 255
196 222 255
196 222 255
196 222 255
196 222 255
197 222 255
197 222 255
197 222 255
197 222 255
197 222 255
197 222 255
197 222 255
197 222 255
197 222 255
197 222 255
197 222 255
197 222 255
197 222 255
197 222 255
197 222 255
197 223 255
198 223 255
198 223 255
198 223 255
198 223 255
198 223 255
198 223 255
198 223 255
198 223 255
198 223 255
198 223 255
198 223 255
198 223 255
198 223 255
198 223 255
199 223 255
199 223 255
199 223 255
199 223 255
199 223 255
199 223 255
199 223 255
199 223 255
199 223 255
199 223 255
199 223 255
199 223 255
199 223 255
199 224 255
199 224 255
200 224 255
200 224 255
200 224 255
200 224 255
200 224 255
200 224 255
200 224 255
200 224 255
200 224 255
200 224 255
200 224 255
200 224 255
200 224 255
200 224 255
201 224 255
201 224 255
201 224 255
201 224 255
201 224 255
201 224 255
201 224 255
201 224 255
201 224 255
201 224 255
201 225 255
201 225 255
201 225 255
201 225 255
201 225 255
202 225 255
202 225 255
202 225 255
202 225 255
202 225 255
202 225 255
202 225 255
202 225 255
202 225 255
202 225 255
202 225 255
202 225 255
202 225 255
202 225 255
202 225 255
203 225 255
203 225 255
203 225 255
203 225 255
203 225 255
203 225 255
203 225 255
203 225 255
203 225 255
203 226 255
203 226 255
203 226 255
203 226 255
203 226 255
203 226 255
203 226 255
204 226 255
204 226 255
204 226 255
204 226 255
204 226 255
204 226 255
204 226 255
204 226 255
204 226 255
204 226 255
204 226 255
204 226 255
204 226 255
204 226 255
204 226 255
204 226 255
204 226 255
204 226 255
205 226 255
205 226 255
205 226 255
205 226 255
205 226 255
205 226 255
205 226 255
205 227 255
205 227 255
205 227 255
205 227 255
205 227 255
205 227 255
205 227 255
205 227 255
205 227 255
205 227 255
205 227 255
205 227 255
205 227 255
205 227 255
205 227 255
205 227 255
205 227 255
205 227 255
205 227 255
205 227 255
205 227 255
205 226 255
205 226 255
205 226 255
205 226 255
205 226 255
205 226 255
205 226 255
204 226 255
204 226 255
204 226 255
204 226 255
204 226 255
204 226 255
204 226 255
204 226 255
204 226 255
204 226 255
204 226 255
204 226 255
204 226 255
204 226 255
204 226 255
204 226 255
204 226 255
203 226 255
203 226 255
203 226 255
203 226 255
203 226 255
203 226 255
203 226 255
203 225 255
203 225 255
203 225 255
203 225 255
203 225 255
203 225 255
203 225 255
203 225 255
203 225 255
202 225 255
202 225 255
202 225 255
202 225 255
202 225 255
202 225 255
202 225 255
202 225 255
202 225 255
202 225 255
202 225 255
202 225 255
202 225 255
202 225 255
202 225 255
201 225 255
201 225 255
201 225 255
201 225 255
201 225 255
201 224 255
201 224 255
201 224 255
201 224 255
201 224 255
201 224 255
201 224 255
201 224 255
201 224 255
201 224 255
200 224 255
200 224 255
200 224 255
200 224 255
200 224 255
200 224 255
200 224 255
200 224 255
200 224 255
200 224 255
200 224 255
200 224 255
200 224 255
200 224 255
199 224 255
199 224 255
199 224 255
199 223 255
199 223 255
199 223 255
199 223 255
199 223 255
199 223 255
199 223 255
199 223 255
199 223 255
199 223 255
199 223 255
199 223 255
198 223 255
198 223 255
198 223 255
198 223 255
198 223 255
198 223 255
198 223 255
198 223 255
198 223 255
198 223 255
198 223 255
198 223 255
198 223 255
198 223 255
198 223 255
197 222 255
197 222 255
197 222 255
197 222 255
197 222 255
197 222 255
197 222 255
197 222 255
197 222 255
197 222 255
197 222 255
197 222 255
197 222 255
197 222 255
197 222 255
197 222 255
196 222 255
196 222 255
196 222 255
196 222 255
196 222 255
196 222 255
196 222 255
196 222 255
196 222 255
196 222 255
194 219 252
157 130 148
137 70 77
140 72 79
136 68 75
141 74 81
134 66 73
136 68 75
134 65 72
130 64 71
137 71 78
134 68 75
132 67 74
133 67 73
141 71 78
131 62 68
135 64 71
136 68 74
134 70 76
136 69 75
131 66 72
131 65 70
125 60 65
127 62 68
136 68 75
131 65 71
123 56 61
133 66 73
135 70 76
128 62 68
130 59 64
130 62 68
118 46 50
125 58 63
125 57 62
127 58 63
129 61 67
126 60 65
127 60 66
126 61 67
119 52 57
128 58 64
122 55 60
123 57 62
128 56 61
122 55 60
123 57 62
127 58 63
123 56 61
130 61 66
127 57 62
130 60 65
123 55 60
128 60 65
127 59 64
130 62 68
122 54 58
124 55 60
121 51 56
131 61 66
127 57 62
130 58 64
133 62 68
134 64 70
131 61 67
130 61 66
128 59 64
136 65 70
128 58 63
129 59 65
138 66 72
131 63 69
135 65 71
138 69 75
131 63 69
132 66 73
128 60 66
139 69 76
131 63 69
132 61 67
140 71 78
138 70 76
139 70 77
134 68 74
140 71 78
138 70 77
138 71 78
138 69 76
138 68 74
139 70 77
136 68 76
143 73 80
135 63 70
147 80 88
166 142 162
195 219 253
196 222 255
196 222 255
196 222 255
196 222 255
196 222 255
196 222 255
196 222 255
196 222 255
196 222 255
196 222 255
197 222 255
197 222 255
197 222 255
197 222 255
197 222 255
197 222 255
197 222 255
197 222 255
197 222 255
197 222 255
197 222 255
197 222 255
197 222 255
197 222 255
197 222 255
197 222 255
198 223 255
198 223 255
198 223 255
198 223 255
198 223 255
198 223 255
198 223 255
198 223 255
198 223 255
198 223 255
198 223 255
198 223 255
198 223 255
198 223 255
198 223 255
199 223 255
199 223 255
199 223 255
199 223 255
199 223 255
199 223 255
199 223 255
199 223 255
199 223 255
199 223 255
199 223 255
199 223 255
199 224 255
199 224 255
199 224 255
200 224 255
200 224 255
200 224 255
200 224 255
200 224 255
200 224 255
200 224 255
200 224 255
200 224 255
200 224 255
200 224 255
200 224 255
200 224 255
200 224 255
201 224 255
201 224 255
201 224 255
201 224 255
201 224 255
201 224 255
201 224 255
201 224 255
201 224 255
201 224 255
201 225 255
201 225 255
201 225 255
201 225 255
201 225 255
202 225 255
202 225 255
202 225 255
202 225 255
202 225 255
202 225 255
202 225 255
202 225 255
202 225 255
202 225 255
202 225 255
202 225 255
202 225 255
202 225 255
202 225 255
203 225 255
203 225 255
203 225 255
203 225 255
203 225 255
203 225 255
203 225 255
203 225 255
203 225 255
203 226 255
203 226 255
203 226 255
203 226 255
203 226 255
203 226 255
203 226 255
204 226 255
204 226 255
204 226 255
204 226 255
204 226 255
204 226 255
204 226 255
204 226 255
204 226 255
204 226 255
204 226 255
204 226 255
204 226 255
204 226 255
204 226 255
204 226 255
204 226 255
205 226 255
205 226 255
205 226 255
205 226 255
205 226 255
205 226 255
205 226 255
205 227 255
205 227 255
205 227 255
205 227 255
205 227 255
205 227 255
205 227 255
205 227 255
205 227 255
205 227 255
205 227 255
205 227 255
206 227 255
206 227 255
206 227 255
205 227 255
205 227 255
205 227 255
205 227 255
205 227 255
205 227 255
205 227 255
205 227 255
205 227 255
205 227 255
205 227 255
205 226 255
205 226 255
205 226 255
205 226 255
205 226 255
205 226 255
205 226 255
204 226 255
204 226 255
204 226 255
204 226 255
204 226 255
204 226 255
204 226 255
204 226 255
204 226 255
204 226 255
204 226 255
204 226 255
204 226 255
204 226 255
204 226 255
204 226 255
204 226 255
203 226 255
203 226 255
203 226 255
203 226 255
203 226 255
203 226 255
203 226 255
203 226 255
203 225 255
203 225 255
203 225 255
203 225 255
203 225 255
203 225 255
203 225 255
203 225 255
202 225 255
202 225 255
202 225 255
202 225 255
202 225 255
202 225 255
202 225 255
202 225 255
202 225 255
202 225 255
202 225 255
202 225 255
202 225 255
202 225 255
202 225 255
202 225 255
201 225 255
201 225 255
201 225 255
201 225 255
201 224 255
201 224 255
201 224 255
201 224 255
201 224 255
201 224 255
201 224 255
201 224 255
201 224 255
201 224 255
200 224 255
200 224 255
200 224 255
200 224 255
200 224 255
200 224 255
200 224 255
200 224 255
200 224 255
200 224 255
200 224 255
200 224 255
200 224 255
200 224 255
200 224 255
199 224 255
199 224 255
199 223 255
199 223 255
199 223 255
199 223 255
199 223 255
199 223 255
199 223 255
199 223 255
199 223 255
199 223 255
199 223 255
199 223 255
198 223 255
198 223 255
198 223 255
198 223 255
198 223 255
198 223 255
198 223 255
198 223 255
198 223 255
198 223 255
198 223 255
198 223 255
198 223 255
198 223 255
198 223 255
197 223 255
197 222 255
197 222 255
197 222 255
197 222 255
197 222 255
197 222 255
197 222 255
197 222 255
197 222 255
197 222 255
197 222 255
197 222 255
197 222 255
197 222 255
197 222 255
197 222 255
196 222 255
196 222 255
196 222 255
196 222 255
196 222 255
196 222 255
196 222 255
196 222 255
193 217 250
159 127 145
145 80 88
139 71 78
139 75 82
135 67 73
140 72 79
140 72 79
129 64 70
141 77 84
136 71 78
140 71 78
135 69 76
138 71 78
137 70 77
129 62 68
134 66 73
131 60 66
127 59 64
127 58 64
135 70 77
133 69 76
134 68 74
123 61 66
134 66 71
129 61 67
130 66 72
123 59 65
133 65 71
130 62 68
122 56 61
130 61 67
120 56 61
126 58 63
127 61 67
129 63 68
131 61 66
123 53 58
132 61 67
130 59 64
119 52 57
128 61 66
127 62 68
124 56 61
129 61 67
126 56 61
122 56 61
123 55 60
123 51 55
126 58 63
127 52 57
128 62 67
131 60 65
130 62 67
130 61 66
127 54 58
132 65 71
125 58 63
132 61 66
128 57 62
134 63 69
130 62 67
135 69 75
129 59 65
128 61 66
130 61 66
132 63 69
140 71 78
134 64 71
134 62 67
133 65 71
131 63 69
135 67 73
134 66 72
129 61 67
136 69 75
144 78 86
133 64 70
139 68 74
134 67 73
131 62 68
138 68 74
134 65 71
138 71 78
137 71 78
137 71 78
141 74 81
141 70 77
138 70 77
142 72 80
142 74 81
137 69 76
162 131 149
196 220 253
196 222 255
196 222 255
196 222 255
196 222 255
196 222 255
196 222 255
196 222 255
196 222 255
197 222 255
197 222 255
197 222 255
197 222 255
197 222 255
197 222 255
197 222 255
197 222 255
197 222 255
197 222 255
197 222 255
197 222 255
197 222 255
197 222 255
197 222 255
197 222 255
197 223 255
198 223 255
198 223 255
198 223 255
198 223 255
198 223 255
198 223 255
198 223 255
198 223 255
198 223 255
198 223 255
198 223 255
198 223 255
198 223 255
198 223 255
198 223 255
199 223 255
199 223 255
199 223 255
199 223 255
199 223 255
199 223 255
199 223 255
199 223 255
199 223 255
199 223 255
199 223 255
199 223 255
199 224 255
199 224 255
200 224 255
200 224 255
200 224 255
200 224 255
200 224 255
200 224 255
200 224 255
200 224 255
200 224 255
200 224 255
200 224 255
200 224 255
200 224 255
200 224 255
200 224 255
201 224 255
201 224 255
201 224 255
201 224 255
201 224 255
201 224 255
201 224 255
201 224 255
201 224 255
201 224 255
201 225 255
201 225 255
201 225 255
201 225 255
202 225 255
202 225 255
202 225 255
202 225 255
202 225 255
202 225 255
202 225 255
202 225 255
202 225 255
202 225 255
202 225 255
202 225 255
202 225 255
202 225 255
202 225 255
202 225 255
203 225 255
203 225 255
203 225 255
203 225 255
203 225 255
203 225 255
203 225 255
203 225 255
203 226 255
203 226 255
203 226 255
203 226 255
203 226 255
203 226 255
203 226 255
203 226 255
204 226 255
204 226 255
204 226 255
204 226 255
204 226 255
204 226 255
204 226 255
204 226 255
204 226 255
204 226 255
204 226 255
204 226 255
204 226 255
204 226 255
204 226 255
204 226 255
204 226 255
205 226 255
205 226 255
205 226 255
205 226 255
205 226 255
205 226 255
205 226 255
205 227 255
205 227 255
205 227 255
205 227 255
205 227 255
205 227 255
205 227 255
205 227 255
205 227 255
205 227 255
205 227 255
206 227 255
206 227 255
206 227 255
206 227 255
206 227 255
206 227 255
206 227 255
206 227 255
205 227 255
205 227 255
205 227 255
205 227 255
205 227 255
205 227 255
205 227 255
205 227 255
205 227 255
205 227 255
205 227 255
205 227 255
205 226 255
205 226 255
205 226 255
205 226 255
205 226 255
205 226 255
205 226 255
204 226 255
204 226 255
204 226 255
204 226 255
204 226 255
204 226 255
204 226 255
204 226 255
204 226 255
204 226 255
204 226 255
204 226 255
204 226 255
204 226 255
204 226 255
204 226 255
204 226 255
203 226 255
203 226 255
203 226 255
203 226 255
203 226 255
203 226 255
203 226 255
203 225 255
203 225 255
203 225 255
203 225 255
203 225 255
203 225 255
203 225 255
203 225 255
203 225 255
202 225 255
202 225 255
202 225 255
202 225 255
202 225 255
202 225 255
202 225 255
202 225 255
202 225 255
202 225 255
202 225 255
202 225 255
202 225 255
202 225 255
202 225 255
201 225 255
201 225 255
201 225 255
201 225 255
201 224 255
201 224 255
201 224 255
201 224 255
201 224 255
201 224 255
201 224 255
201 224 255
201 224 255
201 224 255
200 224 255
200 224 255
200 224 255
200 224 255
200 224 255
200 224 255
200 224 255
200 224 255
200 224 255
200 224 255
200 224 255
200 224 255
200 224 255
200 224 255
200 224 255
199 224 255
199 224 255
199 223 255
199 223 255
199 223 255
199 223 255
199 223 255
199 223 255
199 223 255
199 223 255
199 223 255
199 223 255
199 223 255
199 223 255
198 223 255
198 223 255
198 223 255
198 223 255
198 223 255
198 223 255
198 223 255
198 223 255
198 223 255
198 223 255
198 223 255
198 223 255
198 223 255
198 223 255
198 223 255
198 223 255
197 222 255
197 222 255
197 222 255
197 222 255
197 222 255
197 222 255
197 222 255
197 222 255
197 222 255
197 222 255
197 222 255
197 222 255
197 222 255
197 222 255
197 222 255
197 222 255
197 222 255
196 222 255
196 222 255
196 222 255
196 222 255
196 222 255
196 222 255
194 218 251
160 135 154
145 77 85
138 70 77
141 70 77
136 67 74
136 69 76
131 65 71
138 69 76
133 68 74
137 70 76
131 65 72
133 67 73
135 69 75
134 67 73
134 67 73
135 68 75
135 70 76
138 72 79
132 65 71
134 69 76
128 59 65
130 66 72
128 64 70
134 68 74
123 58 64
139 70 77
130 65 71
133 67 73
130 62 67
132 62 68
127 61 67
131 66 71
132 64 70
129 62 68
123 55 60
126 60 65
123 56 61
124 55 60
130 60 66
129 62 67
121 55 60
117 51 56
125 57 62
118 47 52
120 56 61
127 60 66
133 63 68
132 61 67
131 61 67
127 57 62
125 57 62
131 60 66
134 64 70
132 63 69
129 60 66
126 56 62
126 55 60
133 62 68
127 55 60
139 68 74
129 57 62
126 59 64
135 65 71
138 69 75
132 62 68
133 65 71
131 63 68
138 67 73
129 61 67
139 70 76
130 62 68
139 68 74
130 62 68
136 68 75
136 68 74
133 66 72
134 63 69
142 73 80
134 67 73
138 70 76
138 72 79
138 72 80
136 70 78
139 72 79
135 67 73
146 78 86
145 76 83
139 71 78
143 72 79
157 131 150
196 221 254
196 222 255
196 222 255
196 222 255
196 222 255
196 222 255
196 222 255
197 222 255
197 222 255
197 222 255
197 222 255
197 222 255
197 222 255
197 222 255
197 222 255
197 222 255
197 222 255
197 222 255
197 222 255
197 222 255
197 222 255
197 222 255
197 222 255
197 222 255
198 223 255
198 223 255
198 223 255
198 223 255
198 223 255
198 223 255
198 223 255
198 223 255
198 223 255
198 223 255
198 223 255
198 223 255
198 223 255
198 223 255
198 223 255
198 223 255
199 223 255
199 223 255
199 223 255
199 223 255
199 223 255
199 223 255
199 223 255
199 223 255
199 223 255
199 223 255
199 223 255
199 223 255
199 224 255
199 224 255
200 224 255
200 224 255
200 224 255
200 224 255
200 224 255
200 224 255
200 224 255
200 224 255
200 224 255
200 224 255
200 224 255
200 224 255
200 224 255
200 224 255
200 224 255
201 224 255
201 224 255
201 224 255
201 224 255
201 224 255
201 224 255
201 224 255
201 224 255
201 224 255
201 224 255
201 225 255
201 225 255
201 225 255
201 225 255
202 225 255
202 225 255
202 225 255
202 225 255
202 225 255
202 225 255
202 225 255
202 225 255
202 225 255
202 225 255
202 225 255
202 225 255
202 225 255
202 225 255
202 225 255
203 225 255
203 225 255
203 225 255
203 225 255
203 225 255
203 225 255
203 225 255
203 225 255
203 225 255
203 226 255
203 226 255
203 226 255
203 226 255
203 226 255
203 226 255
203 226 255
204 226 255
204 226 255
204 226 255
204 226 255
204 226 255
204 226 255
204 226 255
204 226 255
204 226 255
204 226 255
204 226 255
204 226 255
204 226 255
204 226 255
204 226 255
204 226 255
204 226 255
205 226 255
205 226 255
205 226 255
205 226 255
205 226 255
205 226 255
205 226 255
205 227 255
205 227 255
205 227 255
205 227 255
205 227 255
205 227 255
205 227 255
205 227 255
205 227 255
205 227 255
205 227 255
205 227 255
206 227 255
206 227 255
206 227 255
206 227 255
206 227 255
206 227 255
206 227 255
206 227 255
206 227 255
206 227 255
206 227 255
206 227 255
206 227 255
205 227 255
205 227 255
205 227 255
205 227 255
205 227 255
205 227 255
205 227 255
205 227 255
205 227 255
205 227 255
205 227 255
205 226 255
205 226 255
205 226 255
205 226 255
205 226 255
205 226 255
205 226 255
204 226 255
204 226 255
204 226 255
204 226 255
204 226 255
204 226 255
204 226 255
204 226 255
204 226 255
204 226 255
204 226 255
204 226 255
204 226 255
204 226 255
204 226 255
204 226 255
204 226 255
203 226 255
203 226 255
203 226 255
203 226 255
203 226 255
203 226 255
203 226 255
203 225 255
203 225 255
203 225 255
203 225 255
203 225 255
203 225 255
203 225 255
203 225 255
203 225 255
202 225 255
202 225 255
202 225 255
202 225 255
202 225 255
202 225 255
202 225 255
202 225 255
202 225 255
202 225 255
202 225 255
202 225 255
202 225 255
202 225 255
202 225 255
201 225 255
201 225 255
201 225 255
201 225 255
201 224 255
201 224 255
201 224 255
201 224 255
201 224 255
201 224 255
201 224 255
201 224 255
201 224 255
201 224 255
201 224 255
200 224 255
200 224 255
200 224 255
200 224 255
200 224 255
200 224 255
200 224 255
200 224 255
200 224 255
200 224 255
200 224 255
200 224 255
200 224 255
200 224 255
199 224 255
199 224 255
199 223 255
199 223 255
199 223 255
199 223 255
199 223 255
199 223 255
199 223 255
199 223 255
199 223 255
199 223 255
199 223 255
199 223 255
199 223 255
198 223 255
198 223 255
198 223 255
198 223 255
198 223 255
198 223 255
198 223 255
198 223 255
198 223 255
198 223 255
198 223 255
198 223 255
198 223 255
198 223 255
198 223 255
197 223 255
197 222 255
197 222 255
197 222 255
197 222 255
197 222 255
197 222 255
197 222 255
197 222 255
197 222 255
197 222 255
197 222 255
197 222 255
197 222 255
197 222 255
197 222 255
197 222 255
197 222 255
196 222 255
196 222 255
196 222 255
196 222 255
196 221 254
157 128 146
139 69 76
138 70 77
138 69 76
137 69 76
144 74 82
133 67 74
135 68 74
142 75 83
140 72 80
140 74 82
138 72 79
135 69 75
130 63 69
133 68 74
142 74 81
140 74 82
130 69 75
133 65 71
134 66 73
132 68 74
133 70 77
133 66 72
141 72 79
129 62 68
129 60 66
135 68 74
136 67 74
131 64 70
126 60 65
123 59 64
128 62 68
131 66 72
129 64 70
124 58 63
134 64 70
130 60 66
127 62 68
126 54 59
115 50 54
124 55 60
121 54 59
128 61 66
120 51 55
124 56 61
126 58 64
132 60 66
126 57 63
129 64 69
129 60 66
129 63 68
125 54 59
133 62 68
128 56 61
133 61 66
132 62 68
128 62 67
131 61 67
129 58 63
134 65 71
134 67 73
131 64 69
132 59 65
138 72 79
141 73 80
133 65 71
130 59 65
135 66 73
139 71 77
132 64 70
134 68 74
136 70 77
137 69 76
126 58 64
139 71 78
136 68 75
135 66 72
139 74 81
138 68 75
138 69 75
144 76 83
140 73 80
140 71 78
142 76 84
146 76 83
140 70 77
147 79 88
159 131 150
195 219 252
196 222 255
196 222 255
196 222 255
196 222 255
197 222 255
197 222 255
197 222 255
197 222 255
197 222 255
197 222 255
197 222 255
197 222 255
197 222 255
197 222 255
197 222 255
197 222 255
197 222 255
197 222 255
197 222 255
197 222 255
197 222 255
197 223 255
198 223 255
198 223 255
198 223 255
198 223 255
198 223 255
198 223 255
198 223 255
198 223 255
198 223 255
198 223 255
198 223 255
198 223 255
198 223 255
198 223 255
198 223 255
199 223 255
199 223 255
199 223 255
199 223 255
199 223 255
199 223 255
199 223 255
199 223 255
199 223 255
199 223 255
199 223 255
199 223 255
199 223 255
199 224 255
199 224 255
200 224 255
200 224 255
200 224 255
200 224 255
200 224 255
200 224 255
200 224 255
200 224 255
200 224 255
200 224 255
200 224 255
200 224 255
200 224 255
200 224 255
201 224 255
201 224 255
201 224 255
201 224 255
201 224 255
201 224 255
201 224 255
201 224 255
201 224 255
201 224 255
201 224 255
201 225 255
201 225 255
201 225 255
201 225 255
202 225 255
202 225 255
202 225 255
202 225 255
202 225 255
202 225 255
202 225 255
202 225 255
202 225 255
202 225 255
202 225 255
202 225 255
202 225 255
202 225 255
202 225 255
203 225 255
203 225 255
203 225 255
203 225 255
203 225 255
203 225 255
203 225 255
203 225 255
203 225 255
203 226 255
203 226 255
203 226 255
203 226 255
203 226 255
203 226 255
203 226 255
204 226 255
204 226 255
204 226 255
204 226 255
204 226 255
204 226 255
204 226 255
204 226 255
204 226 255
204 226 255
204 226 255
204 226 255
204 226 255
204 226 255
204 226 255
204 226 255
204 226 255
205 226 255
205 226 255
205 226 255
205 226 255
205 226 255
205 226 255
205 226 255
205 227 255
205 227 255
205 227 255
205 227 255
205 227 255
205 227 255
205 227 255
205 227 255
205 227 255
205 227 255
205 227 255
206 227 255
206 227 255
206 227 255
206 227 255
206 227 255
206 227 255
206 227 255
206 227 255
206 227 255
206 227 255
206 227 255
206 227 255
206 227 255
206 227 255
206 227 255
206 227 255
206 227 255
206 227 255
206 227 255
205 227 255
205 227 255
205 227 255
205 227 255
205 227 255
205 227 255
205 227 255
205 227 255
205 227 255
205 227 255
205 227 255
205 226 255
205 226 255
205 226 255
205 226 255
205 226 255
205 226 255
205 226 255
204 226 255
204 226 255
204 226 255
204 226 255
204 226 255
204 226 255
204 226 255
204 226 255
204 226 255
204 226 255
204 226 255
204 226 255
204 226 255
204 226 255
204 226 255
204 226 255
203 226 255
203 226 255
203 226 255
203 226 255
203 226 255
203 226 255
203 226 255
203 226 255
203 225 255
203 225 255
203 225 255
203 225 255
203 225 255
203 225 255
203 225 255
203 225 255
202 225 255
202 225 255
202 225 255
202 225 255
202 225 255
202 225 255
202 225 255
202 225 255
202 225 255
202 225 255
202 225 255
202 225 255
202 225 255
202 225 255
202 225 255
201 225 255
201 225 255
201 225 255
201 225 255
201 225 255
201 224 255
201 224 255
201 224 255
201 224 255
201 224 255
201 224 255
201 224 255
201 224 255
201 224 255
201 224 255
200 224 255
200 224 255
200 224 255
200 224 255
200 224 255
200 224 255
200 224 255
200 224 255
200 224 255
200 224 255
200 224 255
200 224 255
200 224 255
200 224 255
199 224 255
199 224 255
199 224 255
199 223 255
199 223 255
199 223 255
199 223 255
199 223 255
199 223 255
199 223 255
199 223 255
199 223 255
199 223 255
199 223 255
199 223 255
198 223 255
198 223 255
198 223 255
198 223 255
198 223 255
198 223 255
198 223 255
198 223 255
198 223 255
198 223 255
198 223 255
198 223 255
198 223 255
198 223 255
198 223 255
198 223 255
197 222 255
197 222 255
197 222 255
197 222 255
197 222 255
197 222 255
197 222 255
197 222 255
197 222 255
197 222 255
197 222 255
197 222 255
197 222 255
197 222 255
197 222 255
197 222 255
197 222 255
197 222 255
196 222 255
196 222 255
195 219 252
161 131 149
141 73 81
139 72 79
136 71 79
144 77 85
141 74 81
136 68 74
132 67 74
136 70 77
140 74 82
140 74 82
129 63 70
136 66 73
135 68 75
135 69 76
135 71 78
136 73 80
137 70 77
138 74 81
134 69 76
128 64 70
126 64 70
134 66 72
138 69 76
128 62 68
134 67 73
119 57 63
130 65 71
128 62 68
128 63 68
128 61 67
132 66 73
132 65 71
126 62 68
130 63 69
130 62 68
124 59 64
127 63 69
135 66 72
128 59 65
129 63 68
126 56 61
128 60 66
125 57 62
129 63 69
122 53 58
133 64 70
131 61 66
130 61 66
131 58 64
124 57 62
126 61 67
131 61 67
128 61 67
132 63 69
133 64 70
125 56 61
133 66 72
132 66 72
135 65 71
128 59 65
137 67 73
133 62 68
137 68 75
137 70 76
135 65 71
137 68 75
130 61 67
140 73 80
135 66 73
139 70 76
145 76 83
138 72 79
143 77 85
143 74 82
138 72 79
135 67 74
137 68 75
137 69 76
138 68 75
138 70 77
141 72 79
139 67 73
141 71 78
136 65 72
163 137 157
195 220 253
196 222 255
196 222 255
197 222 255
197 222 255
197 222 255
197 222 255
197 222 255
197 222 255
197 222 255
197 222 255
197 222 255
197 222 255
197 222 255
197 222 255
197 222 255
197 222 255
197 222 255
197 222 255
197 222 255
197 222 255
198 223 255
198 223 255
198 223 255
198 223 255
198 223 255
198 223 255
198 223 255
198 223 255
198 223 255
198 223 255
198 223 255
198 223 255
198 223 255
198 223 255
198 223 255
198 223 255
199 223 255
199 223 255
199 223 255
199 223 255
199 223 255
199 223 255
199 223 255
199 223 255
199 223 255
199 223 255
199 223 255
199 223 255
199 224 255
199 224 255
199 224 255
200 224 255
200 224 255
200 224 255
200 224 255
200 224 255
200 224 255
200 224 255
200 224 255
200 224 255
200 224 255
200 224 255
200 224 255
200 224 255
200 224 255
201 224 255
201 224 255
201 224 255
201 224 255
201 224 255
201 224 255
201 224 255
201 224 255
201 224 255
201 224 255
201 225 255
201 225 255
201 225 255
201 225 255
201 225 255
202 225 255
202 225 255
202 225 255
202 225 255
202 225 255
202 225 255
202 225 255
202 225 255
202 225 255
202 225 255
202 225 255
202 225 255
202 225 255
202 225 255
202 225 255
203 225 255
203 225 255
203 225 255
203 225 255
203 225 255
203 225 255
203 225 255
203 225 255
203 226 255
203 226 255
203 226 255
203 226 255
203 226 255
203 226 255
203 226 255
204 226 255
204 226 255
204 226 255
204 226 255
204 226 255
204 226 255
204 226 255
204 226 255
204 226 255
204 226 255
204 226 255
204 226 255
204 226 255
204 226 255
204 226 255
204 226 255
204 226 255
205 226 255
205 226 255
205 226 255
205 226 255
205 226 255
205 226 255
205 226 255
205 227 255
205 227 255
205 227 255
205 227 255
205 227 255
205 227 255
205 227 255
205 227 255
205 227 255
205 227 255
205 227 255
206 227 255
206 227 255
206 227 255
206 227 255
206 227 255
206 227 255
206 227 255
206 227 255
206 227 255
206 227 255
206 227 255
206 227 255
206 227 255
206 227 255
206 227 255
206 227 255
206 227 255
206 227 255
206 227 255
206 227 255
206 227 255
206 227 255
206 227 255
206 227 255
205 227 255
205 227 255
205 227 255
205 227 255
205 227 255
205 227 255
205 227 255
205 227 255
205 227 255
205 227 255
205 227 255
205 226 255
205 226 255
205 226 255
205 226 255
205 226 255
205 226 255
205 226 255
204 226 255
204 226 255
204 226 255
204 226 255
204 226 255
204 226 255
204 226 255
204 226 255
204 226 255
204 226 255
204 226 255
204 226 255
204 226 255
204 226 255
204 226 255
204 226 255
204 226 255
203 226 255
203 226 255
203 226 255
203 226 255
203 226 255
203 226 255
203 226 255
203 225 255
203 225 255
203 225 255
203 225 255
203 225 255
203 225 255
203 225 255
203 225 255
203 225 255
202 225 255
202 225 255
202 225 255
202 225 255
202 225 255
202 225 255
202 225 255
202 225 255
202 225 255
202 225 255
202 225 255
202 225 255
202 225 255
202 225 255
202 225 255
201 225 255
201 225 255
201 225 255
201 225 255
201 224 255
201 224 255
201 224 255
201 224 255
201 224 255
201 224 255
201 224 255
201 224 255
201 224 255
201 224 255
200 224 255
200 224 255
200 224 255
200 224 255
200 224 255
200 224 255
200 224 255
200 224 255
200 224 255
200 224 255
200 224 255
200 224 255
200 224 255
200 224 255
200 224 255
199 224 255
199 224 255
199 223 255
199 223 255
199 223 255
199 223 255
199 223 255
199 223 255
199 223 255
199 223 255
199 223 255
199 223 255
199 223 255
199 223 255
198 223 255
198 223 255
198 223 255
198 223 255
198 223 255
198 223 255
198 223 255
198 223 255
198 223 255
198 223 255
198 223 255
198 223 255
198 223 255
198 223 255
198 223 255
198 223 255
197 223 255
197 222 255
197 222 255
197 222 255
197 222 255
197 222 255
197 222 255
197 222 255
197 222 255
197 222 255
197 222 255
197 222 255
197 222 255
197 222 255
197 222 255
197 222 255
197 222 255
197 222 255
197 222 255
195 218 251
159 129 147
143 75 82
139 69 76
138 73 80
136 72 79
135 69 76
134 66 73
138 73 80
141 74 81
134 68 74
135 74 82
128 60 66
135 70 77
137 71 78
134 70 77
134 67 73
135 67 74
132 69 76
129 65 71
137 69 76
133 67 73
130 64 70
136 64 70
132 65 71
133 66 72
130 64 70
129 58 63
136 70 76
124 61 67
132 66 73
129 64 70
132 65 71
129 63 69
128 58 63
126 62 68
129 66 72
127 60 65
127 61 67
121 55 60
128 60 66
123 56 61
127 63 69
129 61 67
126 55 60
131 62 68
128 59 64
134 62 67
137 68 75
131 59 64
124 57 62
133 65 71
128 57 63
132 64 70
136 67 73
134 63 69
136 69 76
132 64 70
130 59 65
134 67 73
134 65 71
137 69 76
131 67 73
138 71 78
135 67 73
130 64 70
142 75 82
136 70 77
129 65 71
134 66 72
135 70 77
135 67 73
144 76 83
135 68 74
139 71 78
138 69 76
140 72 79
145 78 85
142 75 83
141 71 79
144 73 81
142 74 81
143 71 78
141 68 75
160 128 146
195 218 251
197 222 255
197 222 255
197 222 255
197 222 255
197 222 255
197 222 255
197 222 255
197 222 255
197 222 255
197 222 255
197 222 255
197 222 255
197 222 255
197 222 255
197 222 255
197 222 255
197 222 255
197 222 255
198 223 255
198 223 255
198 223 255
198 223 255
198 223 255
198 223 255
198 223 255
198 223 255
198 223 255
198 223 255
198 223 255
198 223 255
198 223 255
198 223 255
198 223 255
198 223 255
199 223 255
199 223 255
199 223 255
199 223 255
199 223 255
199 223 255
199 223 255
199 223 255
199 223 255
199 223 255
199 223 255
199 223 255
199 223 255
199 224 255
199 224 255
200 224 255
200 224 255
200 224 255
200 224 255
200 224 255
200 224 255
200 224 255
200 224 255
200 224 255
200 224 255
200 224 255
200 224 255
200 224 255
200 224 255
200 224 255
201 224 255
201 224 255
201 224 255
201 224 255
201 224 255
201 224 255
201 224 255
201 224 255
201 224 255
201 224 255
201 225 255
201 225 255
201 225 255
201 225 255
202 225 255
202 225 255
202 225 255
202 225 255
202 225 255
202 225 255
202 225 255
202 225 255
202 225 255
202 225 255
202 225 255
202 225 255
202 225 255
202 225 255
202 225 255
203 225 255
203 225 255
203 225 255
203 225 255
203 225 255
203 225 255
203 225 255
203 225 255
203 225 255
203 226 255
203 226 255
203 226 255
203 226 255
203 226 255
203 226 255
203 226 255
204 226 255
204 226 255
204 226 255
204 226 255
204 226 255
204 226 255
204 226 255
204 226 255
204 226 255
204 226 255
204 226 255
204 226 255
204 226 255
204 226 255
204 226 255
204 226 255
204 226 255
205 226 255
205 226 255
205 226 255
205 226 255
205 226 255
205 226 255
205 226 255
205 227 255
205 227 255
205 227 255
205 227 255
205 227 255
205 227 255
205 227 255
205 227 255
205 227 255
205 227 255
205 227 255
206 227 255
206 227 255
206 227 255
206 227 255
206 227 255
206 227 255
206 227 255
206 227 255
206 227 255
206 227 255
206 227 255
206 227 255
206 227 255
206 227 255
206 227 255
206 227 255
206 227 255
206 227 255
206 227 255
206 227 255
206 227 255
206 227 255
206 227 255
206 227 255
206 227 255
206 227 255
206 227 255
206 227 255
206 227 255
205 227 255
205 227 255
205 227 255
205 227 255
205 227 255
205 227 255
205 227 255
205 227 255
205 227 255
205 227 255
205 227 255
205 226 255
205 226 255
205 226 255
205 226 255
205 226 255
205 226 255
205 226 255
204 226 255
204 226 255
204 226 255
204 226 255
204 226 255
204 226 255
204 226 255
204 226 255
204 226 255
204 226 255
204 226 255
204 226 255
204 226 255
204 226 255
204 226 255
204 226 255
203 226 255
203 226 255
203 226 255
203 226 255
203 226 255
203 226 255
203 226 255
203 225 255
203 225 255
203 225 255
203 225 255
203 225 255
203 225 255
203 225 255
203 225 255
203 225 255
202 225 255
202 225 255
202 225 255
202 225 255
202 225 255
202 225 255
202 225 255
202 225 255
202 225 255
202 225 255
202 225 255
202 225 255
202 225 255
202 225 255
202 225 255
201 225 255
201 225 255
201 225 255
201 225 255
201 224 255
201 224 255
201 224 255
201 224 255
201 224 255
201 224 255
201 224 255
201 224 255
201 224 255
201 224 255
201 224 255
200 224 255
200 224 255
200 224 255
200 224 255
200 224 255
200 224 255
200 224 255
200 224 255
200 224 255
200 224 255
200 224 255
200 224 255
200 224 255
200 224 255
199 224 255
199 224 255
199 223 255
199 223 255
199 223 255
199 223 255
199 223 255
199 223 255
199 223 255
199 223 255
199 223 255
199 223 255
199 223 255
199 223 255
199 223 255
198 223 255
198 223 255
198 223 255
198 223 255
198 223 255
198 223 255
198 223 255
198 223 255
198 223 255
198 223 255
198 223 255
198 223 255
198 223 255
198 223 255
198 223 255
198 223 255
197 223 255
197 222 255
197 222 255
197 222 255
197 222 255
197 222 255
197 222 255
197 222 255
197 222 255
197 222 255
197 222 255
197 222 255
197 222 255
197 222 255
197 222 255
197 222 255
197 222 255
196 220 253
161 133 152
144 77 85
141 72 80
137 70 77
142 73 81
137 72 79
131 63 69
138 73 80
136 67 74
137 72 80
135 69 75
133 65 72
135 72 79
139 72 79
132 67 73
129 67 73
131 66 73
131 66 72
131 61 66
135 66 72
131 68 74
136 64 71
126 61 67
129 63 69
137 72 79
133 66 72
122 55 60
131 66 72
126 60 65
135 70 76
138 70 77
126 59 65
129 60 66
129 65 71
137 71 77
135 70 76
127 60 66
138 69 76
129 61 67
126 60 66
125 58 64
129 63 69
129 60 66
131 65 71
125 54 60
135 66 72
133 65 71
136 68 74
126 57 62
135 68 74
130 61 67
135 65 71
136 66 72
129 62 68
133 66 72
131 62 68
131 63 69
136 64 70
145 79 87
135 65 71
130 66 73
138 68 75
135 69 75
134 66 72
136 69 76
137 68 75
135 62 68
133 63 69
149 80 87
136 69 76
139 70 77
141 71 79
138 71 78
136 68 75
136 68 75
140 74 82
137 69 76
148 82 90
142 75 83
137 72 79
145 77 85
166 143 163
195 219 252
197 222 255
197 222 255
197 222 255
197 222 255
197 222 255
197 222 255
197 222 255
197 222 255
197 222 255
197 222 255
197 222 255
197 222 255
197 222 255
197 222 255
197 222 255
197 222 255
197 223 255
198 223 255
198 223 255
198 223 255
198 223 255
198 223 255
198 223 255
198 223 255
198 223 255
198 223 255
198 223 255
198 223 255
198 223 255
198 223 255
198 223 255
198 223 255
198 223 255
199 223 255
199 223 255
199 223 255
199 223 255
199 223 255
199 223 255
199 223 255
199 223 255
199 223 255
199 223 255
199 223 255
199 223 255
199 223 255
199 224 255
199 224 255
200 224 255
200 224 255
200 224 255
200 224 255
200 224 255
200 224 255
200 224 255
200 224 255
200 224 255
200 224 255
200 224 255
200 224 255
200 224 255
200 224 255
201 224 255
201 224 255
201 224 255
201 224 255
201 224 255
201 224 255
201 224 255
201 224 255
201 224 255
201 224 255
201 224 255
201 225 255
201 225 255
201 225 255
201 225 255
202 225 255
202 225 255
202 225 255
202 225 255
202 225 255
202 225 255
202 225 255
202 225 255
202 225 255
202 225 255
202 225 255
202 225 255
202 225 255
202 225 255
202 225 255
203 225 255
203 225 255
203 225 255
203 225 255
203 225 255
203 225 255
203 225 255
203 225 255
203 225 255
203 226 255
203 226 255
203 226 255
203 226 255
203 226 255
203 226 255
203 226 255
204 226 255
204 226 255
204 226 255
204 226 255
204 226 255
204 226 255
204 226 255
204 226 255
204 226 255
204 226 255
204 226 255
204 226 255
204 226 255
204 226 255
204 226 255
204 226 255
205 226 255
205 226 255
205 226 255
205 226 255
205 226 255
205 226 255
205 226 255
205 227 255
205 227 255
205 227 255
205 227 255
205 227 255
205 227 255
205 227 255
205 227 255
205 227 255
205 227 255
205 227 255
206 227 255
206 227 255
206 227 255
206 227 255
206 227 255
206 227 255
206 227 255
206 227 255
206 227 255
206 227 255
206 227 255
206 227 255
206 227 255
206 227 255
206 227 255
206 227 255
206 227 255
206 227 255
206 227 255
206 227 255
206 227 255
206 227 255
206 227 255
206 227 255
206 227 255
206 227 255
206 227 255
206 227 255
206 227 255
206 227 255
206 227 255
206 227 255
206 227 255
206 227 255
205 227 255
205 227 255
205 227 255
205 227 255
205 227 255
205 227 255
205 227 255
205 227 255
205 227 255
205 227 255
205 227 255
205 226 255
205 226 255
205 226 255
205 226 255
205 226 255
205 226 255
205 226 255
204 226 255
204 226 255
204 226 255
204 226 255
204 226 255
204 226 255
204 226 255
204 226 255
204 226 255
204 226 255
204 226 255
204 226 255
204 226 255
204 226 255
204 226 255
204 226 255
204 226 255
203 226 255
203 226 255
203 226 255
203 226 255
203 226 255
203 226 255
203 226 255
203 225 255
203 225 255
203 225 255
203 225 255
203 225 255
203 225 255
203 225 255
203 225 255
202 225 255
202 225 255
202 225 255
202 225 255
202 225 255
202 225 255
202 225 255
202 225 255
202 225 255
202 225 255
202 225 255
202 225 255
202 225 255
202 225 255
202 225 255
201 225 255
201 225 255
201 225 255
201 225 255
201 225 255
201 224 255
201 224 255
201 224 255
201 224 255
201 224 255
201 224 255
201 224 255
201 224 255
201 224 255
201 224 255
200 224 255
200 224 255
200 224 255
200 224 255
200 224 255
200 224 255
200 224 255
200 224 255
200 224 255
200 224 255
200 224 255
200 224 255
200 224 255
200 224 255
199 224 255
199 224 255
199 224 255
199 223 255
199 223 255
199 223 255
199 223 255
199 223 255
199 223 255
199 223 255
199 223 255
199 223 255
199 223 255
199 223 255
199 223 255
199 223 255
198 223 255
198 223 255
198 223 255
198 223 255
198 223 255
198 223 255
198 223 255
198 223 255
198 223 255
198 223 255
198 223 255
198 223 255
198 223 255
198 223 255
198 223 255
198 223 255
197 223 255
197 222 255
197 222 255
197 222 255
197 222 255
197 222 255
197 222 255
197 222 255
197 222 255
197 222 255
197 222 255
197 222 255
197 222 255
197 222 255
197 222 255
196 219 252
164 140 159
137 69 77
143 76 84
134 69 76
136 69 76
140 72 80
130 65 72
134 67 74
136 67 74
139 71 77
137 71 78
137 72 79
143 75 82
139 73 80
141 73 81
133 70 76
141 75 82
135 72 79
129 64 71
132 67 74
132 65 72
131 67 74
128 60 66
137 66 72
137 68 74
132 63 69
131 68 75
131 66 72
131 62 67
133 66 73
136 67 74
130 63 68
129 63 69
127 57 63
131 63 69
123 57 63
124 56 61
132 63 69
117 49 53
127 60 66
134 66 72
133 60 66
128 59 64
134 63 69
122 53 58
134 60 66
132 64 70
125 58 63
137 68 74
138 70 76
135 62 67
133 64 70
128 59 64
126 61 67
134 63 69
131 65 71
133 61 66
128 59 65
129 61 67
131 67 73
129 61 67
126 62 68
137 72 78
138 73 80
133 65 71
137 69 75
144 75 83
133 65 71
130 62 68
138 70 77
135 67 74
135 68 74
137 68 75
137 68 75
136 67 73
141 73 80
139 74 81
136 70 77
146 77 85
154 129 147
194 217 249
197 222 255
197 222 255
197 222 255
197 222 255
197 222 255
197 222 255
197 222 255
197 222 255
197 222 255
197 222 255
197 222 255
197 222 255
197 222 255
197 222 255
197 223 255
198 223 255
198 223 255
198 223 255
198 223 255
198 223 255
198 223 255
198 223 255
198 223 255
198 223 255
198 223 255
198 223 255
198 223 255
198 223 255
198 223 255
198 223 255
198 223 255
199 223 255
199 223 255
199 223 255
199 223 255
199 223 255
199 223 255
199 223 255
199 223 255
199 223 255
199 223 255
199 223 255
199 223 255
199 223 255
199 224 255
199 224 255
199 224 255
200 224 255
200 224 255
200 224 255
200 224 255
200 224 255
200 224 255
200 224 255
200 224 255
200 224 255
200 224 255
200 224 255
200 224 255
200 224 255
200 224 255
201 224 255
201 224 255
201 224 255
201 224 255
201 224 255
201 224 255
201 224 255
201 224 255
201 224 255
201 224 255
201 225 255
201 225 255
201 225 255
201 225 255
201 225 255
202 225 255
202 225 255
202 225 255
202 225 255
202 225 255
202 225 255
202 225 255
202 225 255
202 225 255
202 225 255
202 225 255
202 225 255
202 225 255
202 225 255
202 225 255
203 225 255
203 225 255
203 225 255
203 225 255
203 225 255
203 225 255
203 225 255
203 225 255
203 226 255
203 226 255
203 226 255
203 226 255
203 226 255
203 226 255
203 226 255
204 226 255
204 226 255
204 226 255
204 226 255
204 226 255
204 226 255
204 226 255
204 226 255
204 226 255
204 226 255
204 226 255
204 226 255
204 226 255
204 226 255
204 226 255
204 226 255
204 226 255
205 226 255
205 226 255
205 226 255
205 226 255
205 226 255
205 226 255
205 226 255
205 227 255
205 227 255
205 227 255
205 227 255
205 227 255
205 227 255
205 227 255
205 227 255
205 227 255
205 227 255
205 227 255
206 227 255
206 227 255
206 227 255
206 227 255
206 227 255
206 227 255
206 227 255
206 227 255
206 227 255
206 227 255
206 227 255
206 227 255
206 227 255
206 227 255
206 227 255
206 227 255
206 227 255
206 227 255
207 227 255
207 227 255
206 227 255
206 227 255
206 227 255
206 227 255
206 227 255
206 227 255
206 227 255
206 227 255
206 227 255
206 227 255
206 227 255
206 227 255
206 227 255
206 227 255
206 227 255
206 227 255
206 227 255
206 227 255
206 227 255
205 227 255
205 227 255
205 227 255
205 227 255
205 227 255
205 227 255
205 227 255
205 227 255
205 227 255
205 227 255
205 227 255
205 226 255
205 226 255
205 226 255
205 226 255
205 226 255
205 226 255
205 226 255
204 226 255
204 226 255
204 226 255
204 226 255
204 226 255
204 226 255
204 226 255
204 226 255
204 226 255
204 226 255
204 226 255
204 226 255
204 226 255
204 226 255
204 226 255
204 226 255
203 226 255
203 226 255
203 226 255
203 226 255
203 226 255
203 226 255
203 226 255
203 225 255
203 225 255
203 225 255
203 225 255
203 225 255
203 225 255
203 225 255
203 225 255
203 225 255
202 225 255
202 225 255
202 225 255
202 225 255
202 225 255
202 225 255
202 225 255
202 225 255
202 225 255
202 225 255
202 225 255
202 225 255
202 225 255
202 225 255
202 225 255
201 225 255
201 225 255
201 225 255
201 225 255
201 224 255
201 224 255
201 224 255
201 224 255
201 224 255
201 224 255
201 224 255
201 224 255
201 224 255
201 224 255
200 224 255
200 224 255
200 224 255
200 224 255
200 224 255
200 224 255
200 224 255
200 224 255
200 224 255
200 224 255
200 224 255
200 224 255
200 224 255
200 224 255
200 224 255
199 224 255
199 224 255
199 223 255
199 223 255
199 223 255
199 223 255
199 223 255
199 223 255
199 223 255
199 223 255
199 223 255
199 223 255
199 223 255
199 223 255
199 223 255
198 223 255
198 223 255
198 223 255
198 223 255
198 223 255
198 223 255
198 223 255
198 223 255
198 223 255
198 223 255
198 223 255
198 223 255
198 223 255
198 223 255
198 223 255
198 223 255
198 223 255
197 223 255
197 222 255
197 222 255
197 222 255
197 222 255
197 222 255
197 222 255
197 222 255
197 222 255
197 222 255
197 222 255
197 222 255
197 222 255
196 219 252
156 130 148
141 75 83
141 73 81
143 73 80
135 70 77
139 74 81
136 66 72
137 69 76
138 70 77
134 68 75
141 75 83
141 75 82
145 78 85
138 74 82
139 71 78
137 70 77
137 70 77
132 66 73
135 69 76
133 67 74
134 67 74
134 68 75
139 72 79
137 71 77
130 65 71
138 71 78
130 67 74
129 62 68
125 60 66
136 67 73
130 64 70
130 61 67
130 64 70
131 64 70
135 68 74
122 56 62
125 58 64
121 55 60
135 67 74
128 57 62
130 64 70
128 59 64
129 60 66
129 59 65
137 70 77
128 59 65
131 64 70
132 67 73
132 64 70
136 66 72
132 65 71
130 60 66
125 59 64
133 62 68
130 61 66
136 69 75
142 71 78
140 73 80
135 69 75
138 72 79
132 64 71
134 66 73
135 69 76
129 63 69
134 64 71
139 69 76
140 73 81
139 71 79
144 74 82
137 72 80
139 72 79
139 71 78
137 68 74
141 72 79
139 72 80
135 68 75
143 75 83
159 127 144
195 217 250
197 222 255
197 222 255
197 222 255
197 222 255
197 222 255
197 222 255
197 222 255
197 222 255
197 222 255
197 222 255
197 222 255
197 222 255
197 223 255
198 223 255
198 223 255
198 223 255
198 223 255
198 223 255
198 223 255
198 223 255
198 223 255
198 223 255
198 223 255
198 223 255
198 223 255
198 223 255
198 223 255
198 223 255
198 223 255
198 223 255
199 223 255
199 223 255
199 223 255
199 223 255
199 223 255
199 223 255
199 223 255
199 223 255
199 223 255
199 223 255
199 223 255
199 223 255
199 223 255
199 224 255
199 224 255
200 224 255
200 224 255
200 224 255
200 224 255
200 224 255
200 224 255
200 224 255
200 224 255
200 224 255
200 224 255
200 224 255
200 224 255
200 224 255
200 224 255
200 224 255
201 224 255
201 224 255
201 224 255
201 224 255
201 224 255
201 224 255
201 224 255
201 224 255
201 224 255
201 224 255
201 225 255
201 225 255
201 225 255
201 225 255
202 225 255
202 225 255
202 225 255
202 225 255
202 225 255
202 225 255
202 225 255
202 225 255
202 225 255
202 225 255
202 225 255
202 225 255
202 225 255
202 225 255
202 225 255
203 225 255
203 225 255
203 225 255
203 225 255
203 225 255
203 225 255
203 225 255
203 225 255
203 225 255
203 226 255
203 226 255
203 226 255
203 226 255
203 226 255
203 226 255
203 226 255
204 226 255
204 226 255
204 226 255
204 226 255
204 226 255
204 226 255
204 226 255
204 226 255
204 226 255
204 226 255
204 226 255
204 226 255
204 226 255
204 226 255
204 226 255
204 226 255
205 226 255
205 226 255
205 226 255
205 226 255
205 226 255
205 226 255
205 226 255
205 227 255
205 227 255
205 227 255
205 227 255
205 227 255
205 227 255
205 227 255
205 227 255
205 227 255
205 227 255
205 227 255
206 227 255
206 227 255
206 227 255
206 227 255
206 227 255
206 227 255
206 227 255
206 227 255
206 227 255
206 227 255
206 227 255
206 227 255
206 227 255
206 227 255
206 227 255
206 227 255
206 227 255
206 227 255
206 227 255
207 227 255
207 227 255
207 227 255
207 227 255
207 227 255
207 227 255
207 227 255
206 227 255
206 227 255
206 227 255
206 227 255
206 227 255
206 227 255
206 227 255
206 227 255
206 227 255
206 227 255
206 227 255
206 227 255
206 227 255
206 227 255
206 227 255
206 227 255
206 227 255
206 227 255
206 227 255
205 227 255
205 227 255
205 227 255
205 227 255
205 227 255
205 227 255
205 227 255
205 227 255
205 227 255
205 227 255
205 226 255
205 226 255
205 226 255
205 226 255
205 226 255
205 226 255
205 226 255
204 226 255
204 226 255
204 226 255
204 226 255
204 226 255
204 226 255
204 226 255
204 226 255
204 226 255
204 226 255
204 226 255
204 226 255
204 226 255
204 226 255
204 226 255
204 226 255
204 226 255
203 226 255
203 226 255
203 226 255
203 226 255
203 226 255
203 226 255
203 226 255
203 225 255
203 225 255
203 225 255
203 225 255
203 225 255
203 225 255
203 225 255
203 225 255
202 225 255
202 225 255
202 225 255
202 225 255
202 225 255
202 225 255
202 225 255
202 225 255
202 225 255
202 225 255
202 225 255
202 225 255
202 225 255
202 225 255
202 225 255
201 225 255
201 225 255
201 225 255
201 225 255
201 224 255
201 224 255
201 224 255
201 224 255
201 224 255
201 224 255
201 224 255
201 224 255
201 224 255
201 224 255
201 224 255
200 224 255
200 224 255
200 224 255
200 224 255
200 224 255
200 224 255
200 224 255
200 224 255
200 224 255
200 224 255
200 224 255
200 224 255
200 224 255
200 224 255
199 224 255
199 224 255
199 224 255
199 223 255
199 223 255
199 223 255
199 223 255
199 223 255
199 223 255
199 223 255
199 223 255
199 223 255
199 223 255
199 223 255
199 223 255
199 223 255
198 223 255
198 223 255
198 223 255
198 223 255
198 223 255
198 223 255
198 223 255
198 223 255
198 223 255
198 223 255
198 223 255
198 223 255
198 223 255
198 223 255
198 223 255
198 223 255
198 223 255
197 223 255
197 222 255
197 222 255
197 222 255
197 222 255
197 222 255
197 222 255
197 222 255
197 222 255
197 222 255
197 222 255
196 220 253
166 141 161
135 69 76
138 70 77
136 67 74
134 65 72
139 73 80
137 71 78
135 68 75
135 69 76
137 70 77
139 72 79
137 70 77
140 74 81
139 74 81
132 69 76
130 65 72
131 68 74
134 72 79
134 68 75
141 74 81
122 59 65
135 66 73
133 68 75
132 67 73
126 63 69
127 59 65
131 62 68
138 72 79
131 64 70
133 67 73
125 60 66
135 68 75
139 73 80
134 68 74
142 74 81
136 68 74
130 60 66
133 65 71
132 65 71
129 58 64
129 61 66
133 63 69
135 64 70
134 64 70
130 61 67
134 63 69
138 69 75
138 71 78
135 67 73
128 60 65
135 66 72
137 67 74
139 72 79
137 70 77
140 71 78
138 70 77
132 63 70
134 70 77
135 64 71
140 72 79
129 62 68
134 66 73
141 73 80
140 72 80
143 76 84
139 72 80
143 77 84
144 77 85
141 71 79
134 70 77
136 68 75
135 67 74
133 68 75
145 78 86
137 72 79
159 132 151
195 219 252
197 222 255
197 222 255
197 222 255
197 222 255
197 222 255
197 222 255
197 222 255
197 222 255
197 222 255
197 222 255
197 223 255
198 223 255
198 223 255
198 223 255
198 223 255
198 223 255
198 223 255
198 223 255
198 223 255
198 223 255
198 223 255
198 223 255
198 223 255
198 223 255
198 223 255
198 223 255
198 223 255
198 223 255
199 223 255
199 223 255
199 223 255
199 223 255
199 223 255
199 223 255
199 223 255
199 223 255
199 223 255
199 223 255
199 223 255
199 223 255
199 223 255
199 224 255
199 224 255
199 224 255
200 224 255
200 224 255
200 224 255
200 224 255
200 224 255
200 224 255
200 224 255
200 224 255
200 224 255
200 224 255
200 224 255
200 224 255
200 224 255
200 224 255
201 224 255
201 224 255
201 224 255
201 224 255
201 224 255
201 224 255
201 224 255
201 224 255
201 224 255
201 224 255
201 224 255
201 225 255
201 225 255
201 225 255
201 225 255
202 225 255
202 225 255
202 225 255
202 225 255
202 225 255
202 225 255
202 225 255
202 225 255
202 225 255
202 225 255
202 225 255
202 225 255
202 225 255
202 225 255
202 225 255
203 225 255
203 225 255
203 225 255
203 225 255
203 225 255
203 225 255
203 225 255
203 225 255
203 226 255
203 226 255
203 226 255
203 226 255
203 226 255
203 226 255
203 226 255
204 226 255
204 226 255
204 226 255
204 226 255
204 226 255
204 226 255
204 226 255
204 226 255
204 226 255
204 226 255
204 226 255
204 226 255
204 226 255
204 226 255
204 226 255
204 226 255
204 226 255
205 226 255
205 226 255
205 226 255
205 226 255
205 226 255
205 226 255
205 226 255
205 227 255
205 227 255
205 227 255
205 227 255
205 227 255
205 227 255
205 227 255
205 227 255
205 227 255
205 227 255
206 227 255
206 227 255
206 227 255
206 227 255
206 227 255
206 227 255
206 227 255
206 227 255
206 227 255
206 227 255
206 227 255
206 227 255
206 227 255
206 227 255
206 227 255
206 227 255
206 227 255
206 227 255
206 227 255
207 227 255
207 227 255
207 227 255
207 227 255
207 227 255
207 228 255
207 228 255
207 227 255
207 227 255
207 227 255
207 227 255
207 227 255
206 227 255
206 227 255
206 227 255
206 227 255
206 227 255
206 227 255
206 227 255
206 227 255
206 227 255
206 227 255
206 227 255
206 227 255
206 227 255
206 227 255
206 227 255
206 227 255
206 227 255
206 227 255
206 227 255
205 227 255
205 227 255
205 227 255
205 227 255
205 227 255
205 227 255
205 227 255
205 227 255
205 227 255
205 227 255
205 227 255
205 226 255
205 226 255
205 226 255
205 226 255
205 226 255
205 226 255
205 226 255
204 226 255
204 226 255
204 226 255
204 226 255
204 226 255
204 226 255
204 226 255
204 226 255
204 226 255
204 226 255
204 226 255
204 226 255
204 226 255
204 226 255
204 226 255
204 226 255
203 226 255
203 226 255
203 226 255
203 226 255
203 226 255
203 226 255
203 226 255
203 225 255
203 225 255
203 225 255
203 225 255
203 225 255
203 225 255
203 225 255
203 225 255
203 225 255
202 225 255
202 225 255
202 225 255
202 225 255
202 225 255
202 225 255
202 225 255
202 225 255
202 225 255
202 225 255
202 225 255
202 225 255
202 225 255
202 225 255
202 225 255
201 225 255
201 225 255
201 225 255
201 225 255
201 224 255
201 224 255
201 224 255
201 224 255
201 224 255
201 224 255
201 224 255
201 224 255
201 224 255
201 224 255
200 224 255
200 224 255
200 224 255
200 224 255
200 224 255
200 224 255
200 224 255
200 224 255
200 224 255
200 224 255
200 224 255
200 224 255
200 224 255
200 224 255
200 224 255
199 224 255
199 224 255
199 223 255
199 223 255
199 223 255
199 223 255
199 223 255
199 223 255
199 223 255
199 223 255
199 223 255
199 223 255
199 223 255
199 223 255
199 223 255
199 223 255
198 223 255
198 223 255
198 223 255
198 223 255
198 223 255
198 223 255
198 223 255
198 223 255
198 223 255
198 223 255
198 223 255
198 223 255
198 223 255
198 223 255
198 223 255
198 223 255
198 223 255
198 223 255
197 222 255
197 222 255
197 222 255
197 222 255
197 222 255
197 222 255
197 222 255
197 222 255
195 218 250
160 139 158
146 78 86
135 69 77
140 72 79
140 70 77
133 68 75
135 71 79
137 73 81
138 72 79
135 71 78
134 72 79
141 75 83
136 73 80
131 64 70
130 64 71
140 74 82
126 60 65
136 70 77
135 69 75
131 64 71
136 72 79
125 61 67
135 67 74
133 67 74
123 55 60
128 63 69
127 62 68
137 69 75
133 70 77
130 62 68
130 64 69
132 67 74
131 62 67
132 64 70
129 62 68
125 58 63
131 65 72
129 63 69
135 66 72
135 66 72
131 63 69
131 62 68
130 59 65
130 60 66
138 69 76
134 64 70
134 65 71
129 63 69
130 62 67
139 68 75
140 73 80
133 65 72
137 68 74
135 69 76
134 67 74
138 71 77
140 74 81
133 67 73
139 72 80
143 77 85
136 69 76
135 68 75
137 68 75
136 71 78
141 75 82
137 70 77
134 66 72
134 67 73
140 75 82
139 72 80
144 75 82
146 76 83
147 78 86
166 142 162
197 221 254
197 222 255
197 222 255
197 222 255
197 222 255
197 222 255
197 222 255
197 222 255
197 222 255
198 223 255
198 223 255
198 223 255
198 223 255
198 223 255
198 223 255
198 223 255
198 223 255
198 223 255
198 223 255
198 223 255
198 223 255
198 223 255
198 223 255
198 223 255
198 223 255
198 223 255
198 223 255
199 223 255
199 223 255
199 223 255
199 223 255
199 223 255
199 223 255
199 223 255
199 223 255
199 223 255
199 223 255
199 223 255
199 223 255
199 223 255
199 223 255
199 224 255
199 224 255
200 224 255
200 224 255
200 224 255
200 224 255
200 224 255
200 224 255
200 224 255
200 224 255
200 224 255
200 224 255
200 224 255
200 224 255
200 224 255
200 224 255
200 224 255
201 224 255
201 224 255
201 224 255
201 224 255
201 224 255
201 224 255
201 224 255
201 224 255
201 224 255
201 224 255
201 225 255
201 225 255
201 225 255
201 225 255
201 225 255
202 225 255
202 225 255
202 225 255
202 225 255
202 225 255
202 225 255
202 225 255
202 225 255
202 225 255
202 225 255
202 225 255
202 225 255
202 225 255
202 225 255
203 225 255
203 225 255
203 225 255
203 225 255
203 225 255
203 225 255
203 225 255
203 225 255
203 225 255
203 226 255
203 226 255
203 226 255
203 226 255
203 226 255
203 226 255
203 226 255
204 226 255
204 226 255
204 226 255
204 226 255
204 226 255
204 226 255
204 226 255
204 226 255
204 226 255
204 226 255
204 226 255
204 226 255
204 226 255
204 226 255
204 226 255
204 226 255
205 226 255
205 226 255
205 226 255
205 226 255
205 226 255
205 226 255
205 226 255
205 227 255
205 227 255
205 227 255
205 227 255
205 227 255
205 227 255
205 227 255
205 227 255
205 227 255
205 227 255
205 227 255
206 227 255
206 227 255
206 227 255
206 227 255
206 227 255
206 227 255
206 227 255
206 227 255
206 227 255
206 227 255
206 227 255
206 227 255
206 227 255
206 227 255
206 227 255
206 227 255
206 227 255
206 227 255
206 227 255
207 227 255
207 227 255
207 227 255
207 227 255
207 227 255
207 228 255
207 228 255
207 228 255
207 228 255
207 228 255
207 228 255
207 228 255
207 227 255
207 227 255
207 227 255
207 227 255
207 227 255
206 227 255
206 227 255
206 227 255
206 227 255
206 227 255
206 227 255
206 227 255
206 227 255
206 227 255
206 227 255
206 227 255
206 227 255
206 227 255
206 227 255
206 227 255
206 227 255
206 227 255
206 227 255
206 227 255
205 227 255
205 227 255
205 227 255
205 227 255
205 227 255
205 227 255
205 227 255
205 227 255
205 227 255
205 227 255
205 226 255
205 226 255
205 226 255
205 226 255
205 226 255
205 226 255
205 226 255
204 226 255
204 226 255
204 226 255
204 226 255
204 226 255
204 226 255
204 226 255
204 226 255
204 226 255
204 226 255
204 226 255
204 226 255
204 226 255
204 226 255
204 226 255
204 226 255
204 226 255
203 226 255
203 226 255
203 226 255
203 226 255
203 226 255
203 226 255
203 225 255
203 225 255
203 225 255
203 225 255
203 225 255
203 225 255
203 225 255
203 225 255
203 225 255
202 225 255
202 225 255
202 225 255
202 225 255
202 225 255
202 225 255
202 225 255
202 225 255
202 225 255
202 225 255
202 225 255
202 225 255
202 225 255
202 225 255
202 225 255
201 225 255
201 225 255
201 225 255
201 225 255
201 224 255
201 224 255
201 224 255
201 224 255
201 224 255
201 224 255
201 224 255
201 224 255
201 224 255
201 224 255
201 224 255
200 224 255
200 224 255
200 224 255
200 224 255
200 224 255
200 224 255
200 224 255
200 224 255
200 224 255
200 224 255
200 224 255
200 224 255
200 224 255
200 224 255
200 224 255
199 224 255
199 224 255
199 223 255
199 223 255
199 223 255
199 223 255
199 223 255
199 223 255
199 223 255
199 223 255
199 223 255
199 223 255
199 223 255
199 223 255
199 223 255
198 223 255
198 223 255
198 223 255
198 223 255
198 223 255
198 223 255
198 223 255
198 223 255
198 223 255
198 223 255
198 223 255
198 223 255
198 223 255
198 223 255
198 223 255
198 223 255
198 223 255
198 223 255
198 223 255
197 223 255
197 222 255
197 222 255
197 222 255
197 222 255
197 222 255
196 221 254
160 130 148
141 73 80
139 72 80
138 73 80
132 67 74
138 73 80
134 67 74
133 71 79
142 77 85
138 71 78
141 75 83
133 68 75
135 69 76
140 72 79
136 69 76
139 71 78
136 71 77
137 72 79
134 67 74
133 68 74
137 71 78
124 61 66
133 68 75
138 72 79
136 69 76
132 63 70
134 68 75
133 67 73
133 66 72
131 62 68
129 62 68
126 59 64
130 62 67
129 62 67
127 60 66
136 69 76
139 68 74
131 63 69
129 59 65
127 58 64
137 69 76
131 60 66
128 60 65
142 70 77
137 67 74
133 63 69
134 66 72
136 69 76
135 67 73
138 70 77
140 72 79
142 71 78
136 69 76
142 72 79
136 68 75
139 71 79
138 69 76
134 65 72
137 70 78
136 70 77
135 64 71
135 68 76
143 75 82
135 67 74
136 68 75
136 68 75
138 70 77
141 72 78
140 73 80
142 70 78
143 77 84
162 137 156
196 220 252
197 222 255
197 222 255
197 222 255
197 222 255
197 222 255
197 223 255
198 223 255
198 223 255
198 223 255
198 223 255
198 223 255
198 223 255
198 223 255
198 223 255
198 223 255
198 223 255
198 223 255
198 223 255
198 223 255
198 223 255
198 223 255
198 223 255
198 223 255
198 223 255
198 223 255
199 223 255
199 223 255
199 223 255
199 223 255
199 223 255
199 223 255
199 223 255
199 223 255
199 223 255
199 223 255
199 223 255
199 223 255
199 223 255
199 224 255
199 224 255
199 224 255
200 224 255
200 224 255
200 224 255
200 224 255
200 224 255
200 224 255
200 224 255
200 224 255
200 224 255
200 224 255
200 224 255
200 224 255
200 224 255
200 224 255
201 224 255
201 224 255
201 224 255
201 224 255
201 224 255
201 224 255
201 224 255
201 224 255
201 224 255
201 224 255
201 224 255
201 225 255
201 225 255
201 225 255
201 225 255
202 225 255
202 225 255
202 225 255
202 225 255
202 225 255
202 225 255
202 225 255
202 225 255
202 225 255
202 225 255
202 225 255
202 225 255
202 225 255
202 225 255
202 225 255
203 225 255
203 225 255
203 225 255
203 225 255
203 225 255
203 225 255
203 225 255
203 225 255
203 225 255
203 226 255
203 226 255
203 226 255
203 226 255
203 226 255
203 226 255
204 226 255
204 226 255
204 226 255
204 226 255
204 226 255
204 226 255
204 226 255
204 226 255
204 226 255
204 226 255
204 226 255
204 226 255
204 226 255
204 226 255
204 226 255
204 226 255
204 226 255
205 226 255
205 226 255
205 226 255
205 226 255
205 226 255
205 226 255
205 226 255
205 227 255
205 227 255
205 227 255
205 227 255
205 227 255
205 227 255
205 227 255
205 227 255
205 227 255
205 227 255
206 227 255
206 227 255
206 227 255
206 227 255
206 227 255
206 227 255
206 227 255
206 227 255
206 227 255
206 227 255
206 227 255
206 227 255
206 227 255
206 227 255
206 227 255
206 227 255
206 227 255
206 227 255
206 227 255
207 227 255
207 227 255
207 227 255
207 227 255
207 227 255
207 228 255
207 228 255
207 228 255
207 228 255
207 228 255
207 228 255
207 228 255
207 228 255
207 228 255
207 228 255
207 228 255
207 228 255
207 228 255
207 227 255
207 227 255
207 227 255
207 227 255
207 227 255
206 227 255
206 227 255
206 227 255
206 227 255
206 227 255
206 227 255
206 227 255
206 227 255
206 227 255
206 227 255
206 227 255
206 227 255
206 227 255
206 227 255
206 227 255
206 227 255
206 227 255
206 227 255
206 227 255
205 227 255
205 227 255
205 227 255
205 227 255
205 227 255
205 227 255
205 227 255
205 227 255
205 227 255
205 227 255
205 226 255
205 226 255
205 226 255
205 226 255
205 226 255
205 226 255
205 226 255
204 226 255
204 226 255
204 226 255
204 226 255
204 226 255
204 226 255
204 226 255
204 226 255
204 226 255
204 226 255
204 226 255
204 226 255
204 226 255
204 226 255
204 226 255
204 226 255
203 226 255
203 226 255
203 226 255
203 226 255
203 226 255
203 226 255
203 226 255
203 225 255
203 225 255
203 225 255
203 225 255
203 225 255
203 225 255
203 225 255
203 225 255
202 225 255
202 225 255
202 225 255
202 225 255
202 225 255
202 225 255
202 225 255
202 225 255
202 225 255
202 225 255
202 225 255
202 225 255
202 225 255
202 225 255
202 225 255
201 225 255
201 225 255
201 225 255
201 225 255
201 225 255
201 224 255
201 224 255
201 224 255
201 224 255
201 224 255
201 224 255
201 224 255
201 224 255
201 224 255
201 224 255
200 224 255
200 224 255
200 224 255
200 224 255
200 224 255
200 224 255
200 224 255
200 224 255
200 224 255
200 224 255
200 224 255
200 224 255
200 224 255
200 224 255
200 224 255
199 224 255
199 224 255
199 224 255
199 223 255
199 223 255
199 223 255
199 223 255
199 223 255
199 223 255
199 223 255
199 223 255
199 223 255
199 223 255
199 223 255
199 223 255
199 223 255
198 223 255
198 223 255
198 223 255
198 223 255
198 223 255
198 223 255
198 223 255
198 223 255
198 223 255
198 223 255
198 223 255
198 223 255
198 223 255
198 223 255
198 223 255
198 223 255
198 223 255
198 223 255
198 223 255
198 223 255
197 223 255
197 222 255
197 222 255
196 219 252
161 133 151
137 71 79
141 75 83
131 66 73
139 72 79
142 74 81
133 68 75
144 78 85
138 73 80
130 66 73
132 70 77
130 65 71
134 67 74
138 72 79
136 70 77
130 64 71
130 66 73
139 72 79
133 69 76
130 65 71
132 69 76
137 73 80
128 66 72
138 70 77
136 69 75
135 67 73
129 66 72
137 66 73
135 67 74
140 72 79
132 63 69
129 63 69
139 72 78
134 69 75
123 59 65
129 60 65
128 60 65
139 69 75
132 62 68
131 61 67
134 67 73
135 68 74
143 73 80
131 63 69
126 55 61
137 68 74
124 58 64
130 59 65
139 67 74
136 68 74
138 72 79
134 68 75
138 72 79
139 72 79
132 65 72
137 69 76
137 67 74
136 69 75
137 68 75
144 76 83
141 71 78
140 72 79
139 71 78
137 71 78
141 76 83
141 72 79
144 75 83
139 73 80
143 74 82
161 125 142
196 217 249
197 222 255
197 222 255
197 223 255
198 223 255
198 223 255
198 223 255
198 223 255
198 223 255
198 223 255
198 223 255
198 223 255
198 223 255
198 223 255
198 223 255
198 223 255
198 223 255
198 223 255
198 223 255
198 223 255
198 223 255
198 223 255
198 223 255
198 223 255
199 223 255
199 223 255
199 223 255
199 223 255
199 223 255
199 223 255
199 223 255
199 223 255
199 223 255
199 223 255
199 223 255
199 223 255
199 223 255
199 224 255
199 224 255
199 224 255
200 224 255
200 224 255
200 224 255
200 224 255
200 224 255
200 224 255
200 224 255
200 224 255
200 224 255
200 224 255
200 224 255
200 224 255
200 224 255
200 224 255
200 224 255
201 224 255
201 224 255
201 224 255
201 224 255
201 224 255
201 224 255
201 224 255
201 224 255
201 224 255
201 224 255
201 225 255
201 225 255
201 225 255
201 225 255
201 225 255
202 225 255
202 225 255
202 225 255
202 225 255
202 225 255
202 225 255
202 225 255
202 225 255
202 225 255
202 225 255
202 225 255
202 225 255
202 225 255
202 225 255
202 225 255
203 225 255
203 225 255
203 225 255
203 225 255
203 225 255
203 225 255
203 225 255
203 225 255
203 226 255
203 226 255
203 226 255
203 226 255
203 226 255
203 226 255
203 226 255
204 226 255
204 226 255
204 226 255
204 226 255
204 226 255
204 226 255
204 226 255
204 226 255
204 226 255
204 226 255
204 226 255
204 226 255
204 226 255
204 226 255
204 226 255
204 226 255
205 226 255
205 226 255
205 226 255
205 226 255
205 226 255
205 226 255
205 226 255
205 227 255
205 227 255
205 227 255
205 227 255
205 227 255
205 227 255
205 227 255
205 227 255
205 227 255
205 227 255
206 227 255
206 227 255
206 227 255
206 227 255
206 227 255
206 227 255
206 227 255
206 227 255
206 227 255
206 227 255
206 227 255
206 227 255
206 227 255
206 227 255
206 227 255
206 227 255
206 227 255
206 227 255
206 227 255
207 227 255
207 227 255
207 227 255
207 227 255
207 227 255
207 228 255
207 228 255
207 228 255
207 228 255
207 228 255
207 228 255
207 228 255
207 228 255
207 228 255
207 228 255
207 228 255
207 228 255
207 228 255
207 228 255
207 228 255
207 228 255
207 228 255
207 228 255
207 228 255
207 227 255
207 227 255
207 227 255
207 227 255
207 227 255
206 227 255
206 227 255
206 227 255
206 227 255
206 227 255
206 227 255
206 227 255
206 227 255
206 227 255
206 227 255
206 227 255
206 227 255
206 227 255
206 227 255
206 227 255
206 227 255
206 227 255
206 227 255
205 227 255
205 227 255
205 227 255
205 227 255
205 227 255
205 227 255
205 227 255
205 227 255
205 227 255
205 227 255
205 227 255
205 226 255
205 226 255
205 226 255
205 226 255
205 226 255
205 226 255
204 226 255
204 226 255
204 226 255
204 226 255
204 226 255
204 226 255
204 226 255
204 226 255
204 226 255
204 226 255
204 226 255
204 226 255
204 226 255
204 226 255
204 226 255
204 226 255
204 226 255
203 226 255
203 226 255
203 226 255
203 226 255
203 226 255
203 226 255
203 225 255
203 225 255
203 225 255
203 225 255
203 225 255
203 225 255
203 225 255
203 225 255
203 225 255
202 225 255
202 225 255
202 225 255
202 225 255
202 225 255
202 225 255
202 225 255
202 225 255
202 225 255
202 225 255
202 225 255
202 225 255
202 225 255
202 225 255
202 225 255
201 225 255
201 225 255
201 225 255
201 225 255
201 224 255
201 224 255
201 224 255
201 224 255
201 224 255
201 224 255
201 224 255
201 224 255
201 224 255
201 224 255
201 224 255
200 224 255
200 224 255
200 224 255
200 224 255
200 224 255
200 224 255
200 224 255
200 224 255
200 224 255
200 224 255
200 224 255
200 224 255
200 224 255
200 224 255
200 224 255
199 224 255
199 224 255
199 223 255
199 223 255
199 223 255
199 223 255
199 223 255
199 223 255
199 223 255
199 223 255
199 223 255
199 223 255
199 223 255
199 223 255
199 223 255
199 223 255
198 223 255
198 223 255
198 223 255
198 223 255
198 223 255
198 223 255
198 223 255
198 223 255
198 223 255
198 223 255
198 223 255
198 223 255
198 223 255
198 223 255
198 223 255
198 223 255
198 223 255
198 223 255
198 223 255
198 223 255
198 223 255
196 219 251
162 140 159
136 68 75
136 71 79
141 75 83
135 68 76
133 68 75
141 71 78
139 74 81
139 75 82
134 71 78
137 72 79
134 68 75
140 76 84
138 74 81
133 69 76
126 62 68
131 62 68
139 73 81
137 72 79
133 66 73
131 66 73
137 69 75
131 66 72
133 65 72
127 63 69
126 58 64
134 67 74
134 66 72
133 66 72
131 65 71
134 66 73
134 63 69
132 66 72
128 62 68
135 63 69
131 63 69
141 72 79
131 63 69
137 68 75
135 64 70
132 64 70
140 72 80
132 62 68
131 65 71
140 73 80
137 70 77
138 72 79
137 69 75
139 72 78
136 67 74
136 70 76
134 65 71
133 64 70
138 72 80
136 69 76
139 71 78
132 64 71
142 77 85
140 71 78
139 69 76
135 67 73
138 68 75
139 70 78
142 76 83
132 65 71
140 71 78
140 73 80
157 120 137
196 220 252
198 223 255
198 223 255
198 223 255
198 223 255
198 223 255
198 223 255
198 223 255
198 223 255
198 223 255
198 223 255
198 223 255
198 223 255
198 223 255
198 223 255
198 223 255
198 223 255
198 223 255
198 223 255
198 223 255
198 223 255
198 223 255
199 223 255
199 223 255
199 223 255
199 223 255
199 223 255
199 223 255
199 223 255
199 223 255
199 223 255
199 223 255
199 223 255
199 223 255
199 223 255
199 223 255
199 224 255
199 224 255
200 224 255
200 224 255
200 224 255
200 224 255
200 224 255
200 224 255
200 224 255
200 224 255
200 224 255
200 224 255
200 224 255
200 224 255
200 224 255
200 224 255
200 224 255
201 224 255
201 224 255
201 224 255
201 224 255
201 224 255
201 224 255
201 224 255
201 224 255
201 224 255
201 224 255
201 224 255
201 225 255
201 225 255
201 225 255
201 225 255
202 225 255
202 225 255
202 225 255
202 225 255
202 225 255
202 225 255
202 225 255
202 225 255
202 225 255
202 225 255
202 225 255
202 225 255
202 225 255
202 225 255
202 225 255
203 225 255
203 225 255
203 225 255
203 225 255
203 225 255
203 225 255
203 225 255
203 225 255
203 225 255
203 226 255
203 226 255
203 226 255
203 226 255
203 226 255
203 226 255
204 226 255
204 226 255
204 226 255
204 226 255
204 226 255
204 226 255
204 226 255
204 226 255
204 226 255
204 226 255
204 226 255
204 226 255
204 226 255
204 226 255
204 226 255
204 226 255
204 226 255
205 226 255
205 226 255
205 226 255
205 226 255
205 226 255
205 226 255
205 227 255
205 227 255
205 227 255
205 227 255
205 227 255
205 227 255
205 227 255
205 227 255
205 227 255
205 227 255
205 227 255
206 227 255
206 227 255
206 227 255
206 227 255
206 227 255
206 227 255
206 227 255
206 227 255
206 227 255
206 227 255
206 227 255
206 227 255
206 227 255
206 227 255
206 227 255
206 227 255
206 227 255
206 227 255
207 227 255
207 227 255
207 227 255
207 227 255
207 227 255
207 228 255
207 228 255
207 228 255
207 228 255
207 228 255
207 228 255
207 228 255
207 228 255
207 228 255
207 228 255
207 228 255
207 228 255
207 228 255
207 228 255
207 228 255
207 228 255
207 228 255
207 228 255
207 228 255
207 228 255
207 228 255
207 228 255
207 228 255
207 228 255
207 228 255
207 227 255
207 227 255
207 227 255
207 227 255
207 227 255
206 227 255
206 227 255
206 227 255
206 227 255
206 227 255
206 227 255
206 227 255
206 227 255
206 227 255
206 227 255
206 227 255
206 227 255
206 227 255
206 227 255
206 227 255
206 227 255
206 227 255
206 227 255
205 227 255
205 227 255
205 227 255
205 227 255
205 227 255
205 227 255
205 227 255
205 227 255
205 227 255
205 227 255
205 226 255
205 226 255
205 226 255
205 226 255
205 226 255
205 226 255
205 226 255
204 226 255
204 226 255
204 226 255
204 226 255
204 226 255
204 226 255
204 226 255
204 226 255
204 226 255
204 226 255
204 226 255
204 226 255
204 226 255
204 226 255
204 226 255
204 226 255
203 226 255
203 226 255
203 226 255
203 226 255
203 226 255
203 226 255
203 226 255
203 225 255
203 225 255
203 225 255
203 225 255
203 225 255
203 225 255
203 225 255
203 225 255
202 225 255
202 225 255
202 225 255
202 225 255
202 225 255
202 225 255
202 225 255
202 225 255
202 225 255
202 225 255
202 225 255
202 225 255
202 225 255
202 225 255
202 225 255
201 225 255
201 225 255
201 225 255
201 225 255
201 225 255
201 224 255
201 224 255
201 224 255
201 224 255
201 224 255
201 224 255
201 224 255
201 224 255
201 224 255
201 224 255
200 224 255
200 224 255
200 224 255
200 224 255
200 224 255
200 224 255
200 224 255
200 224 255
200 224 255
200 224 255
200 224 255
200 224 255
200 224 255
200 224 255
200 224 255
200 224 255
199 224 255
199 224 255
199 223 255
199 223 255
199 223 255
199 223 255
199 223 255
199 223 255
199 223 255
199 223 255
199 223 255
199 223 255
199 223 255
199 223 255
199 223 255
199 223 255
199 223 255
198 223 255
198 223 255
198 223 255
198 223 255
198 223 255
198 223 255
198 223 255
198 223 255
198 223 255
198 223 255
198 223 255
198 223 255
198 223 255
198 223 255
198 223 255
198 223 255
198 223 255
198 223 255
197 219 251
158 136 156
141 72 79
141 75 82
140 75 83
144 78 86
139 72 79
135 70 77
132 70 77
144 75 83
135 69 76
138 74 81
132 67 74
136 70 77
134 66 72
137 71 78
140 75 83
140 73 80
141 76 84
134 71 77
135 69 76
138 72 79
139 71 78
135 68 75
128 64 70
132 61 67
129 63 69
133 63 69
134 68 74
131 63 69
137 70 77
129 63 70
130 60 66
134 67 73
137 69 76
124 54 60
133 64 70
139 73 80
134 67 74
133 63 69
134 68 74
140 73 80
136 68 75
135 65 72
141 74 81
137 71 78
135 65 72
136 65 72
137 66 73
140 73 80
135 68 75
135 69 76
141 72 79
140 67 74
140 71 78
139 74 82
137 69 76
140 72 79
144 72 80
144 77 85
144 72 79
139 71 78
139 66 73
146 77 85
139 70 78
141 72 79
161 142 162
197 220 252
198 223 255
198 223 255
198 223 255
198 223 255
198 223 255
198 223 255
198 223 255
198 223 255
198 223 255
198 223 255
198 223 255
198 223 255
198 223 255
198 223 255
198 223 255
198 223 255
198 223 255
198 223 255
199 223 255
199 223 255
199 223 255
199 223 255
199 223 255
199 223 255
199 223 255
199 223 255
199 223 255
199 223 255
199 223 255
199 223 255
199 223 255
199 223 255
199 223 255
199 224 255
199 224 255
200 224 255
200 224 255
200 224 255
200 224 255
200 224 255
200 224 255
200 224 255
200 224 255
200 224 255
200 224 255
200 224 255
200 224 255
200 224 255
200 224 255
200 224 255
200 224 255
201 224 255
201 224 255
201 224 255
201 224 255
201 224 255
201 224 255
201 224 255
201 224 255
201 224 255
201 224 255
201 225 255
201 225 255
201 225 255
201 225 255
201 225 255
202 225 255
202 225 255
202 225 255
202 225 255
202 225 255
202 225 255
202 225 255
202 225 255
202 225 255
202 225 255
202 225 255
202 225 255
202 225 255
202 225 255
202 225 255
203 225 255
203 225 255
203 225 255
203 225 255
203 225 255
203 225 255
203 225 255
203 225 255
203 226 255
203 226 255
203 226 255
203 226 255
203 226 255
203 226 255
203 226 255
204 226 255
204 226 255
204 226 255
204 226 255
204 226 255
204 226 255
204 226 255
204 226 255
204 226 255
204 226 255
204 226 255
204 226 255
204 226 255
204 226 255
204 226 255
204 226 255
205 226 255
205 226 255
205 226 255
205 226 255
205 226 255
205 226 255
205 226 255
205 227 255
205 227 255
205 227 255
205 227 255
205 227 255
205 227 255
205 227 255
205 227 255
205 227 255
205 227 255
206 227 255
206 227 255
206 227 255
206 227 255
206 227 255
206 227 255
206 227 255
206 227 255
206 227 255
206 227 255
206 227 255
206 227 255
206 227 255
206 227 255
206 227 255
206 227 255
206 227 255
206 227 255
207 227 255
207 227 255
207 227 255
207 227 255
207 227 255
207 228 255
207 228 255
207 228 255
207 228 255
207 228 255
207 228 255
207 228 255
207 228 255
207 228 255
207 228 255
207 228 255
207 228 255
207 228 255
207 228 255
208 228 255
207 228 255
207 228 255
207 228 255
207 228 255
207 228 255
207 228 255
207 228 255
207 228 255
207 228 255
207 228 255
207 228 255
207 228 255
207 228 255
207 228 255
207 228 255
207 228 255
207 227 255
207 227 255
207 227 255
207 227 255
206 227 255
206 227 255
206 227 255
206 227 255
206 227 255
206 227 255
206 227 255
206 227 255
206 227 255
206 227 255
206 227 255
206 227 255
206 227 255
206 227 255
206 227 255
206 227 255
206 227 255
206 227 255
206 227 255
205 227 255
205 227 255
205 227 255
205 227 255
205 227 255
205 227 255
205 227 255
205 227 255
205 227 255
205 227 255
205 226 255
205 226 255
205 226 255
205 226 255
205 226 255
205 226 255
205 226 255
204 226 255
204 226 255
204 226 255
204 226 255
204 226 255
204 226 255
204 226 255
204 226 255
204 226 255
204 226 255
204 226 255
204 226 255
204 226 255
204 226 255
204 226 255
204 226 255
203 226 255
203 226 255
203 226 255
203 226 255
203 226 255
203 226 255
203 226 255
203 225 255
203 225 255
203 225 255
203 225 255
203 225 255
203 225 255
203 225 255
203 225 255
202 225 255
202 225 255
202 225 255
202 225 255
202 225 255
202 225 255
202 225 255
202 225 255
202 225 255
202 225 255
202 225 255
202 225 255
202 225 255
202 225 255
202 225 255
201 225 255
201 225 255
201 225 255
201 225 255
201 224 255
201 224 255
201 224 255
201 224 255
201 224 255
201 224 255
201 224 255
201 224 255
201 224 255
201 224 255
201 224 255
200 224 255
200 224 255
200 224 255
200 224 255
200 224 255
200 224 255
200 224 255
200 224 255
200 224 255
200 224 255
200 224 255
200 224 255
200 224 255
200 224 255
200 224 255
200 224 255
199 224 255
199 224 255
199 223 255
199 223 255
199 223 255
199 223 255
199 223 255
199 223 255
199 223 255
199 223 255
199 223 255
199 223 255
199 223 255
199 223 255
199 223 255
199 223 255
199 223 255
198 223 255
198 223 255
198 223 255
198 223 255
198 223 255
198 223 255
198 223 255
198 223 255
198 223 255
198 223 255
198 223 255
198 223 255
198 223 255
198 223 255
198 223 255
198 223 255
197 221 253
156 119 134
140 72 79
139 75 83
143 77 85
140 73 80
137 70 77
144 77 85
137 69 76
138 72 79
136 69 75
138 71 78
140 75 83
141 75 82
133 69 76
137 69 76
137 67 74
140 74 81
134 70 77
134 68 75
131 68 74
134 66 72
133 67 74
131 68 75
132 67 73
137 72 79
140 73 80
138 69 76
139 71 78
130 63 69
131 65 72
127 61 67
135 66 73
126 57 63
140 73 80
130 60 66
134 65 72
139 72 79
139 67 74
136 64 70
131 61 67
139 71 77
142 74 81
135 64 70
138 68 74
137 70 77
132 64 70
140 70 78
139 74 81
145 78 86
144 75 82
135 67 74
135 70 77
142 77 85
138 72 79
131 62 68
141 72 79
138 73 81
140 70 77
140 71 78
143 77 85
138 70 78
142 72 79
139 72 80
164 137 155
196 220 252
198 223 255
198 223 255
198 223 255
198 223 255
198 223 255
198 223 255
198 223 255
198 223 255
198 223 255
198 223 255
198 223 255
198 223 255
198 223 255
198 223 255
198 223 255
198 223 255
199 223 255
199 223 255
199 223 255
199 223 255
199 223 255
199 223 255
199 223 255
199 223 255
199 223 255
199 223 255
199 223 255
199 223 255
199 223 255
199 223 255
199 223 255
199 224 255
199 224 255
200 224 255
200 224 255
200 224 255
200 224 255
200 224 255
200 224 255
200 224 255
200 224 255
200 224 255
200 224 255
200 224 255
200 224 255
200 224 255
200 224 255
200 224 255
200 224 255
201 224 255
201 224 255
201 224 255
201 224 255
201 224 255
201 224 255
201 224 255
201 224 255
201 224 255
201 224 255
201 224 255
201 225 255
201 225 255
201 225 255
201 225 255
202 225 255
202 225 255
202 225 255
202 225 255
202 225 255
202 225 255
202 225 255
202 225 255
202 225 255
202 225 255
202 225 255
202 225 255
202 225 255
202 225 255
202 225 255
203 225 255
203 225 255
203 225 255
203 225 255
203 225 255
203 225 255
203 225 255
203 225 255
203 225 255
203 226 255
203 226 255
203 226 255
203 226 255
203 226 255
203 226 255
204 226 255
204 226 255
204 226 255
204 226 255
204 226 255
204 226 255
204 226 255
204 226 255
204 226 255
204 226 255
204 226 255
204 226 255
204 226 255
204 226 255
204 226 255
204 226 255
205 226 255
205 226 255
205 226 255
205 226 255
205 226 255
205 226 255
205 226 255
205 227 255
205 227 255
205 227 255
205 227 255
205 227 255
205 227 255
205 227 255
205 227 255
205 227 255
205 227 255
206 227 255
206 227 255
206 227 255
206 227 255
206 227 255
206 227 255
206 227 255
206 227 255
206 227 255
206 227 255
206 227 255
206 227 255
206 227 255
206 227 255
206 227 255
206 227 255
206 227 255
206 227 255
206 227 255
207 227 255
207 227 255
207 227 255
207 227 255
207 228 255
207 228 255
207 228 255
207 228 255
207 228 255
207 228 255
207 228 255
207 228 255
207 228 255
207 228 255
207 228 255
207 228 255
207 228 255
207 228 255
207 228 255
207 228 255
208 228 255
208 228 255
208 228 255
208 228 255
208 228 255
207 228 255
207 228 255
207 228 255
207 228 255
207 228 255
207 228 255
207 228 255
207 228 255
207 228 255
207 228 255
207 228 255
207 228 255
207 228 255
207 228 255
207 228 255
207 227 255
207 227 255
207 227 255
207 227 255
207 227 255
206 227 255
206 227 255
206 227 255
206 227 255
206 227 255
206 227 255
206 227 255
206 227 255
206 227 255
206 227 255
206 227 255
206 227 255
206 227 255
206 227 255
206 227 255
206 227 255
206 227 255
206 227 255
205 227 255
205 227 255
205 227 255
205 227 255
205 227 255
205 227 255
205 227 255
205 227 255
205 227 255
205 227 255
205 227 255
205 226 255
205 226 255
205 226 255
205 226 255
205 226 255
205 226 255
204 226 255
204 226 255
204 226 255
204 226 255
204 226 255
204 226 255
204 226 255
204 226 255
204 226 255
204 226 255
204 226 255
204 226 255
204 226 255
204 226 255
204 226 255
204 226 255
203 226 255
203 226 255
203 226 255
203 226 255
203 226 255
203 226 255
203 226 255
203 225 255
203 225 255
203 225 255
203 225 255
203 225 255
203 225 255
203 225 255
203 225 255
203 225 255
202 225 255
202 225 255
202 225 255
202 225 255
202 225 255
202 225 255
202 225 255
202 225 255
202 225 255
202 225 255
202 225 255
202 225 255
202 225 255
202 225 255
202 225 255
201 225 255
201 225 255
201 225 255
201 225 255
201 224 255
201 224 255
201 224 255
201 224 255
201 224 255
201 224 255
201 224 255
201 224 255
201 224 255
201 224 255
201 224 255
200 224 255
200 224 255
200 224 255
200 224 255
200 224 255
200 224 255
200 224 255
200 224 255
200 224 255
200 224 255
200 224 255
200 224 255
200 224 255
200 224 255
200 224 255
200 224 255
199 224 255
199 224 255
199 223 255
199 223 255
199 223 255
199 223 255
199 223 255
199 223 255
199 223 255
199 223 255
199 223 255
199 223 255
199 223 255
199 223 255
199 223 255
199 223 255
199 223 255
199 223 255
198 223 255
198 223 255
198 223 255
198 223 255
198 223 255
198 223 255
198 223 255
198 223 255
198 223 255
198 223 255
198 223 255
198 223 255
198 223 255
197 220 252
162 136 154
138 70 77
135 69 76
140 74 81
138 71 78
134 67 74
139 73 81
133 67 73
137 71 78
140 75 82
135 70 77
133 68 75
132 66 73
133 68 74
136 71 78
135 69 76
132 65 71
141 73 81
137 70 78
129 64 70
133 65 72
131 62 69
137 72 79
134 70 77
139 71 78
135 70 77
138 71 78
134 63 69
129 66 73
132 70 76
129 59 65
134 62 68
132 62 69
141 72 79
134 67 73
131 62 67
133 65 72
137 68 75
139 67 74
140 75 83
135 66 72
132 63 69
136 67 73
134 67 74
129 59 65
131 66 73
143 71 79
135 68 75
138 71 78
136 67 73
142 76 84
134 64 70
141 73 80
138 69 76
140 70 76
143 74 81
145 77 85
143 74 81
136 71 79
142 73 81
139 72 79
164 138 156
196 219 251
198 223 255
198 223 255
198 223 255
198 223 255
198 223 255
198 223 255
198 223 255
198 223 255
198 223 255
198 223 255
198 223 255
198 223 255
198 223 255
199 223 255
199 223 255
199 223 255
199 223 255
199 223 255
199 223 255
199 223 255
199 223 255
199 223 255
199 223 255
199 223 255
199 223 255
199 223 255
199 223 255
199 223 255
199 223 255
199 224 255
199 224 255
199 224 255
200 224 255
200 224 255
200 224 255
200 224 255
200 224 255
200 224 255
200 224 255
200 224 255
200 224 255
200 224 255
200 224 255
200 224 255
200 224 255
200 224 255
200 224 255
201 224 255
201 224 255
201 224 255
201 224 255
201 224 255
201 224 255
201 224 255
201 224 255
201 224 255
201 224 255
201 224 255
201 225 255
201 225 255
201 225 255
201 225 255
201 225 255
202 225 255
202 225 255
202 225 255
202 225 255
202 225 255
202 225 255
202 225 255
202 225 255
202 225 255
202 225 255
202 225 255
202 225 255
202 225 255
202 225 255
203 225 255
203 225 255
203 225 255
203 225 255
203 225 255
203 225 255
203 225 255
203 225 255
203 225 255
203 226 255
203 226 255
203 226 255
203 226 255
203 226 255
203 226 255
203 226 255
204 226 255
204 226 255
204 226 255
204 226 255
204 226 255
204 226 255
204 226 255
204 226 255
204 226 255
204 226 255
204 226 255
204 226 255
204 226 255
204 226 255
204 226 255
204 226 255
205 226 255
205 226 255
205 226 255
205 226 255
205 226 255
205 226 255
205 227 255
205 227 255
205 227 255
205 227 255
205 227 255
205 227 255
205 227 255
205 227 255
205 227 255
205 227 255
205 227 255
206 227 255
206 227 255
206 227 255
206 227 255
206 227 255
206 227 255
206 227 255
206 227 255
206 227 255
206 227 255
206 227 255
206 227 255
206 227 255
206 227 255
206 227 255
206 227 255
206 227 255
206 227 255
207 227 255
207 227 255
207 227 255
207 227 255
207 228 255
207 228 255
207 228 255
207 228 255
207 228 255
207 228 255
207 228 255
207 228 255
207 228 255
207 228 255
207 228 255
207 228 255
207 228 255
207 228 255
207 228 255
207 228 255
208 228 255
208 228 255
208 228 255
208 228 255
208 228 255
208 228 255
208 228 255
208 228 255
208 228 255
208 228 255
208 228 255
207 228 255
207 228 255
207 228 255
207 228 255
207 228 255
207 228 255
207 228 255
207 228 255
207 228 255
207 228 255
207 228 255
207 228 255
207 228 255
207 228 255
207 228 255
207 227 255
207 227 255
207 227 255
207 227 255
207 227 255
206 227 255
206 227 255
206 227 255
206 227 255
206 227 255
206 227 255
206 227 255
206 227 255
206 227 255
206 227 255
206 227 255
206 227 255
206 227 255
206 227 255
206 227 255
206 227 255
206 227 255
206 227 255
205 227 255
205 227 255
205 227 255
205 227 255
205 227 255
205 227 255
205 227 255
205 227 255
205 227 255
205 227 255
205 226 255
205 226 255
205 226 255
205 226 255
205 226 255
205 226 255
205 226 255
204 226 255
204 226 255
204 226 255
204 226 255
204 226 255
204 226 255
204 226 255
204 226 255
204 226 255
204 226 255
204 226 255
204 226 255
204 226 255
204 226 255
204 226 255
204 226 255
203 226 255
203 226 255
203 226 255
203 226 255
203 226 255
203 226 255
203 226 255
203 225 255
203 225 255
203 225 255
203 225 255
203 225 255
203 225 255
203 225 255
203 225 255
202 225 255
202 225 255
202 225 255
202 225 255
202 225 255
202 225 255
202 225 255
202 225 255
202 225 255
202 225 255
202 225 255
202 225 255
202 225 255
202 225 255
202 225 255
201 225 255
201 225 255
201 225 255
201 225 255
201 225 255
201 224 255
201 224 255
201 224 255
201 224 255
201 224 255
201 224 255
201 224 255
201 224 255
201 224 255
201 224 255
200 224 255
200 224 255
200 224 255
200 224 255
200 224 255
200 224 255
200 224 255
200 224 255
200 224 255
200 224 255
200 224 255
200 224 255
200 224 255
200 224 255
200 224 255
200 224 255
200 224 255
199 224 255
199 224 255
199 223 255
199 223 255
199 223 255
199 223 255
199 223 255
199 223 255
199 223 255
199 223 255
199 223 255
199 223 255
199 223 255
199 223 255
199 223 255
199 223 255
199 223 255
199 223 255
199 223 255
198 223 255
198 223 255
198 223 255
198 223 255
198 223 255
198 223 255
198 223 255
198 223 255
198 223 255
198 223 255
196 220 252
158 132 150
141 74 81
142 71 79
136 70 77
138 71 78
137 72 79
133 70 76
136 70 78
135 71 78
139 74 82
137 72 79
129 64 70
132 67 73
136 69 76
142 75 83
130 67 74
137 70 77
139 73 80
135 68 75
132 67 74
138 72 79
133 64 70
132 70 77
136 68 75
133 65 71
141 75 83
130 62 68
134 67 74
136 67 74
137 68 75
136 65 72
139 69 76
139 70 77
133 61 67
136 66 73
136 66 72
136 67 74
137 68 75
140 70 77
136 65 72
138 71 78
138 68 74
136 70 77
133 66 72
143 77 84
131 62 68
141 73 81
142 75 83
140 70 77
134 66 72
143 76 83
129 59 65
137 72 79
135 68 75
141 74 81
143 74 82
143 74 82
138 71 78
139 71 78
159 130 148
196 219 252
198 223 255
198 223 255
198 223 255
198 223 255
198 223 255
198 223 255
198 223 255
198 223 255
198 223 255
198 223 255
199 223 255
199 223 255
199 223 255
199 223 255
199 223 255
199 223 255
199 223 255
199 223 255
199 223 255
199 223 255
199 223 255
199 223 255
199 223 255
199 223 255
199 223 255
199 223 255
199 223 255
199 224 255
199 224 255
200 224 255
200 224 255
200 224 255
200 224 255
200 224 255
200 224 255
200 224 255
200 224 255
200 224 255
200 224 255
200 224 255
200 224 255
200 224 255
200 224 255
200 224 255
200 224 255
200 224 255
201 224 255
201 224 255
201 224 255
201 224 255
201 224 255
201 224 255
201 224 255
201 224 255
201 224 255
201 224 255
201 225 255
201 225 255
201 225 255
201 225 255
201 225 255
202 225 255
202 225 255
202 225 255
202 225 255
202 225 255
202 225 255
202 225 255
202 225 255
202 225 255
202 225 255
202 225 255
202 225 255
202 225 255
202 225 255
202 225 255
203 225 255
203 225 255
203 225 255
203 225 255
203 225 255
203 225 255
203 225 255
203 225 255
203 226 255
203 226 255
203 226 255
203 226 255
203 226 255
203 226 255
203 226 255
204 226 255
204 226 255
204 226 255
204 226 255
204 226 255
204 226 255
204 226 255
204 226 255
204 226 255
204 226 255
204 226 255
204 226 255
204 226 255
204 226 255
204 226 255
204 226 255
205 226 255
205 226 255
205 226 255
205 226 255
205 226 255
205 226 255
205 226 255
205 227 255
205 227 255
205 227 255
205 227 255
205 227 255
205 227 255
205 227 255
205 227 255
205 227 255
205 227 255
206 227 255
206 227 255
206 227 255
206 227 255
206 227 255
206 227 255
206 227 255
206 227 255
206 227 255
206 227 255
206 227 255
206 227 255
206 227 255
206 227 255
206 227 255
206 227 255
206 227 255
206 227 255
207 227 255
207 227 255
207 227 255
207 227 255
207 227 255
207 228 255
207 228 255
207 228 255
207 228 255
207 228 255
207 228 255
207 228 255
207 228 255
207 228 255
207 228 255
207 228 255
207 228 255
207 228 255
207 228 255
207 228 255
208 228 255
208 228 255
208 228 255
208 228 255
208 228 255
208 228 255
208 228 255
208 228 255
208 228 255
208 228 255
208 228 255
208 228 255
208 228 255
208 228 255
208 228 255
208 228 255
208 228 255
207 228 255
207 228 255
207 228 255
207 228 255
207 228 255
207 228 255
207 228 255
207 228 255
207 228 255
207 228 255
207 228 255
207 228 255
207 228 255
207 228 255
207 228 255
207 227 255
207 227 255
207 227 255
207 227 255
207 227 255
206 227 255
206 227 255
206 227 255
206 227 255
206 227 255
206 227 255
206 227 255
206 227 255
206 227 255
206 227 255
206 227 255
206 227 255
206 227 255
206 227 255
206 227 255
206 227 255
206 227 255
206 227 255
205 227 255
205 227 255
205 227 255
205 227 255
205 227 255
205 227 255
205 227 255
205 227 255
205 227 255
205 227 255
205 226 255
205 226 255
205 226 255
205 226 255
205 226 255
205 226 255
205 226 255
204 226 255
204 226 255
204 226 255
204 226 255
204 226 255
204 226 255
204 226 255
204 226 255
204 226 255
204 226 255
204 226 255
204 226 255
204 226 255
204 226 255
204 226 255
204 226 255
203 226 255
203 226 255
203 226 255
203 226 255
203 226 255
203 226 255
203 225 255
203 225 255
203 225 255
203 225 255
203 225 255
203 225 255
203 225 255
203 225 255
203 225 255
202 225 255
202 225 255
202 225 255
202 225 255
202 225 255
202 225 255
202 225 255
202 225 255
202 225 255
202 225 255
202 225 255
202 225 255
202 225 255
202 225 255
202 225 255
201 225 255
201 225 255
201 225 255
201 225 255
201 224 255
201 224 255
201 224 255
201 224 255
201 224 255
201 224 255
201 224 255
201 224 255
201 224 255
201 224 255
201 224 255
200 224 255
200 224 255
200 224 255
200 224 255
200 224 255
200 224 255
200 224 255
200 224 255
200 224 255
200 224 255
200 224 255
200 224 255
200 224 255
200 224 255
200 224 255
200 224 255
200 224 255
199 224 255
199 224 255
199 224 255
199 223 255
199 223 255
199 223 255
199 223 255
199 223 255
199 223 255
199 223 255
199 223 255
199 223 255
199 223 255
199 223 255
199 223 255
199 223 255
199 223 255
199 223 255
199 223 255
199 223 255
198 223 255
198 223 255
198 223 255
198 223 255
198 223 255
198 223 255
198 223 255
196 219 251
161 130 147
141 77 85
136 71 78
135 71 78
134 66 72
136 70 77
139 74 81
135 70 78
144 75 83
131 65 71
130 64 71
136 72 79
138 71 78
133 65 71
132 65 72
131 68 75
128 63 70
137 68 75
130 63 69
132 67 73
135 66 72
139 73 81
135 69 75
134 66 73
135 67 74
134 68 74
135 70 77
133 63 69
135 65 71
135 70 77
140 70 77
137 67 74
137 65 72
134 66 73
135 67 73
134 65 71
144 76 84
136 68 75
141 75 82
144 74 82
137 71 78
136 66 73
140 69 76
141 75 83
139 70 77
138 73 81
137 74 81
141 73 81
136 68 74
144 74 82
136 67 74
137 70 78
142 74 82
137 70 78
146 79 86
141 71 78
135 63 69
155 132 151
196 220 252
198 223 255
198 223 255
198 223 255
198 223 255
198 223 255
198 223 255
198 223 255
199 223 255
199 223 255
199 223 255
199 223 255
199 223 255
199 223 255
199 223 255
199 223 255
199 223 255
199 223 255
199 223 255
199 223 255
199 223 255
199 223 255
199 223 255
199 223 255
199 223 255
199 224 255
199 224 255
199 224 255
200 224 255
200 224 255
200 224 255
200 224 255
200 224 255
200 224 255
200 224 255
200 224 255
200 224 255
200 224 255
200 224 255
200 224 255
200 224 255
200 224 255
200 224 255
200 224 255
200 224 255
201 224 255
201 224 255
201 224 255
201 224 255
201 224 255
201 224 255
201 224 255
201 224 255
201 224 255
201 224 255
201 224 255
201 225 255
201 225 255
201 225 255
201 225 255
202 225 255
202 225 255
202 225 255
202 225 255
202 225 255
202 225 255
202 225 255
202 225 255
202 225 255
202 225 255
202 225 255
202 225 255
202 225 255
202 225 255
202 225 255
203 225 255
203 225 255
203 225 255
203 225 255
203 225 255
203 225 255
203 225 255
203 225 255
203 225 255
203 226 255
203 226 255
203 226 255
203 226 255
203 226 255
203 226 255
203 226 255
204 226 255
204 226 255
204 226 255
204 226 255
204 226 255
204 226 255
204 226 255
204 226 255
204 226 255
204 226 255
204 226 255
204 226 255
204 226 255
204 226 255
204 226 255
205 226 255
205 226 255
205 226 255
205 226 255
205 226 255
205 226 255
205 226 255
205 227 255
205 227 255
205 227 255
205 227 255
205 227 255
205 227 255
205 227 255
205 227 255
205 227 255
205 227 255
206 227 255
206 227 255
206 227 255
206 227 255
206 227 255
206 227 255
206 227 255
206 227 255
206 227 255
206 227 255
206 227 255
206 227 255
206 227 255
206 227 255
206 227 255
206 227 255
206 227 255
206 227 255
207 227 255
207 227 255
207 227 255
207 227 255
207 227 255
207 228 255
207 228 255
207 228 255
207 228 255
207 228 255
207 228 255
207 228 255
207 228 255
207 228 255
207 228 255
207 228 255
207 228 255
207 228 255
207 228 255
207 228 255
208 228 255
208 228 255
208 228 255
208 228 255
208 228 255
208 228 255
208 228 255
208 228 255
208 228 255
208 228 255
208 228 255
208 228 255
208 228 255
208 228 255
208 228 255
208 228 255
208 228 255
208 228 255
208 228 255
208 228 255
208 228 255
208 228 255
208 228 255
207 228 255
207 228 255
207 228 255
207 228 255
207 228 255
207 228 255
207 228 255
207 228 255
207 228 255
207 228 255
207 228 255
207 228 255
207 228 255
207 228 255
207 228 255
207 227 255
207 227 255
207 227 255
207 227 255
207 227 255
206 227 255
206 227 255
206 227 255
206 227 255
206 227 255
206 227 255
206 227 255
206 227 255
206 227 255
206 227 255
206 227 255
206 227 255
206 227 255
206 227 255
206 227 255
206 227 255
206 227 255
206 227 255
205 227 255
205 227 255
205 227 255
205 227 255
205 227 255
205 227 255
205 227 255
205 227 255
205 227 255
205 227 255
205 226 255
205 226 255
205 226 255
205 226 255
205 226 255
205 226 255
204 226 255
204 226 255
204 226 255
204 226 255
204 226 255
204 226 255
204 226 255
204 226 255
204 226 255
204 226 255
204 226 255
204 226 255
204 226 255
204 226 255
204 226 255
204 226 255
203 226 255
203 226 255
203 226 255
203 226 255
203 226 255
203 226 255
203 226 255
203 225 255
203 225 255
203 225 255
203 225 255
203 225 255
203 225 255
203 225 255
203 225 255
202 225 255
202 225 255
202 225 255
202 225 255
202 225 255
202 225 255
202 225 255
202 225 255
202 225 255
202 225 255
202 225 255
202 225 255
202 225 255
202 225 255
202 225 255
202 225 255
201 225 255
201 225 255
201 225 255
201 225 255
201 224 255
201 224 255
201 224 255
201 224 255
201 224 255
201 224 255
201 224 255
201 224 255
201 224 255
201 224 255
201 224 255
200 224 255
200 224 255
200 224 255
200 224 255
200 224 255
200 224 255
200 224 255
200 224 255
200 224 255
200 224 255
200 224 255
200 224 255
200 224 255
200 224 255
200 224 255
200 224 255
200 224 255
199 224 255
199 224 255
199 224 255
199 223 255
199 223 255
199 223 255
199 223 255
199 223 255
199 223 255
199 223 255
199 223 255
199 223 255
199 223 255
199 223 255
199 223 255
199 223 255
199 223 255
199 223 255
199 223 255
199 223 255
199 223 255
199 223 255
198 223 255
198 223 255
198 223 255
198 222 254
162 141 160
138 72 80
143 77 85
140 75 83
136 70 77
140 74 82
136 71 78
141 70 77
136 67 73
136 68 74
130 65 71
135 68 74
137 71 78
141 77 85
138 72 80
136 67 74
134 66 72
135 65 71
142 75 82
138 71 78
133 68 74
137 71 78
149 77 85
139 70 77
130 65 71
135 64 70
137 68 75
138 71 78
133 65 71
133 66 73
137 66 72
129 57 63
139 68 75
132 64 70
133 66 72
141 73 80
136 67 74
135 67 74
137 69 76
142 70 77
140 70 77
140 72 79
140 71 78
140 71 79
141 73 81
134 66 73
139 71 78
139 72 79
143 75 83
139 71 78
138 71 78
140 74 81
139 69 76
137 68 75
147 77 85
160 133 151
197 220 252
198 223 255
198 223 255
198 223 255
199 223 255
199 223 255
199 223 255
199 223 255
199 223 255
199 223 255
199 223 255
199 223 255
199 223 255
199 223 255
199 223 255
199 223 255
199 223 255
199 223 255
199 223 255
199 223 255
199 223 255
199 223 255
199 223 255
199 224 255
199 224 255
199 224 255
200 224 255
200 224 255
200 224 255
200 224 255
200 224 255
200 224 255
200 224 255
200 224 255
200 224 255
200 224 255
200 224 255
200 224 255
200 224 255
200 224 255
200 224 255
200 224 255
200 224 255
201 224 255
201 224 255
201 224 255
201 224 255
201 224 255
201 224 255
201 224 255
201 224 255
201 224 255
201 224 255
201 224 255
201 225 255
201 225 255
201 225 255
201 225 255
202 225 255
202 225 255
202 225 255
202 225 255
202 225 255
202 225 255
202 225 255
202 225 255
202 225 255
202 225 255
202 225 255
202 225 255
202 225 255
202 225 255
202 225 255
202 225 255
203 225 255
203 225 255
203 225 255
203 225 255
203 225 255
203 225 255
203 225 255
203 225 255
203 226 255
203 226 255
203 226 255
203 226 255
203 226 255
203 226 255
203 226 255
204 226 255
204 226 255
204 226 255
204 226 255
204 226 255
204 226 255
204 226 255
204 226 255
204 226 255
204 226 255
204 226 255
204 226 255
204 226 255
204 226 255
204 226 255
204 226 255
205 226 255
205 226 255
205 226 255
205 226 255
205 226 255
205 226 255
205 227 255
205 227 255
205 227 255
205 227 255
205 227 255
205 227 255
205 227 255
205 227 255
205 227 255
205 227 255
206 227 255
206 227 255
206 227 255
206 227 255
206 227 255
206 227 255
206 227 255
206 227 255
206 227 255
206 227 255
206 227 255
206 227 255
206 227 255
206 227 255
206 227 255
206 227 255
206 227 255
206 227 255
207 227 255
207 227 255
207 227 255
207 227 255
207 227 255
207 228 255
207 228 255
207 228 255
207 228 255
207 228 255
207 228 255
207 228 255
207 228 255
207 228 255
207 228 255
207 228 255
207 228 255
207 228 255
207 228 255
207 228 255
208 228 255
208 228 255
208 228 255
208 228 255
208 228 255
208 228 255
208 228 255
208 228 255
208 228 255
208 228 255
208 228 255
208 228 255
208 228 255
208 228 255
208 228 255
208 228 255
208 228 255
208 228 255
208 228 255
208 228 255
208 228 255
208 228 255
208 228 255
208 228 255
208 228 255
208 228 255
208 228 255
208 228 255
208 228 255
207 228 255
207 228 255
207 228 255
207 228 255
207 228 255
207 228 255
207 228 255
207 228 255
207 228 255
207 228 255
207 228 255
207 228 255
207 228 255
207 228 255
207 228 255
207 227 255
207 227 255
207 227 255
207 227 255
207 227 255
206 227 255
206 227 255
206 227 255
206 227 255
206 227 255
206 227 255
206 227 255
206 227 255
206 227 255
206 227 255
206 227 255
206 227 255
206 227 255
206 227 255
206 227 255
206 227 255
206 227 255
206 227 255
205 227 255
205 227 255
205 227 255
205 227 255
205 227 255
205 227 255
205 227 255
205 227 255
205 227 255
205 227 255
205 226 255
205 226 255
205 226 255
205 226 255
205 226 255
205 226 255
204 226 255
204 226 255
204 226 255
204 226 255
204 226 255
204 226 255
204 226 255
204 226 255
204 226 255
204 226 255
204 226 255
204 226 255
204 226 255
204 226 255
204 226 255
204 226 255
203 226 255
203 226 255
203 226 255
203 226 255
203 226 255
203 226 255
203 226 255
203 225 255
203 225 255
203 225 255
203 225 255
203 225 255
203 225 255
203 225 255
203 225 255
202 225 255
202 225 255
202 225 255
202 225 255
202 225 255
202 225 255
202 225 255
202 225 255
202 225 255
202 225 255
202 225 255
202 225 255
202 225 255
202 225 255
202 225 255
201 225 255
201 225 255
201 225 255
201 225 255
201 225 255
201 224 255
201 224 255
201 224 255
201 224 255
201 224 255
201 224 255
201 224 255
201 224 255
201 224 255
201 224 255
201 224 255
200 224 255
200 224 255
200 224 255
200 224 255
200 224 255
200 224 255
200 224 255
200 224 255
200 224 255
200 224 255
200 224 255
200 224 255
200 224 255
200 224 255
200 224 255
200 224 255
200 224 255
200 224 255
199 224 255
199 224 255
199 224 255
199 223 255
199 223 255
199 223 255
199 223 255
199 223 255
199 223 255
199 223 255
199 223 255
199 223 255
199 223 255
199 223 255
199 223 255
199 223 255
199 223 255
199 223 255
199 223 255
199 223 255
199 223 255
199 223 255
196 219 250
156 128 145
141 72 79
135 73 81
135 68 75
142 74 81
141 74 81
140 73 80
136 70 77
137 71 78
141 74 81
139 72 79
131 64 70
143 78 86
132 64 71
139 72 79
140 74 81
136 69 76
134 65 72
132 65 72
134 67 73
133 67 74
144 72 80
140 71 78
124 60 66
133 66 73
133 69 75
132 64 71
135 63 69
133 63 69
138 65 71
138 69 76
134 67 73
139 73 80
132 64 70
134 66 73
140 71 78
136 70 77
138 67 74
138 71 78
134 67 73
136 70 77
141 75 83
140 72 78
134 65 72
137 68 75
139 71 78
133 67 74
135 68 75
138 74 81
148 80 89
138 70 77
139 73 81
142 72 79
163 135 154
196 220 252
199 223 255
199 223 255
199 223 255
199 223 255
199 223 255
199 223 255
199 223 255
199 223 255
199 223 255
199 223 255
199 223 255
199 223 255
199 223 255
199 223 255
199 223 255
199 223 255
199 223 255
199 223 255
199 223 255
199 224 255
199 224 255
199 224 255
200 224 255
200 224 255
200 224 255
200 224 255
200 224 255
200 224 255
200 224 255
200 224 255
200 224 255
200 224 255
200 224 255
200 224 255
200 224 255
200 224 255
200 224 255
200 224 255
200 224 255
200 224 255
201 224 255
201 224 255
201 224 255
201 224 255
201 224 255
201 224 255
201 224 255
201 224 255
201 224 255
201 224 255
201 224 255
201 225 255
201 225 255
201 225 255
201 225 255
201 225 255
202 225 255
202 225 255
202 225 255
202 225 255
202 225 255
202 225 255
202 225 255
202 225 255
202 225 255
202 225 255
202 225 255
202 225 255
202 225 255
202 225 255
202 225 255
203 225 255
203 225 255
203 225 255
203 225 255
203 225 255
203 225 255
203 225 255
203 225 255
203 226 255
203 226 255
203 226 255
203 226 255
203 226 255
203 226 255
203 226 255
204 226 255
204 226 255
204 226 255
204 226 255
204 226 255
204 226 255
204 226 255
204 226 255
204 226 255
204 226 255
204 226 255
204 226 255
204 226 255
204 226 255
204 226 255
204 226 255
205 226 255
205 226 255
205 226 255
205 226 255
205 226 255
205 226 255
205 226 255
205 227 255
205 227 255
205 227 255
205 227 255
205 227 255
205 227 255
205 227 255
205 227 255
205 227 255
206 227 255
206 227 255
206 227 255
206 227 255
206 227 255
206 227 255
206 227 255
206 227 255
206 227 255
206 227 255
206 227 255
206 227 255
206 227 255
206 227 255
206 227 255
206 227 255
206 227 255
206 227 255
207 227 255
207 227 255
207 227 255
207 227 255
207 227 255
207 228 255
207 228 255
207 228 255
207 228 255
207 228 255
207 228 255
207 228 255
207 228 255
207 228 255
207 228 255
207 228 255
207 228 255
207 228 255
207 228 255
207 228 255
208 228 255
208 228 255
208 228 255
208 228 255
208 228 255
208 228 255
208 228 255
208 228 255
208 228 255
208 228 255
208 228 255
208 228 255
208 228 255
208 228 255
208 228 255
208 228 255
208 228 255
208 228 255
208 228 255
208 228 255
208 228 255
208 228 255
208 228 255
208 228 255
208 228 255
208 228 255
208 228 255
208 228 255
208 228 255
208 228 255
208 228 255
208 228 255
208 228 255
208 228 255
208 228 255
207 228 255
207 228 255
207 228 255
207 228 255
207 228 255
207 228 255
207 228 255
207 228 255
207 228 255
207 228 255
207 228 255
207 228 255
207 228 255
207 228 255
207 228 255
207 227 255
207 227 255
207 227 255
207 227 255
207 227 255
206 227 255
206 227 255
206 227 255
206 227 255
206 227 255
206 227 255
206 227 255
206 227 255
206 227 255
206 227 255
206 227 255
206 227 255
206 227 255
206 227 255
206 227 255
206 227 255
206 227 255
205 227 255
205 227 255
205 227 255
205 227 255
205 227 255
205 227 255
205 227 255
205 227 255
205 227 255
205 227 255
205 226 255
205 226 255
205 226 255
205 226 255
205 226 255
205 226 255
205 226 255
204 226 255
204 226 255
204 226 255
204 226 255
204 226 255
204 226 255
204 226 255
204 226 255
204 226 255
204 226 255
204 226 255
204 226 255
204 226 255
204 226 255
204 226 255
204 226 255
203 226 255
203 226 255
203 226 255
203 226 255
203 226 255
203 226 255
203 225 255
203 225 255
203 225 255
203 225 255
203 225 255
203 225 255
203 225 255
203 225 255
203 225 255
202 225 255
202 225 255
202 225 255
202 225 255
202 225 255
202 225 255
202 225 255
202 225 255
202 225 255
202 225 255
202 225 255
202 225 255
202 225 255
202 225 255
202 225 255
201 225 255
201 225 255
201 225 255
201 225 255
201 225 255
201 224 255
201 224 255
201 224 255
201 224 255
201 224 255
201 224 255
201 224 255
201 224 255
201 224 255
201 224 255
201 224 255
200 224 255
200 224 255
200 224 255
200 224 255
200 224 255
200 224 255
200 224 255
200 224 255
200 224 255
200 224 255
200 224 255
200 224 255
200 224 255
200 224 255
200 224 255
200 224 255
200 224 255
200 224 255
199 224 255
199 224 255
199 224 255
199 224 255
199 223 255
199 223 255
199 223 255
199 223 255
199 223 255
199 223 255
199 223 255
199 223 255
199 223 255
199 223 255
199 223 255
199 223 255
199 223 255
199 223 255
199 223 255
199 223 255
197 221 253
157 133 151
142 76 84
134 67 74
139 73 80
139 69 76
139 74 81
139 73 80
130 62 69
137 70 77
143 76 84
135 70 76
138 70 78
130 63 69
135 66 73
131 66 72
131 63 69
134 65 71
132 62 68
139 73 81
139 69 76
131 63 70
133 68 75
138 74 81
132 64 71
130 62 68
130 64 70
137 69 76
132 65 71
139 66 73
138 70 77
136 67 74
139 72 79
142 75 82
135 66 73
141 70 77
136 66 73
128 63 69
135 69 75
140 75 83
145 75 83
140 70 77
134 67 73
137 70 77
139 72 79
139 71 78
134 62 69
132 66 72
141 73 80
138 69 76
143 75 83
140 71 78
156 127 144
197 218 249
199 223 255
199 223 255
199 223 255
199 223 255
199 223 255
199 223 255
199 223 255
199 223 255
199 223 255
199 223 255
199 223 255
199 223 255
199 223 255
199 223 255
199 223 255
199 223 255
199 224 255
199 224 255
199 224 255
199 224 255
200 224 255
200 224 255
200 224 255
200 224 255
200 224 255
200 224 255
200 224 255
200 224 255
200 224 255
200 224 255
200 224 255
200 224 255
200 224 255
200 224 255
200 224 255
200 224 255
200 224 255
200 224 255
201 224 255
201 224 255
201 224 255
201 224 255
201 224 255
201 224 255
201 224 255
201 224 255
201 224 255
201 224 255
201 224 255
201 225 255
201 225 255
201 225 255
201 225 255
201 225 255
202 225 255
202 225 255
202 225 255
202 225 255
202 225 255
202 225 255
202 225 255
202 225 255
202 225 255
202 225 255
202 225 255
202 225 255
202 225 255
202 225 255
202 225 255
203 225 255
203 225 255
203 225 255
203 225 255
203 225 255
203 225 255
203 225 255
203 225 255
203 225 255
203 226 255
203 226 255
203 226 255
203 226 255
203 226 255
203 226 255
204 226 255
204 226 255
204 226 255
204 226 255
204 226 255
204 226 255
204 226 255
204 226 255
204 226 255
204 226 255
204 226 255
204 226 255
204 226 255
204 226 255
204 226 255
204 226 255
205 226 255
205 226 255
205 226 255
205 226 255
205 226 255
205 226 255
205 226 255
205 227 255
205 227 255
205 227 255
205 227 255
205 227 255
205 227 255
205 227 255
205 227 255
205 227 255
205 227 255
206 227 255
206 227 255
206 227 255
206 227 255
206 227 255
206 227 255
206 227 255
206 227 255
206 227 255
206 227 255
206 227 255
206 227 255
206 227 255
206 227 255
206 227 255
206 227 255
206 227 255
207 227 255
207 227 255
207 227 255
207 227 255
207 227 255
207 228 255
207 228 255
207 228 255
207 228 255
207 228 255
207 228 255
207 228 255
207 228 255
207 228 255
207 228 255
207 228 255
207 228 255
207 228 255
207 228 255
207 228 255
208 228 255
208 228 255
208 228 255
208 228 255
208 228 255
208 228 255
208 228 255
208 228 255
208 228 255
208 228 255
208 228 255
208 228 255
208 228 255
208 228 255
208 228 255
208 228 255
208 228 255
208 228 255
208 228 255
209 228 255
208 228 255
208 228 255
208 228 255
208 228 255
208 228 255
208 228 255
208 228 255
208 228 255
208 228 255
208 228 255
208 228 255
208 228 255
208 228 255
208 228 255
208 228 255
208 228 255
208 228 255
208 228 255
208 228 255
208 228 255
208 228 255
207 228 255
207 228 255
207 228 255
207 228 255
207 228 255
207 228 255
207 228 255
207 228 255
207 228 255
207 228 255
207 228 255
207 228 255
207 228 255
207 228 255
207 228 255
207 227 255
207 227 255
207 227 255
207 227 255
207 227 255
206 227 255
206 227 255
206 227 255
206 227 255
206 227 255
206 227 255
206 227 255
206 227 255
206 227 255
206 227 255
206 227 255
206 227 255
206 227 255
206 227 255
206 227 255
206 227 255
206 227 255
205 227 255
205 227 255
205 227 255
205 227 255
205 227 255
205 227 255
205 227 255
205 227 255
205 227 255
205 227 255
205 226 255
205 226 255
205 226 255
205 226 255
205 226 255
205 226 255
205 226 255
204 226 255
204 226 255
204 226 255
204 226 255
204 226 255
204 226 255
204 226 255
204 226 255
204 226 255
204 226 255
204 226 255
204 226 255
204 226 255
204 226 255
204 226 255
203 226 255
203 226 255
203 226 255
203 226 255
203 226 255
203 226 255
203 226 255
203 225 255
203 225 255
203 225 255
203 225 255
203 225 255
203 225 255
203 225 255
203 225 255
203 225 255
202 225 255
202 225 255
202 225 255
202 225 255
202 225 255
202 225 255
202 225 255
202 225 255
202 225 255
202 225 255
202 225 255
202 225 255
202 225 255
202 225 255
202 225 255
201 225 255
201 225 255
201 225 255
201 225 255
201 225 255
201 224 255
201 224 255
201 224 255
201 224 255
201 224 255
201 224 255
201 224 255
201 224 255
201 224 255
201 224 255
201 224 255
201 224 255
200 224 255
200 224 255
200 224 255
200 224 255
200 224 255
200 224 255
200 224 255
200 224 255
200 224 255
200 224 255
200 224 255
200 224 255
200 224 255
200 224 255
200 224 255
200 224 255
200 224 255
200 224 255
200 224 255
199 224 255
199 224 255
199 224 255
199 223 255
199 223 255
199 223 255
199 223 255
199 223 255
199 223 255
199 223 255
199 223 255
199 223 255
199 223 255
199 223 255
199 223 255
199 223 255
198 220 252
158 132 149
143 76 83
140 75 82
138 75 83
140 71 78
133 64 70
142 77 84
136 72 79
136 71 78
131 64 71
137 69 76
136 72 79
140 74 82
136 69 76
135 68 75
134 70 77
135 68 75
139 72 79
137 72 79
137 71 78
135 67 73
134 65 71
137 68 75
131 64 71
136 69 76
137 66 72
137 66 73
140 71 78
132 63 70
137 69 75
138 71 78
138 70 77
136 70 77
137 66 73
136 72 79
144 74 82
137 73 81
142 76 84
135 67 74
136 69 76
139 72 79
142 77 84
144 77 85
132 65 71
135 67 74
142 74 81
141 73 80
142 72 79
137 68 75
159 130 148
198 221 253
199 223 255
199 223 255
199 223 255
199 223 255
199 223 255
199 223 255
199 223 255
199 223 255
199 223 255
199 223 255
199 223 255
199 223 255
199 223 255
199 224 255
199 224 255
199 224 255
199 224 255
200 224 255
200 224 255
200 224 255
200 224 255
200 224 255
200 224 255
200 224 255
200 224 255
200 224 255
200 224 255
200 224 255
200 224 255
200 224 255
200 224 255
200 224 255
200 224 255
200 224 255
200 224 255
200 224 255
201 224 255
201 224 255
201 224 255
201 224 255
201 224 255
201 224 255
201 224 255
201 224 255
201 224 255
201 224 255
201 224 255
201 225 255
201 225 255
201 225 255
201 225 255
201 225 255
202 225 255
202 225 255
202 225 255
202 225 255
202 225 255
202 225 255
202 225 255
202 225 255
202 225 255
202 225 255
202 225 255
202 225 255
202 225 255
202 225 255
202 225 255
203 225 255
203 225 255
203 225 255
203 225 255
203 225 255
203 225 255
203 225 255
203 225 255
203 225 255
203 226 255
203 226 255
203 226 255
203 226 255
203 226 255
203 226 255
203 226 255
204 226 255
204 226 255
204 226 255
204 226 255
204 226 255
204 226 255
204 226 255
204 226 255
204 226 255
204 226 255
204 226 255
204 226 255
204 226 255
204 226 255
204 226 255
205 226 255
205 226 255
205 226 255
205 226 255
205 226 255
205 226 255
205 226 255
205 227 255
205 227 255
205 227 255
205 227 255
205 227 255
205 227 255
205 227 255
205 227 255
205 227 255
205 227 255
206 227 255
206 227 255
206 227 255
206 227 255
206 227 255
206 227 255
206 227 255
206 227 255
206 227 255
206 227 255
206 227 255
206 227 255
206 227 255
206 227 255
206 227 255
206 227 255
206 227 255
207 227 255
207 227 255
207 227 255
207 227 255
207 227 255
207 228 255
207 228 255
207 228 255
207 228 255
207 228 255
207 228 255
207 228 255
207 228 255
207 228 255
207 228 255
207 228 255
207 228 255
207 228 255
207 228 255
207 228 255
208 228 255
208 228 255
208 228 255
208 228 255
208 228 255
208 228 255
208 228 255
208 228 255
208 228 255
208 228 255
208 228 255
208 228 255
208 228 255
208 228 255
208 228 255
208 228 255
208 228 255
208 228 255
208 228 255
208 228 255
208 228 255
209 228 255
209 229 255
209 229 255
209 229 255
209 228 255
208 228 255
208 228 255
208 228 255
208 228 255
208 228 255
208 228 255
208 228 255
208 228 255
208 228 255
208 228 255
208 228 255
208 228 255
208 228 255
208 228 255
208 228 255
208 228 255
208 228 255
208 228 255
208 228 255
208 228 255
208 228 255
207 228 255
207 228 255
207 228 255
207 228 255
207 228 255
207 228 255
207 228 255
207 228 255
207 228 255
207 228 255
207 228 255
207 228 255
207 228 255
207 228 255
207 228 255
207 227 255
207 227 255
207 227 255
207 227 255
206 227 255
206 227 255
206 227 255
206 227 255
206 227 255
206 227 255
206 227 255
206 227 255
206 227 255
206 227 255
206 227 255
206 227 255
206 227 255
206 227 255
206 227 255
206 227 255
206 227 255
206 227 255
205 227 255
205 227 255
205 227 255
205 227 255
205 227 255
205 227 255
205 227 255
205 227 255
205 227 255
205 227 255
205 226 255
205 226 255
205 226 255
205 226 255
205 226 255
205 226 255
205 226 255
204 226 255
204 226 255
204 226 255
204 226 255
204 226 255
204 226 255
204 226 255
204 226 255
204 226 255
204 226 255
204 226 255
204 226 255
204 226 255
204 226 255
204 226 255
203 226 255
203 226 255
203 226 255
203 226 255
203 226 255
203 226 255
203 226 255
203 225 255
203 225 255
203 225 255
203 225 255
203 225 255
203 225 255
203 225 255
203 225 255
203 225 255
202 225 255
202 225 255
202 225 255
202 225 255
202 225 255
202 225 255
202 225 255
202 225 255
202 225 255
202 225 255
202 225 255
202 225 255
202 225 255
202 225 255
202 225 255
201 225 255
201 225 255
201 225 255
201 225 255
201 225 255
201 224 255
201 224 255
201 224 255
201 224 255
201 224 255
201 224 255
201 224 255
201 224 255
201 224 255
201 224 255
201 224 255
201 224 255
200 224 255
200 224 255
200 224 255
200 224 255
200 224 255
200 224 255
200 224 255
200 224 255
200 224 255
200 224 255
200 224 255
200 224 255
200 224 255
200 224 255
200 224 255
200 224 255
200 224 255
200 224 255
200 224 255
200 224 255
199 224 255
199 224 255
199 224 255
199 224 255
199 223 255
199 223 255
199 223 255
199 223 255
199 223 255
199 223 255
199 223 255
199 223 255
199 223 255
196 217 248
159 134 152
139 69 75
144 77 84
135 69 76
136 69 76
135 69 76
141 76 84
140 75 83
139 71 78
135 62 69
129 64 70
136 66 73
138 73 81
137 70 77
133 66 73
135 66 72
141 74 81
135 68 75
132 65 71
134 68 76
137 73 80
133 62 69
138 70 77
136 67 74
138 71 78
136 65 71
136 65 72
139 70 77
134 64 71
140 68 75
134 66 72
138 72 79
138 68 75
139 71 78
134 67 74
142 72 79
135 66 73
144 75 83
141 70 77
143 77 85
142 75 83
145 76 83
146 78 86
141 73 81
142 73 80
140 71 79
141 70 78
160 131 149
199 222 254
199 223 255
199 223 255
199 223 255
199 223 255
199 223 255
199 223 255
199 223 255
199 223 255
199 223 255
199 224 255
199 224 255
199 224 255
199 224 255
200 224 255
200 224 255
200 224 255
200 224 255
200 224 255
200 224 255
200 224 255
200 224 255
200 224 255
200 224 255
200 224 255
200 224 255
200 224 255
200 224 255
200 224 255
200 224 255
200 224 255
200 224 255
200 224 255
200 224 255
201 224 255
201 224 255
201 224 255
201 224 255
201 224 255
201 224 255
201 224 255
201 224 255
201 224 255
201 224 255
201 224 255
201 224 255
201 225 255
201 225 255
201 225 255
201 225 255
201 225 255
202 225 255
202 225 255
202 225 255
202 225 255
202 225 255
202 225 255
202 225 255
202 225 255
202 225 255
202 225 255
202 225 255
202 225 255
202 225 255
202 225 255
202 225 255
203 225 255
203 225 255
203 225 255
203 225 255
203 225 255
203 225 255
203 225 255
203 225 255
203 225 255
203 226 255
203 226 255
203 226 255
203 226 255
203 226 255
203 226 255
203 226 255
204 226 255
204 226 255
204 226 255
204 226 255
204 226 255
204 226 255
204 226 255
204 226 255
204 226 255
204 226 255
204 226 255
204 226 255
204 226 255
204 226 255
204 226 255
205 226 255
205 226 255
205 226 255
205 226 255
205 226 255
205 226 255
205 226 255
205 227 255
205 227 255
205 227 255
205 227 255
205 227 255
205 227 255
205 227 255
205 227 255
205 227 255
205 227 255
206 227 255
206 227 255
206 227 255
206 227 255
206 227 255
206 227 255
206 227 255
206 227 255
206 227 255
206 227 255
206 227 255
206 227 255
206 227 255
206 227 255
206 227 255
206 227 255
206 227 255
206 227 255
207 227 255
207 227 255
207 227 255
207 227 255
207 228 255
207 228 255
207 228 255
207 228 255
207 228 255
207 228 255
207 228 255
207 228 255
207 228 255
207 228 255
207 228 255
207 228 255
207 228 255
207 228 255
207 228 255
208 228 255
208 228 255
208 228 255
208 228 255
208 228 255
208 228 255
208 228 255
208 228 255
208 228 255
208 228 255
208 228 255
208 228 255
208 228 255
208 228 255
208 228 255
208 228 255
208 228 255
208 228 255
208 228 255
208 228 255
208 228 255
209 228 255
209 229 255
209 229 255
209 229 255
209 229 255
209 229 255
209 229 255
209 229 255
209 229 255
209 229 255
209 228 255
209 228 255
208 228 255
208 228 255
208 228 255
208 228 255
208 228 255
208 228 255
208 228 255
208 228 255
208 228 255
208 228 255
208 228 255
208 228 255
208 228 255
208 228 255
208 228 255
208 228 255
208 228 255
208 228 255
208 228 255
208 228 255
207 228 255
207 228 255
207 228 255
207 228 255
207 228 255
207 228 255
207 228 255
207 228 255
207 228 255
207 228 255
207 228 255
207 228 255
207 228 255
207 228 255
207 228 255
207 227 255
207 227 255
207 227 255
207 227 255
206 227 255
206 227 255
206 227 255
206 227 255
206 227 255
206 227 255
206 227 255
206 227 255
206 227 255
206 227 255
206 227 255
206 227 255
206 227 255
206 227 255
206 227 255
206 227 255
206 227 255
206 227 255
205 227 255
205 227 255
205 227 255
205 227 255
205 227 255
205 227 255
205 227 255
205 227 255
205 227 255
205 227 255
205 226 255
205 226 255
205 226 255
205 226 255
205 226 255
205 226 255
204 226 255
204 226 255
204 226 255
204 226 255
204 226 255
204 226 255
204 226 255
204 226 255
204 226 255
204 226 255
204 226 255
204 226 255
204 226 255
204 226 255
204 226 255
204 226 255
203 226 255
203 226 255
203 226 255
203 226 255
203 226 255
203 226 255
203 226 255
203 225 255
203 225 255
203 225 255
203 225 255
203 225 255
203 225 255
203 225 255
203 225 255
203 225 255
202 225 255
202 225 255
202 225 255
202 225 255
202 225 255
202 225 255
202 225 255
202 225 255
202 225 255
202 225 255
202 225 255
202 225 255
202 225 255
202 225 255
202 225 255
201 225 255
201 225 255
201 225 255
201 225 255
201 225 255
201 224 255
201 224 255
201 224 255
201 224 255
201 224 255
201 224 255
201 224 255
201 224 255
201 224 255
201 224 255
201 224 255
201 224 255
201 224 255
200 224 255
200 224 255
200 224 255
200 224 255
200 224 255
200 224 255
200 224 255
200 224 255
200 224 255
200 224 255
200 224 255
200 224 255
200 224 255
200 224 255
200 224 255
200 224 255
200 224 255
200 224 255
200 224 255
200 224 255
200 224 255
199 224 255
199 224 255
199 224 255
199 224 255
199 223 255
199 223 255
199 223 255
199 223 255
199 223 255
198 220 251
162 136 155
143 75 82
137 72 79
137 69 76
139 72 79
134 67 74
131 61 67
136 71 79
134 65 72
131 64 72
130 60 66
136 68 75
141 75 82
134 67 74
135 72 80
139 72 79
135 65 72
140 74 82
134 67 74
140 71 79
128 63 69
133 65 71
134 64 71
134 67 74
130 62 69
136 67 73
148 75 83
141 73 80
141 73 81
135 70 78
133 64 71
134 65 71
134 68 74
139 69 76
132 59 65
141 70 77
141 72 79
143 77 85
138 71 78
143 74 81
141 74 82
143 73 81
138 69 76
140 69 77
138 71 78
158 133 151
197 219 251
199 223 255
199 223 255
199 223 255
199 223 255
199 223 255
199 224 255
199 224 255
199 224 255
199 224 255
200 224 255
200 224 255
200 224 255
200 224 255
200 224 255
200 224 255
200 224 255
200 224 255
200 224 255
200 224 255
200 224 255
200 224 255
200 224 255
200 224 255
200 224 255
200 224 255
200 224 255
200 224 255
200 224 255
200 224 255
200 224 255
200 224 255
201 224 255
201 224 255
201 224 255
201 224 255
201 224 255
201 224 255
201 224 255
201 224 255
201 224 255
201 224 255
201 224 255
201 224 255
201 225 255
201 225 255
201 225 255
201 225 255
201 225 255
202 225 255
202 225 255
202 225 255
202 225 255
202 225 255
202 225 255
202 225 255
202 225 255
202 225 255
202 225 255
202 225 255
202 225 255
202 225 255
202 225 255
202 225 255
203 225 255
203 225 255
203 225 255
203 225 255
203 225 255
203 225 255
203 225 255
203 225 255
203 225 255
203 226 255
203 226 255
203 226 255
203 226 255
203 226 255
203 226 255
203 226 255
204 226 255
204 226 255
204 226 255
204 226 255
204 226 255
204 226 255
204 226 255
204 226 255
204 226 255
204 226 255
204 226 255
204 226 255
204 226 255
204 226 255
204 226 255
204 226 255
205 226 255
205 226 255
205 226 255
205 226 255
205 226 255
205 226 255
205 227 255
205 227 255
205 227 255
205 227 255
205 227 255
205 227 255
205 227 255
205 227 255
205 227 255
205 227 255
206 227 255
206 227 255
206 227 255
206 227 255
206 227 255
206 227 255
206 227 255
206 227 255
206 227 255
206 227 255
206 227 255
206 227 255
206 227 255
206 227 255
206 227 255
206 227 255
206 227 255
206 227 255
207 227 255
207 227 255
207 227 255
207 227 255
207 228 255
207 228 255
207 228 255
207 228 255
207 228 255
207 228 255
207 228 255
207 228 255
207 228 255
207 228 255
207 228 255
207 228 255
207 228 255
207 228 255
207 228 255
208 228 255
208 228 255
208 228 255
208 228 255
208 228 255
208 228 255
208 228 255
208 228 255
208 228 255
208 228 255
208 228 255
208 228 255
208 228 255
208 228 255
208 228 255
208 228 255
208 228 255
208 228 255
208 228 255
208 228 255
208 228 255
209 228 255
209 229 255
209 229 255
209 229 255
209 229 255
209 229 255
209 229 255
209 229 255
209 229 255
209 229 255
209 229 255
209 229 255
209 229 255
209 229 255
209 229 255
209 229 255
209 228 255
209 228 255
208 228 255
208 228 255
208 228 255
208 228 255
208 228 255
208 228 255
208 228 255
208 228 255
208 228 255
208 228 255
208 228 255
208 228 255
208 228 255
208 228 255
208 228 255
208 228 255
208 228 255
208 228 255
208 228 255
208 228 255
207 228 255
207 228 255
207 228 255
207 228 255
207 228 255
207 228 255
207 228 255
207 228 255
207 228 255
207 228 255
207 228 255
207 228 255
207 228 255
207 228 255
207 228 255
207 227 255
207 227 255
207 227 255
207 227 255
206 227 255
206 227 255
206 227 255
206 227 255
206 227 255
206 227 255
206 227 255
206 227 255
206 227 255
206 227 255
206 227 255
206 227 255
206 227 255
206 227 255
206 227 255
206 227 255
206 227 255
206 227 255
205 227 255
205 227 255
205 227 255
205 227 255
205 227 255
205 227 255
205 227 255
205 227 255
205 227 255
205 227 255
205 226 255
205 226 255
205 226 255
205 226 255
205 226 255
205 226 255
204 226 255
204 226 255
204 226 255
204 226 255
204 226 255
204 226 255
204 226 255
204 226 255
204 226 255
204 226 255
204 226 255
204 226 255
204 226 255
204 226 255
204 226 255
204 226 255
203 226 255
203 226 255
203 226 255
203 226 255
203 226 255
203 226 255
203 226 255
203 225 255
203 225 255
203 225 255
203 225 255
203 225 255
203 225 255
203 225 255
203 225 255
203 225 255
202 225 255
202 225 255
202 225 255
202 225 255
202 225 255
202 225 255
202 225 255
202 225 255
202 225 255
202 225 255
202 225 255
202 225 255
202 225 255
202 225 255
202 225 255
202 225 255
201 225 255
201 225 255
201 225 255
201 225 255
201 224 255
201 224 255
201 224 255
201 224 255
201 224 255
201 224 255
201 224 255
201 224 255
201 224 255
201 224 255
201 224 255
201 224 255
201 224 255
200 224 255
200 224 255
200 224 255
200 224 255
200 224 255
200 224 255
200 224 255
200 224 255
200 224 255
200 224 255
200 224 255
200 224 255
200 224 255
200 224 255
200 224 255
200 224 255
200 224 255
200 224 255
200 224 255
200 224 255
200 224 255
200 224 255
200 224 255
199 224 255
199 224 255
199 224 255
199 224 255
199 224 255
198 220 251
160 134 153
144 77 85
142 75 83
140 76 84
136 72 80
131 65 72
139 72 79
136 73 81
136 71 78
135 69 76
137 71 78
138 70 78
133 66 73
133 64 70
138 71 78
137 71 78
137 70 77
139 73 80
131 63 70
134 66 72
133 66 73
135 67 74
130 64 70
137 64 70
142 68 74
142 76 83
138 69 75
139 70 77
137 70 78
139 67 74
139 73 81
131 61 67
140 70 77
141 72 80
136 70 77
144 74 81
135 69 76
142 74 82
141 71 79
142 71 79
142 75 84
147 75 83
138 70 77
158 132 150
198 221 252
199 224 255
199 224 255
199 224 255
199 224 255
199 224 255
200 224 255
200 224 255
200 224 255
200 224 255
200 224 255
200 224 255
200 224 255
200 224 255
200 224 255
200 224 255
200 224 255
200 224 255
200 224 255
200 224 255
200 224 255
200 224 255
200 224 255
200 224 255
200 224 255
200 224 255
200 224 255
200 224 255
200 224 255
201 224 255
201 224 255
201 224 255
201 224 255
201 224 255
201 224 255
201 224 255
201 224 255
201 224 255
201 224 255
201 224 255
201 224 255
201 224 255
201 225 255
201 225 255
201 225 255
201 225 255
201 225 255
202 225 255
202 225 255
202 225 255
202 225 255
202 225 255
202 225 255
202 225 255
202 225 255
202 225 255
202 225 255
202 225 255
202 225 255
202 225 255
202 225 255
202 225 255
202 225 255
203 225 255
203 225 255
203 225 255
203 225 255
203 225 255
203 225 255
203 225 255
203 225 255
203 226 255
203 226 255
203 226 255
203 226 255
203 226 255
203 226 255
203 226 255
204 226 255
204 226 255
204 226 255
204 226 255
204 226 255
204 226 255
204 226 255
204 226 255
204 226 255
204 226 255
204 226 255
204 226 255
204 226 255
204 226 255
204 226 255
204 226 255
205 226 255
205 226 255
205 226 255
205 226 255
205 226 255
205 226 255
205 227 255
205 227 255
205 227 255
205 227 255
205 227 255
205 227 255
205 227 255
205 227 255
205 227 255
205 227 255
206 227 255
206 227 255
206 227 255
206 227 255
206 227 255
206 227 255
206 227 255
206 227 255
206 227 255
206 227 255
206 227 255
206 227 255
206 227 255
206 227 255
206 227 255
206 227 255
206 227 255
206 227 255
207 227 255
207 227 255
207 227 255
207 227 255
207 228 255
207 228 255
207 228 255
207 228 255
207 228 255
207 228 255
207 228 255
207 228 255
207 228 255
207 228 255
207 228 255
207 228 255
207 228 255
207 228 255
208 228 255
208 228 255
208 228 255
208 228 255
208 228 255
208 228 255
208 228 255
208 228 255
208 228 255
208 228 255
208 228 255
208 228 255
208 228 255
208 228 255
208 228 255
208 228 255
208 228 255
208 228 255
208 228 255
208 228 255
208 228 255
209 228 255
209 228 255
209 229 255
209 229 255
209 229 255
209 229 255
209 229 255
209 229 255
209 229 255
209 229 255
209 229 255
209 229 255
209 229 255
209 229 255
209 229 255
209 229 255
209 229 255
209 229 255
209 229 255
209 229 255
209 229 255
209 229 255
209 229 255
209 228 255
209 228 255
208 228 255
208 228 255
208 228 255
208 228 255
208 228 255
208 228 255
208 228 255
208 228 255
208 228 255
208 228 255
208 228 255
208 228 255
208 228 255
208 228 255
208 228 255
208 228 255
208 228 255
208 228 255
208 228 255
208 228 255
208 228 255
207 228 255
207 228 255
207 228 255
207 228 255
207 228 255
207 228 255
207 228 255
207 228 255
207 228 255
207 228 255
207 228 255
207 228 255
207 228 255
207 228 255
207 227 255
207 227 255
207 227 255
207 227 255
206 227 255
206 227 255
206 227 255
206 227 255
206 227 255
206 227 255
206 227 255
206 227 255
206 227 255
206 227 255
206 227 255
206 227 255
206 227 255
206 227 255
206 227 255
206 227 255
206 227 255
206 227 255
205 227 255
205 227 255
205 227 255
205 227 255
205 227 255
205 227 255
205 227 255
205 227 255
205 227 255
205 227 255
205 226 255
205 226 255
205 226 255
205 226 255
205 226 255
205 226 255
204 226 255
204 226 255
204 226 255
204 226 255
204 226 255
204 226 255
204 226 255
204 226 255
204 226 255
204 226 255
204 226 255
204 226 255
204 226 255
204 226 255
204 226 255
204 226 255
203 226 255
203 226 255
203 226 255
203 226 255
203 226 255
203 226 255
203 226 255
203 225 255
203 225 255
203 225 255
203 225 255
203 225 255
203 225 255
203 225 255
203 225 255
202 225 255
202 225 255
202 225 255
202 225 255
202 225 255
202 225 255
202 225 255
202 225 255
202 225 255
202 225 255
202 225 255
202 225 255
202 225 255
202 225 255
202 225 255
202 225 255
202 225 255
201 225 255
201 225 255
201 225 255
201 225 255
201 225 255
201 224 255
201 224 255
201 224 255
201 224 255
201 224 255
201 224 255
201 224 255
201 224 255
201 224 255
201 224 255
201 224 255
201 224 255
201 224 255
200 224 255
200 224 255
200 224 255
200 224 255
200 224 255
200 224 255
200 224 255
200 224 255
200 224 255
200 224 255
200 224 255
200 224 255
200 224 255
200 224 255
200 224 255
200 224 255
200 224 255
200 224 255
200 224 255
200 224 255
200 224 255
200 224 255
200 224 255
200 224 255
200 224 255
198 221 253
156 127 144
138 73 80
144 76 83
141 72 79
126 58 64
137 68 75
133 67 74
143 76 83
143 76 83
139 72 79
139 75 82
136 69 76
137 67 74
132 68 75
140 71 79
138 69 76
134 65 71
130 64 70
136 67 73
143 77 86
143 74 81
132 63 70
140 68 75
131 63 69
133 66 73
139 70 77
140 72 79
136 67 74
142 71 78
146 72 80
138 69 77
144 75 82
136 70 77
138 69 76
139 72 80
140 69 76
137 71 78
142 70 76
137 68 75
142 75 83
137 67 74
156 130 147
199 222 253
200 224 255
200 224 255
200 224 255
200 224 255
200 224 255
200 224 255
200 224 255
200 224 255
200 224 255
200 224 255
200 224 255
200 224 255
200 224 255
200 224 255
200 224 255
200 224 255
200 224 255
200 224 255
200 224 255
200 224 255
200 224 255
200 224 255
200 224 255
200 224 255
200 224 255
201 224 255
201 224 255
201 224 255
201 224 255
201 224 255
201 224 255
201 224 255
201 224 255
201 224 255
201 224 255
201 224 255
201 224 255
201 224 255
201 225 255
201 225 255
201 225 255
201 225 255
201 225 255
202 225 255
202 225 255
202 225 255
202 225 255
202 225 255
202 225 255
202 225 255
202 225 255
202 225 255
202 225 255
202 225 255
202 225 255
202 225 255
202 225 255
202 225 255
202 225 255
202 225 255
203 225 255
203 225 255
203 225 255
203 225 255
203 225 255
203 225 255
203 225 255
203 225 255
203 226 255
203 226 255
203 226 255
203 226 255
203 226 255
203 226 255
203 226 255
204 226 255
204 226 255
204 226 255
204 226 255
204 226 255
204 226 255
204 226 255
204 226 255
204 226 255
204 226 255
204 226 255
204 226 255
204 226 255
204 226 255
204 226 255
204 226 255
205 226 255
205 226 255
205 226 255
205 226 255
205 226 255
205 226 255
205 227 255
205 227 255
205 227 255
205 227 255
205 227 255
205 227 255
205 227 255
205 227 255
205 227 255
205 227 255
206 227 255
206 227 255
206 227 255
206 227 255
206 227 255
206 227 255
206 227 255
206 227 255
206 227 255
206 227 255
206 227 255
206 227 255
206 227 255
206 227 255
206 227 255
206 227 255
206 227 255
207 227 255
207 227 255
207 227 255
207 227 255
207 227 255
207 228 255
207 228 255
207 228 255
207 228 255
207 228 255
207 228 255
207 228 255
207 228 255
207 228 255
207 228 255
207 228 255
207 228 255
207 228 255
207 228 255
208 228 255
208 228 255
208 228 255
208 228 255
208 228 255
208 228 255
208 228 255
208 228 255
208 228 255
208 228 255
208 228 255
208 228 255
208 228 255
208 228 255
208 228 255
208 228 255
208 228 255
208 228 255
208 228 255
208 228 255
208 228 255
209 228 255
209 228 255
209 229 255
209 229 255
209 229 255
209 229 255
209 229 255
209 229 255
209 229 255
209 229 255
209 229 255
209 229 255
209 229 255
209 229 255
209 229 255
209 229 255
209 229 255
209 229 255
209 229 255
209 229 255
209 229 255
209 229 255
209 229 255
209 229 255
209 229 255
209 229 255
209 229 255
209 229 255
209 229 255
209 229 255
209 228 255
208 228 255
208 228 255
208 228 255
208 228 255
208 228 255
208 228 255
208 228 255
208 228 255
208 228 255
208 228 255
208 228 255
208 228 255
208 228 255
208 228 255
208 228 255
208 228 255
208 228 255
208 228 255
208 228 255
208 228 255
208 228 255
207 228 255
207 228 255
207 228 255
207 228 255
207 228 255
207 228 255
207 228 255
207 228 255
207 228 255
207 228 255
207 228 255
207 228 255
207 228 255
207 228 255
207 227 255
207 227 255
207 227 255
207 227 255
207 227 255
206 227 255
206 227 255
206 227 255
206 227 255
206 227 255
206 227 255
206 227 255
206 227 255
206 227 255
206 227 255
206 227 255
206 227 255
206 227 255
206 227 255
206 227 255
206 227 255
206 227 255
205 227 255
205 227 255
205 227 255
205 227 255
205 227 255
205 227 255
205 227 255
205 227 255
205 227 255
205 227 255
205 226 255
205 226 255
205 226 255
205 226 255
205 226 255
205 226 255
204 226 255
204 226 255
204 226 255
204 226 255
204 226 255
204 226 255
204 226 255
204 226 255
204 226 255
204 226 255
204 226 255
204 226 255
204 226 255
204 226 255
204 226 255
204 226 255
203 226 255
203 226 255
203 226 255
203 226 255
203 226 255
203 226 255
203 226 255
203 225 255
203 225 255
203 225 255
203 225 255
203 225 255
203 225 255
203 225 255
203 225 255
203 225 255
202 225 255
202 225 255
202 225 255
202 225 255
202 225 255
202 225 255
202 225 255
202 225 255
202 225 255
202 225 255
202 225 255
202 225 255
202 225 255
202 225 255
202 225 255
202 225 255
201 225 255
201 225 255
201 225 255
201 225 255
201 225 255
201 225 255
201 224 255
201 224 255
201 224 255
201 224 255
201 224 255
201 224 255
201 224 255
201 224 255
201 224 255
201 224 255
201 224 255
201 224 255
201 224 255
201 224 255
200 224 255
200 224 255
200 224 255
200 224 255
200 224 255
200 224 255
200 224 255
200 224 255
200 224 255
200 224 255
200 224 255
200 224 255
200 224 255
200 224 255
200 224 255
200 224 255
200 224 255
200 224 255
200 224 255
200 224 255
200 224 255
197 217 248
166 143 162
140 72 79
139 70 77
138 73 80
140 72 80
138 72 79
140 73 80
136 69 76
145 78 85
142 73 81
139 70 77
133 65 71
136 68 75
138 73 80
135 67 74
134 68 75
135 69 77
134 64 71
138 67 74
134 69 76
136 68 75
132 61 67
136 65 72
140 70 77
141 71 78
136 68 75
137 69 76
139 72 79
139 69 77
140 69 76
140 74 81
132 66 73
137 67 73
141 73 80
126 56 62
139 71 79
141 69 76
143 72 79
140 69 77
159 129 146
196 218 249
200 224 255
200 224 255
200 224 255
200 224 255
200 224 255
200 224 255
200 224 255
200 224 255
200 224 255
200 224 255
200 224 255
200 224 255
200 224 255
200 224 255
200 224 255
200 224 255
200 224 255
200 224 255
200 224 255
200 224 255
200 224 255
200 224 255
201 224 255
201 224 255
201 224 255
201 224 255
201 224 255
201 224 255
201 224 255
201 224 255
201 224 255
201 224 255
201 224 255
201 224 255
201 224 255
201 225 255
201 225 255
201 225 255
201 225 255
201 225 255
201 225 255
202 225 255
202 225 255
202 225 255
202 225 255
202 225 255
202 225 255
202 225 255
202 225 255
202 225 255
202 225 255
202 225 255
202 225 255
202 225 255
202 225 255
202 225 255
202 225 255
203 225 255
203 225 255
203 225 255
203 225 255
203 225 255
203 225 255
203 225 255
203 225 255
203 225 255
203 226 255
203 226 255
203 226 255
203 226 255
203 226 255
203 226 255
203 226 255
204 226 255
204 226 255
204 226 255
204 226 255
204 226 255
204 226 255
204 226 255
204 226 255
204 226 255
204 226 255
204 226 255
204 226 255
204 226 255
204 226 255
204 226 255
204 226 255
205 226 255
205 226 255
205 226 255
205 226 255
205 226 255
205 226 255
205 227 255
205 227 255
205 227 255
205 227 255
205 227 255
205 227 255
205 227 255
205 227 255
205 227 255
205 227 255
206 227 255
206 227 255
206 227 255
206 227 255
206 227 255
206 227 255
206 227 255
206 227 255
206 227 255
206 227 255
206 227 255
206 227 255
206 227 255
206 227 255
206 227 255
206 227 255
206 227 255
207 227 255
207 227 255
207 227 255
207 227 255
207 227 255
207 228 255
207 228 255
207 228 255
207 228 255
207 228 255
207 228 255
207 228 255
207 228 255
207 228 255
207 228 255
207 228 255
207 228 255
207 228 255
207 228 255
208 228 255
208 228 255
208 228 255
208 228 255
208 228 255
208 228 255
208 228 255
208 228 255
208 228 255
208 228 255
208 228 255
208 228 255
208 228 255
208 228 255
208 228 255
208 228 255
208 228 255
208 228 255
208 228 255
208 228 255
208 228 255
209 228 255
209 229 255
209 229 255
209 229 255
209 229 255
209 229 255
209 229 255
209 229 255
209 229 255
209 229 255
209 229 255
209 229 255
209 229 255
209 229 255
209 229 255
209 229 255
209 229 255
209 229 255
209 229 255
209 229 255
209 229 255
209 229 255
209 229 255
209 229 255
209 229 255
209 229 255
209 229 255
209 229 255
209 229 255
209 229 255
209 229 255
209 229 255
209 229 255
209 229 255
209 229 255
209 229 255
209 228 255
209 228 255
208 228 255
208 228 255
208 228 255
208 228 255
208 228 255
208 228 255
208 228 255
208 228 255
208 228 255
208 228 255
208 228 255
208 228 255
208 228 255
208 228 255
208 228 255
208 228 255
208 228 255
208 228 255
208 228 255
208 228 255
207 228 255
207 228 255
207 228 255
207 228 255
207 228 255
207 228 255
207 228 255
207 228 255
207 228 255
207 228 255
207 228 255
207 228 255
207 228 255
207 228 255
207 227 255
207 227 255
207 227 255
207 227 255
206 227 255
206 227 255
206 227 255
206 227 255
206 227 255
206 227 255
206 227 255
206 227 255
206 227 255
206 227 255
206 227 255
206 227 255
206 227 255
206 227 255
206 227 255
206 227 255
206 227 255
206 227 255
205 227 255
205 227 255
205 227 255
205 227 255
205 227 255
205 227 255
205 227 255
205 227 255
205 227 255
205 226 255
205 226 255
205 226 255
205 226 255
205 226 255
205 226 255
205 226 255
204 226 255
204 226 255
204 226 255
204 226 255
204 226 255
204 226 255
204 226 255
204 226 255
204 226 255
204 226 255
204 226 255
204 226 255
204 226 255
204 226 255
204 226 255
204 226 255
203 226 255
203 226 255
203 226 255
203 226 255
203 226 255
203 226 255
203 226 255
203 225 255
203 225 255
203 225 255
203 225 255
203 225 255
203 225 255
203 225 255
203 225 255
203 225 255
202 225 255
202 225 255
202 225 255
202 225 255
202 225 255
202 225 255
202 225 255
202 225 255
202 225 255
202 225 255
202 225 255
202 225 255
202 225 255
202 225 255
202 225 255
202 225 255
202 225 255
201 225 255
201 225 255
201 225 255
201 225 255
201 225 255
201 224 255
201 224 255
201 224 255
201 224 255
201 224 255
201 224 255
201 224 255
201 224 255
201 224 255
201 224 255
201 224 255
201 224 255
201 224 255
201 224 255
201 224 255
200 224 255
200 224 255
200 224 255
200 224 255
200 224 255
200 224 255
200 224 255
200 224 255
200 224 255
200 224 255
200 224 255
200 224 255
200 224 255
200 224 255
200 224 255
200 224 255
200 224 255
200 224 255
197 218 249
163 136 154
140 72 80
140 74 81
133 67 73
132 67 74
141 71 78
135 67 74
135 69 76
131 67 74
135 66 73
136 67 74
138 72 80
140 70 77
140 73 80
137 69 76
133 64 71
130 62 68
134 65 72
137 71 79
138 68 75
138 63 69
142 74 82
138 68 75
141 70 77
137 68 75
135 68 74
137 69 76
141 71 78
133 65 71
134 67 74
139 70 78
136 68 75
138 66 73
137 66 73
142 75 82
140 69 76
142 70 77
162 136 154
199 220 251
200 224 255
200 224 255
200 224 255
200 224 255
200 224 255
200 224 255
200 224 255
200 224 255
200 224 255
200 224 255
200 224 255
200 224 255
200 224 255
200 224 255
200 224 255
200 224 255
200 224 255
200 224 255
201 224 255
201 224 255
201 224 255
201 224 255
201 224 255
201 224 255
201 224 255
201 224 255
201 224 255
201 224 255
201 224 255
201 224 255
201 224 255
201 224 255
201 224 255
201 225 255
201 225 255
201 225 255
201 225 255
201 225 255
202 225 255
202 225 255
202 225 255
202 225 255
202 225 255
202 225 255
202 225 255
202 225 255
202 225 255
202 225 255
202 225 255
202 225 255
202 225 255
202 225 255
202 225 255
202 225 255
202 225 255
203 225 255
203 225 255
203 225 255
203 225 255
203 225 255
203 225 255
203 225 255
203 225 255
203 225 255
203 226 255
203 226 255
203 226 255
203 226 255
203 226 255
203 226 255
203 226 255
204 226 255
204 226 255
204 226 255
204 226 255
204 226 255
204 226 255
204 226 255
204 226 255
204 226 255
204 226 255
204 226 255
204 226 255
204 226 255
204 226 255
204 226 255
204 226 255
205 226 255
205 226 255
205 226 255
205 226 255
205 226 255
205 226 255
205 226 255
205 227 255
205 227 255
205 227 255
205 227 255
205 227 255
205 227 255
205 227 255
205 227 255
205 227 255
206 227 255
206 227 255
206 227 255
206 227 255
206 227 255
206 227 255
206 227 255
206 227 255
206 227 255
206 227 255
206 227 255
206 227 255
206 227 255
206 227 255
206 227 255
206 227 255
206 227 255
207 227 255
207 227 255
207 227 255
207 227 255
207 227 255
207 228 255
207 228 255
207 228 255
207 228 255
207 228 255
207 228 255
207 228 255
207 228 255
207 228 255
207 228 255
207 228 255
207 228 255
207 228 255
207 228 255
208 228 255
208 228 255
208 228 255
208 228 255
208 228 255
208 228 255
208 228 255
208 228 255
208 228 255
208 228 255
208 228 255
208 228 255
208 228 255
208 228 255
208 228 255
208 228 255
208 228 255
208 228 255
208 228 255
208 228 255
209 228 255
209 228 255
209 229 255
209 229 255
209 229 255
209 229 255
209 229 255
209 229 255
209 229 255
209 229 255
209 229 255
209 229 255
209 229 255
209 229 255
209 229 255
209 229 255
209 229 255
209 229 255
209 229 255
209 229 255
209 229 255
210 229 255
209 229 255
209 229 255
209 229 255
209 229 255
209 229 255
209 229 255
209 229 255
209 229 255
209 229 255
209 229 255
209 229 255
209 229 255
209 229 255
209 229 255
209 229 255
209 229 255
209 229 255
209 229 255
209 229 255
209 229 255
209 229 255
209 228 255
209 228 255
208 228 255
208 228 255
208 228 255
208 228 255
208 228 255
208 228 255
208 228 255
208 228 255
208 228 255
208 228 255
208 228 255
208 228 255
208 228 255
208 228 255
208 228 255
208 228 255
208 228 255
208 228 255
208 228 255
208 228 255
207 228 255
207 228 255
207 228 255
207 228 255
207 228 255
207 228 255
207 228 255
207 228 255
207 228 255
207 228 255
207 228 255
207 228 255
207 228 255
207 228 255
207 227 255
207 227 255
207 227 255
207 227 255
207 227 255
206 227 255
206 227 255
206 227 255
206 227 255
206 227 255
206 227 255
206 227 255
206 227 255
206 227 255
206 227 255
206 227 255
206 227 255
206 227 255
206 227 255
206 227 255
206 227 255
206 227 255
205 227 255
205 227 255
205 227 255
205 227 255
205 227 255
205 227 255
205 227 255
205 227 255
205 227 255
205 227 255
205 226 255
205 226 255
205 226 255
205 226 255
205 226 255
205 226 255
204 226 255
204 226 255
204 226 255
204 226 255
204 226 255
204 226 255
204 226 255
204 226 255
204 226 255
204 226 255
204 226 255
204 226 255
204 226 255
204 226 255
204 226 255
204 226 255
203 226 255
203 226 255
203 226 255
203 226 255
203 226 255
203 226 255
203 226 255
203 225 255
203 225 255
203 225 255
203 225 255
203 225 255
203 225 255
203 225 255
203 225 255
203 225 255
202 225 255
202 225 255
202 225 255
202 225 255
202 225 255
202 225 255
202 225 255
202 225 255
202 225 255
202 225 255
202 225 255
202 225 255
202 225 255
202 225 255
202 225 255
202 225 255
202 225 255
201 225 255
201 225 255
201 225 255
201 225 255
201 225 255
201 225 255
201 224 255
201 224 255
201 224 255
201 224 255
201 224 255
201 224 255
201 224 255
201 224 255
201 224 255
201 224 255
201 224 255
201 224 255
201 224 255
201 224 255
201 224 255
201 224 255
201 224 255
200 224 255
200 224 255
200 224 255
200 224 255
200 224 255
200 224 255
200 224 255
200 224 255
200 224 255
200 224 255
200 224 255
200 224 255
200 224 255
197 218 249
161 135 152
139 70 77
141 74 81
139 71 78
141 74 82
128 61 67
137 73 81
133 65 72
140 72 79
136 69 76
137 68 75
134 66 73
136 66 73
136 65 72
135 65 72
137 68 75
134 67 74
137 69 76
136 69 76
136 67 73
137 66 72
140 71 78
136 65 71
141 75 82
139 73 80
143 78 86
140 72 79
140 73 80
138 71 78
139 71 79
143 74 82
145 76 84
137 68 75
135 66 72
135 64 70
159 130 147
199 221 252
200 224 255
200 224 255
200 224 255
200 224 255
200 224 255
200 224 255
200 224 255
200 224 255
200 224 255
200 224 255
200 224 255
200 224 255
200 224 255
200 224 255
201 224 255
201 224 255
201 224 255
201 224 255
201 224 255
201 224 255
201 224 255
201 224 255
201 224 255
201 224 255
201 224 255
201 224 255
201 224 255
201 224 255
201 224 255
201 224 255
201 225 255
201 225 255
201 225 255
201 225 255
201 225 255
202 225 255
202 225 255
202 225 255
202 225 255
202 225 255
202 225 255
202 225 255
202 225 255
202 225 255
202 225 255
202 225 255
202 225 255
202 225 255
202 225 255
202 225 255
202 225 255
202 225 255
202 225 255
203 225 255
203 225 255
203 225 255
203 225 255
203 225 255
203 225 255
203 225 255
203 225 255
203 225 255
203 226 255
203 226 255
203 226 255
203 226 255
203 226 255
203 226 255
203 226 255
204 226 255
204 226 255
204 226 255
204 226 255
204 226 255
204 226 255
204 226 255
204 226 255
204 226 255
204 226 255
204 226 255
204 226 255
204 226 255
204 226 255
204 226 255
204 226 255
205 226 255
205 226 255
205 226 255
205 226 255
205 226 255
205 226 255
205 227 255
205 227 255
205 227 255
205 227 255
205 227 255
205 227 255
205 227 255
205 227 255
205 227 255
205 227 255
206 227 255
206 227 255
206 227 255
206 227 255
206 227 255
206 227 255
206 227 255
206 227 255
206 227 255
206 227 255
206 227 255
206 227 255
206 227 255
206 227 255
206 227 255
206 227 255
206 227 255
207 227 255
207 227 255
207 227 255
207 227 255
207 227 255
207 228 255
207 228 255
207 228 255
207 228 255
207 228 255
207 228 255
207 228 255
207 228 255
207 228 255
207 228 255
207 228 255
207 228 255
207 228 255
207 228 255
208 228 255
208 228 255
208 228 255
208 228 255
208 228 255
208 228 255
208 228 255
208 228 255
208 228 255
208 228 255
208 228 255
208 228 255
208 228 255
208 228 255
208 228 255
208 228 255
208 228 255
208 228 255
208 228 255
208 228 255
209 228 255
209 228 255
209 229 255
209 229 255
209 229 255
209 229 255
209 229 255
209 229 255
209 229 255
209 229 255
209 229 255
209 229 255
209 229 255
209 229 255
209 229 255
209 229 255
209 229 255
209 229 255
209 229 255
209 229 255
209 229 255
209 229 255
209 229 255
210 229 255
210 229 255
210 229 255
210 229 255
210 229 255
210 229 255
209 229 255
209 229 255
209 229 255
209 229 255
209 229 255
209 229 255
209 229 255
209 229 255
209 229 255
209 229 255
209 229 255
209 229 255
209 229 255
209 229 255
209 229 255
209 229 255
209 229 255
209 229 255
209 229 255
209 229 255
209 229 255
209 228 255
208 228 255
208 228 255
208 228 255
208 228 255
208 228 255
208 228 255
208 228 255
208 228 255
208 228 255
208 228 255
208 228 255
208 228 255
208 228 255
208 228 255
208 228 255
208 228 255
208 228 255
208 228 255
208 228 255
208 228 255
207 228 255
207 228 255
207 228 255
207 228 255
207 228 255
207 228 255
207 228 255
207 228 255
207 228 255
207 228 255
207 228 255
207 228 255
207 228 255
207 228 255
207 227 255
207 227 255
207 227 255
207 227 255
207 227 255
206 227 255
206 227 255
206 227 255
206 227 255
206 227 255
206 227 255
206 227 255
206 227 255
206 227 255
206 227 255
206 227 255
206 227 255
206 227 255
206 227 255
206 227 255
206 227 255
206 227 255
205 227 255
205 227 255
205 227 255
205 227 255
205 227 255
205 227 255
205 227 255
205 227 255
205 227 255
205 227 255
205 226 255
205 226 255
205 226 255
205 226 255
205 226 255
205 226 255
204 226 255
204 226 255
204 226 255
204 226 255
204 226 255
204 226 255
204 226 255
204 226 255
204 226 255
204 226 255
204 226 255
204 226 255
204 226 255
204 226 255
204 226 255
204 226 255
203 226 255
203 226 255
203 226 255
203 226 255
203 226 255
203 226 255
203 226 255
203 225 255
203 225 255
203 225 255
203 225 255
203 225 255
203 225 255
203 225 255
203 225 255
203 225 255
202 225 255
202 225 255
202 225 255
202 225 255
202 225 255
202 225 255
202 225 255
202 225 255
202 225 255
202 225 255
202 225 255
202 225 255
202 225 255
202 225 255
202 225 255
202 225 255
202 225 255
202 225 255
202 225 255
201 225 255
201 225 255
201 225 255
201 225 255
201 225 255
201 225 255
201 224 255
201 224 255
201 224 255
201 224 255
201 224 255
201 224 255
201 224 255
201 224 255
201 224 255
201 224 255
201 224 255
201 224 255
201 224 255
201 224 255
201 224 255
201 224 255
201 224 255
201 224 255
200 224 255
200 224 255
200 224 255
200 224 255
200 224 255
200 224 255
200 224 255
200 224 255
200 223 255
153 129 146
141 75 82
144 74 82
139 70 77
134 68 75
134 70 77
137 68 75
139 71 79
138 73 81
133 64 71
137 69 76
128 63 69
135 65 71
134 66 72
136 69 76
142 71 78
139 68 75
138 67 74
137 71 78
147 77 85
143 74 81
143 75 83
136 71 78
138 69 76
138 68 76
136 68 74
139 71 78
139 69 76
142 69 76
144 75 83
140 74 81
144 76 84
148 78 85
160 135 153
198 220 251
200 224 255
200 224 255
200 224 255
200 224 255
200 224 255
200 224 255
200 224 255
200 224 255
200 224 255
201 224 255
201 224 255
201 224 255
201 224 255
201 224 255
201 224 255
201 224 255
201 224 255
201 224 255
201 224 255
201 224 255
201 224 255
201 224 255
201 224 255
201 224 255
201 224 255
201 224 255
201 225 255
201 225 255
201 225 255
201 225 255
201 225 255
201 225 255
202 225 255
202 225 255
202 225 255
202 225 255
202 225 255
202 225 255
202 225 255
202 225 255
202 225 255
202 225 255
202 225 255
202 225 255
202 225 255
202 225 255
202 225 255
202 225 255
202 225 255
202 225 255
203 225 255
203 225 255
203 225 255
203 225 255
203 225 255
203 225 255
203 225 255
203 225 255
203 225 255
203 225 255
203 226 255
203 226 255
203 226 255
203 226 255
203 226 255
203 226 255
203 226 255
204 226 255
204 226 255
204 226 255
204 226 255
204 226 255
204 226 255
204 226 255
204 226 255
204 226 255
204 226 255
204 226 255
204 226 255
204 226 255
204 226 255
204 226 255
204 226 255
205 226 255
205 226 255
205 226 255
205 226 255
205 226 255
205 226 255
205 227 255
205 227 255
205 227 255
205 227 255
205 227 255
205 227 255
205 227 255
205 227 255
205 227 255
205 227 255
206 227 255
206 227 255
206 227 255
206 227 255
206 227 255
206 227 255
206 227 255
206 227 255
206 227 255
206 227 255
206 227 255
206 227 255
206 227 255
206 227 255
206 227 255
206 227 255
206 227 255
207 227 255
207 227 255
207 227 255
207 227 255
207 227 255
207 228 255
207 228 255
207 228 255
207 228 255
207 228 255
207 228 255
207 228 255
207 228 255
207 228 255
207 228 255
207 228 255
207 228 255
207 228 255
207 228 255
208 228 255
208 228 255
208 228 255
208 228 255
208 228 255
208 228 255
208 228 255
208 228 255
208 228 255
208 228 255
208 228 255
208 228 255
208 228 255
208 228 255
208 228 255
208 228 255
208 228 255
208 228 255
208 228 255
208 228 255
209 228 255
209 229 255
209 229 255
209 229 255
209 229 255
209 229 255
209 229 255
209 229 255
209 229 255
209 229 255
209 229 255
209 229 255
209 229 255
209 229 255
209 229 255
209 229 255
209 229 255
209 229 255
209 229 255
209 229 255
209 229 255
209 229 255
210 229 255
210 229 255
210 229 255
210 229 255
210 229 255
210 229 255
210 229 255
210 229 255
210 229 255
210 229 255
210 229 255
210 229 255
210 229 255
210 229 255
209 229 255
209 229 255
209 229 255
209 229 255
209 229 255
209 229 255
209 229 255
209 229 255
209 229 255
209 229 255
209 229 255
209 229 255
209 229 255
209 229 255
209 229 255
209 229 255
209 229 255
209 229 255
209 229 255
209 229 255
209 228 255
209 228 255
208 228 255
208 228 255
208 228 255
208 228 255
208 228 255
208 228 255
208 228 255
208 228 255
208 228 255
208 228 255
208 228 255
208 228 255
208 228 255
208 228 255
208 228 255
208 228 255
208 228 255
208 228 255
208 228 255
208 228 255
207 228 255
207 228 255
207 228 255
207 228 255
207 228 255
207 228 255
207 228 255
207 228 255
207 228 255
207 228 255
207 228 255
207 228 255
207 228 255
207 228 255
207 227 255
207 227 255
207 227 255
207 227 255
206 227 255
206 227 255
206 227 255
206 227 255
206 227 255
206 227 255
206 227 255
206 227 255
206 227 255
206 227 255
206 227 255
206 227 255
206 227 255
206 227 255
206 227 255
206 227 255
206 227 255
205 227 255
205 227 255
205 227 255
205 227 255
205 227 255
205 227 255
205 227 255
205 227 255
205 227 255
205 227 255
205 226 255
205 226 255
205 226 255
205 226 255
205 226 255
205 226 255
204 226 255
204 226 255
204 226 255
204 226 255
204 226 255
204 226 255
204 226 255
204 226 255
204 226 255
204 226 255
204 226 255
204 226 255
204 226 255
204 226 255
204 226 255
204 226 255
203 226 255
203 226 255
203 226 255
203 226 255
203 226 255
203 226 255
203 226 255
203 226 255
203 225 255
203 225 255
203 225 255
203 225 255
203 225 255
203 225 255
203 225 255
203 225 255
203 225 255
202 225 255
202 225 255
202 225 255
202 225 255
202 225 255
202 225 255
202 225 255
202 225 255
202 225 255
202 225 255
202 225 255
202 225 255
202 225 255
202 225 255
202 225 255
202 225 255
202 225 255
202 225 255
202 225 255
201 225 255
201 225 255
201 225 255
201 225 255
201 225 255
201 225 255
201 224 255
201 224 255
201 224 255
201 224 255
201 224 255
201 224 255
201 224 255
201 224 255
201 224 255
201 224 255
201 224 255
201 224 255
201 224 255
201 224 255
201 224 255
201 224 255
201 224 255
201 224 255
201 224 255
201 224 255
201 224 255
201 224 255
200 224 255
199 222 253
160 133 150
145 74 81
140 73 80
146 79 87
137 68 75
138 72 79
139 70 77
139 69 76
135 68 75
136 70 77
136 67 73
137 71 78
132 66 73
136 71 78
140 73 80
131 62 68
126 59 65
131 61 68
137 67 74
143 75 83
138 68 75
134 64 71
138 70 77
137 67 74
137 68 74
136 69 76
140 72 79
134 66 73
148 78 86
140 71 78
140 70 77
161 133 151
199 222 253
200 224 255
201 224 255
201 224 255
201 224 255
201 224 255
201 224 255
201 224 255
201 224 255
201 224 255
201 224 255
201 224 255
201 224 255
201 224 255
201 224 255
201 224 255
201 224 255
201 224 255
201 224 255
201 224 255
201 224 255
201 224 255
201 224 255
201 224 255
201 225 255
201 225 255
201 225 255
201 225 255
201 225 255
201 225 255
202 225 255
202 225 255
202 225 255
202 225 255
202 225 255
202 225 255
202 225 255
202 225 255
202 225 255
202 225 255
202 225 255
202 225 255
202 225 255
202 225 255
202 225 255
202 225 255
202 225 255
202 225 255
202 225 255
203 225 255
203 225 255
203 225 255
203 225 255
203 225 255
203 225 255
203 225 255
203 225 255
203 225 255
203 226 255
203 226 255
203 226 255
203 226 255
203 226 255
203 226 255
203 226 255
203 226 255
204 226 255
204 226 255
204 226 255
204 226 255
204 226 255
204 226 255
204 226 255
204 226 255
204 226 255
204 226 255
204 226 255
204 226 255
204 226 255
204 226 255
204 226 255
204 226 255
205 226 255
205 226 255
205 226 255
205 226 255
205 226 255
205 226 255
205 227 255
205 227 255
205 227 255
205 227 255
205 227 255
205 227 255
205 227 255
205 227 255
205 227 255
205 227 255
206 227 255
206 227 255
206 227 255
206 227 255
206 227 255
206 227 255
206 227 255
206 227 255
206 227 255
206 227 255
206 227 255
206 227 255
206 227 255
206 227 255
206 227 255
206 227 255
206 227 255
207 227 255
207 227 255
207 227 255
207 227 255
207 228 255
207 228 255
207 228 255
207 228 255
207 228 255
207 228 255
207 228 255
207 228 255
207 228 255
207 228 255
207 228 255
207 228 255
207 228 255
207 228 255
208 228 255
208 228 255
208 228 255
208 228 255
208 228 255
208 228 255
208 228 255
208 228 255
208 228 255
208 228 255
208 228 255
208 228 255
208 228 255
208 228 255
208 228 255
208 228 255
208 228 255
208 228 255
208 228 255
208 228 255
209 228 255
209 228 255
209 229 255
209 229 255
209 229 255
209 229 255
209 229 255
209 229 255
209 229 255
209 229 255
209 229 255
209 229 255
209 229 255
209 229 255
209 229 255
209 229 255
209 229 255
209 229 255
209 229 255
209 229 255
209 229 255
209 229 255
210 229 255
210 229 255
210 229 255
210 229 255
210 229 255
210 229 255
210 229 255
210 229 255
210 229 255
210 229 255
210 229 255
210 229 255
210 229 255
210 229 255
210 229 255
210 229 255
210 229 255
210 229 255
210 229 255
210 229 255
210 229 255
209 229 255
209 229 255
209 229 255
209 229 255
209 229 255
209 229 255
209 229 255
209 229 255
209 229 255
209 229 255
209 229 255
209 229 255
209 229 255
209 229 255
209 229 255
209 229 255
209 229 255
209 229 255
209 229 255
209 229 255
209 229 255
209 228 255
208 228 255
208 228 255
208 228 255
208 228 255
208 228 255
208 228 255
208 228 255
208 228 255
208 228 255
208 228 255
208 228 255
208 228 255
208 228 255
208 228 255
208 228 255
208 228 255
208 228 255
208 228 255
208 228 255
208 228 255
207 228 255
207 228 255
207 228 255
207 228 255
207 228 255
207 228 255
207 228 255
207 228 255
207 228 255
207 228 255
207 228 255
207 228 255
207 228 255
207 228 255
207 227 255
207 227 255
207 227 255
207 227 255
206 227 255
206 227 255
206 227 255
206 227 255
206 227 255
206 227 255
206 227 255
206 227 255
206 227 255
206 227 255
206 227 255
206 227 255
206 227 255
206 227 255
206 227 255
206 227 255
206 227 255
205 227 255
205 227 255
205 227 255
205 227 255
205 227 255
205 227 255
205 227 255
205 227 255
205 227 255
205 227 255
205 226 255
205 226 255
205 226 255
205 226 255
205 226 255
205 226 255
204 226 255
204 226 255
204 226 255
204 226 255
204 226 255
204 226 255
204 226 255
204 226 255
204 226 255
204 226 255
204 226 255
204 226 255
204 226 255
204 226 255
204 226 255
204 226 255
204 226 255
203 226 255
203 226 255
203 226 255
203 226 255
203 226 255
203 226 255
203 226 255
203 225 255
203 225 255
203 225 255
203 225 255
203 225 255
203 225 255
203 225 255
203 225 255
203 225 255
203 225 255
202 225 255
202 225 255
202 225 255
202 225 255
202 225 255
202 225 255
202 225 255
202 225 255
202 225 255
202 225 255
202 225 255
202 225 255
202 225 255
202 225 255
202 225 255
202 225 255
202 225 255
202 225 255
202 225 255
202 225 255
201 225 255
201 225 255
201 225 255
201 225 255
201 225 255
201 225 255
201 225 255
201 224 255
201 224 255
201 224 255
201 224 255
201 224 255
201 224 255
201 224 255
201 224 255
201 224 255
201 224 255
201 224 255
201 224 255
201 224 255
201 224 255
201 224 255
201 224 255
201 224 255
201 224 255
199 220 251
162 141 160
143 73 80
144 76 84
141 75 83
140 72 79
135 69 76
141 74 82
139 71 79
145 79 88
147 79 88
137 67 74
132 67 74
136 67 74
131 63 70
135 63 70
141 71 79
139 71 78
136 63 69
142 71 78
136 71 78
138 71 78
139 69 76
136 65 72
139 70 77
142 72 80
142 73 80
148 78 85
142 73 80
143 73 80
159 126 142
200 223 254
201 224 255
201 224 255
201 224 255
201 224 255
201 224 255
201 224 255
201 224 255
201 224 255
201 224 255
201 224 255
201 224 255
201 224 255
201 224 255
201 224 255
201 224 255
201 224 255
201 224 255
201 224 255
201 225 255
201 225 255
201 225 255
201 225 255
201 225 255
201 225 255
201 225 255
202 225 255
202 225 255
202 225 255
202 225 255
202 225 255
202 225 255
202 225 255
202 225 255
202 225 255
202 225 255
202 225 255
202 225 255
202 225 255
202 225 255
202 225 255
202 225 255
202 225 255
202 225 255
202 225 255
202 225 255
203 225 255
203 225 255
203 225 255
203 225 255
203 225 255
203 225 255
203 225 255
203 225 255
203 225 255
203 225 255
203 226 255
203 226 255
203 226 255
203 226 255
203 226 255
203 226 255
203 226 255
204 226 255
204 226 255
204 226 255
204 226 255
204 226 255
204 226 255
204 226 255
204 226 255
204 226 255
204 226 255
204 226 255
204 226 255
204 226 255
204 226 255
204 226 255
204 226 255
204 226 255
205 226 255
205 226 255
205 226 255
205 226 255
205 226 255
205 226 255
205 227 255
205 227 255
205 227 255
205 227 255
205 227 255
205 227 255
205 227 255
205 227 255
205 227 255
205 227 255
206 227 255
206 227 255
206 227 255
206 227 255
206 227 255
206 227 255
206 227 255
206 227 255
206 227 255
206 227 255
206 227 255
206 227 255
206 227 255
206 227 255
206 227 255
206 227 255
206 227 255
207 227 255
207 227 255
207 227 255
207 227 255
207 228 255
207 228 255
207 228 255
207 228 255
207 228 255
207 228 255
207 228 255
207 228 255
207 228 255
207 228 255
207 228 255
207 228 255
207 228 255
207 228 255
208 228 255
208 228 255
208 228 255
208 228 255
208 228 255
208 228 255
208 228 255
208 228 255
208 228 255
208 228 255
208 228 255
208 228 255
208 228 255
208 228 255
208 228 255
208 228 255
208 228 255
208 228 255
208 228 255
208 228 255
209 228 255
209 229 255
209 229 255
209 229 255
209 229 255
209 229 255
209 229 255
209 229 255
209 229 255
209 229 255
209 229 255
209 229 255
209 229 255
209 229 255
209 229 255
209 229 255
209 229 255
209 229 255
209 229 255
209 229 255
209 229 255
209 229 255
210 229 255
210 229 255
210 229 255
210 229 255
210 229 255
210 229 255
210 229 255
210 229 255
210 229 255
210 229 255
210 229 255
210 229 255
210 229 255
210 229 255
210 229 255
210 229 255
210 229 255
210 229 255
210 229 255
210 229 255
210 229 255
210 229 255
210 229 255
210 229 255
210 229 255
210 229 255
210 229 255
210 229 255
209 229 255
209 229 255
209 229 255
209 229 255
209 229 255
209 229 255
209 229 255
209 229 255
209 229 255
209 229 255
209 229 255
209 229 255
209 229 255
209 229 255
209 229 255
209 229 255
209 229 255
209 229 255
209 229 255
209 229 255
209 228 255
209 228 255
208 228 255
208 228 255
208 228 255
208 228 255
208 228 255
208 228 255
208 228 255
208 228 255
208 228 255
208 228 255
208 228 255
208 228 255
208 228 255
208 228 255
208 228 255
208 228 255
208 228 255
208 228 255
208 228 255
207 228 255
207 228 255
207 228 255
207 228 255
207 228 255
207 228 255
207 228 255
207 228 255
207 228 255
207 228 255
207 228 255
207 228 255
207 228 255
207 228 255
207 227 255
207 227 255
207 227 255
207 227 255
206 227 255
206 227 255
206 227 255
206 227 255
206 227 255
206 227 255
206 227 255
206 227 255
206 227 255
206 227 255
206 227 255
206 227 255
206 227 255
206 227 255
206 227 255
206 227 255
206 227 255
205 227 255
205 227 255
205 227 255
205 227 255
205 227 255
205 227 255
205 227 255
205 227 255
205 227 255
205 227 255
205 226 255
205 226 255
205 226 255
205 226 255
205 226 255
205 226 255
205 226 255
204 226 255
204 226 255
204 226 255
204 226 255
204 226 255
204 226 255
204 226 255
204 226 255
204 226 255
204 226 255
204 226 255
204 226 255
204 226 255
204 226 255
204 226 255
204 226 255
203 226 255
203 226 255
203 226 255
203 226 255
203 226 255
203 226 255
203 226 255
203 226 255
203 225 255
203 225 255
203 225 255
203 225 255
203 225 255
203 225 255
203 225 255
203 225 255
203 225 255
203 225 255
202 225 255
202 225 255
202 225 255
202 225 255
202 225 255
202 225 255
202 225 255
202 225 255
202 225 255
202 225 255
202 225 255
202 225 255
202 225 255
202 225 255
202 225 255
202 225 255
202 225 255
202 225 255
202 225 255
202 225 255
202 225 255
201 225 255
201 225 255
201 225 255
201 225 255
201 225 255
201 225 255
201 225 255
201 225 255
201 224 255
201 224 255
201 224 255
201 224 255
201 224 255
201 224 255
201 224 255
201 224 255
201 224 255
201 224 255
201 224 255
201 224 255
201 224 255
200 222 253
163 134 151
139 69 76
141 74 82
141 72 80
135 69 76
132 67 74
142 75 83
142 75 82
137 69 75
140 70 77
138 70 77
134 66 73
137 70 77
138 68 75
135 66 74
139 71 79
136 68 75
135 66 72
135 67 74
139 69 77
141 73 80
144 77 85
136 69 76
138 70 77
140 71 79
144 75 83
148 79 87
161 131 148
200 222 253
201 224 255
201 224 255
201 224 255
201 224 255
201 224 255
201 224 255
201 224 255
201 224 255
201 224 255
201 224 255
201 224 255
201 224 255
201 224 255
201 225 255
201 225 255
201 225 255
201 225 255
201 225 255
201 225 255
201 225 255
201 225 255
202 225 255
202 225 255
202 225 255
202 225 255
202 225 255
202 225 255
202 225 255
202 225 255
202 225 255
202 225 255
202 225 255
202 225 255
202 225 255
202 225 255
202 225 255
202 225 255
202 225 255
202 225 255
202 225 255
202 225 255
202 225 255
203 225 255
203 225 255
203 225 255
203 225 255
203 225 255
203 225 255
203 225 255
203 225 255
203 225 255
203 225 255
203 226 255
203 226 255
203 226 255
203 226 255
203 226 255
203 226 255
203 226 255
203 226 255
204 226 255
204 226 255
204 226 255
204 226 255
204 226 255
204 226 255
204 226 255
204 226 255
204 226 255
204 226 255
204 226 255
204 226 255
204 226 255
204 226 255
204 226 255
204 226 255
205 226 255
205 226 255
205 226 255
205 226 255
205 226 255
205 226 255
205 226 255
205 227 255
205 227 255
205 227 255
205 227 255
205 227 255
205 227 255
205 227 255
205 227 255
205 227 255
205 227 255
206 227 255
206 227 255
206 227 255
206 227 255
206 227 255
206 227 255
206 227 255
206 227 255
206 227 255
206 227 255
206 227 255
206 227 255
206 227 255
206 227 255
206 227 255
206 227 255
206 227 255
207 227 255
207 227 255
207 227 255
207 227 255
207 228 255
207 228 255
207 228 255
207 228 255
207 228 255
207 228 255
207 228 255
207 228 255
207 228 255
207 228 255
207 228 255
207 228 255
207 228 255
207 228 255
208 228 255
208 228 255
208 228 255
208 228 255
208 228 255
208 228 255
208 228 255
208 228 255
208 228 255
208 228 255
208 228 255
208 228 255
208 228 255
208 228 255
208 228 255
208 228 255
208 228 255
208 228 255
208 228 255
208 228 255
209 228 255
209 229 255
209 229 255
209 229 255
209 229 255
209 229 255
209 229 255
209 229 255
209 229 255
209 229 255
209 229 255
209 229 255
209 229 255
209 229 255
209 229 255
209 229 255
209 229 255
209 229 255
209 229 255
209 229 255
209 229 255
210 229 255
210 229 255
210 229 255
210 229 255
210 229 255
210 229 255
210 229 255
210 229 255
210 229 255
210 229 255
210 229 255
210 229 255
210 229 255
210 229 255
210 229 255
210 229 255
210 229 255
210 229 255
210 229 255
210 229 255
210 229 255
210 229 255
210 229 255
210 229 255
210 229 255
210 229 255
210 229 255
210 229 255
210 229 255
210 229 255
210 229 255
210 229 255
210 229 255
210 229 255
210 229 255
209 229 255
209 229 255
209 229 255
209 229 255
209 229 255
209 229 255
209 229 255
209 229 255
209 229 255
209 229 255
209 229 255
209 229 255
209 229 255
209 229 255
209 229 255
209 229 255
209 229 255
209 229 255
209 229 255
209 229 255
209 229 255
209 228 255
208 228 255
208 228 255
208 228 255
208 228 255
208 228 255
208 228 255
208 228 255
208 228 255
208 228 255
208 228 255
208 228 255
208 228 255
208 228 255
208 228 255
208 228 255
208 228 255
208 228 255
208 228 255
208 228 255
208 228 255
207 228 255
207 228 255
207 228 255
207 228 255
207 228 255
207 228 255
207 228 255
207 228 255
207 228 255
207 228 255
207 228 255
207 228 255
207 228 255
207 227 255
207 227 255
207 227 255
207 227 255
207 227 255
206 227 255
206 227 255
206 227 255
206 227 255
206 227 255
206 227 255
206 227 255
206 227 255
206 227 255
206 227 255
206 227 255
206 227 255
206 227 255
206 227 255
206 227 255
206 227 255
206 227 255
205 227 255
205 227 255
205 227 255
205 227 255
205 227 255
205 227 255
205 227 255
205 227 255
205 227 255
205 226 255
205 226 255
205 226 255
205 226 255
205 226 255
205 226 255
205 226 255
204 226 255
204 226 255
204 226 255
204 226 255
204 226 255
204 226 255
204 226 255
204 226 255
204 226 255
204 226 255
204 226 255
204 226 255
204 226 255
204 226 255
204 226 255
204 226 255
203 226 255
203 226 255
203 226 255
203 226 255
203 226 255
203 226 255
203 226 255
203 226 255
203 225 255
203 225 255
203 225 255
203 225 255
203 225 255
203 225 255
203 225 255
203 225 255
203 225 255
203 225 255
203 225 255
202 225 255
202 225 255
202 225 255
202 225 255
202 225 255
202 225 255
202 225 255
202 225 255
202 225 255
202 225 255
202 225 255
202 225 255
202 225 255
202 225 255
202 225 255
202 225 255
202 225 255
202 225 255
202 225 255
202 225 255
202 225 255
202 225 255
202 225 255
201 225 255
201 225 255
201 225 255
201 225 255
201 225 255
201 225 255
201 225 255
201 225 255
201 225 255
201 225 255
201 224 255
201 224 255
201 224 255
201 224 255
201 224 255
201 224 255
200 221 251
165 136 154
143 73 80
138 70 77
141 69 76
141 70 78
137 67 74
140 71 78
143 78 86
136 70 77
137 69 76
135 63 70
134 67 74
136 68 75
133 64 71
139 71 79
134 65 71
135 69 76
132 64 71
140 70 78
135 67 73
133 64 71
142 75 82
140 69 76
143 74 81
139 71 78
161 136 154
199 219 250
201 224 255
201 224 255
201 224 255
201 224 255
201 224 255
201 224 255
201 225 255
201 225 255
201 225 255
201 225 255
201 225 255
201 225 255
201 225 255
201 225 255
201 225 255
201 225 255
202 225 255
202 225 255
202 225 255
202 225 255
202 225 255
202 225 255
202 225 255
202 225 255
202 225 255
202 225 255
202 225 255
202 225 255
202 225 255
202 225 255
202 225 255
202 225 255
202 225 255
202 225 255
202 225 255
202 225 255
202 225 255
202 225 255
202 225 255
203 225 255
203 225 255
203 225 255
203 225 255
203 225 255
203 225 255
203 225 255
203 225 255
203 225 255
203 225 255
203 225 255
203 226 255
203 226 255
203 226 255
203 226 255
203 226 255
203 226 255
203 226 255
204 226 255
204 226 255
204 226 255
204 226 255
204 226 255
204 226 255
204 226 255
204 226 255
204 226 255
204 226 255
204 226 255
204 226 255
204 226 255
204 226 255
204 226 255
204 226 255
204 226 255
205 226 255
205 226 255
205 226 255
205 226 255
205 226 255
205 226 255
205 226 255
205 227 255
205 227 255
205 227 255
205 227 255
205 227 255
205 227 255
205 227 255
205 227 255
205 227 255
205 227 255
206 227 255
206 227 255
206 227 255
206 227 255
206 227 255
206 227 255
206 227 255
206 227 255
206 227 255
206 227 255
206 227 255
206 227 255
206 227 255
206 227 255
206 227 255
206 227 255
207 227 255
207 227 255
207 227 255
207 227 255
207 227 255
207 228 255
207 228 255
207 228 255
207 228 255
207 228 255
207 228 255
207 228 255
207 228 255
207 228 255
207 228 255
207 228 255
207 228 255
207 228 255
207 228 255
208 228 255
208 228 255
208 228 255
208 228 255
208 228 255
208 228 255
208 228 255
208 228 255
208 228 255
208 228 255
208 228 255
208 228 255
208 228 255
208 228 255
208 228 255
208 228 255
208 228 255
208 228 255
208 228 255
209 228 255
209 229 255
209 229 255
209 229 255
209 229 255
209 229 255
209 229 255
209 229 255
209 229 255
209 229 255
209 229 255
209 229 255
209 229 255
209 229 255
209 229 255
209 229 255
209 229 255
209 229 255
209 229 255
209 229 255
209 229 255
209 229 255
210 229 255
210 229 255
210 229 255
210 229 255
210 229 255
210 229 255
210 229 255
210 229 255
210 229 255
210 229 255
210 229 255
210 229 255
210 229 255
210 229 255
210 229 255
210 229 255
210 229 255
210 229 255
210 229 255
210 230 255
210 229 255
210 229 255
210 229 255
210 229 255
210 229 255
210 229 255
210 229 255
210 229 255
210 229 255
210 229 255
210 229 255
210 229 255
210 229 255
210 229 255
210 229 255
210 229 255
210 229 255
210 229 255
210 229 255
210 229 255
210 229 255
210 229 255
209 229 255
209 229 255
209 229 255
209 229 255
209 229 255
209 229 255
209 229 255
209 229 255
209 229 255
209 229 255
209 229 255
209 229 255
209 229 255
209 229 255
209 229 255
209 229 255
209 229 255
209 229 255
209 229 255
209 229 255
209 228 255
208 228 255
208 228 255
208 228 255
208 228 255
208 228 255
208 228 255
208 228 255
208 228 255
208 228 255
208 228 255
208 228 255
208 228 255
208 228 255
208 228 255
208 228 255
208 228 255
208 228 255
208 228 255
208 228 255
208 228 255
207 228 255
207 228 255
207 228 255
207 228 255
207 228 255
207 228 255
207 228 255
207 228 255
207 228 255
207 228 255
207 228 255
207 228 255
207 228 255
207 228 255
207 227 255
207 227 255
207 227 255
207 227 255
206 227 255
206 227 255
206 227 255
206 227 255
206 227 255
206 227 255
206 227 255
206 227 255
206 227 255
206 227 255
206 227 255
206 227 255
206 227 255
206 227 255
206 227 255
206 227 255
206 227 255
205 227 255
205 227 255
205 227 255
205 227 255
205 227 255
205 227 255
205 227 255
205 227 255
205 227 255
205 227 255
205 226 255
205 226 255
205 226 255
205 226 255
205 226 255
205 226 255
204 226 255
204 226 255
204 226 255
204 226 255
204 226 255
204 226 255
204 226 255
204 226 255
204 226 255
204 226 255
204 226 255
204 226 255
204 226 255
204 226 255
204 226 255
204 226 255
204 226 255
203 226 255
203 226 255
203 226 255
203 226 255
203 226 255
203 226 255
203 226 255
203 226 255
203 225 255
203 225 255
203 225 255
203 225 255
203 225 255
203 225 255
203 225 255
203 225 255
203 225 255
203 225 255
203 225 255
202 225 255
202 225 255
202 225 255
202 225 255
202 225 255
202 225 255
202 225 255
202 225 255
202 225 255
202 225 255
202 225 255
202 225 255
202 225 255
202 225 255
202 225 255
202 225 255
202 225 255
202 225 255
202 225 255
202 225 255
202 225 255
202 225 255
202 225 255
202 225 255
202 225 255
202 225 255
201 225 255
201 225 255
201 225 255
201 225 255
201 225 255
201 225 255
201 225 255
201 225 255
201 225 255
201 225 255
200 222 253
158 130 147
141 73 80
139 73 81
137 67 74
139 72 79
137 68 75
139 72 79
137 67 74
136 68 75
136 66 73
139 74 81
135 65 72
138 70 77
139 67 74
133 64 71
138 71 78
140 71 79
137 66 73
143 73 80
133 63 69
129 62 69
141 72 80
147 76 84
156 129 145
200 221 252
201 225 255
201 225 255
201 225 255
201 225 255
201 225 255
201 225 255
201 225 255
201 225 255
201 225 255
201 225 255
202 225 255
202 225 255
202 225 255
202 225 255
202 225 255
202 225 255
202 225 255
202 225 255
202 225 255
202 225 255
202 225 255
202 225 255
202 225 255
202 225 255
202 225 255
202 225 255
202 225 255
202 225 255
202 225 255
202 225 255
202 225 255
202 225 255
202 225 255
202 225 255
202 225 255
202 225 255
203 225 255
203 225 255
203 225 255
203 225 255
203 225 255
203 225 255
203 225 255
203 225 255
203 225 255
203 225 255
203 225 255
203 226 255
203 226 255
203 226 255
203 226 255
203 226 255
203 226 255
203 226 255
203 226 255
204 226 255
204 226 255
204 226 255
204 226 255
204 226 255
204 226 255
204 226 255
204 226 255
204 226 255
204 226 255
204 226 255
204 226 255
204 226 255
204 226 255
204 226 255
204 226 255
204 226 255
205 226 255
205 226 255
205 226 255
205 226 255
205 226 255
205 226 255
205 227 255
205 227 255
205 227 255
205 227 255
205 227 255
205 227 255
205 227 255
205 227 255
205 227 255
205 227 255
206 227 255
206 227 255
206 227 255
206 227 255
206 227 255
206 227 255
206 227 255
206 227 255
206 227 255
206 227 255
206 227 255
206 227 255
206 227 255
206 227 255
206 227 255
206 227 255
206 227 255
207 227 255
207 227 255
207 227 255
207 227 255
207 228 255
207 228 255
207 228 255
207 228 255
207 228 255
207 228 255
207 228 255
207 228 255
207 228 255
207 228 255
207 228 255
207 228 255
207 228 255
207 228 255
208 228 255
208 228 255
208 228 255
208 228 255
208 228 255
208 228 255
208 228 255
208 228 255
208 228 255
208 228 255
208 228 255
208 228 255
208 228 255
208 228 255
208 228 255
208 228 255
208 228 255
208 228 255
208 228 255
209 228 255
209 228 255
209 229 255
209 229 255
209 229 255
209 229 255
209 229 255
209 229 255
209 229 255
209 229 255
209 229 255
209 229 255
209 229 255
209 229 255
209 229 255
209 229 255
209 229 255
209 229 255
209 229 255
209 229 255
209 229 255
209 229 255
210 229 255
210 229 255
210 229 255
210 229 255
210 229 255
210 229 255
210 229 255
210 229 255
210 229 255
210 229 255
210 229 255
210 229 255
210 229 255
210 229 255
210 229 255
210 229 255
210 229 255
210 229 255
210 229 255
210 229 255
210 229 255
210 229 255
210 230 255
211 230 255
211 230 255
210 230 255
210 230 255
210 230 255
210 229 255
210 229 255
210 229 255
210 229 255
210 229 255
210 229 255
210 229 255
210 229 255
210 229 255
210 229 255
210 229 255
210 229 255
210 229 255
210 229 255
210 229 255
210 229 255
210 229 255
210 229 255
210 229 255
210 229 255
210 229 255
210 229 255
209 229 255
209 229 255
209 229 255
209 229 255
209 229 255
209 229 255
209 229 255
209 229 255
209 229 255
209 229 255
209 229 255
209 229 255
209 229 255
209 229 255
209 229 255
209 229 255
209 229 255
209 229 255
209 229 255
209 228 255
209 228 255
208 228 255
208 228 255
208 228 255
208 228 255
208 228 255
208 228 255
208 228 255
208 228 255
208 228 255
208 228 255
208 228 255
208 228 255
208 228 255
208 228 255
208 228 255
208 228 255
208 228 255
208 228 255
208 228 255
207 228 255
207 228 255
207 228 255
207 228 255
207 228 255
207 228 255
207 228 255
207 228 255
207 228 255
207 228 255
207 228 255
207 228 255
207 228 255
207 228 255
207 227 255
207 227 255
207 227 255
207 227 255
206 227 255
206 227 255
206 227 255
206 227 255
206 227 255
206 227 255
206 227 255
206 227 255
206 227 255
206 227 255
206 227 255
206 227 255
206 227 255
206 227 255
206 227 255
206 227 255
206 227 255
205 227 255
205 227 255
205 227 255
205 227 255
205 227 255
205 227 255
205 227 255
205 227 255
205 227 255
205 227 255
205 226 255
205 226 255
205 226 255
205 226 255
205 226 255
205 226 255
205 226 255
204 226 255
204 226 255
204 226 255
204 226 255
204 226 255
204 226 255
204 226 255
204 226 255
204 226 255
204 226 255
204 226 255
204 226 255
204 226 255
204 226 255
204 226 255
204 226 255
204 226 255
203 226 255
203 226 255
203 226 255
203 226 255
203 226 255
203 226 255
203 226 255
203 226 255
203 225 255
203 225 255
203 225 255
203 225 255
203 225 255
203 225 255
203 225 255
203 225 255
203 225 255
203 225 255
203 225 255
203 225 255
202 225 255
202 225 255
202 225 255
202 225 255
202 225 255
202 225 255
202 225 255
202 225 255
202 225 255
202 225 255
202 225 255
202 225 255
202 225 255
202 225 255
202 225 255
202 225 255
202 225 255
202 225 255
202 225 255
202 225 255
202 225 255
202 225 255
202 225 255
202 225 255
202 225 255
202 225 255
202 225 255
202 225 255
202 225 255
202 225 255
202 225 255
202 225 255
199 220 250
164 139 157
138 69 76
138 71 78
139 71 79
135 66 73
136 70 77
138 69 76
134 62 68
138 70 77
128 61 67
132 63 70
137 64 70
137 67 74
143 75 82
138 68 75
136 65 72
137 68 75
140 71 79
136 69 76
139 72 79
142 73 80
165 137 155
201 223 253
202 225 255
202 225 255
202 225 255
202 225 255
202 225 255
202 225 255
202 225 255
202 225 255
202 225 255
202 225 255
202 225 255
202 225 255
202 225 255
202 225 255
202 225 255
202 225 255
202 225 255
202 225 255
202 225 255
202 225 255
202 225 255
202 225 255
202 225 255
202 225 255
202 225 255
202 225 255
202 225 255
202 225 255
202 225 255
202 225 255
202 225 255
202 225 255
203 225 255
203 225 255
203 225 255
203 225 255
203 225 255
203 225 255
203 225 255
203 225 255
203 225 255
203 225 255
203 225 255
203 225 255
203 226 255
203 226 255
203 226 255
203 226 255
203 226 255
203 226 255
203 226 255
203 226 255
204 226 255
204 226 255
204 226 255
204 226 255
204 226 255
204 226 255
204 226 255
204 226 255
204 226 255
204 226 255
204 226 255
204 226 255
204 226 255
204 226 255
204 226 255
204 226 255
204 226 255
205 226 255
205 226 255
205 226 255
205 226 255
205 226 255
205 226 255
205 226 255
205 227 255
205 227 255
205 227 255
205 227 255
205 227 255
205 227 255
205 227 255
205 227 255
205 227 255
205 227 255
206 227 255
206 227 255
206 227 255
206 227 255
206 227 255
206 227 255
206 227 255
206 227 255
206 227 255
206 227 255
206 227 255
206 227 255
206 227 255
206 227 255
206 227 255
206 227 255
206 227 255
207 227 255
207 227 255
207 227 255
207 227 255
207 228 255
207 228 255
207 228 255
207 228 255
207 228 255
207 228 255
207 228 255
207 228 255
207 228 255
207 228 255
207 228 255
207 228 255
207 228 255
207 228 255
208 228 255
208 228 255
208 228 255
208 228 255
208 228 255
208 228 255
208 228 255
208 228 255
208 228 255
208 228 255
208 228 255
208 228 255
208 228 255
208 228 255
208 228 255
208 228 255
208 228 255
208 228 255
208 228 255
209 228 255
209 229 255
209 229 255
209 229 255
209 229 255
209 229 255
209 229 255
209 229 255
209 229 255
209 229 255
209 229 255
209 229 255
209 229 255
209 229 255
209 229 255
209 229 255
209 229 255
209 229 255
209 229 255
209 229 255
209 229 255
210 229 255
210 229 255
210 229 255
210 229 255
210 229 255
210 229 255
210 229 255
210 229 255
210 229 255
210 229 255
210 229 255
210 229 255
210 229 255
210 229 255
210 229 255
210 229 255
210 229 255
210 229 255
210 229 255
210 229 255
210 229 255
210 229 255
210 230 255
210 230 255
210 230 255
211 230 255
211 230 255
211 230 255
211 230 255
211 230 255
211 230 255
211 230 255
211 230 255
210 230 255
210 230 255
210 230 255
210 229 255
210 229 255
210 229 255
210 229 255
210 229 255
210 229 255
210 229 255
210 229 255
210 229 255
210 229 255
210 229 255
210 229 255
210 229 255
210 229 255
210 229 255
210 229 255
210 229 255
210 229 255
210 229 255
210 229 255
210 229 255
209 229 255
209 229 255
209 229 255
209 229 255
209 229 255
209 229 255
209 229 255
209 229 255
209 229 255
209 229 255
209 229 255
209 229 255
209 229 255
209 229 255
209 229 255
209 229 255
209 229 255
209 229 255
209 229 255
209 229 255
209 228 255
209 228 255
208 228 255
208 228 255
208 228 255
208 228 255
208 228 255
208 228 255
208 228 255
208 228 255
208 228 255
208 228 255
208 228 255
208 228 255
208 228 255
208 228 255
208 228 255
208 228 255
208 228 255
208 228 255
208 228 255
207 228 255
207 228 255
207 228 255
207 228 255
207 228 255
207 228 255
207 228 255
207 228 255
207 228 255
207 228 255
207 228 255
207 228 255
207 228 255
207 227 255
207 227 255
207 227 255
207 227 255
207 227 255
206 227 255
206 227 255
206 227 255
206 227 255
206 227 255
206 227 255
206 227 255
206 227 255
206 227 255
206 227 255
206 227 255
206 227 255
206 227 255
206 227 255
206 227 255
206 227 255
206 227 255
205 227 255
205 227 255
205 227 255
205 227 255
205 227 255
205 227 255
205 227 255
205 227 255
205 227 255
205 227 255
205 226 255
205 226 255
205 226 255
205 226 255
205 226 255
205 226 255
204 226 255
204 226 255
204 226 255
204 226 255
204 226 255
204 226 255
204 226 255
204 226 255
204 226 255
204 226 255
204 226 255
204 226 255
204 226 255
204 226 255
204 226 255
204 226 255
204 226 255
204 226 255
203 226 255
203 226 255
203 226 255
203 226 255
203 226 255
203 226 255
203 226 255
203 226 255
203 226 255
203 225 255
203 225 255
203 225 255
203 225 255
203 225 255
203 225 255
203 225 255
203 225 255
203 225 255
203 225 255
203 225 255
203 225 255
202 225 255
202 225 255
202 225 255
202 225 255
202 225 255
202 225 255
202 225 255
202 225 255
202 225 255
202 225 255
202 225 255
202 225 255
202 225 255
202 225 255
202 225 255
202 225 255
202 225 255
202 225 255
202 225 255
202 225 255
202 225 255
202 225 255
202 225 255
202 225 255
202 225 255
202 225 255
202 225 255
202 225 255
200 220 250
160 136 154
141 73 80
132 65 72
137 68 75
134 63 70
140 69 76
138 70 78
137 67 74
135 68 76
139 70 77
136 65 72
139 67 74
137 67 73
143 73 81
138 72 79
138 66 73
130 66 73
138 68 75
137 66 73
165 128 145
199 221 251
202 225 255
202 225 255
202 225 255
202 225 255
202 225 255
202 225 255
202 225 255
202 225 255
202 225 255
202 225 255
202 225 255
202 225 255
202 225 255
202 225 255
202 225 255
202 225 255
202 225 255
202 225 255
202 225 255
202 225 255
202 225 255
202 225 255
202 225 255
202 225 255
202 225 255
202 225 255
202 225 255
202 225 255
203 225 255
203 225 255
203 225 255
203 225 255
203 225 255
203 225 255
203 225 255
203 225 255
203 225 255
203 225 255
203 225 255
203 225 255
203 226 255
203 226 255
203 226 255
203 226 255
203 226 255
203 226 255
203 226 255
203 226 255
203 226 255
204 226 255
204 226 255
204 226 255
204 226 255
204 226 255
204 226 255
204 226 255
204 226 255
204 226 255
204 226 255
204 226 255
204 226 255
204 226 255
204 226 255
204 226 255
204 226 255
204 226 255
204 226 255
205 226 255
205 226 255
205 226 255
205 226 255
205 226 255
205 226 255
205 227 255
205 227 255
205 227 255
205 227 255
205 227 255
205 227 255
205 227 255
205 227 255
205 227 255
205 227 255
206 227 255
206 227 255
206 227 255
206 227 255
206 227 255
206 227 255
206 227 255
206 227 255
206 227 255
206 227 255
206 227 255
206 227 255
206 227 255
206 227 255
206 227 255
206 227 255
206 227 255
206 227 255
207 227 255
207 227 255
207 227 255
207 227 255
207 228 255
207 228 255
207 228 255
207 228 255
207 228 255
207 228 255
207 228 255
207 228 255
207 228 255
207 228 255
207 228 255
207 228 255
207 228 255
208 228 255
208 228 255
208 228 255
208 228 255
208 228 255
208 228 255
208 228 255
208 228 255
208 228 255
208 228 255
208 228 255
208 228 255
208 228 255
208 228 255
208 228 255
208 228 255
208 228 255
208 228 255
208 228 255
209 228 255
209 228 255
209 229 255
209 229 255
209 229 255
209 229 255
209 229 255
209 229 255
209 229 255
209 229 255
209 229 255
209 229 255
209 229 255
209 229 255
209 229 255
209 229 255
209 229 255
209 229 255
209 229 255
209 229 255
209 229 255
209 229 255
210 229 255
210 229 255
210 229 255
210 229 255
210 229 255
210 229 255
210 229 255
210 229 255
210 229 255
210 229 255
210 229 255
210 229 255
210 229 255
210 229 255
210 229 255
210 229 255
210 229 255
210 229 255
210 229 255
210 229 255
210 229 255
210 230 255
210 230 255
210 230 255
211 230 255
211 230 255
211 230 255
211 230 255
211 230 255
211 230 255
211 230 255
211 230 255
211 230 255
211 230 255
211 230 255
211 230 255
211 230 255
211 230 255
211 230 255
211 230 255
210 230 255
210 230 255
210 230 255
210 229 255
210 229 255
210 229 255
210 229 255
210 229 255
210 229 255
210 229 255
210 229 255
210 229 255
210 229 255
210 229 255
210 229 255
210 229 255
210 229 255
210 229 255
210 229 255
210 229 255
210 229 255
210 229 255
210 229 255
210 229 255
209 229 255
209 229 255
209 229 255
209 229 255
207 227 253
203 222 248
200 219 245
198 218 243
191 210 235
189 208 232
185 203 228
186 205 230
178 196 220
185 203 228
180 198 222
188 207 233
185 204 229
178 196 220
180 198 223
186 205 230
179 197 221
192 211 237
192 211 237
192 211 236
191 210 235
200 219 246
201 220 247
207 227 254
208 228 255
208 228 255
208 228 255
208 228 255
208 228 255
208 228 255
208 228 255
208 228 255
208 228 255
208 228 255
208 228 255
208 228 255
207 228 255
207 228 255
207 228 255
207 228 255
207 228 255
207 228 255
207 228 255
207 228 255
207 228 255
207 228 255
207 228 255
207 228 255
207 228 255
207 228 255
207 227 255
207 227 255
207 227 255
207 227 255
206 227 255
206 227 255
206 227 255
206 227 255
206 227 255
206 227 255
206 227 255
206 227 255
206 227 255
206 227 255
206 227 255
206 227 255
206 227 255
206 227 255
206 227 255
206 227 255
206 227 255
205 227 255
205 227 255
205 227 255
205 227 255
205 227 255
205 227 255
205 227 255
205 227 255
205 227 255
205 227 255
205 226 255
205 226 255
205 226 255
205 226 255
205 226 255
205 226 255
205 226 255
204 226 255
204 226 255
204 226 255
204 226 255
204 226 255
204 226 255
204 226 255
204 226 255
204 226 255
204 226 255
204 226 255
204 226 255
204 226 255
204 226 255
204 226 255
204 226 255
204 226 255
204 226 255
203 226 255
203 226 255
203 226 255
203 226 255
203 226 255
203 226 255
203 226 255
203 226 255
203 226 255
203 226 255
203 225 255
203 225 255
203 225 255
203 225 255
203 225 255
203 225 255
203 225 255
203 225 255
203 225 255
203 225 255
203 225 255
203 225 255
203 225 255
202 225 255
202 225 255
202 225 255
202 225 255
202 225 255
202 225 255
202 225 255
202 225 255
202 225 255
202 225 255
202 225 255
202 225 255
202 225 255
202 225 255
202 225 255
202 225 255
202 225 255
202 225 255
202 225 255
202 225 255
202 225 255
202 225 255
202 225 255
201 222 252
165 141 159
140 70 77
135 64 70
133 62 68
132 63 69
136 67 74
130 66 72
134 65 72
147 79 88
138 66 73
141 73 81
138 73 81
134 63 70
140 68 75
137 70 77
143 72 79
148 76 84
160 128 144
200 222 252
202 225 255
202 225 255
202 225 255
202 225 255
202 225 255
202 225 255
202 225 255
202 225 255
202 225 255
202 225 255
202 225 255
202 225 255
202 225 255
202 225 255
202 225 255
202 225 255
202 225 255
202 225 255
202 225 255
202 225 255
202 225 255
202 225 255
202 225 255
203 225 255
203 225 255
203 225 255
203 225 255
203 225 255
203 225 255
203 225 255
203 225 255
203 225 255
203 225 255
203 225 255
203 225 255
203 225 255
203 225 255
203 226 255
203 226 255
203 226 255
203 226 255
203 226 255
203 226 255
203 226 255
203 226 255
203 226 255
204 226 255
204 226 255
204 226 255
204 226 255
204 226 255
204 226 255
204 226 255
204 226 255
204 226 255
204 226 255
204 226 255
204 226 255
204 226 255
204 226 255
204 226 255
204 226 255
204 226 255
204 226 255
205 226 255
205 226 255
205 226 255
205 226 255
205 226 255
205 226 255
205 226 255
205 227 255
205 227 255
205 227 255
205 227 255
205 227 255
205 227 255
205 227 255
205 227 255
205 227 255
205 227 255
206 227 255
206 227 255
206 227 255
206 227 255
206 227 255
206 227 255
206 227 255
206 227 255
206 227 255
206 227 255
206 227 255
206 227 255
206 227 255
206 227 255
206 227 255
206 227 255
206 227 255
207 227 255
207 227 255
207 227 255
207 227 255
207 228 255
207 228 255
207 228 255
207 228 255
207 228 255
207 228 255
207 228 255
207 228 255
207 228 255
207 228 255
207 228 255
207 228 255
207 228 255
207 228 255
208 228 255
208 228 255
208 228 255
208 228 255
208 228 255
208 228 255
208 228 255
208 228 255
208 228 255
208 228 255
208 228 255
208 228 255
207 226 253
202 220 244
196 213 234
196 212 230
192 209 228
184 198 210
189 204 221
181 194 204
178 189 192
172 185 195
177 190 198
179 192 202
178 191 199
177 189 196
181 194 202
179 192 203
181 195 206
188 203 218
188 203 218
189 204 220
194 211 230
196 212 232
200 219 243
208 227 253
209 229 255
209 229 255
209 229 255
209 229 255
210 229 255
210 229 255
210 229 255
210 229 255
210 229 255
210 229 255
210 229 255
210 229 255
210 229 255
210 229 255
210 229 255
210 229 255
210 229 255
210 229 255
210 229 255
210 229 255
210 229 255
210 229 255
210 229 255
210 229 255
210 229 255
210 230 255
210 230 255
210 230 255
211 230 255
211 230 255
211 230 255
211 230 255
211 230 255
211 230 255
211 230 255
211 230 255
211 230 255
211 230 255
211 230 255
211 230 255
211 230 255
211 230 255
211 230 255
211 230 255
211 230 255
211 230 255
211 230 255
211 230 255
211 230 255
211 230 255
211 230 255
211 230 255
210 230 255
210 230 255
210 230 255
210 229 255
210 229 255
210 229 255
210 229 255
210 229 255
210 229 255
210 229 255
210 229 255
210 229 255
210 229 255
210 229 255
210 229 255
203 222 248
198 216 241
189 207 232
182 200 224
175 193 216
169 186 210
162 179 202
159 177 200
149 166 190
149 166 189
147 164 188
145 163 186
148 166 190
148 166 190
150 169 193
154 173 198
152 170 195
153 172 197
150 169 194
161 180 206
149 168 192
155 174 200
153 172 198
149 168 194
155 175 201
145 164 188
154 174 199
155 174 199
149 168 192
147 166 190
155 174 200
147 165 190
147 166 190
154 173 198
159 177 202
159 177 201
167 185 210
172 191 215
182 201 226
187 206 232
195 215 241
205 225 252
208 228 255
208 228 255
208 228 255
208 228 255
208 228 255
208 228 255
208 228 255
207 228 255
207 228 255
207 228 255
207 228 255
207 228 255
207 228 255
207 228 255
207 228 255
207 228 255
207 228 255
207 228 255
207 228 255
207 228 255
207 227 255
207 227 255
207 227 255
207 227 255
207 227 255
206 227 255
206 227 255
206 227 255
206 227 255
206 227 255
206 227 255
206 227 255
206 227 255
206 227 255
206 227 255
206 227 255
206 227 255
206 227 255
206 227 255
206 227 255
206 227 255
206 227 255
205 227 255
205 227 255
205 227 255
205 227 255
205 227 255
205 227 255
205 227 255
205 227 255
205 227 255
205 227 255
205 226 255
205 226 255
205 226 255
205 226 255
205 226 255
205 226 255
205 226 255
204 226 255
204 226 255
204 226 255
204 226 255
204 226 255
204 226 255
204 226 255
204 226 255
204 226 255
204 226 255
204 226 255
204 226 255
204 226 255
204 226 255
204 226 255
204 226 255
204 226 255
204 226 255
204 226 255
203 226 255
203 226 255
203 226 255
203 226 255
203 226 255
203 226 255
203 226 255
203 226 255
203 226 255
203 225 255
203 225 255
203 225 255
203 225 255
203 225 255
203 225 255
203 225 255
203 225 255
203 225 255
203 225 255
203 225 255
203 225 255
203 225 255
203 225 255
203 225 255
203 225 255
202 225 255
202 225 255
202 225 255
202 225 255
202 225 255
202 225 255
202 225 255
202 225 255
202 225 255
202 225 255
202 225 255
202 225 255
202 225 255
202 225 255
202 225 255
202 225 255
202 225 255
201 222 252
167 143 162
140 72 79
146 77 85
138 70 77
135 69 77
138 69 77
138 72 79
139 67 74
135 66 73
134 62 68
136 67 74
135 68 75
145 71 78
137 67 74
140 69 76
154 128 144
200 220 250
202 225 255
202 225 255
202 225 255
202 225 255
202 225 255
202 225 255
202 225 255
202 225 255
202 225 255
202 225 255
202 225 255
202 225 255
202 225 255
202 225 255
202 225 255
202 225 255
202 225 255
203 225 255
203 225 255
203 225 255
203 225 255
203 225 255
203 225 255
203 225 255
203 225 255
203 225 255
203 225 255
203 225 255
203 225 255
203 225 255
203 225 255
203 225 255
203 226 255
203 226 255
203 226 255
203 226 255
203 226 255
203 226 255
203 226 255
203 226 255
203 226 255
203 226 255
204 226 255
204 226 255
204 226 255
204 226 255
204 226 255
204 226 255
204 226 255
204 226 255
204 226 255
204 226 255
204 226 255
204 226 255
204 226 255
204 226 255
204 226 255
204 226 255
204 226 255
204 226 255
204 226 255
205 226 255
205 226 255
205 226 255
205 226 255
205 226 255
205 226 255
205 226 255
205 227 255
205 227 255
205 227 255
205 227 255
205 227 255
205 227 255
205 227 255
205 227 255
205 227 255
205 227 255
206 227 255
206 227 255
206 227 255
206 227 255
206 227 255
206 227 255
206 227 255
206 227 255
206 227 255
206 227 255
206 227 255
206 227 255
206 227 255
206 227 255
206 227 255
206 227 255
206 227 255
206 227 255
207 227 255
207 227 255
207 227 255
207 227 255
207 228 255
207 228 255
207 228 255
207 228 255
207 228 255
207 228 255
207 228 255
207 228 255
207 228 255
207 228 255
207 228 255
207 228 255
207 228 255
208 228 255
208 228 255
208 228 255
208 228 255
208 228 255
208 228 255
208 228 255
205 225 251
193 211 232
189 204 219
174 185 190
167 177 176
161 169 165
152 157 146
147 149 125
136 136 106
127 124 82
123 121 81
130 127 84
123 121 80
134 131 87
132 129 86
132 130 87
129 127 84
130 127 84
133 130 86
134 131 87
126 123 82
138 136 90
134 132 88
133 130 86
130 127 84
126 124 82
131 128 84
137 134 88
136 133 88
135 132 87
133 130 86
126 124 83
135 132 89
136 134 97
155 157 134
160 164 150
170 177 171
174 184 187
178 189 194
188 203 219
197 214 235
205 224 248
210 229 255
210 229 255
210 229 255
210 229 255
210 229 255
210 229 255
210 229 255
210 229 255
210 229 255
210 229 255
210 229 255
210 229 255
210 230 255
210 230 255
210 230 255
211 230 255
211 230 255
211 230 255
211 230 255
211 230 255
211 230 255
211 230 255
211 230 255
211 230 255
211 230 255
211 230 255
211 230 255
211 230 255
211 230 255
211 230 255
211 230 255
211 230 255
211 230 255
211 230 255
211 230 255
211 230 255
211 230 255
211 230 255
211 230 255
211 230 255
211 230 255
211 230 255
211 230 255
211 230 255
211 230 255
211 230 255
211 230 255
210 230 255
210 230 255
210 230 255
210 229 255
210 229 255
206 224 250
195 213 237
177 195 218
166 183 205
164 181 203
153 169 192
153 170 193
150 167 190
155 174 198
155 173 197
154 172 196
153 171 196
155 174 199
152 170 195
152 170 195
159 179 205
155 175 200
160 180 206
159 180 207
160 180 207
159 179 206
162 183 211
160 181 209
160 182 209
163 185 213
160 181 209
162 183 211
163 184 212
161 183 211
161 183 212
161 182 211
162 185 214
162 184 212
159 180 208
161 183 211
158 180 208
157 178 206
158 179 207
157 178 206
161 182 211
155 175 202
160 182 210
154 175 202
149 169 195
150 170 196
152 172 198
146 165 190
144 163 187
150 168 191
164 182 207
172 191 216
179 197 222
186 205 230
202 222 249
208 228 255
208 228 255
208 228 255
208 228 255
207 228 255
207 228 255
207 228 255
207 228 255
207 228 255
207 228 255
207 228 255
207 228 255
207 228 255
207 228 255
207 228 255
207 228 255
207 228 255
207 228 255
207 227 255
207 227 255
207 227 255
207 227 255
206 227 255
206 227 255
206 227 255
206 227 255
206 227 255
206 227 255
206 227 255
206 227 255
206 227 255
206 227 255
206 227 255
206 227 255
206 227 255
206 227 255
206 227 255
206 227 255
206 227 255
205 227 255
205 227 255
205 227 255
205 227 255
205 227 255
205 227 255
205 227 255
205 227 255
205 227 255
205 227 255
205 227 255
205 226 255
205 226 255
205 226 255
205 226 255
205 226 255
205 226 255
205 226 255
204 226 255
204 226 255
204 226 255
204 226 255
204 226 255
204 226 255
204 226 255
204 226 255
204 226 255
204 226 255
204 226 255
204 226 255
204 226 255
204 226 255
204 226 255
204 226 255
204 226 255
204 226 255
204 226 255
204 226 255
203 226 255
203 226 255
203 226 255
203 226 255
203 226 255
203 226 255
203 226 255
203 226 255
203 226 255
203 226 255
203 225 255
203 225 255
203 225 255
203 225 255
203 225 255
203 225 255
203 225 255
203 225 255
203 225 255
203 225 255
203 225 255
203 225 255
203 225 255
203 225 255
203 225 255
203 225 255
203 225 255
203 225 255
203 225 255
203 225 255
202 225 255
202 225 255
202 225 255
202 225 255
202 225 255
202 225 255
202 225 255
202 225 255
202 224 254
163 139 156
136 67 73
142 74 81
138 74 82
138 68 74
146 76 84
133 66 72
135 69 76
141 71 78
132 65 72
138 71 78
140 70 77
139 72 80
157 127 143
202 223 253
202 225 255
202 225 255
202 225 255
202 225 255
202 225 255
202 225 255
202 225 255
202 225 255
203 225 255
203 225 255
203 225 255
203 225 255
203 225 255
203 225 255
203 225 255
203 225 255
203 225 255
203 225 255
203 225 255
203 225 255
203 225 255
203 225 255
203 225 255
203 225 255
203 225 255
203 225 255
203 225 255
203 226 255
203 226 255
203 226 255
203 226 255
203 226 255
203 226 255
203 226 255
203 226 255
203 226 255
203 226 255
203 226 255
204 226 255
204 226 255
204 226 255
204 226 255
204 226 255
204 226 255
204 226 255
204 226 255
204 226 255
204 226 255
204 226 255
204 226 255
204 226 255
204 226 255
204 226 255
204 226 255
204 226 255
204 226 255
204 226 255
204 226 255
205 226 255
205 226 255
205 226 255
205 226 255
205 226 255
205 226 255
205 226 255
205 227 255
205 227 255
205 227 255
205 227 255
205 227 255
205 227 255
205 227 255
205 227 255
205 227 255
205 227 255
205 227 255
206 227 255
206 227 255
206 227 255
206 227 255
206 227 255
206 227 255
206 227 255
206 227 255
206 227 255
206 227 255
206 227 255
206 227 255
206 227 255
206 227 255
206 227 255
206 227 255
206 227 255
207 227 255
207 227 255
207 227 255
207 227 255
207 228 255
207 228 255
207 228 255
207 228 255
207 228 255
207 228 255
207 228 255
207 228 255
207 228 255
207 228 255
207 228 255
207 228 255
207 228 255
207 228 255
208 228 255
208 228 255
208 228 255
208 228 255
200 219 244
189 205 222
177 189 198
167 176 176
152 157 145
133 135 110
131 129 86
131 128 85
130 128 85
136 133 89
144 142 94
135 132 88
129 126 84
137 135 90
134 132 88
133 131 87
131 129 86
137 135 90
132 130 87
141 138 91
138 136 91
133 131 87
136 135 90
129 126 84
140 137 91
127 125 83
135 133 88
139 136 89
137 134 89
142 139 92
134 132 87
135 133 88
133 131 87
137 135 90
134 132 87
123 121 80
131 128 85
140 137 90
140 136 90
124 122 81
137 134 89
136 133 87
133 129 85
128 124 81
133 130 85
132 129 85
130 127 84
135 131 86
137 136 108
154 158 143
164 172 167
176 187 194
191 206 223
203 220 242
210 229 255
210 229 255
210 230 255
210 230 255
210 230 255
211 230 255
211 230 255
211 230 255
211 230 255
211 230 255
211 230 255
211 230 255
211 230 255
211 230 255
211 230 255
211 230 255
211 230 255
211 230 255
211 230 255
211 230 255
211 230 255
211 230 255
211 230 255
211 230 255
211 230 255
211 230 255
211 230 255
211 230 255
211 230 255
211 230 255
211 230 255
211 230 255
211 230 255
211 230 255
211 230 255
211 230 255
211 230 255
211 230 255
211 230 255
211 230 255
211 230 255
207 226 251
194 212 236
184 202 225
167 183 206
152 169 191
145 162 184
150 167 190
153 172 196
155 173 197
163 183 209
154 173 197
154 173 198
158 178 204
162 183 209
158 178 204
167 188 216
165 185 213
164 184 212
159 179 206
164 186 214
163 185 212
167 189 217
166 189 218
170 192 222
166 189 219
168 191 220
169 192 221
166 188 217
169 192 223
169 192 222
169 192 222
168 191 220
167 190 221
170 193 223
167 190 221
166 189 219
167 191 221
166 189 220
166 190 221
164 188 218
165 188 218
167 190 221
166 190 220
164 187 217
163 186 216
162 185 214
163 185 215
165 188 219
161 184 214
162 184 213
162 184 213
158 180 209
161 183 212
157 179 207
159 181 209
156 177 204
152 172 199
158 178 206
153 173 198
154 172 197
170 189 214
177 196 221
183 202 227
201 221 248
208 228 255
208 228 255
208 228 255
207 228 255
207 228 255
207 228 255
207 228 255
207 228 255
207 228 255
207 228 255
207 228 255
207 228 255
207 228 255
207 228 255
207 228 255
207 228 255
207 227 255
207 227 255
207 227 255
207 227 255
207 227 255
206 227 255
206 227 255
206 227 255
206 227 255
206 227 255
206 227 255
206 227 255
206 227 255
206 227 255
206 227 255
206 227 255
206 227 255
206 227 255
206 227 255
206 227 255
206 227 255
206 227 255
205 227 255
205 227 255
205 227 255
205 227 255
205 227 255
205 227 255
205 227 255
205 227 255
205 227 255
205 227 255
205 227 255
205 226 255
205 226 255
205 226 255
205 226 255
205 226 255
205 226 255
205 226 255
204 226 255
204 226 255
204 226 255
204 226 255
204 226 255
204 226 255
204 226 255
204 226 255
204 226 255
204 226 255
204 226 255
204 226 255
204 226 255
204 226 255
204 226 255
204 226 255
204 226 255
204 226 255
204 226 255
204 226 255
204 226 255
203 226 255
203 226 255
203 226 255
203 226 255
203 226 255
203 226 255
203 226 255
203 226 255
203 226 255
203 226 255
203 226 255
203 226 255
203 225 255
203 225 255
203 225 255
203 225 255
203 225 255
203 225 255
203 225 255
203 225 255
203 225 255
203 225 255
203 225 255
203 225 255
203 225 255
203 225 255
203 225 255
203 225 255
203 225 255
203 225 255
203 225 255
203 225 255
203 225 255
203 225 255
202 223 253
166 139 157
139 70 78
135 65 72
136 67 74
134 66 73
141 73 81
137 67 74
137 66 73
134 65 72
136 65 71
139 69 76
166 135 152
202 222 252
203 225 255
203 225 255
203 225 255
203 225 255
203 225 255
203 225 255
203 225 255
203 225 255
203 225 255
203 225 255
203 225 255
203 225 255
203 225 255
203 225 255
203 225 255
203 225 255
203 225 255
203 225 255
203 225 255
203 225 255
203 225 255
203 225 255
203 226 255
203 226 255
203 226 255
203 226 255
203 226 255
203 226 255
203 226 255
203 226 255
203 226 255
203 226 255
203 226 255
203 226 255
204 226 255
204 226 255
204 226 255
204 226 255
204 226 255
204 226 255
204 226 255
204 226 255
204 226 255
204 226 255
204 226 255
204 226 255
204 226 255
204 226 255
204 226 255
204 226 255
204 226 255
204 226 255
204 226 255
204 226 255
204 226 255
205 226 255
205 226 255
205 226 255
205 226 255
205 226 255
205 226 255
205 226 255
205 227 255
205 227 255
205 227 255
205 227 255
205 227 255
205 227 255
205 227 255
205 227 255
205 227 255
205 227 255
205 227 255
206 227 255
206 227 255
206 227 255
206 227 255
206 227 255
206 227 255
206 227 255
206 227 255
206 227 255
206 227 255
206 227 255
206 227 255
206 227 255
206 227 255
206 227 255
206 227 255
206 227 255
207 227 255
207 227 255
207 227 255
207 227 255
207 227 255
207 228 255
207 228 255
207 228 255
207 228 255
207 228 255
207 228 255
207 228 255
207 228 255
207 228 255
207 228 255
207 228 255
207 228 255
207 228 255
208 228 255
208 228 255
208 228 255
203 222 246
186 201 214
167 177 180
159 165 151
139 140 110
134 131 87
138 136 91
132 129 86
135 133 89
132 131 87
128 126 84
137 134 90
130 128 86
135 132 88
134 132 89
132 130 88
138 137 92
135 132 88
138 136 91
135 133 89
136 133 89
135 133 89
131 128 85
133 132 88
132 131 88
138 136 90
138 136 90
132 130 87
141 139 93
133 131 87
142 139 92
142 139 93
139 136 90
137 134 89
139 137 91
130 127 84
140 138 91
138 135 89
137 134 89
138 136 90
138 135 89
133 130 86
144 142 93
135 132 88
134 131 87
131 129 85
129 127 84
136 133 88
133 130 84
127 124 82
134 131 87
140 136 89
127 125 82
132 129 85
133 130 86
121 118 78
129 126 83
130 127 84
130 126 82
137 137 106
161 166 155
171 180 183
188 202 216
206 224 247
211 230 255
211 230 255
211 230 255
211 230 255
211 230 255
211 230 255
211 230 255
211 230 255
211 230 255
211 230 255
211 230 255
211 230 255
211 230 255
211 230 255
211 230 255
211 230 255
211 230 255
211 230 255
211 230 255
211 230 255
211 230 255
211 230 255
211 230 255
211 230 255
211 230 255
211 230 255
211 230 255
211 230 255
211 230 255
211 230 255
211 230 255
211 230 255
205 224 249
186 203 227
163 179 201
163 180 202
145 160 181
151 168 191
156 174 198
157 175 199
158 176 201
157 175 200
162 181 207
164 183 209
160 179 205
162 183 209
169 190 217
169 190 217
167 187 215
166 188 217
165 186 214
166 187 216
169 191 219
166 188 217
169 191 221
170 193 223
168 191 221
172 195 226
171 194 224
171 194 225
172 196 227
172 195 226
172 195 226
171 195 226
172 196 228
171 196 227
171 196 227
171 195 226
172 196 228
171 195 227
171 195 227
172 196 228
170 194 226
170 195 228
169 194 226
170 195 227
172 197 228
171 196 228
171 195 227
170 194 227
170 195 227
170 195 227
169 194 226
170 195 227
167 191 223
167 192 223
168 192 224
166 191 222
165 189 220
164 188 219
162 186 216
160 183 212
164 188 218
158 180 209
159 181 210
160 183 212
155 176 204
149 169 195
153 173 200
147 166 192
153 172 196
170 189 214
187 206 232
198 217 244
208 228 255
208 228 255
208 228 255
207 228 255
207 228 255
207 228 255
207 228 255
207 228 255
207 228 255
207 228 255
207 228 255
207 228 255
207 228 255
207 228 255
207 228 255
207 228 255
207 227 255
207 227 255
207 227 255
207 227 255
206 227 255
206 227 255
206 227 255
206 227 255
206 227 255
206 227 255
206 227 255
206 227 255
206 227 255
206 227 255
206 227 255
206 227 255
206 227 255
206 227 255
206 227 255
206 227 255
206 227 255
206 227 255
205 227 255
205 227 255
205 227 255
205 227 255
205 227 255
205 227 255
205 227 255
205 227 255
205 227 255
205 227 255
205 227 255
205 226 255
205 226 255
205 226 255
205 226 255
205 226 255
205 226 255
205 226 255
205 226 255
204 226 255
204 226 255
204 226 255
204 226 255
204 226 255
204 226 255
204 226 255
204 226 255
204 226 255
204 226 255
204 226 255
204 226 255
204 226 255
204 226 255
204 226 255
204 226 255
204 226 255
204 226 255
204 226 255
204 226 255
204 226 255
204 226 255
203 226 255
203 226 255
203 226 255
203 226 255
203 226 255
203 226 255
203 226 255
203 226 255
203 226 255
203 226 255
203 226 255
203 226 255
203 226 255
203 226 255
203 226 255
203 225 255
203 225 255
203 225 255
203 225 255
203 225 255
203 225 255
203 225 255
203 225 255
203 225 255
203 225 255
203 225 255
203 225 255
203 225 255
203 225 255
202 223 252
159 131 148
132 62 69
132 60 66
136 70 78
134 62 68
136 66 73
138 69 76
134 66 73
138 67 74
164 142 161
201 221 250
203 225 255
203 225 255
203 225 255
203 225 255
203 225 255
203 225 255
203 225 255
203 225 255
203 225 255
203 225 255
203 225 255
203 225 255
203 225 255
203 225 255
203 226 255
203 226 255
203 226 255
203 226 255
203 226 255
203 226 255
203 226 255
203 226 255
203 226 255
203 226 255
203 226 255
203 226 255
203 226 255
203 226 255
203 226 255
204 226 255
204 226 255
204 226 255
204 226 255
204 226 255
204 226 255
204 226 255
204 226 255
204 226 255
204 226 255
204 226 255
204 226 255
204 226 255
204 226 255
204 226 255
204 226 255
204 226 255
204 226 255
204 226 255
204 226 255
204 226 255
204 226 255
205 226 255
205 226 255
205 226 255
205 226 255
205 226 255
205 226 255
205 226 255
205 226 255
205 227 255
205 227 255
205 227 255
205 227 255
205 227 255
205 227 255
205 227 255
205 227 255
205 227 255
205 227 255
205 227 255
206 227 255
206 227 255
206 227 255
206 227 255
206 227 255
206 227 255
206 227 255
206 227 255
206 227 255
206 227 255
206 227 255
206 227 255
206 227 255
206 227 255
206 227 255
206 227 255
206 227 255
206 227 255
207 227 255
207 227 255
207 227 255
207 227 255
207 228 255
207 228 255
207 228 255
207 228 255
207 228 255
207 228 255
207 228 255
207 228 255
207 228 255
207 228 255
207 228 255
207 228 255
207 228 255
208 228 255
208 228 255
208 228 255
196 214 237
179 191 198
164 172 167
146 149 126
135 133 89
127 124 83
129 128 86
128 126 84
130 128 86
130 129 86
137 134 90
131 128 86
133 131 87
133 132 89
129 128 86
139 138 93
143 141 94
135 133 89
139 138 92
140 139 93
140 139 93
135 133 89
134 133 89
141 139 93
139 136 91
142 140 93
139 136 90
137 135 90
139 136 91
138 136 91
133 131 87
143 140 93
139 137 90
146 144 96
138 135 90
141 139 91
139 136 91
143 140 93
137 134 89
138 136 90
137 134 89
139 136 90
139 137 91
140 138 90
140 137 90
141 138 91
130 128 85
141 138 91
141 137 90
137 134 88
135 132 87
131 129 85
138 135 90
139 137 91
139 136 90
136 134 88
136 133 87
129 126 84
137 133 88
137 133 87
136 133 87
134 130 86
139 135 87
142 138 90
137 133 87
134 130 86
137 134 87
132 129 84
147 150 131
161 167 162
180 192 201
202 219 239
209 228 254
211 230 255
211 230 255
211 230 255
211 230 255
211 230 255
211 230 255
211 230 255
211 230 255
211 230 255
211 230 255
211 230 255
211 230 255
211 230 255
212 230 255
212 230 255
212 230 255
212 230 255
211 230 255
211 230 255
211 230 255
211 230 255
211 230 255
211 230 255
205 224 249
192 209 233
166 182 204
148 163 183
151 167 190
154 171 193
155 172 196
163 181 206
161 179 204
160 179 204
163 182 208
160 179 204
165 185 212
166 186 213
163 183 209
168 189 217
168 190 218
167 188 216
169 191 219
165 185 213
169 191 219
173 196 226
169 192 221
173 196 227
173 196 227
173 197 227
175 198 228
174 198 228
173 197 228
173 197 228
173 197 228
173 197 228
172 197 228
172 197 228
172 196 228
172 196 228
172 196 228
172 196 228
171 196 228
171 196 228
171 196 228
171 196 228
170 196 228
171 196 228
170 196 228
170 196 228
170 195 228
169 195 228
170 195 228
170 195 228
170 195 228
170 195 228
170 195 228
169 195 228
170 195 228
170 195 228
170 195 228
170 196 228
170 195 228
169 195 228
169 194 227
170 195 228
168 193 225
168 194 226
168 193 225
166 191 223
166 191 222
162 186 216
165 189 220
164 187 218
160 182 212
156 177 206
160 182 211
156 178 206
159 180 208
150 170 195
148 166 190
175 194 220
182 201 227
202 221 248
208 228 255
208 228 255
207 228 255
207 228 255
207 228 255
207 228 255
207 228 255
207 228 255
207 228 255
207 228 255
207 228 255
207 228 255
207 228 255
207 228 255
207 228 255
207 228 255
207 227 255
207 227 255
207 227 255
207 227 255
206 227 255
206 227 255
206 227 255
206 227 255
206 227 255
206 227 255
206 227 255
206 227 255
206 227 255
206 227 255
206 227 255
206 227 255
206 227 255
206 227 255
206 227 255
206 227 255
206 227 255
206 227 255
205 227 255
205 227 255
205 227 255
205 227 255
205 227 255
205 227 255
205 227 255
205 227 255
205 227 255
205 227 255
205 227 255
205 226 255
205 226 255
205 226 255
205 226 255
205 226 255
205 226 255
205 226 255
205 226 255
204 226 255
204 226 255
204 226 255
204 226 255
204 226 255
204 226 255
204 226 255
204 226 255
204 226 255
204 226 255
204 226 255
204 226 255
204 226 255
204 226 255
204 226 255
204 226 255
204 226 255
204 226 255
204 226 255
204 226 255
204 226 255
204 226 255
204 226 255
204 226 255
204 226 255
203 226 255
203 226 255
203 226 255
203 226 255
203 226 255
203 226 255
203 226 255
203 226 255
203 226 255
203 226 255
203 226 255
203 226 255
203 226 255
203 226 255
203 226 255
203 226 255
203 226 255
203 226 255
203 226 255
203 226 255
203 226 255
203 226 255
203 226 255
200 221 250
161 133 150
142 73 80
144 76 83
132 62 69
133 65 71
141 70 77
147 75 83
162 130 147
201 220 250
203 226 255
203 226 255
203 226 255
203 226 255
203 226 255
203 226 255
203 226 255
203 226 255
203 226 255
203 226 255
203 226 255
203 226 255
203 226 255
203 226 255
203 226 255
203 226 255
203 226 255
203 226 255
203 226 255
203 226 255
203 226 255
203 226 255
204 226 255
204 226 255
204 226 255
204 226 255
204 226 255
204 226 255
204 226 255
204 226 255
204 226 255
204 226 255
204 226 255
204 226 255
204 226 255
204 226 255
204 226 255
204 226 255
204 226 255
204 226 255
204 226 255
204 226 255
204 226 255
204 226 255
204 226 255
204 226 255
204 226 255
204 226 255
205 226 255
205 226 255
205 226 255
205 226 255
205 226 255
205 226 255
205 226 255
205 226 255
205 227 255
205 227 255
205 227 255
205 227 255
205 227 255
205 227 255
205 227 255
205 227 255
205 227 255
205 227 255
205 227 255
206 227 255
206 227 255
206 227 255
206 227 255
206 227 255
206 227 255
206 227 255
206 227 255
206 227 255
206 227 255
206 227 255
206 227 255
206 227 255
206 227 255
206 227 255
206 227 255
206 227 255
206 227 255
207 227 255
207 227 255
207 227 255
207 227 255
207 228 255
207 228 255
207 228 255
207 228 255
207 228 255
207 228 255
207 228 255
207 228 255
207 228 255
207 228 255
207 228 255
207 228 255
207 228 255
207 228 255
208 228 255
208 228 255
201 219 243
182 198 214
166 176 179
138 139 114
129 126 84
133 131 88
130 129 86
142 141 94
132 130 87
137 136 91
141 139 93
141 139 93
135 133 89
137 135 90
137 135 91
142 140 94
139 137 92
135 131 88
144 141 94
138 136 91
138 136 91
142 140 94
139 137 92
140 138 92
146 143 96
140 138 93
136 133 89
142 139 92
142 140 93
142 139 93
139 137 91
137 135 90
142 139 93
137 135 90
140 139 93
142 139 93
141 139 93
136 134 89
142 139 93
140 138 92
137 134 90
143 140 93
139 137 91
143 140 92
138 137 91
135 133 89
139 136 90
140 137 91
143 141 93
144 141 92
146 144 95
137 135 89
148 145 96
140 138 91
140 137 91
145 143 95
137 135 89
141 138 90
134 131 86
142 138 90
138 135 89
137 134 89
132 129 84
132 128 83
144 140 92
140 137 89
144 140 92
138 134 88
133 130 85
130 126 83
127 123 80
128 124 80
136 132 87
132 129 84
132 129 84
121 117 76
141 142 119
164 172 170
190 203 217
203 220 243
211 230 255
211 230 255
211 230 255
211 230 255
211 230 255
211 230 255
212 230 255
212 230 255
212 230 255
212 230 255
212 230 255
212 230 255
212 230 255
212 230 255
212 230 255
212 230 255
211 230 255
201 218 243
180 197 220
164 181 203
148 163 184
154 171 193
158 175 198
162 180 204
157 175 200
161 179 204
155 173 197
158 177 202
166 186 212
167 188 214
166 186 212
167 187 214
168 189 217
168 190 218
172 194 222
173 195 224
170 192 221
174 196 226
173 195 224
173 196 226
175 198 228
174 198 228
175 198 228
174 198 228
174 197 228
174 197 228
173 197 228
173 197 228
172 197 228
173 197 228
172 197 228
172 197 228
171 196 228
171 196 228
171 196 228
171 196 228
171 196 228
170 196 228
170 196 228
170 195 228
170 196 228
169 195 228
170 195 228
169 195 228
169 195 228
169 195 228
169 195 228
169 195 228
169 195 228
169 195 228
168 195 228
168 195 228
168 195 228
169 195 228
168 195 228
168 194 228
168 194 228
168 195 228
168 195 228
168 194 228
168 195 228
169 195 228
169 195 228
169 195 228
169 195 228
169 195 228
169 195 228
170 196 228
169 194 227
168 193 226
169 194 226
166 191 223
167 192 223
164 187 218
161 184 214
158 181 210
159 181 210
157 178 206
144 163 188
145 164 189
164 183 208
179 197 223
198 218 245
208 228 255
208 228 255
208 228 255
207 228 255
207 228 255
207 228 255
207 228 255
207 228 255
207 228 255
207 228 255
207 228 255
207 228 255
207 228 255
207 228 255
207 228 255
207 228 255
207 228 255
207 227 255
207 227 255
207 227 255
207 227 255
206 227 255
206 227 255
206 227 255
206 227 255
206 227 255
206 227 255
206 227 255
206 227 255
206 227 255
206 227 255
206 227 255
206 227 255
206 227 255
206 227 255
206 227 255
206 227 255
206 227 255
206 227 255
205 227 255
205 227 255
205 227 255
205 227 255
205 227 255
205 227 255
205 227 255
205 227 255
205 227 255
205 227 255
205 227 255
205 227 255
205 226 255
205 226 255
205 226 255
205 226 255
205 226 255
205 226 255
205 226 255
205 226 255
204 226 255
204 226 255
204 226 255
204 226 255
204 226 255
204 226 255
204 226 255
204 226 255
204 226 255
204 226 255
204 226 255
204 226 255
204 226 255
204 226 255
204 226 255
204 226 255
204 226 255
204 226 255
204 226 255
204 226 255
204 226 255
204 226 255
204 226 255
204 226 255
204 226 255
204 226 255
204 226 255
204 226 255
204 226 255
204 226 255
203 226 255
203 226 255
203 226 255
203 226 255
203 226 255
203 226 255
203 226 255
203 226 255
203 226 255
203 226 255
203 226 255
203 226 255
203 226 255
203 226 255
202 223 253
159 130 147
138 68 76
133 66 73
140 69 76
141 70 77
165 140 157
203 224 254
203 226 255
203 226 255
203 226 255
203 226 255
203 226 255
203 226 255
203 226 255
203 226 255
203 226 255
203 226 255
203 226 255
203 226 255
203 226 255
203 226 255
204 226 255
204 226 255
204 226 255
204 226 255
204 226 255
204 226 255
204 226 255
204 226 255
204 226 255
204 226 255
204 226 255
204 226 255
204 226 255
204 226 255
204 226 255
204 226 255
204 226 255
204 226 255
204 226 255
204 226 255
204 226 255
204 226 255
204 226 255
204 226 255
204 226 255
204 226 255
204 226 255
204 226 255
204 226 255
204 226 255
205 226 255
205 226 255
205 226 255
205 226 255
205 226 255
205 226 255
205 226 255
205 226 255
205 227 255
205 227 255
205 227 255
205 227 255
205 227 255
205 227 255
205 227 255
205 227 255
205 227 255
205 227 255
205 227 255
205 227 255
206 227 255
206 227 255
206 227 255
206 227 255
206 227 255
206 227 255
206 227 255
206 227 255
206 227 255
206 227 255
206 227 255
206 227 255
206 227 255
206 227 255
206 227 255
206 227 255
206 227 255
206 227 255
207 227 255
207 227 255
207 227 255
207 227 255
207 228 255
207 228 255
207 228 255
207 228 255
207 228 255
207 228 255
207 228 255
207 228 255
207 228 255
207 228 255
207 228 255
207 228 255
207 228 255
207 228 255
208 228 255
208 228 255
208 228 255
194 211 231
176 188 197
147 151 136
126 125 85
128 126 84
130 128 85
134 132 88
134 131 88
127 126 85
130 128 86
129 126 85
138 136 91
137 135 90
140 138 93
137 133 89
135 133 89
139 138 93
138 135 90
143 141 94
140 138 92
142 138 92
137 135 91
137 135 90
138 136 91
136 134 90
147 144 96
145 142 95
146 144 97
138 135 90
151 149 99
148 145 96
141 139 93
141 139 92
146 144 96
139 137 92
143 140 93
146 144 97
145 142 94
142 140 93
138 136 90
144 142 94
142 140 93
135 133 89
140 138 92
143 140 94
147 144 96
145 142 94
141 139 92
141 139 93
141 139 93
145 143 95
146 144 96
143 140 92
143 140 93
142 140 92
141 138 91
141 138 90
139 137 90
143 140 92
142 140 93
145 142 95
138 135 89
143 140 92
142 139 91
138 135 88
142 139 91
138 135 89
139 136 89
137 134 88
142 139 92
143 140 91
138 134 87
136 133 87
142 139 91
135 131 86
131 128 84
129 126 82
135 131 86
131 128 82
138 134 89
133 130 84
137 132 86
118 114 75
155 156 138
173 183 191
194 209 227
212 230 255
212 230 255
212 230 255
212 230 255
212 230 255
212 230 255
212 230 255
212 230 255
212 230 255
212 230 255
212 230 255
199 217 241
175 191 213
156 172 193
145 161 182
154 171 193
158 176 200
158 176 200
159 177 201
161 179 204
159 178 203
165 184 210
165 184 210
167 188 214
171 191 219
170 190 218
172 193 221
172 193 221
171 193 221
170 192 220
172 194 223
175 198 228
176 199 228
175 198 228
175 198 228
175 198 228
174 198 228
174 198 228
173 197 228
173 197 228
173 197 228
173 197 228
173 197 228
172 197 228
172 196 228
172 197 228
172 196 228
172 196 228
171 196 228
171 196 228
171 196 228
170 196 228
170 196 228
171 196 228
169 195 228
169 195 228
169 195 228
169 195 228
169 195 228
169 195 228
169 195 228
168 195 228
168 195 228
168 195 228
168 195 228
168 194 228
168 195 228
168 194 228
168 194 228
167 194 228
167 194 228
167 194 228
167 194 228
167 194 228
167 194 228
168 194 228
167 194 228
167 194 228
167 194 228
167 194 228
168 194 228
168 194 228
168 194 228
168 194 228
168 194 228
168 194 228
168 195 228
169 195 228
169 195 228
169 195 228
169 194 227
168 193 226
168 193 225
163 187 219
162 186 217
162 184 214
161 184 214
156 178 206
150 170 197
149 169 194
154 173 197
176 195 219
193 212 238
208 228 255
208 228 255
208 228 255
208 228 255
207 228 255
207 228 255
207 228 255
207 228 255
207 228 255
207 228 255
207 228 255
207 228 255
207 228 255
207 228 255
207 228 255
207 228 255
207 228 255
207 228 255
207 227 255
207 227 255
207 227 255
207 227 255
206 227 255
206 227 255
206 227 255
206 227 255
206 227 255
206 227 255
206 227 255
206 227 255
206 227 255
206 227 255
206 227 255
206 227 255
206 227 255
206 227 255
206 227 255
206 227 255
206 227 255
206 227 255
206 227 255
205 227 255
205 227 255
205 227 255
205 227 255
205 227 255
205 227 255
205 227 255
205 227 255
205 227 255
205 227 255
205 227 255
205 227 255
205 226 255
205 226 255
205 226 255
205 226 255
205 226 255
205 226 255
205 226 255
205 226 255
205 226 255
204 226 255
204 226 255
204 226 255
204 226 255
204 226 255
204 226 255
204 226 255
204 226 255
204 226 255
204 226 255
204 226 255
204 226 255
204 226 255
204 226 255
204 226 255
204 226 255
204 226 255
204 226 255
204 226 255
204 226 255
204 226 255
204 226 255
204 226 255
204 226 255
204 226 255
204 226 255
204 226 255
204 226 255
204 226 255
204 226 255
204 226 255
204 226 255
204 226 255
204 226 255
204 226 255
204 226 255
204 226 255
204 226 255
204 226 255
202 223 252
159 130 146
138 68 75
143 72 79
158 126 142
200 221 250
204 226 255
204 226 255
204 226 255
204 226 255
204 226 255
204 226 255
204 226 255
204 226 255
204 226 255
204 226 255
204 226 255
204 226 255
204 226 255
204 226 255
204 226 255
204 226 255
204 226 255
204 226 255
204 226 255
204 226 255
204 226 255
204 226 255
204 226 255
204 226 255
204 226 255
204 226 255
204 226 255
204 226 255
204 226 255
204 226 255
204 226 255
204 226 255
204 226 255
204 226 255
204 226 255
204 226 255
204 226 255
204 226 255
204 226 255
205 226 255
205 226 255
205 226 255
205 226 255
205 226 255
205 226 255
205 226 255
205 226 255
205 226 255
205 227 255
205 227 255
205 227 255
205 227 255
205 227 255
205 227 255
205 227 255
205 227 255
205 227 255
205 227 255
205 227 255
205 227 255
206 227 255
206 227 255
206 227 255
206 227 255
206 227 255
206 227 255
206 227 255
206 227 255
206 227 255
206 227 255
206 227 255
206 227 255
206 227 255
206 227 255
206 227 255
206 227 255
206 227 255
206 227 255
206 227 255
207 227 255
207 227 255
207 227 255
207 227 255
207 228 255
207 228 255
207 228 255
207 228 255
207 228 255
207 228 255
207 228 255
207 228 255
207 228 255
207 228 255
207 228 255
207 228 255
207 228 255
207 228 255
208 228 255
208 228 255
208 228 255
208 228 255
193 210 228
176 187 191
152 154 131
139 136 90
132 130 87
130 128 86
129 126 84
136 134 90
135 132 88
140 137 92
138 135 90
133 131 88
141 138 92
134 133 89
140 135 91
137 136 91
146 144 97
141 138 92
140 138 93
142 139 93
143 140 94
137 134 90
141 138 92
140 135 90
143 140 94
136 134 89
137 133 89
144 141 94
146 143 96
142 139 93
143 140 94
145 142 95
140 138 93
142 138 93
145 143 96
149 146 97
139 136 91
145 142 95
147 145 97
145 142 95
140 138 92
149 147 98
143 141 94
139 137 92
147 145 97
143 139 93
144 141 94
146 143 95
147 143 95
139 137 91
142 140 93
140 137 91
152 149 98
146 143 95
143 141 93
144 141 94
146 143 95
148 145 96
139 136 89
144 141 92
138 136 89
136 134 89
143 140 93
143 141 93
145 142 94
142 139 92
145 141 93
140 137 90
144 141 92
139 136 90
144 140 90
141 137 89
134 131 87
143 140 92
141 137 89
141 138 90
145 141 92
137 134 89
133 129 85
135 131 85
138 133 86
138 134 87
138 134 87
134 131 84
127 123 79
128 124 80
132 128 82
134 129 84
130 125 81
150 151 125
166 174 175
191 206 223
211 230 255
212 230 255
212 230 255
212 230 255
212 230 255
204 222 247
174 190 212
154 169 190
148 164 185
155 171 193
164 181 204
159 176 199
157 174 198
163 182 207
165 184 209
166 185 211
165 184 209
168 188 214
171 192 219
173 194 221
168 189 216
173 195 223
176 197 226
175 197 226
176 199 228
176 199 228
176 199 228
175 198 228
175 198 228
175 198 228
174 198 228
174 198 228
174 198 228
174 198 228
174 197 228
173 197 228
173 197 228
173 197 228
172 197 228
172 197 228
171 196 228
172 196 228
171 196 228
171 196 228
171 196 228
170 196 228
171 196 228
170 195 228
170 196 228
170 195 228
170 195 228
170 195 228
169 195 228
169 195 228
169 195 228
168 195 228
169 195 228
168 194 228
168 195 228
167 194 228
167 194 228
168 194 228
167 194 228
167 194 228
167 194 228
167 194 228
166 194 228
167 194 228
167 194 228
167 194 228
167 194 228
167 194 228
167 194 228
167 194 228
166 194 228
166 194 228
167 194 228
166 194 228
166 194 228
167 194 228
167 194 228
167 194 228
166 194 228
167 194 228
167 194 228
168 194 228
168 194 228
168 195 228
169 195 228
169 195 228
168 194 228
170 195 228
168 193 226
166 190 221
165 190 221
164 187 218
164 187 217
160 183 212
154 176 203
151 171 197
160 179 204
174 192 217
196 215 242
208 228 255
208 228 255
208 228 255
208 228 255
208 228 255
207 228 255
207 228 255
207 228 255
207 228 255
207 228 255
207 228 255
207 228 255
207 228 255
207 228 255
207 228 255
207 228 255
207 228 255
207 228 255
207 228 255
207 227 255
207 227 255
207 227 255
207 227 255
206 227 255
206 227 255
206 227 255
206 227 255
206 227 255
206 227 255
206 227 255
206 227 255
206 227 255
206 227 255
206 227 255
206 227 255
206 227 255
206 227 255
206 227 255
206 227 255
206 227 255
206 227 255
206 227 255
205 227 255
205 227 255
205 227 255
205 227 255
205 227 255
205 227 255
205 227 255
205 227 255
205 227 255
205 227 255
205 227 255
205 227 255
205 227 255
205 226 255
205 226 255
205 226 255
205 226 255
205 226 255
205 226 255
205 226 255
205 226 255
205 226 255
205 226 255
204 226 255
204 226 255
204 226 255
204 226 255
204 226 255
204 226 255
204 226 255
204 226 255
204 226 255
204 226 255
204 226 255
204 226 255
204 226 255
204 226 255
204 226 255
204 226 255
204 226 255
204 226 255
204 226 255
204 226 255
204 226 255
204 226 255
204 226 255
204 226 255
204 226 255
204 226 255
204 226 255
204 226 255
204 226 255
204 226 255
204 226 255
204 226 255
204 226 255
204 226 255
203 223 253
163 138 156
163 136 153
203 224 253
204 226 255
204 226 255
204 226 255
204 226 255
204 226 255
204 226 255
204 226 255
204 226 255
204 226 255
204 226 255
204 226 255
204 226 255
204 226 255
204 226 255
204 226 255
204 226 255
204 226 255
204 226 255
204 226 255
204 226 255
204 226 255
204 226 255
204 226 255
204 226 255
204 226 255
204 226 255
204 226 255
204 226 255
204 226 255
204 226 255
204 226 255
204 226 255
204 226 255
204 226 255
205 226 255
205 226 255
205 226 255
205 226 255
205 226 255
205 226 255
205 226 255
205 226 255
205 226 255
205 226 255
205 227 255
205 227 255
205 227 255
205 227 255
205 227 255
205 227 255
205 227 255
205 227 255
205 227 255
205 227 255
205 227 255
205 227 255
205 227 255
206 227 255
206 227 255
206 227 255
206 227 255
206 227 255
206 227 255
206 227 255
206 227 255
206 227 255
206 227 255
206 227 255
206 227 255
206 227 255
206 227 255
206 227 255
206 227 255
206 227 255
206 227 255
206 227 255
207 227 255
207 227 255
207 227 255
207 227 255
207 228 255
207 228 255
207 228 255
207 228 255
207 228 255
207 228 255
207 228 255
207 228 255
207 228 255
207 228 255
207 228 255
207 228 255
207 228 255
207 228 255
208 228 255
208 228 255
208 228 255
208 228 255
208 228 255
196 214 235
168 179 186
138 139 113
130 128 86
132 130 87
136 133 89
133 131 88
128 126 85
143 140 94
138 136 91
141 138 92
132 130 87
130 128 86
137 135 91
137 135 91
138 136 91
136 134 90
134 132 89
142 139 93
146 144 96
144 143 96
134 132 89
141 139 93
139 137 92
141 138 92
146 143 95
138 136 91
145 141 95
141 137 92
140 137 92
144 140 94
147 143 96
140 137 92
141 138 92
148 145 97
142 139 93
139 136 91
147 144 97
144 140 93
149 145 97
148 146 97
145 142 95
145 142 94
145 142 94
144 141 94
147 144 96
144 141 94
141 137 91
150 147 97
145 142 94
137 134 89
145 143 95
147 144 95
146 143 95
145 142 94
147 145 96
146 143 94
140 137 91
147 145 96
147 145 96
146 143 94
150 148 97
148 144 95
147 144 96
148 144 94
147 144 96
144 141 93
141 138 90
145 141 91
139 136 90
143 139 90
144 141 92
143 139 91
139 135 87
147 144 95
142 139 91
140 136 90
146 142 93
140 136 90
144 140 90
135 131 85
133 129 84
127 125 80
137 133 86
134 131 86
135 132 86
139 135 87
132 128 82
136 133 87
132 128 82
137 133 85
129 126 81
128 124 80
127 123 78
131 125 80
137 137 115
169 179 183
203 220 240
212 230 255
161 177 199
141 156 175
147 163 183
153 169 192
162 179 203
167 185 209
166 185 210
172 191 217
167 186 212
169 189 215
171 191 218
166 186 212
173 194 221
177 198 226
172 193 221
176 198 226
177 198 227
175 197 226
177 199 228
176 199 228
176 198 228
176 198 228
175 198 228
176 198 228
175 198 228
175 198 228
174 197 228
174 198 228
174 197 228
174 197 228
173 197 228
172 197 228
172 197 228
172 197 228
171 196 228
171 196 228
171 196 228
171 196 228
171 196 228
171 196 228
171 196 228
170 195 228
170 195 228
169 195 228
169 195 228
169 195 228
169 195 228
169 195 228
168 195 228
169 195 228
168 195 228
168 194 228
168 194 228
167 194 228
167 194 228
167 194 228
167 194 228
167 194 228
167 194 228
167 194 228
166 194 228
166 194 228
166 193 228
166 193 228
166 194 228
166 193 228
166 193 228
166 193 228
165 193 228
166 193 228
165 193 228
166 193 228
166 193 228
166 193 228
166 193 228
165 193 228
166 193 228
166 193 228
166 193 228
166 193 228
166 193 228
166 193 228
166 194 228
167 194 228
167 194 228
167 194 228
168 194 228
168 194 228
168 195 228
169 195 228
169 195 228
168 194 227
166 191 223
165 190 221
163 186 216
161 184 214
161 183 212
151 171 198
157 177 204
159 178 204
180 199 223
203 223 250
208 228 255
208 228 255
208 228 255
208 228 255
208 228 255
208 228 255
207 228 255
207 228 255
207 228 255
207 228 255
207 228 255
207 228 255
207 228 255
207 228 255
207 228 255
207 228 255
207 228 255
207 228 255
207 228 255
207 228 255
207 227 255
207 227 255
207 227 255
207 227 255
207 227 255
206 227 255
206 227 255
206 227 255
206 227 255
206 227 255
206 227 255
206 227 255
206 227 255
206 227 255
206 227 255
206 227 255
206 227 255
206 227 255
206 227 255
206 227 255
206 227 255
206 227 255
206 227 255
206 227 255
206 227 255
205 227 255
205 227 255
205 227 255
205 227 255
205 227 255
205 227 255
205 227 255
205 227 255
205 227 255
205 227 255
205 227 255
205 227 255
205 227 255
205 226 255
205 226 255
205 226 255
205 226 255
205 226 255
205 226 255
205 226 255
205 226 255
205 226 255
205 226 255
205 226 255
205 226 255
204 226 255
204 226 255
204 226 255
204 226 255
204 226 255
204 226 255
204 226 255
204 226 255
204 226 255
204 226 255
204 226 255
204 226 255
204 226 255
204 226 255
204 226 255
204 226 255
204 226 255
204 226 255
204 226 255
204 226 255
204 226 255
204 226 255
204 226 255
204 226 255
204 226 255
204 226 255
204 226 255
204 225 254
202 222 251
204 226 255
204 226 255
204 226 255
204 226 255
204 226 255
204 226 255
204 226 255
204 226 255
204 226 255
204 226 255
204 226 255
204 226 255
204 226 255
204 226 255
204 226 255
204 226 255
204 226 255
204 226 255
204 226 255
204 226 255
204 226 255
204 226 255
204 226 255
204 226 255
204 226 255
204 226 255
204 226 255
205 226 255
205 226 255
205 226 255
205 226 255
205 226 255
205 226 255
205 226 255
205 226 255
205 226 255
205 226 255
205 226 255
205 226 255
205 227 255
205 227 255
205 227 255
205 227 255
205 227 255
205 227 255
205 227 255
205 227 255
205 227 255
205 227 255
205 227 255
205 227 255
205 227 255
205 227 255
206 227 255
206 227 255
206 227 255
206 227 255
206 227 255
206 227 255
206 227 255
206 227 255
206 227 255
206 227 255
206 227 255
206 227 255
206 227 255
206 227 255
206 227 255
206 227 255
206 227 255
206 227 255
206 227 255
207 227 255
207 227 255
207 227 255
207 227 255
207 227 255
207 228 255
207 228 255
207 228 255
207 228 255
207 228 255
207 228 255
207 228 255
207 228 255
207 228 255
207 228 255
207 228 255
207 228 255
207 228 255
207 228 255
208 228 255
208 228 255
208 228 255
208 228 255
208 228 255
208 228 255
206 226 253
179 192 203
150 155 143
132 129 86
130 128 86
130 129 86
139 136 91
138 135 91
131 129 86
136 133 89
131 129 87
130 125 84
138 136 91
141 139 93
136 133 90
140 136 91
134 131 88
138 135 91
133 131 88
136 133 89
139 136 92
140 136 91
145 142 95
142 139 93
147 144 97
146 143 96
144 141 94
141 138 92
145 142 95
136 133 89
145 143 96
144 141 94
146 143 96
141 138 92
141 139 93
148 146 98
143 139 93
149 145 97
147 144 96
149 146 98
146 143 96
145 142 94
150 147 98
150 146 97
150 147 98
149 146 97
145 143 96
146 143 96
146 142 95
143 140 93
144 140 94
147 145 97
146 143 96
152 149 99
150 148 98
145 143 95
145 142 94
149 147 97
143 139 91
154 152 100
154 151 100
147 143 94
147 144 95
144 141 92
150 146 96
145 143 94
143 140 92
142 139 91
152 148 98
149 145 95
149 145 95
147 145 94
144 141 94
147 143 93
145 141 93
144 141 92
142 139 90
145 142 93
145 142 93
141 137 89
140 136 89
142 138 90
149 146 97
138 135 88
141 137 88
136 133 87
143 139 89
136 132 84
141 137 89
148 144 94
140 137 89
143 138 89
143 138 89
146 142 92
139 135 88
143 137 89
136 131 85
135 130 83
131 125 80
139 134 87
130 126 81
154 158 146
157 173 194
159 175 198
157 174 197
159 177 200
166 185 209
166 185 209
168 188 214
171 191 217
173 193 220
173 193 220
176 196 223
176 198 226
176 197 226
177 199 227
177 199 228
177 199 228
176 199 228
176 199 228
176 199 228
175 198 228
175 198 228
175 198 228
175 198 228
175 198 228
175 198 228
174 198 228
174 198 228
173 197 228
173 197 228
173 197 228
173 197 228
172 197 228
172 196 228
171 196 228
172 196 228
171 196 228
171 196 228
171 196 228
170 196 228
170 196 228
169 195 228
170 195 228
169 195 228
169 195 228
169 195 228
169 195 228
169 195 228
168 194 228
168 194 228
168 194 228
168 194 228
167 194 228
167 194 228
167 194 228
167 194 228
167 194 228
167 194 228
167 194 228
166 194 228
166 194 228
166 193 228
166 193 228
166 193 228
166 193 228
166 193 228
165 193 228
165 193 228
165 193 228
165 193 228
165 193 228
165 193 228
165 193 228
165 193 228
165 193 228
165 193 228
165 193 228
165 193 228
165 193 228
165 193 228
165 193 228
165 193 228
165 193 228
165 193 228
166 193 228
166 193 228
166 193 228
166 194 228
166 194 228
166 194 228
167 194 228
168 194 228
168 194 228
168 195 228
169 194 228
169 194 227
166 191 223
164 188 219
166 190 221
161 184 214
158 180 208
150 170 196
154 173 199
174 193 218
198 217 243
208 228 255
208 228 255
208 228 255
208 228 255
208 228 255
208 228 255
208 228 255
208 228 255
207 228 255
207 228 255
207 228 255
207 228 255
207 228 255
207 228 255
207 228 255
207 228 255
207 228 255
207 228 255
207 228 255
207 228 255
207 228 255
207 228 255
207 227 255
207 227 255
207 227 255
207 227 255
207 227 255
206 227 255
206 227 255
206 227 255
206 227 255
206 227 255
206 227 255
206 227 255
206 227 255
206 227 255
206 227 255
206 227 255
206 227 255
206 227 255
206 227 255
206 227 255
206 227 255
206 227 255
206 227 255
206 227 255
206 227 255
206 227 255
205 227 255
205 227 255
205 227 255
205 227 255
205 227 255
205 227 255
205 227 255
205 227 255
205 227 255
205 227 255
205 227 255
205 227 255
205 227 255
205 227 255
205 227 255
205 226 255
205 226 255
205 226 255
205 226 255
205 226 255
205 226 255
205 226 255
205 226 255
205 226 255
205 226 255
205 226 255
205 226 255
205 226 255
205 226 255
205 226 255
205 226 255
204 226 255
204 226 255
204 226 255
204 226 255
204 226 255
204 226 255
204 226 255
204 226 255
204 226 255
204 226 255
204 226 255
204 226 255
204 226 255
204 226 255
204 226 255
204 226 255
204 226 255
204 226 255
204 226 255
204 226 255
204 226 255
204 226 255
204 226 255
204 226 255
204 226 255
204 226 255
204 226 255
204 226 255
204 226 255
204 226 255
204 226 255
204 226 255
204 226 255
204 226 255
205 226 255
205 226 255
205 226 255
205 226 255
205 226 255
205 226 255
205 226 255
205 226 255
205 226 255
205 226 255
205 226 255
205 226 255
205 226 255
205 226 255
205 226 255
205 226 255
205 227 255
205 227 255
205 227 255
205 227 255
205 227 255
205 227 255
205 227 255
205 227 255
205 227 255
205 227 255
205 227 255
205 227 255
205 227 255
205 227 255
205 227 255
206 227 255
206 227 255
206 227 255
206 227 255
206 227 255
206 227 255
206 227 255
206 227 255
206 227 255
206 227 255
206 227 255
206 227 255
206 227 255
206 227 255
206 227 255
206 227 255
206 227 255
206 227 255
206 227 255
206 227 255
206 227 255
207 227 255
207 227 255
207 227 255
207 227 255
207 227 255
207 228 255
207 228 255
207 228 255
207 228 255
207 228 255
207 228 255
207 228 255
207 228 255
207 228 255
207 228 255
207 228 255
207 228 255
207 228 255
207 228 255
208 228 255
208 228 255
208 228 255
208 228 255
208 228 255
208 228 255
208 228 255
208 228 255
194 211 232
169 179 178
139 139 108
125 123 82
130 127 85
132 129 86
139 136 91
137 135 90
130 126 84
134 131 88
131 129 86
137 134 90
137 135 91
139 137 92
136 133 90
138 136 91
142 139 93
142 139 93
135 132 88
139 136 92
138 134 90
142 140 94
143 140 94
141 137 92
148 144 96
145 141 95
142 137 92
145 141 95
139 137 92
142 138 93
137 134 90
143 141 95
144 141 94
147 143 96
149 145 97
150 146 98
150 146 98
146 142 95
145 143 96
150 146 98
147 144 97
144 141 94
146 144 96
146 143 96
150 148 99
154 151 100
150 147 97
152 149 99
150 148 98
152 149 99
146 144 96
146 143 95
154 150 100
155 152 101
146 143 95
150 147 97
145 142 94
146 144 95
144 141 93
149 146 96
150 147 97
149 146 95
141 138 91
148 145 96
146 143 94
149 146 96
149 146 96
152 150 98
151 148 98
143 140 92
141 139 91
153 149 98
145 142 93
151 148 97
146 143 94
147 143 93
146 143 95
148 144 94
140 137 90
149 144 94
136 133 86
148 143 93
146 142 93
144 140 90
148 144 95
144 141 91
149 144 94
147 142 90
142 138 89
139 135 87
142 138 90
141 137 89
144 140 89
142 138 91
135 130 85
142 138 89
144 140 92
139 135 88
136 132 85
132 127 81
135 131 85
135 132 84
130 126 80
137 131 84
160 177 200
166 184 209
166 184 208
169 188 213
172 191 217
170 190 216
172 192 219
175 196 223
176 197 225
176 197 225
176 198 226
178 200 228
178 200 228
177 199 228
178 200 228
176 199 228
177 199 228
176 199 228
175 198 228
175 198 228
175 198 228
174 198 228
174 198 228
174 198 228
174 198 228
174 197 228
173 197 228
173 197 228
173 197 228
172 197 228
172 196 228
172 197 228
171 196 228
171 196 228
171 196 228
171 196 228
171 196 228
170 196 228
170 196 228
170 196 228
170 195 228
169 195 228
169 195 228
168 195 228
168 195 228
169 195 228
168 195 228
168 194 228
168 194 228
167 194 228
168 194 228
167 194 228
167 194 228
167 194 228
167 194 228
166 194 228
166 194 228
166 193 228
166 193 228
166 193 228
166 193 228
165 193 228
165 193 228
165 193 228
165 193 228
165 193 228
165 193 228
165 193 228
165 193 228
165 193 228
165 193 228
164 193 228
164 193 228
165 193 228
164 193 228
164 193 228
164 193 228
164 192 228
164 193 228
164 192 228
164 193 228
164 193 228
164 193 228
165 193 228
165 193 228
165 193 228
166 193 228
165 193 228
166 193 228
166 193 228
167 194 228
166 194 228
168 194 228
168 194 228
168 195 228
169 195 228
169 195 228
170 196 228
168 193 225
164 188 220
163 186 217
163 185 215
152 173 200
150 169 194
166 185 210
185 204 230
207 227 254
208 228 255
208 228 255
208 228 255
208 228 255
208 228 255
208 228 255
208 228 255
208 228 255
208 228 255
207 228 255
207 228 255
207 228 255
207 228 255
207 228 255
207 228 255
207 228 255
207 228 255
207 228 255
207 228 255
207 228 255
207 228 255
207 228 255
207 228 255
207 228 255
207 227 255
207 227 255
207 227 255
207 227 255
207 227 255
206 227 255
206 227 255
206 227 255
206 227 255
206 227 255
206 227 255
206 227 255
206 227 255
206 227 255
206 227 255
206 227 255
206 227 255
206 227 255
206 227 255
206 227 255
206 227 255
206 227 255
206 227 255
206 227 255
206 227 255
206 227 255
206 227 255
205 227 255
205 227 255
205 227 255
205 227 255
205 227 255
205 227 255
205 227 255
205 227 255
205 227 255
205 227 255
205 227 255
205 227 255
205 227 255
205 227 255
205 227 255
205 227 255
205 227 255
205 227 255
205 226 255
205 226 255
205 226 255
205 226 255
205 226 255
205 226 255
205 226 255
205 226 255
205 226 255
205 226 255
205 226 255
205 226 255
205 226 255
205 226 255
205 226 255
205 226 255
205 226 255
205 226 255
205 226 255
205 226 255
205 226 255
205 226 255
205 226 255
205 226 255
205 226 255
205 226 255
205 226 255
205 226 255
205 226 255
205 226 255
205 226 255
205 226 255
205 226 255
205 226 255
205 226 255
205 226 255
205 226 255
205 226 255
205 226 255
205 226 255
205 226 255
205 226 255
205 226 255
205 226 255
205 226 255
205 226 255
205 226 255
205 226 255
205 227 255
205 227 255
205 227 255
205 227 255
205 227 255
205 227 255
205 227 255
205 227 255
205 227 255
205 227 255
205 227 255
205 227 255
205 227 255
205 227 255
205 227 255
205 227 255
205 227 255
205 227 255
206 227 255
206 227 255
206 227 255
206 227 255
206 227 255
206 227 255
206 227 255
206 227 255
206 227 255
206 227 255
206 227 255
206 227 255
206 227 255
206 227 255
206 227 255
206 227 255
206 227 255
206 227 255
206 227 255
206 227 255
206 227 255
206 227 255
207 227 255
207 227 255
207 227 255
207 227 255
207 227 255
207 228 255
207 228 255
207 228 255
207 228 255
207 228 255
207 228 255
207 228 255
207 228 255
207 228 255
207 228 255
207 228 255
207 228 255
207 228 255
207 228 255
207 228 255
208 228 255
208 228 255
208 228 255
208 228 255
208 228 255
208 228 255
208 228 255
208 228 255
208 228 255
207 227 253
188 203 216
151 157 147
139 136 91
126 123 82
125 122 81
124 121 81
133 130 87
139 136 91
138 133 89
133 130 87
138 134 90
140 136 91
137 132 88
134 132 89
142 139 93
139 137 92
134 131 88
138 133 90
134 130 87
140 137 92
146 142 95
139 136 91
138 137 92
140 137 92
150 146 98
149 146 98
145 143 96
136 133 90
143 141 94
142 139 93
145 143 96
143 140 94
146 143 96
141 137 92
151 149 100
149 146 97
146 142 95
153 150 100
146 142 95
142 139 93
144 141 94
145 141 94
149 146 98
148 146 97
151 148 99
147 144 96
151 147 98
151 148 99
147 144 96
150 147 97
148 145 96
148 144 96
150 147 98
147 144 96
149 146 97
145 142 94
154 151 100
146 142 94
144 142 94
151 147 98
145 142 94
150 146 97
152 149 99
152 149 97
149 146 97
148 145 95
153 149 98
150 147 96
151 148 97
147 144 96
143 140 92
151 147 97
148 145 96
147 143 93
149 145 94
148 144 94
152 148 96
147 143 93
148 144 93
146 143 93
141 138 91
145 141 92
148 145 94
149 145 94
142 138 90
146 143 94
143 139 90
141 138 90
138 134 88
145 140 90
140 136 87
143 138 89
143 140 91
142 138 90
148 144 93
137 133 85
143 138 90
133 129 83
138 134 86
135 131 85
139 134 87
135 130 83
140 135 87
132 128 82
135 130 84
131 127 82
162 180 204
168 187 212
173 192 218
176 196 223
175 195 223
174 194 221
177 197 224
178 199 226
179 200 228
179 200 228
178 200 228
178 200 228
178 200 228
177 199 228
177 199 228
177 199 228
177 199 228
176 199 228
176 199 228
175 198 228
174 198 228
175 198 228
174 198 228
174 197 228
174 198 228
173 197 228
173 197 228
173 197 228
173 197 228
173 197 228
172 197 228
171 196 228
171 196 228
171 196 228
171 196 228
170 196 228
171 196 228
170 195 228
170 196 228
170 196 228
169 195 228
169 195 228
169 195 228
169 195 228
168 195 228
168 195 228
168 194 228
168 194 228
168 194 228
168 194 228
167 194 228
167 194 228
167 194 228
167 194 228
166 194 228
166 193 228
166 193 228
166 193 228
166 193 228
166 193 228
166 193 228
165 193 228
165 193 228
165 193 228
165 193 228
165 193 228
165 193 228
164 193 228
164 193 228
164 192 228
164 192 228
164 193 228
164 193 228
164 192 228
164 192 228
164 192 228
164 192 228
164 192 228
164 192 228
164 192 228
164 192 228
164 192 228
164 192 228
164 192 228
164 192 228
164 192 228
164 192 228
165 193 228
165 193 228
165 193 228
165 193 228
166 193 228
166 193 228
166 193 228
166 194 228
167 194 228
168 194 228
168 194 228
169 195 228
169 195 228
169 194 226
169 194 226
165 189 220
160 183 212
158 179 207
151 171 197
158 177 201
180 199 224
205 225 252
208 228 255
208 228 255
208 228 255
208 228 255
208 228 255
208 228 255
208 228 255
208 228 255
208 228 255
208 228 255
208 228 255
208 228 255
207 228 255
207 228 255
207 228 255
207 228 255
207 228 255
207 228 255
207 228 255
207 228 255
207 228 255
207 228 255
207 228 255
207 228 255
207 228 255
207 228 255
207 228 255
207 227 255
207 227 255
207 227 255
207 227 255
207 227 255
206 227 255
206 227 255
206 227 255
206 227 255
206 227 255
206 227 255
206 227 255
206 227 255
206 227 255
206 227 255
206 227 255
206 227 255
206 227 255
206 227 255
206 227 255
206 227 255
206 227 255
206 227 255
206 227 255
206 227 255
206 227 255
206 227 255
206 227 255
206 227 255
205 227 255
205 227 255
205 227 255
205 227 255
205 227 255
205 227 255
205 227 255
205 227 255
205 227 255
205 227 255
205 227 255
205 227 255
205 227 255
205 227 255
205 227 255
205 227 255
205 227 255
205 227 255
205 227 255
205 227 255
205 227 255
205 227 255
205 227 255
205 227 255
205 227 255
205 226 255
205 226 255
205 226 255
205 226 255
205 226 255
205 226 255
205 226 255
205 226 255
205 226 255
205 226 255
205 226 255
205 226 255
205 226 255
205 226 255
205 226 255
205 226 255
205 226 255
205 226 255
205 226 255
205 226 255
205 227 255
205 227 255
205 227 255
205 227 255
205 227 255
205 227 255
205 227 255
205 227 255
205 227 255
205 227 255
205 227 255
205 227 255
205 227 255
205 227 255
205 227 255
205 227 255
205 227 255
205 227 255
205 227 255
205 227 255
205 227 255
205 227 255
205 227 255
205 227 255
205 227 255
206 227 255
206 227 255
206 227 255
206 227 255
206 227 255
206 227 255
206 227 255
206 227 255
206 227 255
206 227 255
206 227 255
206 227 255
206 227 255
206 227 255
206 227 255
206 227 255
206 227 255
206 227 255
206 227 255
206 227 255
206 227 255
206 227 255
206 227 255
206 227 255
207 227 255
207 227 255
207 227 255
207 227 255
207 227 255
207 228 255
207 228 255
207 228 255
207 228 255
207 228 255
207 228 255
207 228 255
207 228 255
207 228 255
207 228 255
207 228 255
207 228 255
207 228 255
207 228 255
207 228 255
208 228 255
208 228 255
208 228 255
208 228 255
208 228 255
208 228 255
208 228 255
208 228 255
208 228 255
208 228 255
208 228 255
208 228 255
205 225 251
182 196 206
141 143 116
130 127 85
133 131 87
123 120 81
135 131 88
129 126 85
144 141 94
137 135 90
134 132 89
137 132 89
140 138 93
137 133 89
133 130 87
139 136 92
138 133 89
141 137 92
132 127 86
145 141 95
136 133 89
143 140 94
143 140 94
145 141 95
146 142 96
147 143 96
141 137 92
153 150 100
144 141 95
141 137 92
141 137 92
144 140 94
148 146 97
148 146 98
150 146 98
140 137 92
146 142 95
143 141 94
148 144 96
149 147 99
149 145 97
156 153 102
146 142 95
156 153 102
144 141 94
147 144 97
149 147 98
149 148 99
157 155 104
149 145 97
148 145 97
147 142 94
146 144 95
142 139 93
149 147 98
151 147 98
151 147 98
151 148 98
152 150 100
153 150 100
147 144 96
150 145 96
152 148 97
153 150 99
151 148 96
152 150 99
149 145 95
145 142 94
145 142 93
150 146 96
148 145 94
150 147 94
154 151 99
151 147 97
142 139 91
149 146 96
149 145 94
146 144 95
151 148 96
145 142 94
143 140 91
143 140 92
149 145 95
153 149 98
146 142 93
146 143 93
148 144 93
143 140 90
144 141 93
144 141 93
147 143 93
142 138 90
141 138 88
147 143 93
141 138 89
141 138 90
145 141 91
142 138 89
144 140 90
137 133 84
140 136 88
135 131 84
137 134 87
139 135 87
135 131 84
135 132 85
139 134 85
139 135 86
140 136 88
176 195 220
175 194 220
174 194 220
177 197 224
177 198 225
179 200 228
179 200 228
179 200 228
178 200 228
179 200 228
178 200 228
177 199 228
177 199 228
177 199 228
177 199 228
176 199 228
176 199 228
176 199 228
176 198 228
175 198 228
175 198 228
174 198 228
174 198 228
174 198 228
174 198 228
173 197 228
173 197 228
173 197 228
172 197 228
173 197 228
172 196 228
171 196 228
171 196 228
171 196 228
171 196 228
170 196 228
170 195 228
170 195 228
170 195 228
170 195 228
169 195 228
169 195 228
168 195 228
169 195 228
168 194 228
168 195 228
168 194 228
169 195 228
168 194 228
167 194 228
167 194 228
167 194 228
166 194 228
166 194 228
166 193 228
166 194 228
166 193 228
166 193 228
166 193 228
166 193 228
165 193 228
165 193 228
165 193 228
165 193 228
164 193 228
164 193 228
164 192 228
164 193 228
164 192 228
164 192 228
164 192 228
164 192 228
164 192 228
164 192 228
164 192 228
163 192 228
163 192 228
164 192 228
163 192 228
164 192 228
164 192 228
163 192 228
164 192 228
164 192 228
164 192 228
164 192 228
164 192 228
164 192 228
164 192 228
164 193 228
164 193 228
165 193 228
165 193 228
165 193 228
165 193 228
166 193 228
166 193 228
167 194 228
167 194 228
168 194 228
169 195 228
169 195 228
169 195 227
170 195 227
165 188 219
162 185 214
160 182 211
158 179 206
157 176 201
178 197 221
206 226 253
208 228 255
208 228 255
208 228 255
208 228 255
208 228 255
208 228 255
208 228 255
208 228 255
208 228 255
208 228 255
208 228 255
208 228 255
208 228 255
208 228 255
207 228 255
207 228 255
207 228 255
207 228 255
207 228 255
207 228 255
207 228 255
207 228 255
207 228 255
207 228 255
207 228 255
207 228 255
207 228 255
207 228 255
207 228 255
207 228 255
207 227 255
207 227 255
207 227 255
207 227 255
207 227 255
206 227 255
206 227 255
206 227 255
206 227 255
206 227 255
206 227 255
206 227 255
206 227 255
206 227 255
206 227 255
206 227 255
206 227 255
206 227 255
206 227 255
206 227 255
206 227 255
206 227 255
206 227 255
206 227 255
206 227 255
206 227 255
206 227 255
206 227 255
206 227 255
206 227 255
206 227 255
206 227 255
205 227 255
205 227 255
205 227 255
205 227 255
205 227 255
205 227 255
205 227 255
205 227 255
205 227 255
205 227 255
205 227 255
205 227 255
205 227 255
205 227 255
205 227 255
205 227 255
205 227 255
205 227 255
205 227 255
205 227 255
205 227 255
205 227 255
205 227 255
205 227 255
205 227 255
202 224 253
199 221 251
199 220 250
204 225 254
205 226 255
205 227 255
205 227 255
205 227 255
205 227 255
205 227 255
205 227 255
205 227 255
205 227 255
205 227 255
205 227 255
205 227 255
205 227 255
205 227 255
205 227 255
205 227 255
205 227 255
205 227 255
205 227 255
205 227 255
205 227 255
205 227 255
205 227 255
205 227 255
205 227 255
206 227 255
206 227 255
206 227 255
206 227 255
206 227 255
206 227 255
206 227 255
206 227 255
206 227 255
206 227 255
206 227 255
206 227 255
206 227 255
206 227 255
206 227 255
206 227 255
206 227 255
206 227 255
206 227 255
206 227 255
206 227 255
206 227 255
206 227 255
206 227 255
206 227 255
206 227 255
206 227 255
207 227 255
207 227 255
207 227 255
207 227 255
207 227 255
207 228 255
207 228 255
207 228 255
207 228 255
207 228 255
207 228 255
207 228 255
207 228 255
207 228 255
207 228 255
207 228 255
207 228 255
207 228 255
207 228 255
207 228 255
207 228 255
208 228 255
208 228 255
208 228 255
208 228 255
208 228 255
208 228 255
208 228 255
208 228 255
208 228 255
208 228 255
208 228 255
208 228 255
208 228 255
208 228 255
204 223 249
174 185 189
149 150 121
123 119 80
137 134 90
138 135 90
133 130 87
135 132 89
144 140 94
128 126 85
134 131 88
132 129 86
131 127 86
137 132 88
139 134 90
143 138 93
140 136 91
140 136 92
146 141 94
147 143 96
148 146 98
140 137 92
142 139 94
146 142 95
141 136 91
144 139 93
149 144 97
143 138 93
145 142 96
144 141 94
146 143 96
146 142 95
146 142 95
145 142 95
146 141 94
148 144 97
146 142 95
149 142 95
150 145 97
142 138 92
149 145 97
150 145 97
153 149 100
151 145 96
153 151 101
157 153 102
145 141 94
150 147 98
145 143 96
146 142 95
151 147 98
155 152 101
153 150 100
153 150 99
155 152 100
150 147 98
151 148 98
150 147 97
146 143 95
153 149 99
157 152 100
151 147 97
149 146 97
157 154 102
153 150 99
150 146 96
152 148 97
152 149 97
151 147 97
154 150 99
150 147 96
152 148 98
153 150 97
146 144 94
146 142 93
149 145 95
151 147 96
146 143 93
145 142 94
153 149 97
149 145 94
152 149 96
147 144 94
144 141 91
147 143 92
149 145 95
148 144 94
140 137 89
151 147 96
150 146 95
148 144 93
140 137 89
144 140 92
143 138 89
142 138 90
144 140 91
150 147 96
139 136 87
150 146 94
137 133 86
146 141 91
140 136 87
140 136 87
141 137 87
142 138 88
143 138 88
144 140 90
143 138 90
142 138 88
137 132 85
138 134 85
175 195 222
178 198 226
178 199 227
179 199 227
179 200 228
179 200 228
179 200 228
179 200 228
178 200 228
178 200 228
177 199 228
177 199 228
177 199 228
176 199 228
176 199 228
176 199 228
176 199 228
175 198 228
175 198 228
174 198 228
175 198 228
174 198 228
174 197 228
173 197 228
174 197 228
173 197 228
173 197 228
173 197 228
172 196 228
171 196 228
172 196 228
172 196 228
171 196 228
171 196 228
171 196 228
171 196 228
170 196 228
170 196 228
169 195 228
169 195 228
170 195 228
169 195 228
169 195 228
168 195 228
169 195 228
168 194 228
168 195 228
167 194 228
167 194 228
168 194 228
167 194 228
167 194 228
167 194 228
167 194 228
166 194 228
166 193 228
166 193 228
166 193 228
166 193 228
165 193 228
165 193 228
165 193 228
165 193 228
165 193 228
165 193 228
164 193 228
164 193 228
164 193 228
164 192 228
164 192 228
164 192 228
164 192 228
164 192 228
163 192 228
164 192 228
163 192 228
163 192 228
163 192 228
163 192 228
163 192 228
163 192 228
163 192 228
163 192 228
163 192 228
163 192 228
163 192 228
163 192 228
164 192 228
163 192 228
163 192 228
164 192 228
164 192 228
164 193 228
164 193 228
165 193 228
165 193 228
165 193 228
166 193 228
166 193 228
166 194 228
167 194 228
168 194 228
168 194 228
169 195 228
171 196 228
170 195 227
169 193 225
166 189 219
161 183 212
153 173 200
155 174 198
175 193 218
207 227 254
208 228 255
208 228 255
208 228 255
208 228 255
208 228 255
208 228 255
208 228 255
208 228 255
208 228 255
208 228 255
208 228 255
208 228 255
208 228 255
208 228 255
208 228 255
208 228 255
208 228 255
207 228 255
207 228 255
207 228 255
207 228 255
207 228 255
207 228 255
207 228 255
207 228 255
207 228 255
207 228 255
207 228 255
207 228 255
207 228 255
207 228 255
207 228 255
207 228 255
207 227 255
207 227 255
207 227 255
207 227 255
207 227 255
207 227 255
206 227 255
206 227 255
206 227 255
206 227 255
206 227 255
206 227 255
206 227 255
206 227 255
206 227 255
206 227 255
206 227 255
206 227 255
206 227 255
206 227 255
206 227 255
206 227 255
206 227 255
206 227 255
206 227 255
206 227 255
206 227 255
206 227 255
206 227 255
206 227 255
206 227 255
206 227 255
206 227 255
206 227 255
206 227 255
206 227 255
206 227 255
206 227 255
206 227 255
205 227 255
205 227 255
205 227 255
205 227 255
204 225 255
190 211 241
171 191 224
149 170 210
127 147 190
115 136 184
91 114 171
75 101 161
56 82 145
57 86 153
58 87 153
58 86 151
57 86 151
61 88 152
67 95 161
92 115 168
111 131 178
125 147 195
149 170 207
161 181 218
185 205 236
204 225 254
205 227 255
205 227 255
205 227 255
205 227 255
206 227 255
206 227 255
206 227 255
206 227 255
206 227 255
206 227 255
206 227 255
206 227 255
206 227 255
206 227 255
206 227 255
206 227 255
206 227 255
206 227 255
206 227 255
206 227 255
206 227 255
206 227 255
206 227 255
206 227 255
206 227 255
206 227 255
206 227 255
206 227 255
206 227 255
206 227 255
206 227 255
206 227 255
206 227 255
206 227 255
206 227 255
206 227 255
206 227 255
207 227 255
207 227 255
207 227 255
207 227 255
207 227 255
207 227 255
207 228 255
207 228 255
207 228 255
207 228 255
207 228 255
207 228 255
207 228 255
207 228 255
207 228 255
207 228 255
207 228 255
207 228 255
207 228 255
207 228 255
207 228 255
207 228 255
208 228 255
208 228 255
208 228 255
208 228 255
208 228 255
208 228 255
208 228 255
208 228 255
208 228 255
208 228 255
208 228 255
208 228 255
208 228 255
208 228 255
208 228 255
208 228 255
208 228 255
206 226 251
180 193 203
133 133 103
128 125 84
136 132 88
136 132 89
132 128 86
135 131 88
138 133 90
133 130 87
134 129 87
135 132 88
136 131 88
136 133 90
135 131 88
130 125 84
142 136 92
139 136 91
143 140 94
145 142 95
139 136 92
144 138 93
139 135 90
148 144 96
144 138 93
141 138 93
147 144 97
145 141 95
141 137 92
148 145 97
152 148 99
150 144 96
148 143 96
147 144 96
147 142 95
145 142 95
140 136 91
151 148 99
150 146 97
146 141 94
149 144 96
150 147 98
154 151 101
152 149 99
149 145 97
149 145 97
153 149 99
152 148 99
155 153 102
151 147 98
149 145 96
152 148 99
148 145 97
146 142 94
149 145 96
152 149 98
159 155 103
151 148 98
151 147 97
151 147 97
151 147 98
153 149 99
158 154 102
151 148 98
149 145 96
152 149 98
156 153 101
155 151 100
152 148 97
154 150 98
152 149 97
155 151 99
149 145 95
154 151 99
152 148 96
152 148 97
148 145 95
155 151 100
153 150 98
150 147 96
156 153 101
149 146 95
149 145 95
150 147 96
151 148 97
140 137 91
149 145 93
150 146 96
148 144 95
153 149 97
148 145 94
149 145 93
149 145 93
151 147 94
143 140 92
151 147 96
145 141 92
148 144 91
142 138 88
148 143 92
147 143 92
142 137 89
144 140 90
148 144 93
138 133 87
140 135 87
138 134 88
140 135 86
148 143 93
145 142 89
144 140 90
139 134 86
139 134 85
179 199 226
180 201 228
180 201 228
179 200 228
180 201 228
179 200 228
178 200 228
178 200 228
178 200 228
178 200 228
178 200 228
177 199 228
176 199 228
176 199 228
176 199 228
176 199 228
176 199 228
175 198 228
174 198 228
175 198 228
174 198 228
174 198 228
174 197 228
174 198 228
173 197 228
173 197 228
173 197 228
173 197 228
172 197 228
172 197 228
171 196 228
171 196 228
171 196 228
171 196 228
170 196 228
171 196 228
171 196 228
170 196 228
170 195 228
170 195 228
170 195 228
169 195 228
169 195 228
169 195 228
168 195 228
169 195 228
168 194 228
167 194 228
168 194 228
167 194 228
168 194 228
167 194 228
167 194 228
167 194 228
166 194 228
166 194 228
166 194 228
166 193 228
165 193 228
165 193 228
165 193 228
165 193 228
165 193 228
165 193 228
165 193 228
164 193 228
164 192 228
164 192 228
164 192 228
164 192 228
164 192 228
164 192 228
163 192 228
163 192 228
163 192 228
163 192 228
163 192 228
163 192 228
163 192 228
163 192 228
163 192 228
163 192 228
163 192 228
163 192 228
163 192 228
163 192 228
163 192 228
163 192 228
163 192 228
163 192 228
163 192 228
163 192 228
164 192 228
164 192 228
164 192 228
164 193 228
164 193 228
165 193 228
165 193 228
166 193 228
166 193 228
166 194 228
167 194 228
167 194 228
168 194 228
169 195 228
170 195 228
169 194 226
169 193 225
165 188 218
160 182 210
156 177 204
153 172 196
183 201 226
208 228 255
208 228 255
208 228 255
208 228 255
208 228 255
208 228 255
208 228 255
208 228 255
208 228 255
208 228 255
208 228 255
208 228 255
208 228 255
208 228 255
208 228 255
208 228 255
208 228 255
208 228 255
208 228 255
208 228 255
208 228 255
207 228 255
207 228 255
207 228 255
207 228 255
207 228 255
207 228 255
207 228 255
207 228 255
207 228 255
207 228 255
207 228 255
207 228 255
207 228 255
207 228 255
207 228 255
207 228 255
207 228 255
207 227 255
207 227 255
207 227 255
207 227 255
207 227 255
207 227 255
206 227 255
206 227 255
206 227 255
206 227 255
206 227 255
206 227 255
206 227 255
206 227 255
206 227 255
206 227 255
206 227 255
206 227 255
206 227 255
206 227 255
206 227 255
206 227 255
206 227 255
206 227 255
206 227 255
206 227 255
206 227 255
206 227 255
206 227 255
206 227 255
206 227 255
206 227 255
206 227 255
202 223 252
177 198 233
151 171 208
119 141 189
70 96 159
59 90 155
59 89 157
59 90 158
58 88 153
59 89 155
59 89 157
58 88 154
58 86 150
58 89 153
58 87 151
57 86 150
59 90 157
59 88 151
57 86 148
58 88 151
58 87 151
59 90 159
60 92 162
59 89 156
59 89 157
70 96 157
116 137 183
148 168 207
179 200 233
204 225 254
206 227 255
206 227 255
206 227 255
206 227 255
206 227 255
206 227 255
206 227 255
206 227 255
206 227 255
206 227 255
206 227 255
206 227 255
206 227 255
206 227 255
206 227 255
206 227 255
206 227 255
206 227 255
206 227 255
206 227 255
206 227 255
206 227 255
206 227 255
206 227 255
206 227 255
206 227 255
206 227 255
207 227 255
207 227 255
207 227 255
207 227 255
207 227 255
207 227 255
207 228 255
207 228 255
207 228 255
207 228 255
207 228 255
207 228 255
207 228 255
207 228 255
207 228 255
207 228 255
207 228 255
207 228 255
207 228 255
207 228 255
207 228 255
207 228 255
207 228 255
208 228 255
208 228 255
208 228 255
208 228 255
208 228 255
208 228 255
208 228 255
208 228 255
208 228 255
208 228 255
208 228 255
208 228 255
208 228 255
208 228 255
208 228 255
208 228 255
208 228 255
208 228 255
208 228 255
208 228 255
208 227 254
181 194 205
140 140 114
128 124 82
130 126 84
132 129 86
127 123 83
132 127 86
135 129 87
133 127 85
138 134 90
137 132 88
135 130 87
138 132 89
145 141 95
139 134 90
143 135 91
139 134 90
141 137 92
142 138 92
143 138 93
141 136 92
135 130 87
145 141 95
140 136 91
149 145 97
149 145 97
139 134 90
147 142 95
144 140 94
147 143 96
145 142 96
154 151 101
147 144 96
148 143 96
147 143 96
147 144 97
151 145 97
153 149 100
149 143 95
147 143 96
154 149 100
150 146 98
154 150 100
148 144 96
151 147 99
152 149 99
147 142 95
149 144 96
155 150 100
147 144 96
157 153 102
154 149 99
151 148 99
153 149 99
146 143 95
160 154 103
155 151 100
156 152 100
154 151 100
151 147 98
153 150 99
154 152 99
154 150 99
153 150 99
153 150 100
152 148 97
152 148 98
152 147 97
152 148 98
155 151 100
153 150 99
150 145 94
154 150 98
153 150 98
156 152 100
149 146 97
154 150 98
155 151 99
151 147 95
153 149 97
152 149 97
151 148 95
152 147 97
151 148 97
154 150 98
150 147 95
154 149 96
149 145 94
151 147 96
156 152 99
147 143 93
146 142 93
152 149 97
152 148 94
145 141 92
153 149 96
147 143 92
147 144 93
149 144 94
148 144 92
142 139 88
150 145 94
148 143 90
148 143 90
146 142 92
151 147 93
143 139 89
147 142 92
149 145 93
145 141 90
134 130 84
139 135 87
142 138 87
141 137 88
180 201 228
180 201 228
180 201 228
180 201 228
179 200 228
179 200 228
179 200 228
178 200 228
178 200 228
177 199 228
177 199 228
177 199 228
176 199 228
176 199 228
176 199 228
176 199 228
176 198 228
175 198 228
175 198 228
175 198 228
175 198 228
174 198 228
174 197 228
173 197 228
174 197 228
173 197 228
172 197 228
173 197 228
172 197 228
172 197 228
172 197 228
171 196 228
171 196 228
171 196 228
171 196 228
170 196 228
170 196 228
170 196 228
169 195 228
170 195 228
169 195 228
169 195 228
168 195 228
169 195 228
169 195 228
168 195 228
168 194 228
168 195 228
168 194 228
167 194 228
168 194 228
167 194 228
167 194 228
167 194 228
167 194 228
166 194 228
166 194 228
166 193 228
166 193 228
166 193 228
165 193 228
165 193 228
165 193 228
165 193 228
164 193 228
165 193 228
164 192 228
164 192 228
164 192 228
164 192 228
164 192 228
164 192 228
164 192 228
163 192 228
163 192 228
163 192 228
163 192 228
163 192 228
163 192 228
163 192 228
163 192 228
163 192 228
163 192 228
163 192 228
163 192 228
163 192 228
163 192 228
163 192 228
163 192 228
163 192 228
163 192 228
163 192 228
163 192 228
163 192 228
164 192 228
164 192 228
164 192 228
164 193 228
164 193 228
165 193 228
165 193 228
166 193 228
166 193 228
167 194 228
167 194 228
167 194 228
168 195 228
169 195 228
170 195 228
170 194 226
168 192 223
162 185 214
160 182 211
159 180 207
154 172 196
194 213 239
209 229 255
209 229 255
209 228 255
208 228 255
208 228 255
208 228 255
208 228 255
208 228 255
208 228 255
208 228 255
208 228 255
208 228 255
208 228 255
208 228 255
208 228 255
208 228 255
208 228 255
208 228 255
208 228 255
208 228 255
208 228 255
208 228 255
208 228 255
208 228 255
208 228 255
207 228 255
207 228 255
207 228 255
207 228 255
207 228 255
207 228 255
207 228 255
207 228 255
207 228 255
207 228 255
207 228 255
207 228 255
207 228 255
207 228 255
207 228 255
207 228 255
207 228 255
207 228 255
207 227 255
207 227 255
207 227 255
207 227 255
207 227 255
207 227 255
207 227 255
206 227 255
206 227 255
206 227 255
206 227 255
206 227 255
206 227 255
206 227 255
206 227 255
206 227 255
206 227 255
206 227 255
206 227 255
206 227 255
206 227 255
206 227 255
206 227 255
200 221 250
171 192 228
117 140 188
71 99 167
58 86 149
60 91 157
58 88 154
58 87 151
59 89 157
60 92 159
60 91 158
59 90 156
57 87 148
59 90 156
59 88 154
60 91 158
59 90 157
59 89 153
60 91 161
60 90 158
59 90 157
60 90 158
60 90 158
59 89 155
58 88 153
57 88 153
60 92 161
60 91 161
61 93 164
60 92 160
60 91 159
58 87 153
72 101 166
127 149 196
169 190 226
203 224 253
206 227 255
206 227 255
206 227 255
206 227 255
206 227 255
206 227 255
206 227 255
206 227 255
206 227 255
206 227 255
206 227 255
206 227 255
206 227 255
206 227 255
206 227 255
206 227 255
207 227 255
207 227 255
207 227 255
207 227 255
207 227 255
207 227 255
207 227 255
207 228 255
207 228 255
207 228 255
207 228 255
207 228 255
207 228 255
207 228 255
207 228 255
207 228 255
207 228 255
207 228 255
207 228 255
207 228 255
207 228 255
207 228 255
207 228 255
207 228 255
207 228 255
207 228 255
208 228 255
208 228 255
208 228 255
208 228 255
208 228 255
208 228 255
208 228 255
208 228 255
208 228 255
208 228 255
208 228 255
208 228 255
208 228 255
208 228 255
208 228 255
208 228 255
208 228 255
208 228 255
208 228 255
208 228 255
209 228 255
209 228 255
209 229 255
209 229 255
186 200 214
145 148 126
132 129 86
129 126 84
131 128 86
136 132 89
136 133 89
141 137 92
134 130 87
137 133 89
138 134 90
139 135 90
139 133 89
145 140 93
139 135 91
139 135 91
140 132 89
147 144 96
141 135 91
149 143 95
144 141 95
141 136 91
138 135 91
147 144 97
146 140 94
147 141 95
145 139 93
145 141 95
143 139 93
148 143 96
150 146 97
142 138 93
153 149 100
150 146 99
150 146 98
150 144 96
148 144 96
151 146 98
151 148 99
148 144 96
148 142 95
155 151 101
152 147 98
152 145 96
152 147 98
158 151 101
154 149 99
150 146 98
153 148 99
160 156 104
149 144 96
157 152 101
154 150 100
152 147 97
151 147 98
150 146 97
155 150 99
155 152 100
154 151 100
155 151 99
154 151 100
159 155 103
156 151 100
154 150 98
153 151 100
154 151 100
157 155 103
152 148 98
152 148 97
156 152 100
157 154 103
152 147 96
153 149 98
149 145 95
152 148 97
154 151 99
149 146 96
156 152 100
156 152 100
155 151 98
150 146 96
153 150 96
154 150 97
152 149 96
156 153 100
155 150 98
145 141 91
154 150 98
147 143 93
155 151 97
151 147 96
152 148 97
147 143 92
148 144 93
150 146 95
146 142 91
150 146 94
151 147 95
148 144 92
149 145 94
149 145 94
145 141 90
149 145 94
144 139 88
144 140 89
146 142 92
148 144 92
149 144 93
150 146 94
141 136 86
141 136 86
145 140 88
142 138 87
136 133 84
140 136 87
142 138 87
180 201 228
180 201 228
180 201 228
180 201 228
179 200 228
178 200 228
178 200 228
178 200 228
178 199 228
177 199 228
177 199 228
177 199 228
177 199 228
176 199 228
176 199 228
176 199 228
176 198 228
175 198 228
175 198 228
174 198 228
174 198 228
174 197 228
174 198 228
173 197 228
173 197 228
173 197 228
173 197 228
172 197 228
172 197 228
172 197 228
172 196 228
172 196 228
171 196 228
171 196 228
171 196 228
171 196 228
171 196 228
170 196 228
170 195 228
169 195 228
169 195 228
169 195 228
168 195 228
169 195 228
169 195 228
168 194 228
168 194 228
168 194 228
168 194 228
168 194 228
167 194 228
167 194 228
167 194 228
167 194 228
166 194 228
166 193 228
166 193 228
166 194 228
166 193 228
166 193 228
165 193 228
165 193 228
165 193 228
165 193 228
165 193 228
165 193 228
164 193 228
164 193 228
164 192 228
164 192 228
164 192 228
164 192 228
163 192 228
164 192 228
163 192 228
163 192 228
163 192 228
163 192 228
163 192 228
163 192 228
163 192 228
163 192 228
163 192 228
163 192 228
163 192 228
163 192 228
163 192 228
163 192 228
163 192 228
163 192 228
163 192 228
163 192 228
163 192 228
163 192 228
163 192 228
163 192 228
163 192 228
164 192 228
164 192 228
164 193 228
165 193 228
165 193 228
165 193 228
166 193 228
166 193 228
166 194 228
167 194 228
168 194 228
168 195 228
170 195 228
170 196 228
170 195 227
169 193 224
165 188 217
161 183 211
152 172 197
166 184 208
200 219 245
209 229 255
209 229 255
209 229 255
209 229 255
209 229 255
209 228 255
208 228 255
208 228 255
208 228 255
208 228 255
208 228 255
208 228 255
208 228 255
208 228 255
208 228 255
208 228 255
208 228 255
208 228 255
208 228 255
208 228 255
208 228 255
208 228 255
208 228 255
208 228 255
208 228 255
208 228 255
208 228 255
208 228 255
208 228 255
207 228 255
207 228 255
207 228 255
207 228 255
207 228 255
207 228 255
207 228 255
207 228 255
207 228 255
207 228 255
207 228 255
207 228 255
207 228 255
207 228 255
207 228 255
207 228 255
207 228 255
207 228 255
207 228 255
207 228 255
207 227 255
207 227 255
207 227 255
207 227 255
207 227 255
207 227 255
207 227 255
207 227 255
206 227 255
206 227 255
206 227 255
206 227 255
206 227 255
181 201 234
127 149 195
76 102 162
58 88 155
59 91 161
60 93 163
58 90 155
60 90 158
60 92 160
59 89 154
59 90 157
60 91 158
59 91 159
59 91 157
59 91 156
60 92 159
58 89 152
60 92 160
60 92 161
60 92 156
58 88 150
59 90 155
59 90 156
60 91 155
60 93 161
59 91 155
60 92 161
59 90 158
60 92 161
59 88 154
60 91 157
59 90 158
59 90 155
60 93 164
59 91 157
60 91 159
59 89 158
71 97 159
132 154 200
179 200 233
206 227 255
206 227 255
206 227 255
206 227 255
206 227 255
207 227 255
207 227 255
207 227 255
207 227 255
207 227 255
207 227 255
207 227 255
207 227 255
207 227 255
207 228 255
207 228 255
207 228 255
207 228 255
207 228 255
207 228 255
207 228 255
207 228 255
207 228 255
207 228 255
207 228 255
207 228 255
207 228 255
207 228 255
207 228 255
207 228 255
207 228 255
207 228 255
207 228 255
207 228 255
208 228 255
208 228 255
208 228 255
208 228 255
208 228 255
208 228 255
208 228 255
208 228 255
208 228 255
208 228 255
208 228 255
208 228 255
208 228 255
208 228 255
208 228 255
208 228 255
208 228 255
208 228 255
208 228 255
208 228 255
208 228 255
208 228 255
209 228 255
209 229 255
209 229 255
209 229 255
209 229 255
209 229 255
197 214 235
160 167 163
130 126 84
124 120 80
133 128 86
134 130 87
128 123 82
135 131 88
137 133 90
138 133 89
130 123 83
135 128 86
138 134 90
132 128 86
139 135 91
143 139 93
141 136 91
141 136 91
143 138 93
146 140 94
142 136 91
145 139 93
144 139 94
144 140 94
145 140 94
146 143 96
148 145 97
145 141 94
145 140 94
149 145 97
151 145 97
151 146 97
154 150 100
148 143 96
147 140 94
148 145 97
151 145 97
151 148 99
150 143 95
151 146 98
148 144 96
154 149 100
153 149 99
149 144 96
154 150 100
156 151 101
154 148 99
152 148 99
153 149 99
155 151 100
150 146 97
155 150 100
150 147 98
154 151 101
151 148 98
152 147 97
157 153 101
156 151 100
156 152 101
153 149 98
153 149 98
160 155 102
156 151 100
163 159 105
154 149 98
158 154 102
153 149 97
154 150 100
152 148 98
162 157 103
156 153 102
157 153 100
157 153 101
155 151 98
156 152 100
154 151 99
155 150 98
152 148 95
156 152 99
154 149 98
155 151 98
156 152 99
154 150 97
157 152 99
150 146 94
144 141 92
155 151 98
159 155 101
149 145 94
148 144 94
155 152 97
147 143 91
151 147 96
150 146 94
153 149 97
147 142 91
151 147 95
150 146 94
146 143 91
147 143 93
150 146 94
141 137 88
155 150 96
151 147 95
148 144 93
148 143 92
144 139 89
147 143 91
139 135 87
144 140 90
148 144 90
151 147 95
139 134 86
144 140 88
138 134 85
146 141 90
143 139 90
140 136 86
181 201 228
180 201 228
179 200 228
180 201 228
179 200 228
179 200 228
178 200 228
178 200 228
178 200 228
177 199 228
177 199 228
176 199 228
177 199 228
176 199 228
175 198 228
176 199 228
175 198 228
175 198 228
175 198 228
175 198 228
174 197 228
174 198 228
174 198 228
173 197 228
173 197 228
173 197 228
173 197 228
173 197 228
172 197 228
172 197 228
172 196 228
172 196 228
171 196 228
171 196 228
170 196 228
171 196 228
170 196 228
170 196 228
170 195 228
170 195 228
169 195 228
169 195 228
170 195 228
169 195 228
169 195 228
168 195 228
168 195 228
168 195 228
168 194 228
168 195 228
168 194 228
167 194 228
167 194 228
167 194 228
167 194 228
167 194 228
166 194 228
166 193 228
166 193 228
166 193 228
166 193 228
166 193 228
165 193 228
165 193 228
165 193 228
165 193 228
165 193 228
164 192 228
164 193 228
164 192 228
164 192 228
164 192 228
164 192 228
164 192 228
163 192 228
163 192 228
163 192 228
163 192 228
163 192 228
163 192 228
163 192 228
163 192 228
163 192 228
163 192 228
163 192 228
163 192 228
163 192 228
163 192 228
163 192 228
163 192 228
163 192 228
163 192 228
163 192 228
163 192 228
163 192 228
163 192 228
163 192 228
163 191 227
163 192 228
163 191 227
163 191 227
164 192 228
165 192 227
165 192 227
165 193 228
166 193 228
166 194 228
167 194 228
167 194 228
167 194 228
169 195 228
170 195 228
171 196 228
171 195 227
166 190 220
161 184 212
161 182 209
152 171 195
179 197 221
208 227 254
209 229 255
209 229 255
209 229 255
209 229 255
209 229 255
209 229 255
209 229 255
209 229 255
209 228 255
209 228 255
208 228 255
208 228 255
208 228 255
208 228 255
208 228 255
208 228 255
208 228 255
208 228 255
208 228 255
208 228 255
208 228 255
208 228 255
208 228 255
208 228 255
208 228 255
208 228 255
208 228 255
208 228 255
208 228 255
208 228 255
208 228 255
208 228 255
208 228 255
207 228 255
207 228 255
207 228 255
207 228 255
207 228 255
207 228 255
207 228 255
207 228 255
207 228 255
207 228 255
207 228 255
207 228 255
207 228 255
207 228 255
207 228 255
207 228 255
207 228 255
207 228 255
207 228 255
207 228 255
207 228 255
207 228 255
207 228 255
207 228 255
205 226 254
162 182 220
100 122 175
59 90 158
58 87 152
59 90 158
60 91 160
58 89 155
59 91 159
60 93 161
58 88 152
59 91 155
60 91 157
60 92 159
59 92 155
59 90 158
59 91 158
61 93 162
60 92 156
60 92 157
60 93 160
59 89 156
60 93 158
60 92 157
60 92 160
59 92 158
59 90 155
60 92 159
60 92 158
60 91 158
59 88 153
61 92 159
59 88 153
59 90 159
60 92 161
60 91 157
59 90 151
59 91 157
59 88 153
59 89 157
59 91 156
59 90 157
58 87 153
110 132 181
165 186 222
205 226 255
207 228 255
207 228 255
207 228 255
207 228 255
207 228 255
207 228 255
207 228 255
207 228 255
207 228 255
207 228 255
207 228 255
207 228 255
207 228 255
207 228 255
207 228 255
207 228 255
207 228 255
207 228 255
207 228 255
207 228 255
207 228 255
207 228 255
207 228 255
207 228 255
208 228 255
208 228 255
208 228 255
208 228 255
208 228 255
208 228 255
208 228 255
208 228 255
208 228 255
208 228 255
208 228 255
208 228 255
208 228 255
208 228 255
208 228 255
208 228 255
208 228 255
208 228 255
208 228 255
208 228 255
208 228 255
208 228 255
208 228 255
209 228 255
209 228 255
209 229 255
209 229 255
209 229 255
209 229 255
209 229 255
209 229 255
209 229 255
209 229 255
208 227 254
181 195 207
134 133 97
135 132 88
129 126 84
136 131 88
135 131 88
135 131 87
142 138 93
130 126 84
136 132 89
143 138 93
135 129 87
142 138 92
136 132 89
140 135 91
138 134 90
138 132 89
140 132 89
141 136 92
144 139 93
149 144 97
145 139 93
142 138 92
147 140 94
144 139 93
145 138 93
147 143 96
146 142 95
152 146 98
154 147 99
145 140 94
147 141 94
148 143 95
150 145 97
152 147 98
146 141 95
155 150 100
151 145 97
146 140 94
154 148 99
157 153 102
153 149 99
155 151 101
156 151 100
156 151 101
155 150 100
151 147 99
151 146 98
152 148 98
156 152 101
152 149 99
154 151 101
152 148 98
157 153 101
160 156 104
157 150 99
160 154 102
153 148 99
156 151 100
156 152 101
152 149 99
161 157 104
155 151 100
158 154 100
160 156 102
151 146 96
154 151 100
155 150 99
158 154 102
154 148 97
157 154 101
153 148 98
156 153 100
155 151 100
155 151 97
155 151 98
161 157 103
156 152 100
156 152 100
156 152 98
152 149 97
160 156 102
158 153 96
154 150 96
159 154 100
157 153 100
158 153 99
157 154 101
150 147 95
157 153 99
156 152 99
151 147 96
154 150 97
150 146 93
147 142 91
156 152 99
147 143 92
146 143 92
154 149 94
153 150 98
155 150 97
152 147 94
150 146 93
153 149 97
144 139 87
152 147 94
149 144 91
145 141 90
149 145 94
147 143 91
152 146 93
145 141 88
151 146 92
148 144 93
146 142 90
149 144 93
151 144 89
146 141 90
141 136 86
180 201 228
180 201 228
180 201 228
179 201 228
179 200 228
179 200 228
178 200 228
178 200 228
178 200 228
177 199 228
177 199 228
177 199 228
177 199 228
177 199 228
176 199 228
175 198 228
176 198 228
175 198 228
175 198 228
175 198 228
174 197 228
174 198 228
174 198 228
174 198 228
173 197 228
173 197 228
173 197 228
173 197 228
172 197 228
173 197 228
172 197 228
172 196 228
171 196 228
171 196 228
171 196 228
171 196 228
171 196 228
170 196 228
170 196 228
170 196 228
170 195 228
169 195 228
169 195 228
169 195 228
169 195 228
168 195 228
168 195 228
169 195 228
168 194 228
168 195 228
168 194 228
168 194 228
167 194 228
168 194 228
167 194 228
167 194 228
167 194 228
166 194 228
166 193 228
166 194 228
166 193 228
166 193 228
165 193 228
165 193 228
165 193 228
165 193 228
164 193 228
164 193 228
164 193 228
164 193 228
164 193 228
164 192 228
164 192 228
164 192 228
164 192 228
163 192 228
164 192 228
163 192 228
163 192 228
163 192 228
163 192 228
163 192 228
163 192 228
163 192 228
163 192 228
163 192 228
163 192 228
163 192 228
163 192 228
163 192 228
163 192 228
163 192 228
163 192 228
163 192 228
163 192 228
163 191 228
162 190 227
163 191 227
163 190 226
162 190 226
163 190 225
162 188 223
164 191 227
163 189 224
164 191 226
164 191 227
165 192 227
166 193 228
167 194 228
167 194 228
168 195 228
169 195 228
170 196 228
170 195 228
171 196 228
172 196 228
168 191 221
162 184 212
160 181 207
163 181 206
194 213 238
209 229 255
209 229 255
209 229 255
209 229 255
209 229 255
209 229 255
209 229 255
209 229 255
209 229 255
209 229 255
209 229 255
209 229 255
209 228 255
209 228 255
208 228 255
208 228 255
208 228 255
208 228 255
208 228 255
208 228 255
208 228 255
208 228 255
208 228 255
208 228 255
208 228 255
208 228 255
208 228 255
208 228 255
208 228 255
208 228 255
208 228 255
208 228 255
208 228 255
208 228 255
208 228 255
208 228 255
208 228 255
208 228 255
208 228 255
207 228 255
207 228 255
207 228 255
207 228 255
207 228 255
207 228 255
207 228 255
207 228 255
207 228 255
207 228 255
207 228 255
207 228 255
207 228 255
207 228 255
207 228 255
205 226 254
164 185 221
92 115 169
60 91 159
60 92 163
59 91 159
58 89 154
59 92 157
59 91 157
59 91 157
59 90 156
61 94 161
58 90 154
60 91 157
61 94 164
60 92 159
60 92 157
60 93 158
60 93 158
60 92 159
60 92 156
60 92 156
60 91 152
59 91 158
60 94 161
61 94 160
60 92 160
61 93 160
60 93 158
60 93 157
60 93 157
61 93 163
59 90 152
60 92 157
60 91 155
60 91 157
60 91 154
61 93 163
61 92 155
60 92 157
61 93 161
59 91 156
60 92 158
59 90 158
59 91 156
60 92 161
58 87 153
90 115 169
171 192 226
204 225 253
207 228 255
207 228 255
207 228 255
207 228 255
207 228 255
207 228 255
207 228 255
207 228 255
207 228 255
207 228 255
207 228 255
207 228 255
207 228 255
207 228 255
207 228 255
208 228 255
208 228 255
208 228 255
208 228 255
208 228 255
208 228 255
208 228 255
208 228 255
208 228 255
208 228 255
208 228 255
208 228 255
208 228 255
208 228 255
208 228 255
208 228 255
208 228 255
208 228 255
208 228 255
208 228 255
208 228 255
208 228 255
208 228 255
208 228 255
208 228 255
209 228 255
209 229 255
209 229 255
209 229 255
209 229 255
209 229 255
209 229 255
209 229 255
209 229 255
209 229 255
209 229 255
209 229 255
209 229 255
209 229 255
199 216 236
143 145 124
137 133 88
130 126 84
134 129 86
129 124 83
133 126 85
137 131 88
133 127 85
136 131 87
129 123 83
137 131 88
135 130 87
136 131 88
138 132 89
138 132 89
143 135 91
144 137 92
139 133 90
144 139 93
140 134 90
143 138 92
144 140 94
144 139 94
147 145 97
146 139 93
143 137 92
150 145 97
152 149 100
148 143 96
146 139 93
146 141 94
150 145 97
144 138 92
149 144 96
151 147 98
154 149 100
153 147 98
152 147 98
149 143 96
152 147 98
152 146 97
154 148 98
152 148 99
152 146 97
155 150 100
154 151 101
151 146 97
154 148 99
148 142 94
157 150 99
159 153 102
155 153 102
156 151 101
155 150 99
153 147 97
157 152 101
155 150 100
154 149 99
154 149 99
157 153 101
160 156 103
153 149 98
156 152 100
158 155 103
155 150 99
159 154 102
160 156 102
157 152 99
149 146 96
157 154 99
153 148 97
159 155 101
156 152 100
155 152 100
154 150 99
158 154 100
158 155 101
155 151 99
158 155 101
159 154 98
154 150 95
161 156 101
155 151 100
158 154 100
153 148 98
154 151 97
160 156 101
152 148 95
156 152 99
155 151 98
154 151 98
148 144 93
150 147 94
155 151 97
152 148 96
154 150 97
152 148 95
150 145 94
146 141 91
153 149 95
150 146 95
153 148 96
143 140 91
151 147 95
155 149 95
149 145 91
153 148 95
149 144 93
148 143 90
144 139 89
148 143 93
156 151 97
150 144 91
149 144 90
151 147 93
153 147 93
149 145 92
145 141 89
139 135 85
142 138 86
180 201 228
179 201 228
179 200 228
179 200 228
179 201 228
179 200 228
178 200 228
178 200 228
177 199 228
177 199 228
177 199 228
178 200 228
177 199 228
176 199 228
176 199 228
176 198 228
176 199 228
176 199 228
175 198 228
175 198 228
175 198 228
174 198 228
174 198 228
173 197 228
173 197 228
174 198 228
173 197 228
173 197 228
172 197 228
172 197 228
172 197 228
172 197 228
172 196 228
172 196 228
172 196 228
172 196 228
171 196 228
171 196 228
171 196 228
170 195 228
170 196 228
169 195 228
170 195 228
169 195 228
169 195 228
169 195 228
169 195 228
169 195 228
168 195 228
168 194 228
168 194 228
168 194 228
168 194 228
168 194 228
168 194 228
167 194 228
167 194 228
166 193 228
167 194 228
166 193 228
166 193 228
166 193 228
166 193 228
166 193 228
165 193 228
165 193 228
165 193 228
165 193 228
165 193 228
165 193 228
164 193 228
164 192 228
164 193 228
164 192 228
164 192 228
164 192 228
164 192 228
163 192 228
163 192 228
163 192 228
163 192 228
163 192 228
163 192 228
163 192 228
163 192 228
163 192 228
163 192 228
163 192 228
163 192 228
163 192 228
163 192 228
163 192 228
163 192 228
163 192 228
163 192 228
162 190 227
161 187 223
159 185 220
160 185 221
159 184 219
160 184 219
159 184 218
162 188 223
161 185 220
158 179 212
162 187 222
163 189 224
162 187 221
165 190 224
166 193 227
167 194 228
168 194 228
168 194 228
169 195 228
170 195 228
171 196 228
172 196 228
171 195 226
166 188 217
161 182 209
153 171 196
181 199 224
209 228 255
209 229 255
209 229 255
209 229 255
209 229 255
209 229 255
209 229 255
209 229 255
209 229 255
209 229 255
209 229 255
209 229 255
209 229 255
209 229 255
209 229 255
209 229 255
209 229 255
209 228 255
209 228 255
208 228 255
208 228 255
208 228 255
208 228 255
208 228 255
208 228 255
208 228 255
208 228 255
208 228 255
208 228 255
208 228 255
208 228 255
208 228 255
208 228 255
208 228 255
208 228 255
208 228 255
208 228 255
208 228 255
208 228 255
208 228 255
208 228 255
208 228 255
208 228 255
208 228 255
208 228 255
208 228 255
207 228 255
207 228 255
207 228 255
207 228 255
207 228 255
207 228 255
179 199 232
102 125 177
59 91 161
60 92 162
59 90 156
60 92 160
60 93 160
60 93 160
59 91 159
60 93 162
60 92 157
61 94 161
60 92 159
59 92 158
61 94 161
61 93 161
60 92 162
60 92 158
60 93 159
60 92 155
60 93 156
60 92 157
60 91 156
60 92 156
60 93 162
60 93 160
59 91 152
59 92 155
60 92 156
60 92 157
60 92 158
60 92 156
59 92 157
60 92 155
60 92 158
60 93 159
60 93 158
60 92 157
61 93 162
60 92 160
61 94 161
61 93 160
61 94 163
60 92 160
60 94 159
60 91 159
59 90 153
60 91 155
59 90 157
59 89 153
108 130 182
176 196 228
207 228 255
207 228 255
207 228 255
207 228 255
207 228 255
207 228 255
208 228 255
208 228 255
208 228 255
208 228 255
208 228 255
208 228 255
208 228 255
208 228 255
208 228 255
208 228 255
208 228 255
208 228 255
208 228 255
208 228 255
208 228 255
208 228 255
208 228 255
208 228 255
208 228 255
208 228 255
208 228 255
208 228 255
208 228 255
208 228 255
208 228 255
208 228 255
208 228 255
209 228 255
209 228 255
209 229 255
209 229 255
209 229 255
209 229 255
209 229 255
209 229 255
209 229 255
209 229 255
209 229 255
209 229 255
209 229 255
209 229 255
209 229 255
209 229 255
209 229 255
209 229 255
208 228 253
172 183 189
129 126 86
126 122 81
132 124 83
134 127 84
126 120 80
137 131 87
134 128 86
138 132 89
141 136 91
132 125 85
134 127 85
139 133 89
140 136 91
139 134 91
141 134 90
146 139 93
142 136 91
140 133 90
142 135 90
142 136 91
144 138 92
148 142 95
145 140 94
142 137 92
147 142 95
147 143 96
150 145 97
149 143 95
147 142 95
153 148 99
149 142 95
143 137 91
152 146 98
151 144 96
152 146 98
151 146 98
149 143 96
150 145 97
153 146 98
156 151 101
151 146 98
161 155 103
151 145 97
159 155 103
156 150 100
159 154 102
157 151 100
153 148 98
157 151 100
158 151 100
160 155 102
158 154 102
153 149 99
156 150 99
161 156 103
160 155 102
156 150 99
160 154 102
164 158 105
158 153 101
152 148 97
160 155 103
156 152 100
161 155 102
159 155 103
159 154 101
157 151 99
161 155 102
152 148 97
158 153 101
159 154 100
162 157 103
160 155 102
156 151 98
159 155 101
154 149 97
157 153 100
157 152 99
156 152 99
153 149 97
155 151 98
154 150 98
152 148 96
155 151 97
157 152 99
154 150 97
156 152 97
160 155 98
151 147 96
157 153 99
159 155 101
154 150 95
157 153 100
158 154 96
147 143 93
153 148 97
153 149 95
154 150 97
155 150 96
153 148 96
153 148 97
158 153 98
151 147 93
152 148 93
151 147 93
153 148 95
147 144 91
150 146 93
153 149 94
151 147 94
147 143 90
151 146 91
149 144 92
151 148 94
149 145 93
147 142 90
146 141 91
145 141 91
142 138 87
145 140 89
142 138 88
180 201 228
180 201 228
180 201 228
179 200 228
178 200 228
179 200 228
178 200 228
178 200 228
178 200 228
177 199 228
178 200 228
177 199 228
178 200 228
177 199 228
176 199 228
177 199 228
176 199 228
176 198 228
175 198 228
175 198 228
175 198 228
174 198 228
174 198 228
174 198 228
174 198 228
174 197 228
174 197 228
173 197 228
174 197 228
173 197 228
172 197 228
172 197 228
172 196 228
172 196 228
172 197 228
171 196 228
171 196 228
172 196 228
171 196 228
171 196 228
170 196 228
170 196 228
170 195 228
170 196 228
169 195 228
169 195 228
169 195 228
168 195 228
168 195 228
168 194 228
168 195 228
168 194 228
168 194 228
167 194 228
167 194 228
168 194 228
168 194 228
167 194 228
167 194 228
167 194 228
166 194 228
166 194 228
166 193 228
166 193 228
166 193 228
165 193 228
165 193 228
165 193 228
165 193 228
164 193 228
165 193 228
165 193 228
164 193 228
164 192 228
164 192 228
164 193 228
164 192 228
164 192 228
164 192 228
164 192 228
163 192 228
164 192 228
163 192 228
163 192 228
163 192 228
163 192 228
163 192 228
163 192 228
163 192 228
163 192 228
163 192 228
163 192 228
163 192 228
163 192 228
163 192 228
162 190 227
161 188 223
158 182 217
160 184 219
159 182 217
159 182 217
159 184 219
158 182 216
156 179 212
160 184 218
158 182 216
161 183 217
160 185 218
161 185 218
164 189 224
166 193 227
166 192 226
168 194 228
168 194 228
169 195 228
170 196 228
170 196 228
171 196 228
171 195 226
169 192 222
164 185 214
158 177 204
160 179 203
198 217 243
209 229 255
209 229 255
209 229 255
209 229 255
209 229 255
209 229 255
209 229 255
209 229 255
209 229 255
209 229 255
209 229 255
209 229 255
209 229 255
209 229 255
209 229 255
209 229 255
209 229 255
209 229 255
209 229 255
209 229 255
209 229 255
209 228 255
209 228 255
208 228 255
208 228 255
208 228 255
208 228 255
208 228 255
208 228 255
208 228 255
208 228 255
208 228 255
208 228 255
208 228 255
208 228 255
208 228 255
208 228 255
208 228 255
208 228 255
208 228 255
208 228 255
208 228 255
208 228 255
208 228 255
208 228 255
208 228 255
208 228 255
208 228 255
195 215 245
118 141 191
59 89 156
59 90 158
59 91 158
59 90 154
59 91 156
60 93 164
60 92 158
60 93 159
60 91 154
61 94 159
60 93 160
60 92 153
60 92 155
60 93 155
59 91 153
61 93 157
61 95 165
60 93 161
61 95 163
62 96 163
61 94 160
60 93 158
60 92 153
61 94 160
60 93 158
60 92 155
61 95 160
60 93 157
61 95 161
60 92 154
61 94 159
59 92 156
61 94 156
60 93 157
60 91 157
60 93 161
60 92 155
60 92 156
59 91 155
61 95 162
60 94 160
61 95 162
60 93 154
61 94 161
61 93 159
60 92 157
60 92 159
59 91 159
60 90 152
59 91 160
59 90 154
58 90 156
122 145 193
192 212 242
208 228 255
208 228 255
208 228 255
208 228 255
208 228 255
208 228 255
208 228 255
208 228 255
208 228 255
208 228 255
208 228 255
208 228 255
208 228 255
208 228 255
208 228 255
208 228 255
208 228 255
208 228 255
208 228 255
208 228 255
208 228 255
208 228 255
208 228 255
208 228 255
208 228 255
209 228 255
209 228 255
209 229 255
209 229 255
209 229 255
209 229 255
209 229 255
209 229 255
209 229 255
209 229 255
209 229 255
209 229 255
209 229 255
209 229 255
209 229 255
209 229 255
209 229 255
209 229 255
209 229 255
209 229 255
209 229 255
209 229 255
209 229 255
202 220 243
140 144 132
135 131 87
129 122 81
128 123 83
134 129 87
133 127 85
134 129 87
138 133 89
134 130 88
132 126 85
139 134 90
141 135 91
136 128 87
140 136 92
138 132 89
137 130 87
144 138 93
143 137 92
147 141 94
136 131 88
142 136 91
143 135 91
143 135 90
147 141 95
148 144 96
146 141 94
146 141 95
151 146 97
150 143 96
153 148 99
149 141 95
144 138 93
148 141 94
153 147 98
156 149 100
152 145 97
153 146 98
154 147 98
152 146 97
153 146 98
154 149 100
152 148 98
158 153 101
152 146 97
159 154 103
154 148 98
153 147 97
160 156 104
158 152 101
159 154 102
155 151 100
155 148 98
153 148 97
157 150 99
159 153 101
159 153 101
160 154 102
159 154 101
157 152 100
157 153 99
159 155 101
159 155 103
160 154 101
158 153 100
159 155 102
158 153 100
159 156 103
153 147 97
162 157 103
161 155 102
157 153 101
159 154 101
158 153 100
160 155 101
160 157 103
161 156 102
159 154 100
157 152 100
158 153 100
159 155 100
157 152 99
158 154 100
155 150 97
161 157 101
157 153 99
152 148 95
153 149 96
154 150 97
156 152 97
154 150 97
156 153 97
162 157 102
157 153 96
159 155 99
156 152 98
155 151 96
154 150 96
152 148 94
153 150 96
151 147 94
151 146 94
158 154 99
150 146 93
156 151 97
156 151 97
152 148 94
158 153 99
153 149 96
150 147 93
154 149 95
147 143 90
148 143 88
146 142 91
146 143 89
149 144 91
151 145 91
152 147 93
148 144 93
142 137 85
149 144 93
151 146 92
146 142 90
144 138 88
180 201 228
180 201 228
180 201 228
178 200 228
179 200 228
178 200 228
178 200 228
178 200 228
178 200 228
178 200 228
177 199 228
177 199 228
177 199 228
177 199 228
176 199 228
177 199 228
176 199 228
176 199 228
176 199 228
175 198 228
175 198 228
175 198 228
175 198 228
174 198 228
174 198 228
174 198 228
173 197 228
173 197 228
173 197 228
173 197 228
173 197 228
173 197 228
172 197 228
173 197 228
172 196 228
172 197 228
171 196 228
171 196 228
171 196 228
171 196 228
171 196 228
171 196 228
171 196 228
170 196 228
170 195 228
170 195 228
169 195 228
169 195 228
169 195 228
169 195 228
169 195 228
168 195 228
168 195 228
168 194 228
168 195 228
168 194 228
167 194 228
167 194 228
167 194 228
167 194 228
167 194 228
166 194 228
166 194 228
166 193 228
166 193 228
166 193 228
166 193 228
166 193 228
165 193 228
165 193 228
165 193 228
165 193 228
165 193 228
165 193 228
164 193 228
165 193 228
164 193 228
164 193 228
164 192 228
164 192 228
164 192 228
164 192 228
164 192 228
164 192 228
164 192 228
163 192 228
163 192 228
163 192 228
163 192 228
163 192 228
163 192 228
163 192 228
163 192 228
163 192 228
163 191 228
162 189 225
159 185 220
158 181 215
157 178 211
158 178 212
157 180 214
157 180 214
157 178 212
156 179 212
156 177 210
157 177 210
158 180 214
158 174 207
159 179 211
157 176 208
161 184 217
164 189 223
164 189 222
166 193 227
168 195 228
169 195 228
169 195 228
170 196 228
171 196 228
173 197 228
171 194 224
163 184 213
163 183 211
151 169 192
187 205 229
210 229 255
210 229 255
210 229 255
210 229 255
210 229 255
209 229 255
209 229 255
209 229 255
209 229 255
209 229 255
209 229 255
209 229 255
209 229 255
209 229 255
209 229 255
209 229 255
209 229 255
209 229 255
209 229 255
209 229 255
209 229 255
209 229 255
209 229 255
209 229 255
209 229 255
209 229 255
209 229 255
209 229 255
209 228 255
208 228 255
208 228 255
208 228 255
208 228 255
208 228 255
208 228 255
208 228 255
208 228 255
208 228 255
208 228 255
208 228 255
208 228 255
208 228 255
208 228 255
208 228 255
208 228 255
208 228 255
160 181 220
66 98 166
59 90 157
61 93 160
60 94 162
60 94 162
59 91 158
60 93 157
61 94 162
60 94 163
60 93 157
61 94 159
60 94 160
61 95 159
60 93 159
59 91 156
61 94 160
60 93 159
60 94 158
60 94 154
61 94 159
60 94 159
60 92 157
59 92 155
61 96 166
61 95 158
61 94 158
60 92 157
60 93 156
60 93 156
61 95 159
60 92 156
60 92 159
60 93 161
61 96 163
61 94 160
61 95 158
60 93 156
61 95 158
60 92 152
60 92 154
60 93 158
61 96 164
61 95 162
61 94 163
60 93 157
60 93 159
60 92 159
60 93 161
59 91 157
60 92 156
60 93 159
60 92 157
59 90 154
60 93 163
58 89 153
66 96 158
148 169 209
206 226 254
208 228 255
208 228 255
208 228 255
208 228 255
208 228 255
208 228 255
208 228 255
208 228 255
208 228 255
208 228 255
208 228 255
208 228 255
208 228 255
208 228 255
208 228 255
208 228 255
209 228 255
209 228 255
209 229 255
209 229 255
209 229 255
209 229 255
209 229 255
209 229 255
209 229 255
209 229 255
209 229 255
209 229 255
209 229 255
209 229 255
209 229 255
209 229 255
209 229 255
209 229 255
209 229 255
209 229 255
209 229 255
209 229 255
209 229 255
209 229 255
210 229 255
210 229 255
210 229 255
210 229 255
210 229 255
182 194 205
129 127 92
134 129 86
133 129 86
137 134 89
135 131 88
131 127 86
127 120 81
136 130 87
138 131 87
129 123 83
140 132 89
135 128 86
137 127 86
143 138 93
142 135 91
139 134 91
142 135 91
139 131 89
145 137 92
147 142 96
140 133 89
143 137 92
149 145 98
142 133 89
143 138 93
147 140 94
150 145 97
148 142 95
149 144 96
152 147 99
151 145 97
150 144 96
154 148 99
151 145 97
157 150 100
155 150 100
149 142 95
152 148 98
161 155 103
152 147 98
148 141 94
152 147 98
154 147 98
157 151 101
161 157 104
155 149 99
161 156 103
157 151 100
158 152 100
160 157 104
157 151 100
159 154 102
157 152 101
162 156 103
155 151 100
158 153 101
152 147 96
159 153 102
158 152 99
158 153 100
164 159 104
155 150 99
158 153 101
158 152 99
159 155 103
158 153 100
160 155 102
159 155 103
159 154 102
158 154 102
159 155 101
159 155 102
162 158 102
156 152 99
162 157 101
159 156 103
159 154 99
160 156 101
159 155 100
160 154 101
161 156 102
158 154 98
161 156 102
162 157 102
159 155 99
159 154 98
158 154 100
151 147 94
161 157 103
155 150 96
157 153 98
161 156 101
158 154 98
158 154 98
154 150 97
155 149 95
161 156 102
156 152 98
158 154 99
158 154 99
156 151 97
156 151 97
152 147 93
149 144 92
153 149 94
158 152 97
154 151 96
155 150 96
145 142 90
154 149 95
148 144 92
150 146 90
156 151 96
152 146 94
146 141 88
152 147 93
146 141 90
151 146 92
151 145 93
152 146 93
152 147 92
151 147 94
150 145 91
149 144 92
179 201 228
181 201 228
179 200 228
180 201 228
179 200 228
179 200 228
179 200 228
179 200 228
178 200 228
177 199 228
178 200 228
177 199 228
177 199 228
177 199 228
176 199 228
177 199 228
176 199 228
176 199 228
175 198 228
175 198 228
175 198 228
175 198 228
175 198 228
174 198 228
175 198 228
174 198 228
174 197 228
174 197 228
174 197 228
173 197 228
173 197 228
173 197 228
172 197 228
172 197 228
172 196 228
172 196 228
172 197 228
172 196 228
171 196 228
171 196 228
170 196 228
170 196 228
170 196 228
171 196 228
170 196 228
171 196 228
169 195 228
170 195 228
169 195 228
169 195 228
169 195 228
169 195 228
168 195 228
168 194 228
168 194 228
168 194 228
167 194 228
168 194 228
167 194 228
168 194 228
168 194 228
167 194 228
166 194 228
166 194 228
167 194 228
166 194 228
166 193 228
166 193 228
166 193 228
166 193 228
166 193 228
165 193 228
165 193 228
165 193 228
165 193 228
165 193 228
165 193 228
165 193 228
165 193 228
164 192 228
164 192 228
164 193 228
164 192 228
164 192 228
164 192 228
164 192 228
164 192 228
164 192 228
163 192 228
163 192 228
163 192 228
163 192 228
163 192 228
163 192 228
163 191 227
159 185 220
160 186 222
158 181 215
157 179 214
155 174 206
157 179 213
155 173 206
152 168 199
153 171 203
153 166 198
154 173 206
153 170 202
154 172 204
155 171 203
154 172 204
158 177 209
159 180 213
159 178 209
164 187 220
166 191 225
167 194 228
169 195 228
170 196 228
170 196 228
172 196 228
172 197 228
173 197 228
170 193 223
160 181 209
149 168 192
173 191 215
208 227 253
210 229 255
210 229 255
210 229 255
210 229 255
210 229 255
210 229 255
210 229 255
210 229 255
210 229 255
209 229 255
209 229 255
209 229 255
209 229 255
209 229 255
209 229 255
209 229 255
209 229 255
209 229 255
209 229 255
209 229 255
209 229 255
209 229 255
209 229 255
209 229 255
209 229 255
209 229 255
209 229 255
209 229 255
209 229 255
209 229 255
209 229 255
209 229 255
209 229 255
209 228 255
209 228 255
209 228 255
208 228 255
208 228 255
208 228 255
208 228 255
208 228 255
208 228 255
196 216 246
106 130 182
60 93 160
60 93 160
61 95 165
60 93 161
61 94 162
59 91 156
60 93 160
60 93 158
61 94 162
61 95 161
61 94 160
60 93 160
61 95 160
61 94 159
61 94 158
60 92 153
60 92 153
60 93 158
60 93 160
61 95 157
61 94 159
61 94 160
61 96 163
61 95 163
61 94 159
60 92 156
61 95 162
61 95 159
61 95 162
60 94 162
61 96 164
61 96 163
61 94 163
61 96 162
61 94 158
61 95 161
60 93 158
61 95 160
60 94 160
61 93 154
61 95 160
60 93 157
61 95 160
60 92 157
61 94 160
59 91 152
61 94 162
60 93 157
60 92 156
60 94 158
59 90 149
60 91 156
60 93 160
59 90 150
60 92 157
59 91 151
60 94 160
60 94 162
108 131 180
196 217 246
208 228 255
208 228 255
208 228 255
208 228 255
208 228 255
208 228 255
209 228 255
209 228 255
209 228 255
209 229 255
209 229 255
209 229 255
209 229 255
209 229 255
209 229 255
209 229 255
209 229 255
209 229 255
209 229 255
209 229 255
209 229 255
209 229 255
209 229 255
209 229 255
209 229 255
209 229 255
209 229 255
209 229 255
209 229 255
209 229 255
209 229 255
209 229 255
209 229 255
210 229 255
210 229 255
210 229 255
210 229 255
210 229 255
210 229 255
210 229 255
210 229 255
210 229 255
208 227 252
174 184 187
121 116 78
133 128 85
134 131 88
137 131 88
129 124 83
129 124 83
135 130 88
137 131 89
138 133 89
130 124 83
137 131 89
138 131 89
141 135 91
146 137 92
140 131 89
139 132 89
138 132 89
142 136 91
142 133 89
147 140 94
138 130 88
146 140 94
149 143 96
146 140 94
145 137 92
149 142 95
143 135 91
149 141 95
148 142 95
153 146 98
153 144 96
150 143 95
153 146 98
151 146 97
154 148 99
154 148 98
155 149 99
154 146 97
152 144 96
156 152 101
159 153 101
160 153 102
157 152 101
158 153 102
163 157 105
155 150 100
156 150 99
158 152 101
157 151 100
155 150 99
159 154 101
152 146 97
162 157 103
157 151 99
156 150 99
158 154 102
162 157 103
157 151 99
163 156 102
160 154 101
161 156 102
162 157 103
165 159 104
162 157 102
156 152 100
159 153 100
161 157 103
155 150 98
161 157 102
162 157 103
158 153 101
162 156 101
161 155 100
160 155 102
161 156 102
157 152 100
160 155 100
163 158 102
161 156 102
160 156 101
164 159 103
155 151 98
163 159 102
157 152 98
160 155 99
160 156 100
164 159 103
157 153 99
154 150 97
155 151 97
159 154 99
154 150 98
160 155 100
157 152 97
152 147 94
161 156 100
154 149 95
156 152 96
156 152 97
162 157 100
154 149 94
160 155 99
158 154 97
158 152 99
160 155 98
156 152 98
155 150 96
148 144 93
145 141 86
154 149 94
150 146 92
149 145 92
152 146 91
155 151 97
152 147 92
158 153 98
153 148 95
151 147 93
154 149 95
149 145 89
148 143 90
149 145 90
146 142 90
151 146 90
155 149 93
180 201 228
180 201 228
180 201 228
180 201 228
179 200 228
179 200 228
179 200 228
178 200 228
179 200 228
178 200 228
178 199 228
177 199 228
178 200 228
177 199 228
176 199 228
176 199 228
177 199 228
177 199 228
177 199 228
176 199 228
176 199 228
176 199 228
175 198 228
175 198 228
175 198 228
175 198 228
175 198 228
174 198 228
174 197 228
174 197 228
174 198 228
173 197 228
173 197 228
173 197 228
172 197 228
172 197 228
173 197 228
172 196 228
171 196 228
172 196 228
172 196 228
171 196 228
171 196 228
171 196 228
171 196 228
170 196 228
170 196 228
171 196 228
169 195 228
170 195 228
170 195 228
169 195 228
169 195 228
169 195 228
169 195 228
169 195 228
168 195 228
168 195 228
168 194 228
168 194 228
168 194 228
168 194 228
167 194 228
167 194 228
167 194 228
167 194 228
166 194 228
166 194 228
166 193 228
166 193 228
166 193 228
166 193 228
166 193 228
165 193 228
165 193 228
165 193 228
165 193 228
165 193 228
165 193 228
165 193 228
165 193 228
164 193 228
164 193 228
164 193 228
164 192 228
164 192 228
164 192 228
164 192 228
164 192 228
164 192 228
164 192 228
164 192 228
164 192 228
163 192 228
162 189 225
160 184 219
160 184 219
157 180 215
159 183 218
154 174 207
154 172 205
154 171 204
153 170 203
150 167 198
151 167 199
153 167 199
151 166 197
154 170 201
150 162 192
152 169 200
153 172 204
157 176 208
155 174 205
159 178 210
159 179 211
161 183 215
166 191 224
169 195 228
170 195 228
170 196 228
172 196 228
172 196 228
173 197 228
173 196 227
166 187 215
158 177 203
158 176 200
201 220 245
210 229 255
210 229 255
210 229 255
210 229 255
210 229 255
210 229 255
210 229 255
210 229 255
210 229 255
210 229 255
210 229 255
210 229 255
210 229 255
210 229 255
209 229 255
209 229 255
209 229 255
209 229 255
209 229 255
209 229 255
209 229 255
209 229 255
209 229 255
209 229 255
209 229 255
209 229 255
209 229 255
209 229 255
209 229 255
209 229 255
209 229 255
209 229 255
209 229 255
209 229 255
209 229 255
209 229 255
209 229 255
209 229 255
209 229 255
209 229 255
179 199 232
74 103 166
59 91 158
60 92 162
59 90 157
59 92 159
60 94 163
61 94 161
61 95 161
60 92 155
59 92 154
60 94 158
60 93 158
61 95 162
61 96 163
61 94 162
60 93 156
60 94 156
61 95 160
60 94 152
61 96 157
60 92 151
61 95 161
61 95 161
60 93 152
60 94 156
60 94 159
60 94 159
60 93 156
59 92 157
61 94 158
62 97 160
60 94 159
61 94 158
60 94 156
61 94 157
61 95 157
60 92 154
61 95 161
61 95 160
61 94 157
61 95 162
61 95 161
61 94 160
60 93 157
61 95 160
61 94 158
60 94 158
60 93 159
60 93 157
59 90 152
61 94 161
59 92 152
61 94 162
59 92 155
61 93 159
60 92 155
60 92 156
60 92 156
60 92 154
59 90 154
59 91 157
78 105 165
180 200 232
209 229 255
209 229 255
209 229 255
209 229 255
209 229 255
209 229 255
209 229 255
209 229 255
209 229 255
209 229 255
209 229 255
209 229 255
209 229 255
209 229 255
209 229 255
209 229 255
209 229 255
209 229 255
209 229 255
209 229 255
209 229 255
209 229 255
209 229 255
209 229 255
209 229 255
209 229 255
210 229 255
210 229 255
210 229 255
210 229 255
210 229 255
210 229 255
210 229 255
210 229 255
210 229 255
210 229 255
210 229 255
210 229 255
210 229 255
210 229 255
201 218 239
149 153 141
123 118 78
128 123 81
130 126 84
133 128 86
127 121 81
145 140 93
127 121 82
135 127 86
134 127 86
130 125 85
137 129 87
141 136 92
136 129 87
143 137 92
142 135 91
139 133 91
149 140 93
146 139 93
142 134 90
141 135 90
142 135 91
143 135 90
146 142 95
150 144 97
148 143 96
148 140 93
151 145 97
150 143 96
148 142 94
154 146 98
152 145 97
151 143 95
151 145 97
151 144 96
151 144 96
154 149 99
155 148 99
152 146 97
153 146 97
160 154 102
155 147 98
154 146 97
161 156 104
157 151 100
159 154 101
157 151 100
159 152 101
161 154 102
160 154 101
157 153 101
156 151 99
157 151 100
160 154 101
161 153 100
160 154 102
160 155 102
156 151 98
158 152 99
165 159 104
161 156 103
159 153 101
157 151 98
158 153 100
162 155 102
159 154 102
161 155 101
159 155 102
163 157 102
157 152 100
155 150 98
165 159 105
158 153 100
153 149 97
160 155 100
158 154 99
159 155 100
157 153 99
159 154 99
158 153 98
160 155 99
160 155 99
161 156 102
166 160 102
163 157 101
159 154 99
162 158 101
160 156 101
161 157 102
158 154 100
163 158 103
156 152 98
160 155 100
156 152 98
160 155 98
165 161 104
160 155 100
154 149 94
156 152 97
154 150 97
160 156 100
158 154 98
154 150 95
159 154 98
154 149 93
154 149 95
160 155 98
149 144 91
150 146 92
155 151 94
160 155 99
159 154 98
147 143 89
159 154 98
154 150 94
148 143 91
154 149 93
156 151 95
155 149 94
148 144 90
141 137 86
155 149 93
144 139 87
160 154 93
151 146 92
149 145 90
153 147 92
180 201 228
180 201 228
180 201 228
179 200 228
180 201 228
179 200 228
179 200 228
179 200 228
178 200 228
178 200 228
179 200 228
179 200 228
178 200 228
178 200 228
177 199 228
178 200 228
176 199 228
176 199 228
177 199 228
175 198 228
176 198 228
176 199 228
175 198 228
175 198 228
176 198 228
174 198 228
174 198 228
175 198 228
174 198 228
174 197 228
174 197 228
174 197 228
173 197 228
173 197 228
173 197 228
173 197 228
172 197 228
173 197 228
173 197 228
172 196 228
172 196 228
172 196 228
172 196 228
172 196 228
171 196 228
170 196 228
171 196 228
170 196 228
170 196 228
170 196 228
170 195 228
170 195 228
169 195 228
169 195 228
169 195 228
169 195 228
169 195 228
168 195 228
169 195 228
168 195 228
168 194 228
168 194 228
168 194 228
167 194 228
168 194 228
167 194 228
167 194 228
167 194 228
167 194 228
167 194 228
166 194 228
166 194 228
166 193 228
166 193 228
166 193 228
166 193 228
165 193 228
165 193 228
166 193 228
165 193 228
165 193 228
165 193 228
165 193 228
165 193 228
165 193 228
164 193 228
165 193 228
164 192 228
164 192 228
164 192 228
164 192 228
164 192 228
164 192 228
163 191 227
161 187 223
160 184 219
159 184 218
157 176 209
155 174 206
154 171 203
155 173 206
152 170 202
150 165 197
151 164 195
149 161 191
147 157 186
147 159 189
149 161 191
149 157 186
150 162 192
154 169 200
151 164 193
152 165 195
154 171 202
153 165 195
159 180 212
159 178 209
166 188 221
168 193 227
169 195 228
170 196 228
172 196 228
172 197 228
173 197 228
171 194 224
171 192 221
162 182 208
158 176 199
197 215 240
210 229 255
210 229 255
210 229 255
210 229 255
210 229 255
210 229 255
210 229 255
210 229 255
210 229 255
210 229 255
210 229 255
210 229 255
210 229 255
210 229 255
210 229 255
210 229 255
210 229 255
210 229 255
210 229 255
210 229 255
209 229 255
209 229 255
209 229 255
209 229 255
209 229 255
209 229 255
209 229 255
209 229 255
209 229 255
209 229 255
209 229 255
209 229 255
209 229 255
209 229 255
209 229 255
209 229 255
209 229 255
207 227 254
143 164 207
61 93 159
60 93 162
60 94 163
59 92 157
59 92 158
60 93 159
60 93 159
60 94 158
60 93 161
59 93 157
60 93 158
61 95 160
61 95 163
59 92 155
61 95 160
61 95 160
60 95 158
60 94 156
60 94 157
60 92 156
60 94 158
61 95 159
61 95 158
60 94 161
61 95 160
61 94 158
60 93 155
61 94 161
61 94 153
60 94 158
59 92 152
60 94 157
61 95 160
61 95 159
61 95 157
61 95 159
61 94 156
61 94 156
61 95 157
61 94 157
60 94 157
60 94 156
60 93 162
61 94 158
61 95 161
61 94 162
60 93 153
61 94 158
60 94 159
60 92 155
60 94 158
61 94 157
61 94 156
61 95 159
61 94 159
60 94 160
59 92 154
60 91 150
60 93 159
58 90 153
59 91 157
59 90 153
58 89 154
60 92 157
154 175 213
207 227 254
209 229 255
209 229 255
209 229 255
209 229 255
209 229 255
209 229 255
209 229 255
209 229 255
209 229 255
209 229 255
209 229 255
209 229 255
209 229 255
209 229 255
209 229 255
209 229 255
209 229 255
210 229 255
210 229 255
210 229 255
210 229 255
210 229 255
210 229 255
210 229 255
210 229 255
210 229 255
210 229 255
210 229 255
210 229 255
210 229 255
210 229 255
210 229 255
210 229 255
210 229 255
210 229 255
210 229 255
210 229 255
192 207 221
137 136 108
128 124 83
128 123 81
133 129 86
136 130 87
137 131 88
128 122 81
131 124 83
128 123 83
138 133 90
136 129 87
136 130 87
135 127 85
135 126 86
139 133 90
137 130 88
142 136 91
132 123 84
141 136 91
142 133 89
138 134 90
145 138 93
147 139 93
137 129 87
148 141 94
151 144 96
149 141 95
150 143 96
151 145 97
148 141 94
153 146 98
153 144 96
151 147 99
158 150 99
155 149 99
153 147 98
158 153 101
156 149 100
156 150 100
152 145 96
158 153 102
156 151 100
156 149 98
158 152 101
164 157 104
162 157 104
164 158 104
158 151 100
160 154 101
163 155 102
159 154 102
151 144 95
161 156 103
162 156 103
162 157 104
161 155 102
163 158 104
159 153 101
160 153 100
163 158 102
165 160 105
162 157 103
162 157 103
161 156 101
160 154 102
160 154 100
159 155 102
159 154 101
161 156 101
162 158 103
161 156 103
164 159 102
160 154 100
162 158 102
163 157 101
163 158 102
163 159 103
161 156 100
160 155 99
162 157 103
166 161 105
158 153 98
159 155 99
163 158 102
160 155 98
163 158 102
166 161 102
160 155 99
164 159 101
159 155 99
157 153 98
165 161 104
160 156 99
162 157 102
157 152 96
161 156 99
159 154 99
163 158 101
156 151 95
163 157 100
155 151 95
157 151 95
155 151 96
160 155 97
162 157 99
159 155 98
162 157 100
154 150 95
155 150 95
152 148 94
160 155 97
154 150 95
158 153 97
153 148 92
157 152 94
151 146 91
154 150 94
151 146 90
151 146 93
144 141 89
150 146 90
150 145 93
152 146 92
149 144 88
153 148 92
149 144 90
148 143 89
147 142 91
180 201 228
181 201 228
179 201 228
180 201 228
179 200 228
180 201 228
180 201 228
179 200 228
179 200 228
179 200 228
178 200 228
178 200 228
178 200 228
177 199 228
178 200 228
178 199 228
177 199 228
177 199 228
177 199 228
176 199 228
177 199 228
176 199 228
176 199 228
175 198 228
176 198 228
175 198 228
175 198 228
175 198 228
175 198 228
174 198 228
174 198 228
174 198 228
174 198 228
173 197 228
173 197 228
173 197 228
173 197 228
172 197 228
173 197 228
172 196 228
172 196 228
172 197 228
172 196 228
172 196 228
172 196 228
171 196 228
171 196 228
171 196 228
170 196 228
170 196 228
171 196 228
170 196 228
170 195 228
170 195 228
170 195 228
169 195 228
169 195 228
169 195 228
169 195 228
169 195 228
168 194 228
169 195 228
168 195 228
168 194 228
167 194 228
167 194 228
167 194 228
167 194 228
167 194 228
167 194 228
167 194 228
167 194 228
167 194 228
167 194 228
167 194 228
166 193 228
166 193 228
166 193 228
166 193 228
165 193 228
166 193 228
165 193 228
165 193 228
165 193 228
165 193 228
165 193 228
165 193 228
165 193 228
165 193 228
165 193 228
165 193 228
164 193 228
164 193 228
164 192 227
162 190 225
158 182 216
156 177 210
157 178 212
157 178 211
153 170 202
150 166 197
150 158 187
150 164 194
147 155 185
148 161 191
147 157 187
144 153 181
147 157 186
141 146 174
143 150 177
147 161 190
145 149 176
147 156 184
149 158 187
151 165 194
149 160 188
153 167 196
160 179 210
162 184 216
167 191 224
170 195 228
170 196 228
172 197 228
172 197 228
174 198 228
174 197 227
167 188 217
164 184 210
154 172 196
189 206 231
210 230 255
210 230 255
210 230 255
210 229 255
210 229 255
210 229 255
210 229 255
210 229 255
210 229 255
210 229 255
210 229 255
210 229 255
210 229 255
210 229 255
210 229 255
210 229 255
210 229 255
210 229 255
210 229 255
210 229 255
210 229 255
210 229 255
210 229 255
210 229 255
210 229 255
210 229 255
210 229 255
209 229 255
209 229 255
209 229 255
209 229 255
209 229 255
209 229 255
209 229 255
209 229 255
204 224 252
127 151 201
60 93 164
59 93 161
61 95 163
60 93 159
59 92 155
60 93 160
60 93 162
61 95 165
61 94 160
60 94 160
60 94 159
62 96 162
60 94 161
61 95 160
60 94 158
61 95 162
61 94 158
61 94 156
60 95 157
61 94 159
60 95 157
61 94 160
62 97 161
61 94 159
61 94 156
61 95 152
60 92 151
61 96 156
60 93 151
60 95 161
61 95 157
60 94 155
60 92 150
61 96 159
61 96 161
61 96 162
61 94 157
60 93 157
60 94 160
61 95 158
61 94 156
60 93 153
61 94 160
61 95 159
61 96 164
61 95 160
61 94 157
61 94 158
60 94 160
61 94 160
61 94 154
62 96 165
62 96 161
60 93 154
61 95 162
61 95 159
61 95 158
61 95 159
59 92 152
60 92 156
60 93 157
61 94 162
59 91 153
59 90 153
59 92 155
59 91 158
126 148 196
206 226 253
209 229 255
209 229 255
209 229 255
209 229 255
209 229 255
209 229 255
209 229 255
209 229 255
210 229 255
210 229 255
210 229 255
210 229 255
210 229 255
210 229 255
210 229 255
210 229 255
210 229 255
210 229 255
210 229 255
210 229 255
210 229 255
210 229 255
210 229 255
210 229 255
210 229 255
210 229 255
210 229 255
210 229 255
210 229 255
210 229 255
210 229 255
210 229 255
210 230 255
210 230 255
210 230 255
185 198 209
134 132 91
127 122 81
128 123 82
127 121 80
128 124 83
129 124 83
134 126 85
131 126 85
135 129 87
137 129 87
138 133 90
129 122 83
136 130 87
137 132 89
136 128 87
138 129 87
142 135 90
134 126 85
136 127 86
150 144 97
143 135 92
148 141 95
147 141 95
146 136 91
143 137 92
148 140 94
146 140 94
150 143 96
153 148 99
154 146 97
149 142 95
151 144 96
154 148 98
155 149 99
150 143 95
156 150 100
155 148 98
158 152 100
158 151 100
156 151 101
154 147 98
158 151 100
156 149 98
154 150 99
158 152 99
159 154 102
161 153 100
160 153 102
160 153 100
163 156 103
155 150 98
161 155 101
162 155 102
158 152 99
164 158 104
164 157 103
163 157 103
163 157 102
162 157 102
158 153 100
161 154 101
161 155 101
162 156 101
160 154 100
163 158 102
163 158 104
164 159 104
162 156 101
163 157 102
158 155 101
163 158 103
159 154 100
164 158 103
164 159 102
169 164 106
160 154 99
161 156 100
166 162 103
161 156 100
160 156 101
159 155 100
166 161 103
164 159 104
163 158 101
163 158 102
159 154 100
163 158 100
165 158 100
163 158 103
164 159 101
159 154 99
161 156 100
161 156 99
158 152 97
164 159 103
163 159 102
160 156 99
160 155 98
156 151 97
159 156 98
160 155 97
160 154 99
153 148 93
158 153 96
158 153 99
158 153 97
160 155 98
160 155 97
158 154 98
154 150 94
155 150 93
156 152 96
156 152 98
153 148 91
157 151 95
153 148 92
155 150 94
155 150 92
150 145 92
152 147 92
157 151 95
153 148 94
153 148 93
155 149 93
148 142 89
151 146 89
148 143 90
153 149 92
151 146 92
181 201 228
180 201 228
180 201 228
181 201 228
180 201 228
180 201 228
180 201 228
179 200 228
179 200 228
178 200 228
179 200 228
179 200 228
179 200 228
178 200 228
178 200 228
177 199 228
177 199 228
177 199 228
177 199 228
177 199 228
176 199 228
177 199 228
176 199 228
175 198 228
176 199 228
175 198 228
175 198 228
175 198 228
175 198 228
175 198 228
175 198 228
174 198 228
174 198 228
174 198 228
174 197 228
174 198 228
173 197 228
173 197 228
173 197 228
173 197 228
173 197 228
172 197 228
172 197 228
172 196 228
172 196 228
171 196 228
172 196 228
172 196 228
171 196 228
171 196 228
171 196 228
171 196 228
170 196 228
170 195 228
170 195 228
170 195 228
170 195 228
170 195 228
170 195 228
169 195 228
169 195 228
169 195 228
169 195 228
169 195 228
168 195 228
168 194 228
168 194 228
168 195 228
168 194 228
168 194 228
167 194 228
167 194 228
168 194 228
167 194 228
166 194 228
167 194 228
167 194 228
166 194 228
166 194 228
166 193 228
166 193 228
166 194 228
166 193 228
165 193 228
166 193 228
165 193 228
165 193 228
165 193 228
165 193 228
165 193 228
165 193 228
165 193 228
165 193 228
163 189 224
161 185 220
157 179 212
159 181 215
154 174 206
151 165 196
152 169 200
148 161 191
147 157 187
148 157 187
142 147 174
146 147 174
139 141 167
135 141 167
139 144 171
144 150 178
143 149 177
145 152 180
141 148 176
144 151 179
144 152 179
148 156 184
149 156 183
149 160 188
149 161 188
156 174 204
161 183 215
166 190 222
170 195 228
171 196 228
172 196 228
173 197 228
173 197 228
174 197 227
173 195 224
165 185 212
161 179 203
176 193 216
211 230 255
211 230 255
211 230 255
211 230 255
211 230 255
211 230 255
210 230 255
210 230 255
210 230 255
210 229 255
210 229 255
210 229 255
210 229 255
210 229 255
210 229 255
210 229 255
210 229 255
210 229 255
210 229 255
210 229 255
210 229 255
210 229 255
210 229 255
210 229 255
210 229 255
210 229 255
210 229 255
210 229 255
210 229 255
210 229 255
210 229 255
210 229 255
210 229 255
204 223 250
109 133 186
59 92 162
60 94 164
60 93 158
60 94 161
61 95 162
61 96 161
60 93 160
61 94 159
61 95 163
60 94 160
60 94 158
60 94 158
60 93 155
60 93 156
62 96 163
61 96 161
59 93 157
61 96 160
61 95 160
61 95 159
61 96 160
60 94 155
61 95 157
61 96 159
61 95 159
61 95 156
62 97 163
61 94 158
61 94 150
61 94 152
60 94 156
61 95 157
61 96 163
59 92 152
61 95 159
61 95 157
61 94 152
61 95 157
60 93 156
61 94 154
59 92 153
61 96 158
61 95 158
61 95 156
59 92 152
60 93 153
61 96 159
60 93 150
60 94 154
60 94 157
61 95 161
60 93 155
61 95 156
60 93 149
60 94 154
60 93 155
61 95 160
59 92 151
60 92 158
60 94 157
60 93 158
60 92 154
60 93 153
60 93 157
59 90 153
60 92 154
60 91 156
59 92 155
114 136 182
204 224 251
210 229 255
210 229 255
210 229 255
210 229 255
210 229 255
210 229 255
210 229 255
210 229 255
210 229 255
210 229 255
210 229 255
210 229 255
210 229 255
210 229 255
210 229 255
210 229 255
210 229 255
210 229 255
210 229 255
210 229 255
210 229 255
210 229 255
210 229 255
210 229 255
210 230 255
210 230 255
210 230 255
211 230 255
211 230 255
211 230 255
211 230 255
211 230 255
211 230 255
174 185 190
134 129 84
125 121 81
121 116 78
130 125 83
129 124 84
125 120 81
129 121 82
137 131 88
133 127 86
131 124 84
129 123 83
131 123 83
140 132 89
136 130 88
132 123 83
138 131 89
136 129 88
139 134 90
140 134 91
139 133 89
142 133 90
145 138 92
149 142 96
146 137 92
146 140 94
146 139 93
149 141 94
153 145 97
148 141 94
148 141 94
151 143 95
148 142 94
152 145 98
151 145 96
156 149 99
157 150 99
156 149 99
156 150 100
155 149 99
153 147 98
153 146 97
153 147 97
161 154 102
160 155 102
153 147 98
162 156 103
165 158 105
160 154 101
160 154 101
160 154 102
163 156 103
159 153 100
160 154 102
161 156 103
162 155 102
160 153 100
164 156 101
162 156 102
162 156 102
164 159 105
160 152 99
162 156 102
162 157 101
164 159 104
163 158 103
161 154 100
163 156 101
160 155 101
166 160 104
168 162 105
163 156 100
164 157 100
164 158 103
163 158 102
161 155 100
162 158 103
161 156 101
164 159 103
162 157 100
162 157 101
165 160 104
165 159 102
165 159 102
158 154 99
159 153 97
160 155 100
163 158 101
160 154 98
160 155 99
158 153 98
164 159 103
163 157 101
162 157 101
166 161 100
160 154 97
161 156 98
155 151 96
165 160 101
161 156 99
161 155 98
158 153 95
161 155 98
156 151 94
160 156 99
159 155 98
162 156 97
159 155 98
163 158 99
159 154 97
153 148 92
155 151 94
156 151 95
156 151 95
156 151 96
147 142 88
154 149 93
154 149 94
155 150 94
156 152 95
156 150 93
156 151 95
152 147 93
154 148 93
153 148 93
153 147 95
153 148 92
150 144 90
152 147 92
153 148 93
158 153 96
181 201 228
181 201 228
181 201 228
181 201 228
181 201 228
180 201 228
179 200 228
180 201 228
180 201 228
179 200 228
179 200 228
179 200 228
178 200 228
179 200 228
178 200 228
178 200 228
178 200 228
178 200 228
177 199 228
177 199 228
177 199 228
177 199 228
177 199 228
177 199 228
177 199 228
176 199 228
176 199 228
175 198 228
176 198 228
176 199 228
175 198 228
175 198 228
174 198 228
174 198 228
174 198 228
174 198 228
174 198 228
174 197 228
173 197 228
173 197 228
173 197 228
172 197 228
172 197 228
173 197 228
173 197 228
172 197 228
172 196 228
172 196 228
172 197 228
172 197 228
172 197 228
171 196 228
171 196 228
171 196 228
171 196 228
171 196 228
170 196 228
170 196 228
170 195 228
169 195 228
169 195 228
169 195 228
170 195 228
169 195 228
169 195 228
169 195 228
168 195 228
168 195 228
168 195 228
168 195 228
168 194 228
168 194 228
167 194 228
168 194 228
167 194 228
167 194 228
167 194 228
167 194 228
167 194 228
167 194 228
167 194 228
166 194 228
166 194 228
166 194 228
166 193 228
166 193 228
166 193 228
166 193 228
166 193 228
165 193 228
165 193 228
166 193 228
164 191 226
163 187 221
162 186 221
161 184 217
157 178 211
157 176 209
154 171 203
150 164 194
150 166 197
149 161 191
145 154 182
146 157 187
142 145 173
139 140 166
138 139 165
136 137 162
141 148 175
139 141 167
137 139 165
139 142 168
140 142 168
139 141 167
141 143 168
139 140 165
148 156 184
149 157 184
152 165 193
154 170 199
162 182 213
165 187 218
170 194 227
171 196 228
172 197 228
173 197 228
174 198 228
176 199 228
175 197 226
171 192 220
159 177 201
180 197 221
211 230 255
211 230 255
211 230 255
211 230 255
211 230 255
211 230 255
211 230 255
211 230 255
211 230 255
211 230 255
211 230 255
211 230 255
210 230 255
210 230 255
210 230 255
210 229 255
210 229 255
210 229 255
210 229 255
210 229 255
210 229 255
210 229 255
210 229 255
210 229 255
210 229 255
210 229 255
210 229 255
210 229 255
210 229 255
210 229 255
210 229 255
206 226 252
103 127 180
60 92 163
60 95 161
60 91 155
60 93 158
61 95 163
61 95 163
60 93 156
61 96 164
61 94 156
60 95 161
62 96 164
60 95 159
61 95 160
61 95 159
61 95 158
60 94 151
61 95 166
60 95 158
61 95 159
61 95 159
61 95 157
61 95 161
61 95 156
61 96 156
62 96 156
61 96 160
61 96 160
60 94 158
61 96 160
61 95 157
61 95 155
60 94 158
60 93 154
61 95 159
60 95 154
61 94 155
61 94 149
61 95 156
61 96 155
61 95 161
60 95 151
61 95 154
62 96 161
61 95 156
61 96 160
61 96 158
61 94 157
62 97 161
61 95 156
61 93 156
62 96 162
61 95 159
60 94 155
61 95 158
61 95 160
59 92 148
61 95 158
59 91 151
60 93 150
61 94 160
60 94 159
60 93 156
61 94 152
60 95 159
60 93 157
60 94 156
58 90 151
59 92 158
59 91 150
59 91 153
94 119 173
204 224 251
210 229 255
210 229 255
210 229 255
210 229 255
210 229 255
210 229 255
210 229 255
210 229 255
210 229 255
210 229 255
210 229 255
210 229 255
210 229 255
210 229 255
210 229 255
210 229 255
210 230 255
210 230 255
210 230 255
211 230 255
211 230 255
211 230 255
211 230 255
211 230 255
211 230 255
211 230 255
211 230 255
211 230 255
211 230 255
211 230 255
210 229 254
173 182 185
133 127 83
130 125 82
128 120 80
128 122 82
129 123 83
122 116 78
125 119 81
122 117 79
127 121 82
132 124 84
135 129 87
133 127 86
135 127 86
132 128 87
137 131 88
142 134 90
139 130 88
140 134 91
142 134 91
136 129 87
137 132 88
151 143 96
146 138 93
139 131 89
149 143 96
150 140 94
155 148 98
141 134 91
151 144 96
149 143 96
144 138 92
150 140 93
155 148 98
158 150 99
149 142 95
156 150 100
152 146 97
158 151 100
160 153 101
160 153 101
156 151 100
151 144 96
160 153 101
163 157 103
159 150 99
160 153 101
164 157 103
157 151 99
157 149 97
161 155 101
154 146 95
164 158 104
162 157 102
158 152 100
165 158 103
161 156 103
161 156 102
160 152 100
162 156 102
161 153 100
161 154 100
162 157 102
164 158 102
162 156 102
160 155 101
160 154 101
163 158 103
166 161 104
163 157 101
167 161 104
167 162 106
166 160 102
165 161 103
164 160 103
163 158 103
162 157 102
165 160 103
161 156 100
168 162 104
167 161 102
164 159 102
163 159 102
164 160 103
161 155 101
164 159 99
164 159 101
162 157 99
161 157 99
166 161 101
159 153 98
164 159 103
165 161 103
162 156 100
164 158 100
160 155 97
159 154 97
163 158 101
162 157 98
162 158 99
161 155 98
167 161 102
159 154 97
158 153 97
163 158 99
161 157 100
159 153 96
163 157 101
161 156 98
156 151 94
160 155 97
157 153 95
159 153 97
155 151 95
151 147 90
150 146 90
158 153 96
153 148 93
153 148 93
157 153 94
157 152 95
149 144 88
154 149 93
148 143 90
160 155 98
154 149 93
151 147 91
144 138 84
149 144 90
156 151 93
150 145 91
146 141 89
181 201 228
181 201 228
180 201 228
180 201 228
180 201 228
180 201 228
180 201 228
180 201 228
179 200 228
180 201 228
179 200 228
179 200 228
179 200 228
179 200 228
179 200 228
178 200 228
178 200 228
178 200 228
178 200 228
178 200 228
177 199 228
177 199 228
177 199 228
177 199 228
177 199 228
176 199 228
177 199 228
176 199 228
176 199 228
176 199 228
175 198 228
176 199 228
175 198 228
175 198 228
175 198 228
174 198 228
175 198 228
174 198 228
174 198 228
174 198 228
174 197 228
173 197 228
173 197 228
173 197 228
173 197 228
173 197 228
172 196 228
172 197 228
172 197 228
172 196 228
172 196 228
172 196 228
171 196 228
172 196 228
171 196 228
171 196 228
171 196 228
171 196 228
170 196 228
170 196 228
170 196 228
170 196 228
170 196 228
170 195 228
169 195 228
169 195 228
169 195 228
169 195 228
168 195 228
169 195 228
168 195 228
168 194 228
169 195 228
168 194 228
168 194 228
168 194 228
167 194 228
168 194 228
167 194 228
168 194 228
167 194 228
167 194 228
167 194 228
167 194 228
167 194 228
167 194 228
167 194 228
167 194 228
166 194 228
166 193 228
166 193 228
166 193 228
164 191 226
160 182 215
159 182 215
160 181 214
159 178 211
157 174 206
152 167 197
150 163 192
145 157 186
150 161 191
147 155 184
143 148 175
141 142 168
140 140 166
140 140 166
139 133 158
135 132 157
133 130 154
137 139 165
138 135 160
129 126 150
139 137 161
138 135 159
137 137 162
140 142 167
145 151 177
147 156 183
147 157 184
152 165 193
156 171 200
164 183 213
167 190 222
172 196 228
173 197 228
173 197 228
174 198 228
176 199 228
174 196 225
169 190 217
160 179 204
176 193 216
211 230 255
211 230 255
211 230 255
211 230 255
211 230 255
211 230 255
211 230 255
211 230 255
211 230 255
211 230 255
211 230 255
211 230 255
211 230 255
211 230 255
211 230 255
211 230 255
211 230 255
211 230 255
211 230 255
210 230 255
210 230 255
210 230 255
210 230 255
210 229 255
210 229 255
210 229 255
210 229 255
210 229 255
210 229 255
197 216 246
117 140 190
59 92 158
59 93 159
59 92 156
60 94 164
60 93 156
60 94 157
59 92 150
60 94 157
61 96 158
60 94 158
60 94 154
60 94 154
61 94 154
60 95 157
61 95 158
61 95 157
60 94 152
61 95 156
61 95 162
60 95 158
61 96 162
61 95 160
61 95 159
61 95 157
61 96 160
60 94 153
62 96 159
61 95 163
62 96 160
61 95 155
61 96 161
61 95 155
61 96 158
61 96 156
62 96 159
61 95 154
61 95 158
61 94 157
61 95 161
60 94 151
61 96 158
61 95 157
60 94 151
61 95 154
61 95 157
61 95 154
61 96 159
60 94 152
60 95 155
60 94 153
61 95 156
61 94 158
62 96 159
60 92 150
60 93 153
61 95 158
59 91 145
60 94 155
61 95 159
59 91 149
60 93 153
60 94 153
60 93 154
60 94 157
60 94 157
60 92 153
60 93 156
60 93 155
61 94 161
60 94 159
59 91 153
57 88 149
103 127 183
200 219 247
210 229 255
210 229 255
210 229 255
210 229 255
210 229 255
210 229 255
210 230 255
210 230 255
210 230 255
210 230 255
211 230 255
211 230 255
211 230 255
211 230 255
211 230 255
211 230 255
211 230 255
211 230 255
211 230 255
211 230 255
211 230 255
211 230 255
211 230 255
211 230 255
211 230 255
211 230 255
211 230 255
211 230 255
211 229 254
169 177 175
130 125 82
125 119 79
134 128 85
132 126 84
124 119 80
127 119 81
125 119 80
131 125 85
130 125 85
127 119 80
128 120 82
133 125 85
139 132 88
141 134 90
133 123 83
135 128 87
131 124 84
141 134 90
145 136 91
139 131 89
139 132 89
146 139 93
142 135 91
147 139 93
142 137 92
147 140 94
150 143 96
147 138 93
153 146 97
154 147 97
149 142 95
154 148 99
151 143 95
150 142 94
155 148 98
156 149 98
156 148 98
156 149 99
157 151 100
158 152 100
155 149 98
157 151 100
159 153 101
160 152 101
160 152 100
155 148 96
160 153 100
164 158 105
162 156 102
161 155 102
165 158 104
164 158 103
163 157 102
160 155 99
162 158 102
163 156 102
164 158 101
164 157 101
163 158 104
166 159 103
165 160 105
167 160 103
165 159 103
161 154 98
162 157 100
165 158 103
163 157 103
166 160 103
162 155 99
164 159 103
160 154 100
167 161 103
167 159 102
165 159 102
167 161 104
163 158 101
164 159 102
163 158 100
167 162 104
163 158 103
163 158 101
165 160 102
162 157 100
164 158 101
164 159 103
164 158 101
162 156 97
162 157 100
168 162 102
166 160 100
165 159 101
157 153 97
162 157 101
164 159 101
161 156 100
160 155 99
161 155 97
165 159 98
161 157 100
159 154 98
162 157 99
160 156 97
159 154 96
159 155 97
163 158 99
161 155 97
154 150 93
162 157 101
159 153 97
155 150 96
155 150 94
161 157 100
158 153 96
159 154 96
154 150 92
154 149 91
153 147 92
159 154 95
151 147 91
157 152 92
152 148 94
154 148 93
151 145 90
156 151 92
156 151 96
157 151 94
155 149 94
155 150 93
146 141 87
150 145 91
152 147 92
157 151 94
181 202 228
181 202 228
182 202 228
181 201 228
181 201 228
181 201 228
180 201 228
180 201 228
180 201 228
179 200 228
180 201 228
180 201 228
179 200 228
179 200 228
179 200 228
178 200 228
179 200 228
179 200 228
179 200 228
178 200 228
178 200 228
178 200 228
177 199 228
177 199 228
177 199 228
177 199 228
176 199 228
177 199 228
177 199 228
176 199 228
177 199 228
176 199 228
176 199 228
176 199 228
175 198 228
175 198 228
175 198 228
175 198 228
175 198 228
174 198 228
173 197 228
174 198 228
173 197 228
174 197 228
173 197 228
173 197 228
173 197 228
173 197 228
172 197 228
173 197 228
172 197 228
173 197 228
172 197 228
172 196 228
172 197 228
172 197 228
171 196 228
171 196 228
171 196 228
171 196 228
171 196 228
170 196 228
170 196 228
170 196 228
170 195 228
170 195 228
170 195 228
169 195 228
169 195 228
169 195 228
169 195 228
169 195 228
169 195 228
169 195 228
168 195 228
169 195 228
168 195 228
168 195 228
168 194 228
168 194 228
168 194 228
168 194 228
168 194 228
167 194 228
167 194 228
167 194 228
167 194 228
167 194 228
167 194 228
167 194 228
167 194 228
166 193 227
164 188 222
163 186 220
162 184 217
160 180 212
156 177 209
152 167 197
152 168 199
152 166 196
144 153 180
140 148 175
145 150 177
143 148 175
139 133 157
140 133 157
132 130 155
134 129 154
132 121 144
126 113 134
134 125 148
129 117 138
132 128 152
131 120 141
133 130 153
136 127 150
130 124 145
136 131 154
136 133 155
144 149 174
147 157 184
156 171 199
160 178 207
164 184 214
166 186 217
171 195 227
173 197 228
174 197 228
174 198 228
176 199 228
176 198 227
166 186 213
157 175 199
174 190 212
211 230 255
211 230 255
211 230 255
211 230 255
211 230 255
211 230 255
211 230 255
211 230 255
211 230 255
211 230 255
211 230 255
211 230 255
211 230 255
211 230 255
211 230 255
211 230 255
211 230 255
211 230 255
211 230 255
211 230 255
211 230 255
211 230 255
211 230 255
211 230 255
211 230 255
211 230 255
211 230 255
207 226 253
106 131 186
60 93 163
60 93 162
59 93 163
61 94 161
59 93 158
60 93 156
60 94 160
60 94 159
60 94 158
60 94 156
61 94 161
61 95 159
60 94 153
61 94 158
61 96 159
61 95 155
60 95 156
60 94 154
60 95 156
61 94 159
61 96 156
61 95 156
60 94 154
61 96 156
61 95 155
62 97 161
61 96 158
61 95 158
62 97 164
61 96 159
61 95 153
61 95 157
61 96 157
61 95 154
60 94 152
60 95 154
60 94 153
62 97 162
61 94 153
60 94 153
61 95 157
61 95 157
61 96 156
60 95 157
61 96 155
61 95 154
61 96 163
61 95 159
61 95 155
60 94 152
60 93 152
61 95 160
60 94 152
60 94 154
61 94 155
61 94 155
60 93 155
60 95 157
61 95 156
60 93 152
60 94 155
60 94 157
61 95 159
59 92 151
59 91 152
60 93 150
60 92 151
60 94 158
60 93 154
60 93 155
59 92 158
59 91 151
60 92 154
59 91 155
103 126 175
205 224 251
211 230 255
211 230 255
211 230 255
211 230 255
211 230 255
211 230 255
211 230 255
211 230 255
211 230 255
211 230 255
211 230 255
211 230 255
211 230 255
211 230 255
211 230 255
211 230 255
211 230 255
211 230 255
211 230 255
211 230 255
211 230 255
211 230 255
211 230 255
211 230 255
211 230 255
211 230 255
211 230 255
174 184 186
127 123 79
124 119 80
124 119 79
130 124 83
132 127 86
132 124 83
126 120 82
127 120 82
130 122 84
131 124 84
132 125 85
137 128 87
133 125 85
132 124 84
142 135 91
136 130 88
141 131 88
140 135 91
133 128 87
140 134 90
142 133 89
138 132 90
141 133 89
147 140 93
148 137 92
148 140 93
150 145 97
147 139 92
147 139 93
152 145 97
151 143 96
149 141 94
150 143 96
153 146 98
152 147 98
156 148 98
153 145 95
159 152 100
154 148 98
157 150 100
156 146 96
159 150 98
161 155 102
161 155 101
157 151 99
160 155 101
161 153 100
164 157 102
162 155 101
160 153 99
161 156 102
157 151 98
162 156 100
162 157 102
161 155 100
162 156 101
166 160 103
161 155 101
165 158 102
164 158 103
164 157 101
164 157 102
168 162 104
162 155 102
162 158 100
164 159 102
163 156 101
162 155 101
167 162 104
165 159 101
163 157 99
161 155 102
166 159 102
160 155 99
165 159 102
162 156 98
165 160 102
162 156 98
169 162 103
164 159 101
163 159 100
162 157 98
163 158 100
165 160 103
166 161 102
164 159 101
165 159 103
165 159 101
165 161 101
164 159 101
166 161 103
163 158 100
160 155 97
162 157 98
162 156 100
163 157 100
164 159 100
163 157 99
163 159 99
161 155 98
162 157 99
163 158 99
159 155 95
165 159 100
163 157 97
161 156 98
161 156 99
157 152 95
155 150 94
157 152 95
159 154 95
156 151 95
158 153 95
156 151 94
162 156 99
162 156 100
155 150 91
159 154 96
154 149 92
149 144 90
156 151 96
157 152 92
155 150 93
155 150 91
158 153 93
150 145 90
152 146 90
155 150 92
159 153 95
149 144 89
152 146 91
145 140 87
151 146 91
183 202 228
181 201 228
182 202 228
182 202 228
181 202 228
181 201 228
181 201 228
181 201 228
180 201 228
180 201 228
180 201 228
179 200 228
179 200 228
180 201 228
179 200 228
179 200 228
179 200 228
179 200 228
178 200 228
178 200 228
178 200 228
177 199 228
178 200 228
178 200 228
178 199 228
178 200 228
177 199 228
177 199 228
177 199 228
177 199 228
177 199 228
176 199 228
175 198 228
176 198 228
175 198 228
176 199 228
175 198 228
175 198 228
175 198 228
175 198 228
175 198 228
175 198 228
174 198 228
174 198 228
174 197 228
173 197 228
174 198 228
173 197 228
174 198 228
173 197 228
173 197 228
173 197 228
172 197 228
173 197 228
173 197 228
172 196 228
172 196 228
172 196 228
172 196 228
171 196 228
172 196 228
171 196 228
171 196 228
171 196 228
171 196 228
170 196 228
170 196 228
170 196 228
170 195 228
170 195 228
170 195 228
169 195 228
169 195 228
169 195 228
169 195 228
169 195 228
169 195 228
169 195 228
169 195 228
168 195 228
169 195 228
169 195 228
169 195 228
168 195 228
168 195 228
168 194 228
168 194 228
168 194 228
167 194 228
167 194 228
167 193 227
166 191 224
164 187 220
164 189 222
160 181 213
158 175 207
158 177 209
154 170 201
151 166 196
154 167 197
147 157 185
147 153 181
142 148 175
142 145 171
139 133 157
140 138 163
135 130 153
134 126 149
130 117 139
127 111 131
127 113 133
124 107 126
122 102 119
125 108 127
127 108 127
123 105 123
126 113 133
131 119 140
128 109 127
137 138 161
147 155 180
150 161 188
155 169 196
159 173 202
161 178 207
168 190 221
173 196 227
173 197 228
174 198 228
175 198 228
176 199 228
175 197 225
169 189 216
159 176 200
181 198 221
212 230 255
212 230 255
212 230 255
212 230 255
211 230 255
211 230 255
211 230 255
211 230 255
211 230 255
211 230 255
211 230 255
211 230 255
211 230 255
211 230 255
211 230 255
211 230 255
211 230 255
211 230 255
211 230 255
211 230 255
211 230 255
211 230 255
211 230 255
211 230 255
211 230 255
208 227 253
121 144 191
59 93 160
60 94 162
60 94 158
60 94 160
59 92 154
59 93 154
60 94 158
60 95 155
61 96 162
60 94 158
60 95 157
60 94 155
61 94 161
60 95 151
61 95 157
60 95 151
61 94 156
61 94 152
61 95 158
61 96 160
61 96 160
62 97 162
61 95 154
62 97 160
61 95 157
60 95 157
61 95 160
61 95 152
61 95 154
62 96 159
60 93 153
61 96 157
60 94 151
61 96 158
61 95 159
61 97 161
61 96 156
61 95 157
61 96 154
61 95 152
61 95 156
61 95 153
61 95 157
60 94 152
61 96 158
61 94 152
60 94 151
61 96 156
61 96 156
61 96 157
61 94 151
61 94 151
60 95 155
61 94 155
61 95 155
61 94 156
60 95 155
62 96 160
62 96 154
61 95 158
60 93 152
61 93 150
61 95 156
60 93 150
60 94 153
61 95 154
60 93 152
60 92 153
60 92 154
59 92 151
60 94 156
59 92 154
59 91 151
58 90 150
59 91 150
59 91 154
115 137 184
209 228 254
211 230 255
211 230 255
211 230 255
211 230 255
211 230 255
211 230 255
211 230 255
211 230 255
211 230 255
211 230 255
211 230 255
211 230 255
211 230 255
211 230 255
211 230 255
211 230 255
211 230 255
211 230 255
211 230 255
211 230 255
211 230 255
212 230 255
212 230 255
212 230 255
212 230 255
178 189 194
125 121 81
130 125 84
129 123 82
123 117 79
121 117 80
134 126 86
124 120 81
134 126 85
127 122 84
127 122 84
133 127 86
132 123 84
130 125 86
136 129 88
128 120 83
128 121 84
134 129 88
135 129 87
148 138 93
137 131 89
136 130 87
143 134 90
144 138 93
145 137 91
146 138 92
146 137 91
147 140 93
140 132 89
150 142 94
152 143 94
153 147 97
147 141 94
155 149 98
150 143 94
161 154 102
155 150 100
155 147 98
157 150 97
159 151 100
156 151 100
153 147 96
161 156 102
159 153 101
155 148 98
158 151 99
163 154 101
158 151 99
163 153 100
160 153 99
160 154 100
165 158 103
161 153 99
163 156 101
162 154 100
163 156 100
165 157 102
159 153 99
164 158 102
164 159 101
165 158 102
167 161 104
162 155 100
167 161 105
169 163 105
159 153 97
170 164 105
164 158 101
167 160 103
166 160 104
165 158 101
166 161 104
168 162 102
163 156 97
166 160 102
165 159 102
166 161 101
167 162 103
163 157 100
167 161 102
164 159 100
162 156 97
166 160 102
169 163 105
163 159 100
167 162 104
166 160 102
167 161 101
162 157 97
167 161 99
162 157 98
163 159 100
166 161 102
165 160 100
163 158 98
165 160 100
163 157 98
166 160 100
163 157 99
166 160 101
162 157 99
165 160 100
156 151 95
155 150 93
163 157 99
162 157 99
156 151 95
165 159 101
156 152 95
159 153 94
157 151 95
157 152 93
158 153 96
155 150 93
160 155 97
159 154 97
158 153 95
156 150 92
158 152 94
158 153 93
156 150 93
155 151 92
159 154 94
154 148 92
158 152 93
153 148 90
151 146 88
155 149 95
157 152 93
158 152 91
154 149 92
155 150 92
155 149 93
150 145 87
156 151 93
183 202 228
183 202 228
183 202 228
181 201 228
182 202 228
182 202 228
181 202 228
181 201 228
181 201 228
181 201 228
180 201 228
181 201 228
180 201 228
180 201 228
179 200 228
180 201 228
180 201 228
179 200 228
179 200 228
178 200 228
179 200 228
178 200 228
178 200 228
178 200 228
179 200 228
178 200 228
178 200 228
177 199 228
178 199 228
177 199 228
177 199 228
177 199 228
177 199 228
176 199 228
176 199 228
176 198 228
176 199 228
175 198 228
176 199 228
175 198 228
176 198 228
175 198 228
175 198 228
174 198 228
174 198 228
174 198 228
175 198 228
174 198 228
174 198 228
174 197 228
174 197 228
173 197 228
173 197 228
173 197 228
172 197 228
173 197 228
173 197 228
173 197 228
172 197 228
172 196 228
172 196 228
172 196 228
172 196 228
171 196 228
171 196 228
171 196 228
171 196 228
171 196 228
171 196 228
171 196 228
170 196 228
170 196 228
170 196 228
170 195 228
170 196 228
170 195 228
170 195 228
169 195 228
170 195 228
169 195 228
169 195 228
170 195 228
169 195 228
169 195 228
169 195 228
168 195 228
169 195 228
168 195 228
168 195 228
168 195 228
167 192 226
166 190 223
164 188 221
164 187 220
162 183 215
160 183 215
159 176 208
159 177 208
156 173 203
155 169 199
150 162 191
148 155 182
147 157 185
142 147 173
143 145 171
136 125 147
132 124 146
137 127 150
135 124 146
124 105 123
127 105 124
123 94 111
124 98 116
120 85 100
114 94 111
122 99 116
121 92 107
125 108 126
134 118 137
134 126 147
139 133 155
146 154 179
145 156 182
155 168 196
158 174 202
162 182 212
168 190 221
173 196 227
174 198 228
175 198 228
176 199 228
177 199 228
174 195 223
171 191 218
162 180 204
187 204 227
212 230 255
212 230 255
212 230 255
212 230 255
212 230 255
212 230 255
212 230 255
212 230 255
212 230 255
212 230 255
212 230 255
212 230 255
211 230 255
211 230 255
211 230 255
211 230 255
211 230 255
211 230 255
211 230 255
211 230 255
211 230 255
211 230 255
211 230 255
211 230 255
142 163 204
59 93 158
60 93 159
60 95 163
60 95 162
60 94 158
60 95 162
60 94 159
61 96 160
60 94 157
61 95 158
60 94 157
61 96 159
60 95 158
61 95 158
62 97 163
59 93 152
60 94 156
61 95 158
61 95 159
61 96 160
61 95 155
61 95 155
61 96 160
61 96 159
61 96 154
62 97 158
60 94 149
61 95 157
62 97 161
61 95 151
61 95 157
61 94 155
61 96 163
62 97 156
59 93 150
60 94 149
61 95 157
60 95 150
61 94 153
61 95 156
61 95 153
61 95 156
60 94 154
61 96 160
61 95 152
61 96 158
61 96 159
60 94 155
61 96 156
60 94 154
61 96 156
60 93 150
61 96 159
60 94 151
61 96 157
59 93 149
60 93 150
61 95 156
61 95 159
61 95 153
60 94 151
60 94 155
59 93 151
59 93 148
61 94 151
60 94 154
60 92 152
60 93 152
61 95 156
61 94 157
60 93 154
60 93 152
59 92 151
59 92 150
59 92 150
60 93 156
60 93 156
59 90 152
138 158 197
211 230 255
211 230 255
211 230 255
211 230 255
211 230 255
211 230 255
211 230 255
211 230 255
211 230 255
211 230 255
211 230 255
211 230 255
211 230 255
212 230 255
212 230 255
212 230 255
212 230 255
212 230 255
212 230 255
212 230 255
212 230 255
212 230 255
212 230 255
212 230 255
179 191 200
122 118 76
128 123 82
136 130 86
121 116 79
127 124 84
128 124 84
128 122 83
124 116 80
134 128 86
130 125 85
123 117 81
127 119 81
133 127 86
130 124 84
135 130 88
122 116 80
138 132 89
141 136 91
139 131 89
137 130 87
136 131 88
144 137 92
143 136 92
140 135 90
145 139 93
149 140 94
148 143 96
148 140 93
151 144 97
151 144 95
148 141 93
153 147 98
155 148 98
151 143 94
150 143 95
154 147 96
157 151 99
156 148 97
155 147 97
156 151 100
157 149 97
157 150 98
159 152 99
162 155 102
158 151 99
161 153 99
158 150 98
159 153 100
164 158 102
162 155 102
163 155 102
162 154 100
168 160 103
162 156 101
159 152 96
161 154 101
161 152 98
165 158 103
164 158 102
166 160 103
163 156 99
162 156 100
167 160 103
167 160 103
169 163 105
169 164 105
166 159 102
169 163 105
168 162 104
168 162 105
165 158 99
166 160 102
165 159 103
166 160 103
164 157 101
163 158 101
167 161 102
166 160 102
162 157 99
168 163 105
166 159 101
168 163 103
164 159 101
167 162 102
166 160 102
167 162 102
165 160 101
168 163 102
168 163 103
165 159 101
165 159 99
160 155 97
162 158 98
164 159 98
164 159 99
169 163 100
166 161 101
163 158 99
166 161 99
164 159 99
163 158 98
161 155 96
162 156 98
167 161 101
160 154 96
162 157 97
162 157 98
165 159 99
162 157 97
158 153 95
156 152 95
162 157 97
157 152 97
164 159 96
160 154 95
156 151 94
162 157 97
160 156 96
159 154 97
156 151 92
159 154 96
156 152 96
155 150 93
160 155 97
157 152 94
157 151 91
160 155 97
153 148 89
151 146 90
146 142 88
154 149 93
153 148 92
156 151 92
158 152 96
157 151 93
182 202 228
183 202 228
182 202 228
183 202 228
181 202 228
182 202 228
181 201 228
182 202 228
181 201 228
181 202 228
181 201 228
181 201 228
181 201 228
181 201 228
180 201 228
180 201 228
180 201 228
179 200 228
180 201 228
180 201 228
179 200 228
179 200 228
179 200 228
179 200 228
178 200 228
178 200 228
178 200 228
178 200 228
178 200 228
177 199 228
177 199 228
178 199 228
178 199 228
177 199 228
177 199 228
177 199 228
177 199 228
176 199 228
176 199 228
177 199 228
176 198 228
175 198 228
175 198 228
176 198 228
175 198 228
175 198 228
175 198 228
175 198 228
174 198 228
175 198 228
174 198 228
173 197 228
174 198 228
174 197 228
174 198 228
174 198 228
173 197 228
173 197 228
173 197 228
173 197 228
172 197 228
172 197 228
172 197 228
172 197 228
172 197 228
172 197 228
172 197 228
172 196 228
172 196 228
171 196 228
171 196 228
171 196 228
171 196 228
171 196 228
171 196 228
170 196 228
170 196 228
171 196 228
170 196 228
169 195 228
170 196 228
170 195 228
170 195 228
169 195 228
170 195 228
170 195 228
170 195 228
169 195 228
169 195 228
169 194 228
167 192 225
168 193 226
167 190 223
165 187 219
162 181 213
162 182 213
160 179 210
159 177 208
153 165 194
156 170 200
154 167 196
152 165 194
152 161 189
145 148 174
140 147 172
141 136 160
138 133 157
135 126 148
135 120 140
130 113 133
124 95 111
124 89 104
122 92 108
114 79 92
119 84 98
115 75 87
118 82 95
119 88 102
120 98 115
128 118 137
131 119 139
143 141 163
144 145 168
149 155 180
150 163 189
160 177 206
163 181 210
168 189 219
173 197 227
175 198 228
175 198 228
176 199 228
177 199 228
174 195 223
170 190 217
162 180 204
194 212 236
212 230 255
212 230 255
212 230 255
212 230 255
212 230 255
212 230 255
212 230 255
212 230 255
212 230 255
212 230 255
212 230 255
212 230 255
212 230 255
212 230 255
212 230 255
212 230 255
212 230 255
212 230 255
212 230 255
212 230 255
211 230 255
211 230 255
165 185 220
59 93 158
59 93 162
60 93 158
60 93 157
60 94 161
60 94 160
60 94 160
61 96 161
60 94 157
60 94 154
61 96 161
60 94 150
61 96 159
60 94 157
61 96 160
61 96 156
61 95 154
61 95 158
60 94 153
61 96 157
60 94 152
61 95 157
61 95 160
61 96 159
60 95 154
60 95 155
60 93 153
62 97 160
61 96 159
61 96 155
60 94 156
62 96 156
62 96 156
61 96 158
61 96 160
61 96 158
60 95 154
61 96 156
62 97 161
62 97 160
61 96 158
61 96 156
61 96 159
61 96 158
60 93 149
61 95 156
61 95 155
61 95 151
60 94 151
61 96 154
61 94 150
61 96 155
60 93 152
61 95 156
60 95 149
60 94 155
61 96 159
61 95 157
61 95 151
60 94 152
61 95 155
61 95 157
60 94 150
61 95 154
60 94 157
61 95 156
60 93 153
60 94 154
60 93 152
59 92 149
60 93 150
59 92 149
60 93 152
61 93 156
60 94 160
59 92 149
60 92 153
59 90 148
59 91 149
57 88 144
163 182 215
211 230 255
211 230 255
212 230 255
212 230 255
212 230 255
212 230 255
212 230 255
212 230 255
212 230 255
212 230 255
212 230 255
212 230 255
212 230 255
212 230 255
212 230 255
212 230 255
212 230 255
212 230 255
212 230 255
212 230 255
212 230 255
212 230 255
182 194 202
119 115 75
130 125 81
131 125 83
128 122 81
128 123 84
124 117 79
124 119 81
129 121 82
126 119 81
124 116 79
128 124 85
127 121 82
131 125 84
125 119 82
131 125 85
133 125 86
137 131 88
133 128 88
142 135 91
131 122 83
138 130 88
137 132 89
143 135 91
138 130 88
146 140 92
150 143 95
141 135 89
144 135 91
147 138 92
150 144 96
147 141 93
151 144 96
146 142 94
155 146 96
153 144 95
148 141 93
151 144 95
158 152 100
159 152 99
160 152 100
157 151 99
159 151 99
161 154 100
162 154 101
155 149 95
159 150 98
161 155 101
163 155 100
162 154 100
161 154 99
164 156 100
164 157 103
166 160 103
160 154 100
165 157 103
165 157 101
162 156 102
170 163 105
165 161 104
159 151 98
163 156 101
165 158 103
164 158 99
169 163 104
166 161 103
166 161 103
168 160 101
169 162 105
165 158 100
167 161 103
166 160 104
164 158 100
166 160 103
168 163 101
165 159 100
167 161 102
169 162 101
167 162 103
169 162 103
166 160 100
167 161 100
167 161 102
166 160 100
168 162 102
165 160 99
164 159 99
167 161 100
164 158 100
163 158 101
162 157 100
168 161 102
169 163 103
163 158 98
168 163 102
167 161 100
164 158 99
169 163 101
164 160 100
161 156 96
163 158 98
162 157 99
162 157 97
163 157 97
166 161 101
160 155 96
165 159 98
162 157 98
161 155 97
163 159 99
163 158 98
166 160 97
158 153 95
160 155 94
159 153 92
158 154 95
159 154 93
157 152 92
164 159 97
160 155 96
159 153 94
154 149 88
159 153 94
160 154 95
157 151 95
157 152 92
156 151 92
155 150 92
152 147 87
154 149 89
152 146 89
154 148 91
161 154 95
155 149 92
155 148 91
155 150 92
150 145 89
183 203 228
183 202 228
183 203 228
183 202 228
182 202 228
182 202 228
182 202 228
181 202 228
181 201 228
181 201 228
181 202 228
181 201 228
181 201 228
181 201 228
180 201 228
180 201 228
180 201 228
180 201 228
180 201 228
179 200 228
179 200 228
179 200 228
179 201 228
179 200 228
180 201 228
178 200 228
179 200 228
179 200 228
178 200 228
177 199 228
178 200 228
178 200 228
178 200 228
178 200 228
177 199 228
177 199 228
177 199 228
176 199 228
177 199 228
177 199 228
177 199 228
176 199 228
176 199 228
177 199 228
175 198 228
175 198 228
175 198 228
175 198 228
175 198 228
175 198 228
174 198 228
175 198 228
175 198 228
174 198 228
174 198 228
174 198 228
174 198 228
173 197 228
174 197 228
173 197 228
173 197 228
173 197 228
173 197 228
173 197 228
173 197 228
172 197 228
173 197 228
173 197 228
172 197 228
172 197 228
172 196 228
172 197 228
172 197 228
171 196 228
172 196 228
171 196 228
171 196 228
171 196 228
171 196 228
170 196 228
170 196 228
170 196 228
170 196 228
170 196 228
170 195 228
170 195 228
170 196 228
170 195 228
169 195 228
170 195 228
169 194 227
169 193 226
167 191 223
165 187 219
161 181 212
163 183 214
164 183 214
160 177 208
157 173 203
155 172 202
153 166 195
154 168 197
153 161 188
149 160 188
145 146 171
143 139 163
146 149 175
145 143 167
137 130 152
133 114 134
128 103 120
116 81 95
116 75 87
110 67 77
111 66 76
114 57 65
114 75 86
116 80 93
124 94 108
133 117 136
132 117 136
133 127 148
142 144 167
145 148 172
149 155 179
153 162 188
158 171 197
164 181 209
166 186 216
174 197 227
176 198 228
176 199 228
177 199 228
178 200 228
178 199 226
167 186 211
162 179 202
194 211 235
212 231 255
212 231 255
212 231 255
212 231 255
212 231 255
212 230 255
212 230 255
212 230 255
212 230 255
212 230 255
212 230 255
212 230 255
212 230 255
212 230 255
212 230 255
212 230 255
212 230 255
212 230 255
212 230 255
212 230 255
191 210 239
61 93 157
59 92 158
60 94 163
59 93 155
60 95 160
59 93 153
60 94 158
61 95 160
60 93 156
61 95 154
60 95 153
61 96 158
60 94 157
60 94 155
61 96 159
61 96 156
60 93 151
60 94 156
60 94 152
61 95 158
60 95 153
60 94 153
61 96 160
61 96 157
61 96 158
61 95 155
61 95 154
61 95 157
61 96 155
60 94 152
60 95 152
60 94 149
61 95 148
61 96 154
60 94 155
61 96 155
62 96 157
62 97 161
61 95 153
61 96 156
61 96 155
61 95 155
60 95 153
61 96 161
61 95 154
60 95 149
61 95 150
61 95 154
60 95 156
61 95 156
60 95 153
61 95 152
61 96 153
61 96 155
61 94 149
61 96 158
61 96 159
60 94 149
61 95 154
61 95 153
60 95 155
60 95 156
61 95 156
60 93 149
61 95 156
61 94 154
61 95 155
59 92 145
60 93 150
61 96 156
60 93 150
59 93 147
60 93 151
59 93 149
61 95 155
59 92 152
60 93 157
59 92 150
58 90 149
59 92 153
59 92 157
67 97 161
188 206 235
212 230 255
212 230 255
212 230 255
212 230 255
212 230 255
212 230 255
212 230 255
212 230 255
212 230 255
212 230 255
212 230 255
212 230 255
212 230 255
212 230 255
212 230 255
212 231 255
212 231 255
212 231 255
212 231 255
212 231 255
195 208 224
126 124 86
121 116 77
118 113 77
127 121 81
124 118 80
125 119 81
116 109 75
119 112 78
126 117 80
125 120 83
129 120 82
129 121 82
129 121 83
128 121 84
126 118 82
122 114 78
127 117 81
136 130 88
133 125 84
135 127 86
142 136 92
143 136 92
143 136 91
139 132 89
139 132 89
139 131 89
146 138 92
148 139 92
144 135 90
150 142 94
147 141 94
155 149 98
154 146 97
153 143 94
151 144 95
153 144 95
151 145 94
161 155 102
153 147 96
158 150 98
157 150 98
158 151 100
155 148 96
152 144 94
159 151 98
157 151 98
158 148 96
160 152 98
165 156 101
159 152 98
167 160 103
162 154 99
166 160 104
165 158 102
164 158 100
164 159 101
167 160 103
165 159 104
165 159 102
167 161 104
170 162 104
169 162 102
171 163 104
167 160 102
171 166 107
163 157 99
165 160 102
167 161 102
167 161 103
167 161 100
166 160 101
166 160 101
169 163 104
165 160 101
168 162 103
168 162 103
167 160 99
168 162 102
169 163 101
169 162 101
167 161 100
167 161 102
167 161 102
164 159 99
172 166 103
167 161 100
165 159 98
165 159 102
168 163 102
162 157 99
162 157 98
164 158 97
166 161 100
163 158 99
159 154 94
166 162 100
166 160 97
167 161 100
164 159 99
162 156 96
165 159 101
162 156 98
165 160 98
161 156 94
165 159 99
158 153 96
161 156 96
166 160 98
160 154 95
164 159 97
165 160 99
157 151 94
157 153 95
164 159 99
168 162 101
161 155 96
163 158 95
160 155 95
161 156 95
154 149 92
160 155 95
159 154 95
157 152 95
157 150 92
159 153 93
159 153 95
159 153 94
158 152 94
154 149 93
155 150 94
160 154 93
153 147 92
155 150 90
153 148 91
153 148 91
161 156 97
149 144 88
183 203 228
183 203 228
183 202 228
183 202 228
183 202 228
183 202 228
183 202 228
182 202 228
182 202 228
182 202 228
182 202 228
182 202 228
181 202 228
181 201 228
181 201 228
181 201 228
181 201 228
180 201 228
180 201 228
180 201 228
180 201 228
180 201 228
180 201 228
180 201 228
179 200 228
180 201 228
180 201 228
178 200 228
179 200 228
178 200 228
179 200 228
179 200 228
178 200 228
178 200 228
178 200 228
178 200 228
177 199 228
177 199 228
176 199 228
177 199 228
177 199 228
177 199 228
176 199 228
176 199 228
176 199 228
177 199 228
177 199 228
176 199 228
176 199 228
175 198 228
175 198 228
175 198 228
175 198 228
175 198 228
175 198 228
175 198 228
174 198 228
175 198 228
175 198 228
174 197 228
174 197 228
173 197 228
174 197 228
174 197 228
173 197 228
173 197 228
174 197 228
172 197 228
172 197 228
173 197 228
173 197 228
172 197 228
172 196 228
172 197 228
172 197 228
171 196 228
172 196 228
172 196 228
172 196 228
172 196 228
171 196 228
172 196 228
171 196 228
171 196 228
170 196 228
171 196 228
171 196 228
171 196 228
171 196 228
170 195 227
170 194 226
170 194 226
168 192 224
164 187 219
165 186 217
166 187 218
163 184 215
166 183 214
158 173 203
160 176 205
157 170 198
152 165 193
153 161 189
152 159 185
144 149 174
146 149 174
140 139 163
141 140 164
140 127 148
136 125 146
131 115 134
119 95 111
117 86 100
115 78 90
106 49 55
105 45 51
111 47 53
114 62 70
121 88 102
123 98 113
134 122 141
125 116 134
135 131 152
144 143 166
150 156 181
148 156 181
155 166 191
164 180 208
167 185 213
170 190 220
175 198 228
176 199 228
177 199 228
177 199 228
179 200 228
175 195 221
169 188 212
162 179 201
205 222 246
213 231 255
213 231 255
213 231 255
212 231 255
212 231 255
212 231 255
212 231 255
212 231 255
212 231 255
212 231 255
212 231 255
212 231 255
212 231 255
212 231 255
212 230 255
212 230 255
212 230 255
212 230 255
206 224 250
95 120 173
59 92 157
59 93 159
59 94 160
60 94 155
59 92 152
59 92 151
60 95 157
61 96 162
61 96 161
61 96 161
60 95 157
60 94 157
61 95 154
61 96 153
61 95 156
60 93 148
60 95 155
61 96 153
61 95 154
62 96 159
61 95 152
60 94 149
61 96 156
61 96 156
60 95 147
61 95 155
62 97 157
61 95 154
61 96 157
61 95 154
62 97 159
61 96 161
62 96 156
61 96 153
61 96 157
60 94 153
61 95 154
61 96 158
62 97 155
61 96 156
61 95 158
61 96 156
60 94 148
61 96 155
59 93 144
61 95 152
61 95 156
60 94 146
61 95 149
61 95 158
61 95 152
61 95 148
61 96 158
61 95 152
60 94 147
61 95 154
61 96 155
60 94 150
60 94 154
60 94 155
60 95 157
61 96 157
61 96 156
61 94 156
61 96 156
60 94 152
60 94 154
60 94 149
61 95 153
60 92 149
60 94 153
60 93 150
60 93 155
61 95 158
60 92 150
59 92 153
60 92 149
60 93 153
60 94 158
58 90 144
58 91 149
57 89 148
99 122 165
207 225 250
212 230 255
212 230 255
212 230 255
212 230 255
212 230 255
212 231 255
212 231 255
212 231 255
212 231 255
212 231 255
212 231 255
212 231 255
212 231 255
212 231 255
212 231 255
213 231 255
213 231 255
213 231 255
207 224 246
134 134 107
118 113 76
121 115 77
124 117 78
122 117 79
122 117 79
122 117 81
115 109 74
120 113 79
130 124 85
130 125 86
123 117 81
133 127 87
125 117 80
132 126 86
134 129 89
135 130 88
134 129 89
134 125 84
139 130 88
135 129 87
138 132 89
137 130 88
138 132 89
144 138 92
141 134 91
139 131 86
141 136 91
146 138 93
148 141 92
146 141 95
149 144 93
152 146 96
155 149 97
153 148 98
155 147 96
159 153 100
147 140 92
158 150 99
156 150 99
157 149 97
154 148 96
150 145 97
157 149 94
157 149 95
159 153 100
156 148 95
158 151 98
160 154 100
162 153 99
160 155 100
159 152 97
164 156 99
158 152 95
164 156 98
162 154 96
163 155 99
161 156 100
162 156 97
165 158 103
167 160 102
160 155 98
163 154 98
166 158 99
168 162 101
173 166 105
166 160 98
166 160 100
165 159 98
168 162 102
169 163 103
166 159 100
167 161 100
170 164 104
170 163 103
166 161 101
170 165 104
168 162 100
166 159 101
166 159 100
169 162 101
163 159 100
168 162 101
166 161 98
166 161 100
168 163 103
171 164 103
164 159 99
168 163 104
163 158 96
159 154 95
167 161 99
164 159 99
168 163 103
165 160 100
165 160 98
168 163 102
168 163 103
167 162 101
162 157 98
163 158 97
162 156 95
160 156 96
169 163 101
165 160 97
161 156 97
163 158 98
159 153 93
163 157 97
159 154 93
166 160 99
155 150 92
158 152 94
160 155 92
164 159 97
162 156 96
165 159 99
158 153 92
162 157 96
162 156 97
161 156 96
158 152 94
161 155 95
157 152 94
160 154 92
157 152 95
161 155 94
159 154 95
157 151 94
156 149 92
161 155 93
147 141 86
156 150 93
152 146 87
156 150 89
155 150 90
152 146 89
152 146 87
184 203 228
183 202 228
183 203 228
183 203 228
184 203 228
183 202 228
183 202 228
183 202 228
183 202 228
182 202 228
183 202 228
182 202 228
182 202 228
182 202 228
182 202 228
182 202 228
181 201 228
181 201 228
181 201 228
181 201 228
181 202 228
180 201 228
181 201 228
180 201 228
180 201 228
179 200 228
179 200 228
180 201 228
179 200 228
179 200 228
179 200 228
179 200 228
178 200 228
178 200 228
178 200 228
179 200 228
178 200 228
178 200 228
178 200 228
178 200 228
178 200 228
177 199 228
178 200 228
177 199 228
177 199 228
177 199 228
177 199 228
177 199 228
176 199 228
176 199 228
176 199 228
176 199 228
176 198 228
175 198 228
176 198 228
175 198 228
175 198 228
175 198 228
175 198 228
175 198 228
175 198 228
174 198 228
175 198 228
175 198 228
174 198 228
175 198 228
174 197 228
174 198 228
173 197 228
173 197 228
173 197 228
173 197 228
173 197 228
173 197 228
173 197 228
173 197 228
173 197 228
172 197 228
172 196 228
173 197 228
172 197 228
172 197 228
172 196 228
172 196 228
171 196 228
171 196 228
172 196 228
172 196 228
171 196 228
171 196 228
170 195 227
168 192 223
170 194 226
169 191 223
167 189 220
167 187 218
165 185 216
166 185 216
162 179 208
163 180 210
158 174 203
159 172 200
156 166 194
157 168 196
147 151 176
148 152 177
145 151 176
141 143 167
144 144 167
138 128 149
138 126 147
130 108 126
133 105 121
118 85 98
113 64 73
118 59 66
110 47 53
105 45 50
111 66 75
126 93 107
128 105 121
132 120 138
140 134 155
139 134 154
145 146 168
147 153 177
152 160 185
162 176 203
160 174 201
169 188 217
170 190 219
176 198 228
176 199 228
178 199 228
178 200 228
180 201 228
174 194 220
169 187 212
173 189 211
211 228 253
213 231 255
213 231 255
213 231 255
213 231 255
213 231 255
213 231 255
213 231 255
213 231 255
213 231 255
213 231 255
213 231 255
213 231 255
212 231 255
212 231 255
212 231 255
212 231 255
212 231 255
134 155 195
58 91 153
59 93 162
59 93 159
60 95 159
60 94 156
61 96 161
60 94 160
60 94 158
60 94 158
60 94 157
60 94 156
60 94 155
60 94 156
61 96 158
61 94 155
60 94 153
59 93 148
62 96 158
60 94 155
61 96 156
61 96 154
60 95 155
61 97 157
61 96 154
62 97 158
61 96 155
61 96 159
61 95 155
61 95 155
62 97 162
61 95 157
61 95 153
61 95 154
61 96 157
61 95 151
61 95 151
61 96 156
61 96 152
61 96 153
61 96 150
61 96 157
62 97 157
61 96 151
62 97 158
60 94 148
61 95 151
60 94 148
61 95 153
61 96 153
61 95 153
60 94 151
62 97 156
60 95 146
60 95 151
62 97 158
62 96 156
61 95 151
61 96 156
60 94 151
61 96 156
61 95 151
59 94 150
60 93 147
60 94 151
61 95 152
61 94 152
60 94 151
60 94 151
60 94 151
60 93 149
61 95 155
59 92 146
60 93 153
60 93 149
60 94 153
60 94 158
60 93 156
59 92 144
59 91 149
58 89 142
59 90 144
59 91 146
58 91 153
57 88 145
138 158 194
212 231 255
212 231 255
212 231 255
212 231 255
213 231 255
213 231 255
213 231 255
213 231 255
213 231 255
213 231 255
213 231 255
213 231 255
213 231 255
213 231 255
213 231 255
213 231 255
213 231 255
211 228 252
153 155 137
119 114 74
117 113 75
119 115 78
128 123 83
123 118 79
123 117 80
120 113 78
121 114 78
123 118 81
127 121 84
123 115 79
127 120 82
129 123 85
137 131 90
129 122 83
135 128 87
129 123 84
135 131 90
140 133 91
130 123 83
141 134 91
141 132 89
140 133 89
146 140 93
140 132 87
146 137 91
144 136 90
145 137 91
141 131 87
149 140 93
146 141 93
146 138 93
152 144 95
154 146 94
148 140 93
153 147 95
154 147 95
159 151 97
158 150 98
154 147 97
156 150 97
156 149 97
160 155 100
165 158 102
159 152 97
161 154 99
159 151 96
159 151 98
161 154 98
162 154 100
166 157 101
161 154 98
163 155 97
163 156 100
169 160 102
162 155 100
165 159 101
171 163 103
165 159 103
163 156 97
168 160 100
167 161 101
168 161 101
169 163 100
169 161 100
166 159 101
164 159 102
168 161 102
168 162 102
169 163 103
167 161 102
169 163 103
166 161 101
170 163 104
167 160 99
172 165 102
167 162 102
168 163 100
168 162 102
168 162 100
169 163 102
166 161 100
170 164 102
162 156 97
168 162 101
168 162 103
167 161 99
165 159 99
169 164 103
171 165 104
166 161 97
165 159 98
167 162 99
166 161 101
168 162 99
165 159 97
159 152 93
167 160 98
162 157 96
167 161 100
164 158 96
168 162 99
163 158 98
165 159 99
168 162 100
162 157 95
165 159 97
162 157 96
164 159 98
161 155 94
161 156 95
159 155 94
165 160 98
164 158 98
163 157 96
162 157 93
161 156 94
159 154 93
163 157 95
163 157 97
157 152 93
159 154 94
155 150 92
160 154 95
156 150 90
165 159 97
157 151 91
157 152 92
158 151 93
161 156 93
156 150 92
152 147 89
153 147 89
153 147 89
160 153 92
154 148 88
154 149 89
160 154 93
184 203 228
185 203 228
184 203 228
184 203 228
184 203 228
183 203 228
183 202 228
183 202 228
184 203 228
182 202 228
182 202 228
183 202 228
182 202 228
182 202 228
182 202 228
182 202 228
181 201 228
182 202 228
182 202 228
181 201 228
181 201 228
181 202 228
181 201 228
181 201 228
181 201 228
180 201 228
180 201 228
180 201 228
180 201 228
179 200 228
180 201 228
180 201 228
180 201 228
180 201 228
179 200 228
179 200 228
179 200 228
179 200 228
178 200 228
178 200 228
178 200 228
178 200 228
178 200 228
178 200 228
177 199 228
177 199 228
178 200 228
177 199 228
177 199 228
177 199 228
177 199 228
176 199 228
176 199 228
177 199 228
176 199 228
176 199 228
176 198 228
176 198 228
176 198 228
175 198 228
175 198 228
176 198 228
175 198 228
175 198 228
174 198 228
175 198 228
175 198 228
174 198 228
174 198 228
175 198 228
174 198 228
174 198 228
174 198 228
174 198 228
173 197 228
173 197 228
173 197 228
173 197 228
173 197 228
172 197 228
172 197 228
173 197 228
173 197 228
173 197 228
172 197 228
172 196 228
172 197 228
172 196 228
172 196 228
172 196 228
172 196 228
171 196 228
171 194 225
169 192 224
169 191 223
168 190 220
166 186 217
166 187 218
165 184 214
163 181 211
160 176 205
160 172 201
157 173 201
153 162 189
156 163 189
151 156 181
149 157 182
150 152 176
142 140 163
142 137 159
139 132 153
140 127 147
129 103 118
127 99 114
125 94 107
119 77 87
115 69 78
109 54 61
108 52 59
115 70 80
126 102 117
129 107 123
132 117 135
138 131 151
143 142 164
146 149 172
151 154 178
160 169 195
161 176 202
163 177 203
168 185 213
175 196 225
177 199 228
177 199 228
178 200 228
179 200 228
179 199 226
172 191 216
167 184 207
181 197 219
213 231 255
213 231 255
213 231 255
213 231 255
213 231 255
213 231 255
213 231 255
213 231 255
213 231 255
213 231 255
213 231 255
213 231 255
213 231 255
213 231 255
213 231 255
213 231 255
177 195 228
58 91 155
59 92 157
60 93 158
60 94 154
60 95 159
60 94 156
59 92 153
61 96 160
60 94 154
60 94 151
60 94 157
59 93 151
60 94 154
60 95 159
60 95 155
61 96 155
60 94 152
61 96 156
60 95 157
60 94 156
60 94 149
61 95 155
61 95 150
61 95 160
61 95 153
60 94 144
61 95 154
60 94 150
61 96 157
62 97 158
62 97 160
61 95 154
61 96 156
61 96 157
60 95 147
62 97 155
62 96 154
62 97 159
61 95 152
62 97 156
60 94 148
62 97 156
61 96 154
61 95 151
61 96 154
60 95 149
61 95 149
60 95 152
61 96 153
60 95 151
60 94 152
60 94 152
60 95 149
61 96 155
61 95 157
62 96 158
60 94 153
61 95 155
60 94 151
61 96 154
61 95 154
60 94 146
62 97 159
60 93 145
61 95 156
60 94 150
61 95 160
59 93 144
61 95 152
60 94 152
60 93 146
60 93 150
59 93 151
60 94 148
60 93 152
60 93 149
60 93 148
59 93 154
59 93 153
59 91 149
58 91 146
58 90 143
59 92 149
59 92 153
58 90 149
57 89 149
182 200 228
213 231 255
213 231 255
213 231 255
213 231 255
213 231 255
213 231 255
213 231 255
213 231 255
213 231 255
213 231 255
213 231 255
213 231 255
213 231 255
213 231 255
213 231 255
213 231 255
178 190 198
124 120 79
125 121 80
124 119 80
122 119 81
120 114 78
114 109 76
123 114 79
114 109 77
120 115 80
126 118 82
119 112 78
124 118 81
121 115 79
126 120 82
128 122 84
126 120 82
129 122 83
137 129 87
132 127 86
135 124 85
143 138 92
133 124 85
137 131 89
142 134 89
139 130 87
140 132 86
142 133 89
147 140 94
148 140 93
144 138 91
147 141 93
150 143 93
154 143 93
153 147 96
149 142 94
150 142 92
156 148 97
156 147 96
158 150 95
155 147 94
160 153 99
161 153 99
158 151 99
162 154 99
165 157 101
162 154 97
162 155 100
162 155 100
165 157 100
163 156 99
165 157 99
162 155 99
165 158 100
160 152 94
169 163 102
169 162 104
163 156 99
163 154 95
168 162 103
165 159 101
168 161 103
170 163 104
163 155 100
169 163 104
166 160 101
165 159 101
168 162 104
170 163 103
165 159 99
170 163 103
171 165 103
167 161 100
166 160 99
169 161 100
171 164 104
170 164 102
170 164 104
167 161 101
169 162 102
173 166 104
170 164 103
164 159 98
168 162 102
165 159 98
172 165 104
170 165 103
168 161 99
167 162 99
168 163 101
168 162 100
163 158 97
171 165 102
166 161 98
166 159 98
170 164 102
166 160 96
169 162 99
167 161 98
166 161 97
167 161 98
167 161 99
165 159 99
157 152 93
164 158 96
166 159 98
161 155 94
164 158 96
164 158 98
166 160 100
160 155 93
166 159 97
165 159 96
161 155 94
166 160 98
160 155 96
161 155 95
168 162 100
162 157 96
162 156 94
161 155 94
162 156 94
161 155 92
164 158 96
159 153 91
157 151 92
156 151 91
155 149 90
160 155 92
154 149 91
159 153 93
159 153 93
153 147 87
155 149 92
153 148 89
155 150 92
158 151 90
155 149 89
161 154 95
155 149 90
184 203 228
184 203 228
184 203 228
184 203 228
185 203 228
183 203 228
184 203 228
183 202 228
184 203 228
184 203 228
183 203 228
183 202 228
183 202 228
182 202 228
182 202 228
183 202 228
182 202 228
182 202 228
182 202 228
182 202 228
181 201 228
182 202 228
182 202 228
181 202 228
181 201 228
181 201 228
180 201 228
181 201 228
181 201 228
180 201 228
180 201 228
180 201 228
180 201 228
180 201 228
180 201 228
179 200 228
179 200 228
178 200 228
180 201 228
179 200 228
179 200 228
179 200 228
178 200 228
179 200 228
178 200 228
178 200 228
179 200 228
178 200 228
177 199 228
177 199 228
177 199 228
177 199 228
177 199 228
177 199 228
177 199 228
177 199 228
177 199 228
176 199 228
177 199 228
177 199 228
176 198 228
176 198 228
176 199 228
175 198 228
175 198 228
175 198 228
175 198 228
176 199 228
175 198 228
175 198 228
175 198 228
175 198 228
175 198 228
175 198 228
175 198 228
174 198 228
174 198 228
173 197 228
174 197 228
173 197 228
173 197 228
174 197 228
173 197 228
174 197 228
172 197 228
173 197 228
173 197 228
173 197 228
173 197 228
173 197 228
172 197 228
172 195 226
172 195 226
171 194 226
171 194 225
168 190 221
168 188 219
168 188 218
165 182 211
164 181 210
164 180 208
161 176 204
161 174 201
159 171 198
155 164 190
154 162 188
155 162 188
150 154 179
146 147 170
147 142 164
148 145 168
140 125 144
140 124 143
128 105 120
131 104 119
128 95 108
117 82 94
114 78 89
114 69 78
124 81 92
125 95 109
127 99 113
130 110 127
137 131 150
141 137 158
145 145 168
154 162 188
151 159 183
159 172 198
158 172 198
170 188 216
172 191 220
175 196 225
178 200 228
178 200 228
179 200 228
180 201 228
180 200 226
167 184 208
156 171 193
198 215 237
213 231 255
213 231 255
213 231 255
213 231 255
213 231 255
213 231 255
213 231 255
213 231 255
213 231 255
213 231 255
213 231 255
213 231 255
213 231 255
213 231 255
208 226 252
87 113 168
59 92 158
60 94 158
60 93 156
60 94 156
60 94 156
60 95 157
59 93 149
59 94 154
60 95 154
60 94 151
61 95 156
60 94 152
60 94 155
60 94 150
62 97 158
60 94 150
61 95 155
61 96 156
61 96 153
61 96 157
61 96 156
61 95 151
61 96 158
60 95 153
61 96 151
60 94 149
61 95 156
60 95 152
60 94 146
60 95 154
61 95 157
62 97 155
61 96 152
61 96 155
61 96 156
62 97 158
61 96 151
60 95 149
61 96 153
61 96 155
60 95 148
61 96 149
61 95 152
61 96 153
61 96 154
60 94 147
60 94 144
60 95 148
61 95 151
61 96 155
61 96 155
61 94 153
62 96 154
61 96 155
61 95 153
61 95 154
61 96 149
61 96 155
61 95 153
60 94 150
61 96 152
61 95 150
61 96 152
60 93 151
61 95 152
59 92 146
60 95 155
60 94 156
60 94 150
60 94 149
61 94 155
61 96 159
61 95 152
60 94 157
60 95 157
59 92 147
58 90 144
59 91 148
60 93 152
59 93 152
59 91 145
59 91 148
59 93 151
57 90 146
58 90 149
58 90 148
91 115 160
209 226 252
213 231 255
213 231 255
213 231 255
213 231 255
213 231 255
213 231 255
213 231 255
213 231 255
213 231 255
213 231 255
213 231 255
213 231 255
213 231 255
213 231 255
196 210 224
126 122 80
119 114 75
118 113 78
124 120 82
121 117 80
113 108 75
120 114 78
111 107 74
119 112 77
118 113 78
117 109 76
121 112 78
123 117 82
112 107 75
124 118 81
122 117 81
131 122 84
125 118 81
127 121 83
135 129 88
138 130 87
136 129 87
134 127 86
147 141 94
143 135 91
138 131 88
140 133 90
139 133 86
144 136 90
144 137 93
145 137 90
142 135 89
143 135 87
156 149 95
153 147 96
157 151 99
151 144 94
146 141 92
158 151 98
156 148 95
158 150 97
156 149 98
157 151 96
158 152 96
158 150 96
158 153 97
165 158 101
160 153 98
166 157 99
161 154 97
163 157 101
167 160 103
163 157 99
166 159 102
164 157 99
163 155 98
164 158 102
161 155 98
164 158 102
169 162 100
168 161 101
166 160 100
166 160 101
164 158 100
172 164 104
167 161 101
168 160 102
169 163 102
167 161 100
168 162 100
167 160 100
168 162 102
170 163 101
172 165 104
167 160 99
172 165 102
169 163 102
173 167 104
170 163 101
168 162 100
162 157 97
169 162 101
170 162 100
171 165 103
170 163 102
164 157 97
163 157 96
166 160 96
166 159 97
167 161 101
165 160 97
169 162 100
163 158 96
166 161 100
165 159 96
166 160 101
161 156 95
163 158 94
166 161 100
164 158 94
165 160 99
163 158 96
166 160 97
165 159 98
166 160 98
163 157 97
165 160 95
167 161 99
167 161 97
165 159 96
163 158 96
161 156 97
163 157 94
165 158 97
165 159 95
164 158 95
162 157 95
161 155 95
162 157 97
164 158 97
159 154 94
154 149 92
156 151 90
161 155 92
159 154 94
159 154 95
160 153 90
159 154 95
158 152 92
153 148 88
160 155 93
155 150 90
159 153 90
157 151 91
154 148 89
147 142 84
159 152 92
159 153 91
154 147 90
156 149 92
185 204 228
185 203 228
185 204 228
184 203 228
185 203 228
184 203 228
184 203 228
184 203 228
183 203 228
183 203 228
183 203 228
183 203 228
184 203 228
183 202 228
183 203 228
182 202 228
183 202 228
182 202 228
182 202 228
182 202 228
182 202 228
182 202 228
182 202 228
182 202 228
182 202 228
182 202 228
181 201 228
182 202 228
181 201 228
181 201 228
181 201 228
180 201 228
180 201 228
181 201 228
181 201 228
180 201 228
180 201 228
179 201 228
180 201 228
179 200 228
180 201 228
180 201 228
179 200 228
179 201 228
179 200 228
179 200 228
179 200 228
179 200 228
179 200 228
179 200 228
177 199 228
179 200 228
178 200 228
177 199 228
178 200 228
178 200 228
177 199 228
177 199 228
177 199 228
177 199 228
177 199 228
177 199 228
177 199 228
177 199 228
176 198 228
176 199 228
176 199 228
176 199 228
176 198 228
176 199 228
176 198 228
175 198 228
175 198 228
175 198 228
175 198 228
175 198 228
175 198 228
175 198 228
174 198 228
175 198 228
174 198 228
174 198 228
174 198 228
174 198 228
174 197 228
173 197 228
174 197 228
174 198 228
174 197 228
173 197 228
173 197 228
173 197 228
174 197 228
173 196 227
172 195 226
171 191 222
169 189 219
168 189 219
170 190 220
168 186 216
163 178 206
165 181 209
163 178 206
162 174 201
160 171 198
160 169 195
154 163 188
157 165 190
150 152 176
151 151 174
149 148 171
141 140 161
141 125 143
140 124 141
136 117 134
131 113 129
127 102 116
121 84 95
127 106 120
129 100 113
119 93 106
128 102 116
120 97 114
130 124 145
138 131 152
139 136 161
145 151 176
145 149 175
148 155 182
152 164 191
161 178 207
165 185 215
172 193 223
177 198 227
178 200 228
179 200 228
179 200 228
181 202 228
178 197 223
165 183 207
161 177 197
210 227 251
214 231 255
214 231 255
214 231 255
214 231 255
214 231 255
213 231 255
213 231 255
213 231 255
213 231 255
213 231 255
213 231 255
213 231 255
213 231 255
147 167 207
58 91 158
58 92 154
59 93 158
59 93 155
60 94 157
60 93 152
59 93 151
59 93 151
60 95 156
61 96 162
60 94 156
59 93 147
60 95 156
61 95 153
60 94 151
60 94 152
61 96 158
61 96 152
60 95 153
60 94 151
61 97 160
62 97 159
61 96 153
61 96 150
61 96 155
61 96 152
60 94 146
61 96 154
59 92 142
61 96 154
61 96 155
60 94 148
61 96 158
61 96 152
61 96 155
61 96 152
60 95 151
61 96 155
60 95 151
61 96 153
61 96 155
60 94 148
62 97 157
62 97 155
61 96 152
61 96 158
61 95 154
62 97 157
60 93 146
61 95 152
60 94 148
61 96 153
60 95 149
60 94 150
60 95 154
61 95 150
61 96 152
61 95 153
61 95 149
60 94 153
60 93 147
61 95 150
61 96 154
61 96 153
61 96 154
60 94 146
60 95 150
61 96 157
60 94 150
60 94 147
61 94 153
60 93 148
59 92 150
61 95 158
61 95 153
61 95 156
59 92 148
59 92 150
59 92 148
59 93 151
58 90 147
59 92 149
60 93 149
58 90 149
58 91 148
57 87 135
58 89 148
56 86 141
160 179 213
213 231 255
213 231 255
213 231 255
213 231 255
213 231 255
213 231 255
213 231 255
213 231 255
214 231 255
214 231 255
214 231 255
214 231 255
214 231 255
212 229 252
142 142 117
123 119 78
116 111 73
116 112 76
106 103 70
117 113 78
117 112 78
111 106 75
112 108 76
124 120 82
118 111 77
114 110 76
120 113 79
123 117 81
120 113 78
121 111 78
127 121 83
133 125 86
126 119 82
126 120 83
131 124 84
137 132 89
138 130 85
134 130 88
143 134 90
138 131 85
139 130 85
140 133 90
138 131 86
147 140 93
142 134 88
146 137 88
146 139 91
150 142 93
152 145 95
148 141 93
148 141 90
153 148 95
154 148 95
155 146 93
159 151 99
160 152 97
160 153 99
155 148 95
158 151 96
163 155 100
157 148 94
161 154 96
162 156 98
163 156 101
160 152 95
162 156 99
160 151 96
166 158 101
165 158 99
165 159 98
165 158 100
167 161 101
164 157 98
166 158 97
163 157 98
166 160 100
167 159 99
168 162 101
167 159 99
169 162 100
165 158 99
170 162 101
168 161 101
174 167 105
169 162 101
170 163 101
172 166 102
170 164 102
170 164 101
171 164 102
172 165 104
168 162 100
170 163 103
167 160 99
169 162 101
166 161 96
171 164 102
169 162 99
170 163 104
172 164 100
168 162 97
168 161 98
166 160 97
169 164 101
168 163 99
170 164 101
170 164 101
167 161 97
169 163 101
165 160 97
168 163 99
167 161 98
165 160 99
168 162 98
165 160 100
168 162 97
165 159 99
166 160 97
164 159 97
165 160 96
168 162 99
163 158 95
162 156 96
166 161 96
168 162 97
163 158 96
161 155 95
164 159 94
165 159 96
160 155 92
161 155 93
164 159 97
161 155 91
165 159 96
164 158 96
168 161 99
161 156 95
162 155 93
157 151 88
160 155 93
163 157 95
167 160 100
164 158 96
158 152 91
163 155 94
159 153 91
160 154 92
161 156 95
156 150 87
159 153 90
158 152 89
150 145 87
152 147 88
155 149 89
159 152 90
185 203 228
185 204 228
185 203 228
185 203 228
185 203 228
184 203 228
185 203 228
184 203 228
185 203 228
184 203 228
184 203 228
184 203 228
184 203 228
184 203 228
184 203 228
184 203 228
184 203 228
183 203 228
184 203 228
182 202 228
183 202 228
183 202 228
183 202 228
182 202 228
182 202 228
183 202 228
181 202 228
182 202 228
182 202 228
182 202 228
182 202 228
181 201 228
181 201 228
181 201 228
181 201 228
181 201 228
181 201 228
180 201 228
181 201 228
180 201 228
180 201 228
180 201 228
180 201 228
180 201 228
180 201 228
180 201 228
179 200 228
179 200 228
179 200 228
179 200 228
179 201 228
179 200 228
178 200 228
178 200 228
178 200 228
178 200 228
178 200 228
178 200 228
178 200 228
178 200 228
177 199 228
178 200 228
177 199 228
177 199 228
177 199 228
177 199 228
177 199 228
176 199 228
177 199 228
176 199 228
176 198 228
176 199 228
176 199 228
175 198 228
177 199 228
176 199 228
175 198 228
176 198 228
175 198 228
176 199 228
175 198 228
175 198 228
175 198 228
175 198 228
175 198 228
175 198 228
175 198 228
175 198 228
175 198 228
174 198 228
174 198 228
174 198 228
174 197 228
174 197 228
173 195 225
171 192 222
172 194 224
171 192 222
169 189 218
169 188 218
167 184 212
167 184 213
165 180 208
164 174 201
162 172 199
162 173 199
160 169 195
164 176 203
154 154 178
150 148 170
153 155 178
148 143 164
144 136 155
144 134 153
140 124 141
138 124 142
137 122 140
133 117 133
131 110 126
135 117 134
127 107 123
124 105 122
121 107 128
122 104 123
133 121 143
127 120 143
135 137 165
139 146 172
137 142 170
145 157 185
149 165 194
158 175 205
162 181 212
169 190 220
173 195 225
178 200 228
180 201 228
181 201 228
182 202 228
176 195 220
172 190 214
182 198 219
214 231 255
214 231 255
214 231 255
214 231 255
214 231 255
214 231 255
214 231 255
214 231 255
214 231 255
214 231 255
214 231 255
214 231 255
199 217 244
63 94 157
59 94 161
59 93 158
60 94 160
59 93 155
59 93 150
61 96 159
61 95 155
60 95 157
60 95 154
60 95 157
61 95 152
60 94 151
61 96 155
60 94 154
61 95 154
60 95 151
61 96 153
60 94 149
61 95 155
61 96 151
61 96 155
61 96 153
61 96 156
61 96 158
62 97 159
61 96 152
62 96 155
60 95 151
61 95 151
61 95 153
61 96 153
61 95 150
61 96 151
61 97 153
61 95 152
62 97 158
61 95 154
61 95 148
61 96 157
61 96 156
61 95 156
60 94 150
60 95 151
60 95 152
62 97 153
62 97 157
61 95 152
61 95 151
60 95 150
60 94 147
61 94 148
61 95 153
60 95 152
61 96 150
61 96 151
60 94 146
61 96 157
61 96 155
61 95 151
60 95 151
60 95 149
61 96 154
60 94 149
60 93 147
61 96 158
61 95 149
60 94 154
61 95 154
60 94 152
60 94 148
60 93 147
60 93 149
59 91 141
61 96 158
60 94 150
60 94 154
60 93 152
60 94 152
59 91 146
58 91 145
59 90 141
59 92 147
58 89 139
59 90 147
60 92 149
60 93 155
58 90 143
57 88 140
69 97 150
193 210 237
214 231 255
214 231 255
214 231 255
214 231 255
214 231 255
214 231 255
214 231 255
214 231 255
214 231 255
214 231 255
214 231 255
214 231 255
161 168 162
119 115 76
125 120 80
122 119 80
116 109 74
114 109 75
107 103 72
118 113 79
107 103 73
121 117 81
119 109 75
122 115 80
122 114 78
117 111 78
120 115 80
118 110 76
125 118 82
127 118 82
132 124 84
127 123 85
130 121 82
129 121 82
131 125 84
134 127 84
133 126 86
139 133 89
134 129 86
132 124 83
142 134 90
137 129 84
148 140 92
144 136 89
150 144 95
147 140 90
148 140 92
155 148 96
150 144 92
153 147 96
158 151 98
158 153 99
158 150 97
153 144 91
159 152 99
164 157 100
157 150 95
155 147 93
164 156 99
161 154 97
161 156 99
166 159 102
163 156 100
161 154 97
160 154 97
163 157 101
167 158 99
167 158 99
167 160 101
167 161 102
168 159 101
171 163 104
165 158 98
167 158 99
169 161 100
169 160 98
171 164 102
164 158 97
169 162 100
168 161 100
169 162 98
171 164 101
175 167 102
166 161 98
170 164 100
174 166 104
168 161 102
170 164 102
165 159 97
168 163 100
168 162 100
170 164 99
169 162 98
170 164 101
170 164 100
172 165 104
170 163 101
172 165 102
169 162 99
167 161 98
170 164 102
167 161 99
173 166 102
165 160 99
164 159 97
169 162 97
163 157 95
166 161 98
169 164 101
165 159 96
167 161 96
165 160 97
164 159 97
167 161 100
169 164 98
163 157 95
169 162 101
168 162 98
165 159 96
165 160 96
164 158 97
161 156 96
164 158 97
165 160 96
158 153 91
168 162 99
159 153 93
159 154 92
163 158 95
161 155 93
168 162 98
159 153 91
160 154 91
159 153 92
163 157 95
160 154 94
156 150 89
162 156 93
159 153 89
162 156 91
160 153 95
159 153 92
158 152 93
159 154 90
152 147 88
156 151 93
158 153 93
151 145 87
160 154 92
155 148 87
157 150 91
154 148 91
157 151 93
158 152 93
186 204 228
185 204 228
185 204 228
186 204 228
186 204 228
185 203 228
185 204 228
184 203 228
185 203 228
184 203 228
184 203 228
185 203 228
184 203 228
184 203 228
184 203 228
184 203 228
184 203 228
184 203 228
184 203 228
183 203 228
183 202 228
183 202 228
184 203 228
183 202 228
182 202 228
183 202 228
182 202 228
182 202 228
182 202 228
182 202 228
182 202 228
182 202 228
182 202 228
182 202 228
182 202 228
181 201 228
181 201 228
181 201 228
181 201 228
182 202 228
181 201 228
181 201 228
180 201 228
180 201 228
180 201 228
180 201 228
180 201 228
180 201 228
180 201 228
180 201 228
180 201 228
180 201 228
179 200 228
179 200 228
178 200 228
179 200 228
179 200 228
179 200 228
178 200 228
178 200 228
178 200 228
178 200 228
178 200 228
178 200 228
178 200 228
178 200 228
178 200 228
178 200 228
178 200 228
178 200 228
177 199 228
177 199 228
177 199 228
177 199 228
177 199 228
176 199 228
176 199 228
176 199 228
177 199 228
176 199 228
176 199 228
176 199 228
175 198 228
176 199 228
176 198 228
175 198 228
175 198 228
176 199 228
175 198 228
176 198 228
175 198 228
175 198 228
175 198 228
174 197 228
174 196 227
173 195 224
174 195 225
173 194 223
172 192 222
174 195 225
171 191 220
169 186 215
164 177 204
167 181 209
164 178 205
165 178 205
164 176 202
159 168 193
158 162 185
158 163 187
155 155 177
156 158 181
148 145 166
146 142 162
144 134 153
142 130 149
147 139 159
139 125 142
135 119 136
132 120 139
134 117 137
129 116 136
125 109 131
133 129 153
125 119 145
116 104 133
126 123 151
127 132 161
135 143 172
139 147 175
145 161 195
147 164 197
155 173 204
158 178 210
170 191 221
172 193 223
176 197 226
180 200 228
182 202 228
180 199 224
172 189 213
166 182 204
200 217 240
214 232 255
214 232 255
214 232 255
214 232 255
214 232 255
214 232 255
214 232 255
214 231 255
214 231 255
214 231 255
214 231 255
145 164 201
57 90 155
59 93 154
58 91 153
58 92 151
60 95 162
59 93 152
58 92 149
60 95 160
60 95 153
60 95 156
60 94 152
60 94 149
60 94 149
61 95 155
60 94 151
61 96 156
59 94 145
61 96 153
61 97 155
61 96 152
61 96 156
61 96 153
61 96 156
61 95 154
60 95 148
61 96 154
60 96 155
61 95 155
60 95 151
61 96 149
60 95 148
61 95 149
61 95 152
61 96 153
62 97 155
61 96 150
61 96 156
61 96 151
61 96 150
61 96 153
62 96 158
60 95 154
60 95 144
61 95 152
61 96 157
61 95 151
61 95 147
60 95 154
61 97 155
61 96 149
62 97 153
60 95 147
61 96 154
61 95 153
61 96 153
60 95 152
60 94 146
60 94 150
61 95 150
61 96 149
60 95 151
60 95 145
61 96 155
60 95 150
61 95 155
61 95 152
62 96 158
61 96 155
61 95 153
60 94 154
61 95 155
60 94 144
60 94 147
60 94 151
61 95 154
60 94 152
59 93 146
59 93 146
60 94 150
60 93 149
59 93 149
59 92 148
58 91 142
58 90 144
59 92 148
60 93 151
57 89 143
57 88 142
58 90 147
55 86 140
139 158 191
214 231 255
214 231 255
214 231 255
214 231 255
214 232 255
214 232 255
214 232 255
214 232 255
214 232 255
214 232 255
214 232 255
201 216 234
118 115 79
123 119 79
119 116 78
114 110 74
110 106 73
110 107 74
111 106 74
117 108 75
119 113 78
115 108 75
114 108 75
120 114 78
123 120 82
115 108 76
127 121 83
125 118 82
121 118 82
133 129 88
129 120 82
122 117 80
124 117 79
126 121 83
132 124 84
131 124 83
136 129 85
141 132 86
139 133 87
136 130 86
147 138 89
145 137 91
138 132 88
143 135 86
145 137 89
147 141 93
149 141 90
149 143 91
153 144 91
151 144 93
149 140 90
152 146 93
156 149 94
156 149 96
155 149 95
158 152 96
157 149 93
164 157 98
156 148 93
155 146 92
161 154 95
160 152 94
166 158 99
164 157 99
160 152 95
166 158 98
167 159 100
168 161 101
166 159 99
162 155 97
166 159 99
165 158 97
164 157 99
168 163 102
167 162 101
168 161 99
171 163 102
168 161 99
168 161 100
169 161 97
170 162 101
171 164 103
165 159 98
167 161 99
166 159 97
170 163 100
171 164 101
171 164 100
170 163 100
168 160 101
167 162 99
169 162 98
169 164 101
170 163 101
171 165 100
170 163 100
170 165 101
173 167 104
171 164 101
172 165 104
172 165 102
171 165 99
166 160 96
171 165 101
169 164 102
165 160 96
167 162 98
169 163 98
171 164 100
170 164 99
165 159 94
168 162 98
164 158 93
167 162 98
166 159 94
164 158 96
165 159 97
169 162 98
167 161 97
161 156 94
167 160 98
169 162 98
167 161 96
167 160 97
164 158 94
159 154 93
161 155 93
160 155 93
164 158 96
164 157 92
161 155 93
160 154 93
163 157 93
166 160 97
159 153 90
159 154 88
164 158 94
160 153 90
160 154 92
161 156 93
158 153 91
157 151 92
162 157 92
160 155 94
157 151 88
161 154 89
158 152 89
157 151 89
160 154 93
154 148 90
156 150 90
158 151 91
152 146 86
152 146 84
186 204 228
186 204 228
186 204 228
186 204 228
185 204 228
185 204 228
186 204 228
185 203 228
185 204 228
185 204 228
185 203 228
184 203 228
185 203 228
185 203 228
184 203 228
184 203 228
184 203 228
185 203 228
184 203 228
184 203 228
184 203 228
184 203 228
184 203 228
183 203 228
184 203 228
183 202 228
183 202 228
183 202 228
182 202 228
183 202 228
183 202 228
182 202 228
183 202 228
182 202 228
183 202 228
182 202 228
181 202 228
182 202 228
182 202 228
181 201 228
181 201 228
181 201 228
181 201 228
181 201 228
181 201 228
181 201 228
181 201 228
181 201 228
180 201 228
181 201 228
181 201 228
179 200 228
180 201 228
180 201 228
179 200 228
179 200 228
180 201 228
180 201 228
179 200 228
179 200 228
179 200 228
178 200 228
179 200 228
179 200 228
179 200 228
179 200 228
179 200 228
179 200 228
178 200 228
178 200 228
179 200 228
178 200 228
177 199 228
177 199 228
178 199 228
177 199 228
177 199 228
177 199 228
177 199 228
177 199 228
177 199 228
177 199 228
177 199 228
177 199 228
176 199 228
176 198 228
176 199 228
176 199 228
176 199 228
175 198 228
176 199 228
176 199 228
177 199 228
176 198 228
176 198 228
175 197 227
175 198 228
175 196 226
174 194 223
174 194 224
173 193 223
171 190 218
172 189 217
167 183 211
168 184 211
167 182 209
167 181 208
164 173 199
162 173 198
158 164 188
155 156 179
157 159 182
159 165 189
153 150 172
150 145 165
153 151 172
146 137 156
138 133 154
136 126 147
139 131 153
129 120 143
126 112 134
125 119 144
124 112 136
124 116 142
116 111 140
121 115 140
122 119 148
122 124 154
130 139 171
132 143 176
131 144 178
146 164 198
149 169 203
157 179 211
164 186 217
168 189 219
172 193 222
180 200 228
183 202 228
179 197 222
166 183 205
172 187 208
214 232 255
214 232 255
214 232 255
214 232 255
214 232 255
214 232 255
214 232 255
214 232 255
214 232 255
214 232 255
198 216 243
65 96 159
57 90 156
58 92 152
59 92 153
59 93 154
58 92 150
60 95 156
60 95 156
59 93 149
60 95 158
60 94 149
60 94 154
61 96 155
60 95 150
61 95 148
60 94 148
60 94 155
61 96 153
60 94 151
61 95 152
61 96 156
60 95 150
61 95 151
61 96 155
61 96 153
61 95 153
61 97 154
62 97 155
61 96 153
61 95 153
60 94 149
61 96 150
60 95 149
60 95 148
60 95 149
62 97 152
61 95 149
61 95 148
61 96 154
60 95 148
61 96 152
61 95 147
61 95 148
60 94 151
61 95 149
60 94 146
61 95 151
61 96 152
61 96 149
60 94 146
61 95 150
61 96 154
61 97 156
61 95 148
61 96 154
61 96 150
61 95 151
62 97 156
61 96 152
60 94 149
60 95 147
60 94 151
61 95 153
60 94 149
61 95 149
61 95 152
60 94 148
60 93 142
60 94 148
62 96 152
60 95 149
60 93 146
61 94 150
59 93 144
59 93 147
59 93 148
60 94 152
60 94 149
59 92 146
59 91 136
59 93 147
59 92 146
58 91 147
59 92 145
59 93 145
59 92 150
58 89 140
58 90 144
56 87 143
57 87 139
55 85 138
63 91 145
197 214 239
214 232 255
214 232 255
214 232 255
214 232 255
214 232 255
214 232 255
214 232 255
214 232 255
214 232 255
213 231 254
150 152 134
121 118 77
108 104 68
114 111 76
112 107 73
113 109 76
103 100 71
114 111 77
108 104 72
116 108 74
108 102 73
119 113 79
104 100 71
123 117 81
116 109 76
111 105 74
115 110 76
122 116 81
126 120 81
133 126 86
129 123 82
135 128 86
132 126 85
139 132 89
135 126 84
135 130 86
136 129 85
134 128 84
148 141 93
145 135 88
138 131 87
143 136 87
146 137 89
146 141 93
146 138 90
155 147 96
153 144 94
151 142 90
152 143 90
159 150 96
158 151 94
157 149 94
156 148 93
159 151 95
163 155 97
162 155 98
160 153 97
161 154 95
161 153 97
159 151 93
160 153 95
159 153 96
164 156 96
164 156 97
163 156 99
166 159 100
161 154 96
166 159 99
168 159 98
165 158 99
167 159 98
171 163 100
168 161 100
170 162 101
166 159 99
168 161 98
169 163 101
166 160 96
169 164 101
170 164 103
168 162 98
170 164 101
168 161 97
173 165 102
169 163 102
170 163 99
162 156 96
168 163 98
173 166 102
170 162 98
169 162 100
170 164 100
170 163 100
168 162 98
169 163 101
168 163 98
173 166 103
171 164 100
166 161 96
166 160 95
166 160 96
167 161 99
170 163 99
170 162 98
169 164 99
163 159 93
167 160 96
168 161 98
173 166 101
171 166 100
166 160 97
171 164 99
170 163 98
164 158 97
161 155 92
168 163 97
164 159 96
164 158 95
165 160 98
167 162 96
166 160 96
170 163 98
162 157 94
164 158 95
164 158 94
167 161 97
162 155 94
164 157 97
160 154 92
161 155 91
160 154 92
160 154 92
159 154 93
159 152 91
161 156 93
163 157 94
155 150 89
163 156 94
165 158 95
162 155 95
164 158 93
155 149 84
154 148 87
155 149 90
155 150 92
160 154 93
160 153 93
154 147 86
160 153 91
154 150 90
155 149 90
155 149 86
153 147 87
187 204 228
187 205 228
187 205 228
186 204 228
187 204 228
186 204 228
186 204 228
186 204 228
185 204 228
185 203 228
186 204 228
186 204 228
184 203 228
185 204 228
185 204 228
185 203 228
185 204 228
184 203 228
185 203 228
184 203 228
185 203 228
185 203 228
184 203 228
184 203 228
184 203 228
183 203 228
183 203 228
183 203 228
184 203 228
183 203 228
183 202 228
183 202 228
182 202 228
183 202 228
183 202 228
183 202 228
182 202 228
183 202 228
182 202 228
182 202 228
182 202 228
182 202 228
182 202 228
181 201 228
182 202 228
181 201 228
181 201 228
181 202 228
181 201 228
181 201 228
181 201 228
181 201 228
180 201 228
181 201 228
180 201 228
181 201 228
180 201 228
180 201 228
180 201 228
180 201 228
180 201 228
179 200 228
180 201 228
180 201 228
179 200 228
180 201 228
179 200 228
179 201 228
179 200 228
178 200 228
179 200 228
179 200 228
179 200 228
179 200 228
179 200 228
178 200 228
178 200 228
178 200 228
178 200 228
178 200 228
177 199 228
178 200 228
177 199 228
177 199 228
177 199 228
177 199 228
177 199 228
178 200 228
177 199 228
177 199 228
177 199 228
177 199 228
176 199 228
177 199 228
177 199 228
177 199 228
177 199 228
175 196 225
174 195 224
176 196 226
175 196 225
173 193 221
172 190 219
171 188 216
172 188 216
169 182 208
166 177 203
166 179 205
165 176 202
164 174 199
164 171 196
158 163 186
162 170 194
162 166 189
157 162 185
155 153 175
149 148 172
148 148 171
141 141 163
139 139 162
132 124 149
131 122 145
125 117 144
120 117 146
118 106 133
111 105 136
110 109 143
116 108 141
118 124 159
117 125 159
127 137 170
132 146 181
135 151 186
133 153 191
144 164 200
146 167 203
157 179 212
165 185 216
173 193 222
182 201 228
184 202 228
178 196 220
165 182 204
194 210 232
215 232 255
215 232 255
215 232 255
215 232 255
215 232 255
215 232 255
215 232 255
215 232 255
215 232 255
130 150 190
56 89 149
58 91 152
59 93 152
58 91 148
58 91 146
60 94 158
59 93 150
59 94 151
59 92 147
60 94 153
60 94 152
60 95 153
60 94 150
60 94 145
61 96 155
60 95 152
61 95 154
60 94 153
60 95 153
61 96 153
59 93 148
61 96 152
61 96 152
61 96 158
61 96 154
60 94 142
59 93 148
61 95 147
61 95 150
61 96 153
61 95 149
61 96 151
61 95 148
62 97 154
61 96 155
61 95 145
61 95 150
61 96 154
61 95 145
61 95 150
60 95 149
61 95 154
61 95 153
62 96 155
60 95 151
62 97 152
61 96 154
61 96 149
61 95 149
60 94 148
61 96 152
60 95 148
61 96 154
62 97 158
62 97 156
62 97 156
60 94 148
61 95 149
60 94 150
61 95 150
61 96 152
61 95 152
60 94 148
60 95 147
61 96 149
60 94 151
60 93 146
60 94 147
60 94 150
62 96 152
60 93 145
60 94 151
61 95 148
61 95 156
60 94 147
60 94 148
60 94 150
60 94 148
60 94 147
59 92 141
59 92 144
60 93 145
58 90 138
58 91 142
58 90 143
58 91 142
59 91 142
57 89 141
58 90 144
57 88 141
57 88 144
56 85 139
131 151 186
215 232 255
215 232 255
215 232 255
215 232 255
215 232 255
215 232 255
215 232 255
215 232 255
215 232 255
186 199 214
123 119 75
125 121 80
100 96 66
102 99 69
105 100 70
97 95 67
112 108 75
100 97 69
100 98 69
106 100 71
112 107 76
119 110 75
105 100 71
114 109 76
120 116 81
121 115 79
117 110 76
120 116 79
125 118 81
117 110 75
124 120 82
125 121 81
129 123 81
128 122 82
134 127 84
142 134 87
133 127 86
143 133 87
147 138 90
139 133 88
144 137 89
147 141 92
150 142 93
147 143 95
147 138 87
154 149 96
151 142 91
152 143 89
150 142 92
152 145 91
155 149 95
160 154 97
156 149 92
163 157 99
162 155 99
162 155 98
160 153 96
160 152 94
163 154 96
163 153 95
162 155 98
164 157 98
168 162 102
165 157 101
160 152 94
160 152 95
168 161 98
161 153 93
168 161 100
164 155 96
169 163 100
166 159 96
171 163 102
168 162 99
163 156 95
167 160 97
169 162 98
167 160 97
170 161 98
169 162 98
170 163 96
164 157 95
168 162 101
165 158 97
172 164 100
173 165 102
165 159 96
170 164 98
168 163 99
171 165 98
172 165 99
172 165 101
169 163 99
169 162 99
171 164 99
169 163 102
171 164 99
169 163 99
170 162 97
167 161 101
172 166 101
167 161 98
166 160 98
168 163 98
168 162 99
171 165 101
166 161 97
166 160 95
167 161 98
168 162 97
168 161 98
166 160 95
169 163 99
168 161 96
166 160 96
163 157 94
165 160 98
165 159 94
165 160 93
168 162 96
165 159 95
167 161 97
168 162 95
164 159 94
168 161 99
167 161 97
166 161 95
166 160 96
164 157 95
165 159 96
162 155 92
166 160 97
162 156 94
159 153 90
167 161 95
154 148 87
168 161 99
160 154 93
161 155 93
161 155 91
154 149 88
162 155 92
158 152 90
158 152 88
156 151 88
157 152 89
157 151 88
154 147 83
158 152 92
156 150 89
159 152 88
156 149 89
156 150 89
187 205 228
187 205 228
187 205 228
187 205 228
187 204 228
187 205 228
186 204 228
186 204 228
186 204 228
186 204 228
186 204 228
187 204 228
185 203 228
186 204 228
185 204 228
187 204 228
186 204 228
185 204 228
185 203 228
185 203 228
184 203 228
185 203 228
184 203 228
184 203 228
184 203 228
185 203 228
184 203 228
184 203 228
184 203 228
183 202 228
184 203 228
184 203 228
184 203 228
184 203 228
184 203 228
184 203 228
183 202 228
184 203 228
183 202 228
183 202 228
182 202 228
183 202 228
183 203 228
182 202 228
181 202 228
182 202 228
181 201 228
182 202 228
182 202 228
182 202 228
181 201 228
182 202 228
181 202 228
181 201 228
181 201 228
181 201 228
181 201 228
181 202 228
181 201 228
181 201 228
180 201 228
180 201 228
180 201 228
180 201 228
179 200 228
179 201 228
180 201 228
180 201 228
180 201 228
179 201 228
179 200 228
179 200 228
179 200 228
180 201 228
180 201 228
179 200 228
179 200 228
179 200 228
179 200 228
179 200 228
179 200 228
179 200 228
179 200 228
178 200 228
178 200 228
178 200 228
177 199 228
178 200 228
178 200 228
177 199 228
178 200 228
178 200 228
178 200 228
178 200 228
177 199 228
178 200 228
177 199 228
177 199 228
176 199 228
177 199 228
175 196 225
176 196 224
175 195 223
174 193 221
174 190 217
170 187 214
172 189 216
169 184 210
168 180 206
169 182 208
163 170 194
165 173 197
163 168 192
166 173 198
158 163 186
152 155 178
151 155 179
148 143 166
143 145 170
135 135 161
134 129 156
134 135 163
123 119 147
122 122 154
117 111 143
117 114 146
115 111 144
107 106 144
106 109 145
111 118 154
112 118 156
121 138 177
126 142 179
133 151 188
135 155 192
147 168 203
142 163 197
148 169 205
158 178 209
173 193 222
182 201 228
180 198 223
174 190 213
167 182 202
215 232 255
215 232 255
215 232 255
215 232 255
215 232 255
215 232 255
215 232 255
215 232 255
199 216 241
62 93 151
57 90 148
58 91 150
58 92 152
57 90 147
59 93 152
59 94 152
58 92 147
60 95 155
59 92 146
60 94 154
60 94 153
59 93 146
60 94 152
59 94 149
60 95 152
60 94 150
60 94 150
60 95 152
60 94 149
61 96 154
61 95 152
60 94 148
61 96 149
62 97 157
61 96 150
61 96 155
61 96 152
61 96 154
61 95 152
60 95 149
61 96 153
61 97 157
61 96 149
62 97 154
60 95 148
61 96 149
60 94 147
61 96 156
61 96 152
62 97 157
60 95 146
61 96 153
61 95 150
61 97 155
60 94 145
61 96 144
62 96 155
61 95 148
60 95 150
60 94 145
61 96 153
60 94 143
61 95 148
61 96 154
62 97 156
61 95 152
62 96 153
61 96 155
61 95 152
61 95 152
60 94 149
61 95 148
61 95 147
61 95 150
60 94 145
60 94 152
60 94 149
60 95 152
59 93 147
61 96 155
60 94 147
60 94 147
60 95 152
59 93 141
61 95 152
60 93 146
60 94 145
60 94 146
61 95 148
59 92 150
59 92 151
60 93 147
59 92 141
59 92 142
59 92 146
58 91 149
60 93 149
58 90 145
58 90 140
56 87 136
57 88 138
55 84 135
61 88 134
200 217 243
215 232 255
215 232 255
215 232 255
215 232 255
215 232 255
215 232 255
215 232 255
214 230 253
129 129 106
112 110 73
115 112 76
110 106 72
103 99 69
105 102 71
105 100 71
103 98 68
103 99 70
106 101 71
105 100 70
109 105 74
109 102 71
110 102 71
113 107 75
107 104 73
115 110 75
123 117 80
125 120 82
122 115 77
125 119 81
117 115 76
131 127 84
137 129 86
136 131 86
134 126 82
133 127 85
143 136 89
138 131 85
145 137 90
138 133 84
139 133 87
150 144 93
147 140 88
152 144 91
147 139 89
155 147 93
148 140 87
147 139 88
155 149 95
151 144 92
152 145 91
157 148 93
160 154 95
155 148 95
159 151 93
157 149 94
158 152 94
155 147 92
159 151 95
165 156 97
162 154 96
165 158 99
164 156 98
162 155 93
166 159 99
164 157 98
164 157 96
167 159 98
169 161 98
169 162 100
168 161 99
171 165 103
168 161 99
169 162 99
168 160 96
169 163 100
170 162 100
170 163 100
169 162 101
169 162 97
170 164 99
171 163 100
174 167 101
171 165 100
172 164 99
169 163 100
168 161 96
171 164 97
173 166 102
171 164 100
170 164 98
172 166 101
171 165 99
171 165 99
172 165 101
171 164 96
170 163 96
167 162 97
171 165 101
170 164 98
173 166 101
169 163 99
168 163 95
166 160 96
172 166 97
172 165 99
173 167 100
167 161 99
169 163 97
163 157 92
167 161 96
165 160 93
169 164 99
168 162 99
169 162 97
163 157 93
163 157 93
162 156 93
166 160 95
165 160 94
166 160 96
162 156 94
164 158 94
169 162 96
166 159 96
170 163 99
163 158 94
166 160 99
166 160 98
165 159 89
163 157 93
163 157 95
157 152 89
162 156 93
162 156 92
166 160 96
163 157 94
163 157 93
160 154 88
162 155 93
158 153 88
159 153 87
159 153 91
157 152 91
158 153 92
157 151 86
157 151 89
161 155 92
160 153 88
153 147 85
153 147 86
152 147 87
157 151 89
188 205 228
187 205 228
187 205 228
187 205 228
188 205 228
188 205 228
186 204 228
186 204 228
187 205 228
187 204 228
187 204 228
187 204 228
187 204 228
186 204 228
186 204 228
187 204 228
186 204 228
186 204 228
185 204 228
185 204 228
185 204 228
185 203 228
185 203 228
186 204 228
186 204 228
185 203 228
185 203 228
184 203 228
185 203 228
184 203 228
184 203 228
184 203 228
184 203 228
184 203 228
185 203 228
184 203 228
184 203 228
184 203 228
184 203 228
184 203 228
184 203 228
183 203 228
183 202 228
183 203 228
183 203 228
183 202 228
183 202 228
183 202 228
182 202 228
183 202 228
182 202 228
183 202 228
183 202 228
183 202 228
182 202 228
182 202 228
182 202 228
181 201 228
181 201 228
181 202 228
181 201 228
181 201 228
181 201 228
181 201 228
181 201 228
180 201 228
181 201 228
182 202 228
181 201 228
181 201 228
181 201 228
181 201 228
181 201 228
179 201 228
180 201 228
181 201 228
180 201 228
180 201 228
179 201 228
180 201 228
179 200 228
179 200 228
179 200 228
179 200 228
179 200 228
179 200 228
178 200 228
179 200 228
179 200 228
178 200 228
178 200 228
179 200 228
178 200 228
178 200 228
178 200 228
178 200 228
179 200 228
178 200 228
178 200 228
178 200 228
177 199 228
177 198 227
177 198 227
177 198 226
176 196 225
176 196 224
175 195 222
177 194 221
174 190 216
171 185 211
174 191 218
169 182 207
171 182 207
169 179 204
161 168 192
158 163 187
145 148 175
148 153 179
146 144 170
138 139 165
133 133 160
126 123 152
129 130 160
115 113 145
114 118 152
102 98 133
107 106 140
103 107 144
103 104 142
110 115 152
114 123 162
107 120 163
114 132 172
127 145 183
123 144 185
132 153 191
136 157 195
146 167 201
155 175 207
160 180 210
170 190 218
182 200 226
179 196 220
161 176 196
197 213 235
215 232 255
215 232 255
215 232 255
215 232 255
215 232 255
215 232 255
215 232 255
154 173 209
57 90 151
58 91 154
58 92 149
59 92 150
58 92 151
59 94 154
59 94 151
60 94 153
59 94 150
59 93 149
59 93 150
60 93 147
60 94 155
61 96 156
60 95 153
61 95 154
61 96 157
61 96 155
61 96 152
60 95 148
60 94 149
61 95 155
60 95 148
60 95 150
61 96 150
61 95 152
60 95 148
60 94 150
61 96 145
60 95 152
61 95 152
61 96 153
60 95 147
61 95 149
61 96 156
61 95 148
61 96 149
61 95 146
61 96 151
60 94 144
61 96 148
61 96 150
61 95 145
61 96 149
62 96 153
59 93 141
61 95 149
60 94 147
60 95 142
61 96 151
60 95 143
61 95 150
61 96 153
60 94 146
61 96 148
60 94 146
61 96 150
62 96 153
61 95 151
60 93 143
60 95 149
60 95 148
60 94 146
60 95 147
61 94 147
59 93 146
61 95 152
59 92 140
60 93 144
60 95 153
60 94 147
61 95 150
60 94 141
59 93 141
60 93 148
60 94 148
61 95 146
59 93 139
59 93 144
58 91 140
59 92 142
59 93 147
59 92 147
59 92 147
59 92 148
59 92 144
59 92 144
59 91 145
58 91 146
58 90 146
58 90 142
57 89 141
57 88 142
54 82 131
161 178 205
215 232 255
215 232 255
215 232 255
215 232 255
215 232 255
215 232 255
215 232 255
177 189 201
120 116 75
115 111 75
101 97 67
108 105 74
104 100 69
105 101 71
105 97 68
105 100 72
102 99 71
100 97 69
98 94 66
104 96 68
113 108 78
109 105 74
105 100 70
115 111 77
119 113 79
113 109 76
117 113 76
124 119 81
119 113 76
122 116 79
125 118 77
134 128 85
134 126 82
137 133 87
136 129 85
136 127 84
144 139 89
139 134 86
144 137 88
143 137 88
150 145 94
151 144 92
147 139 89
145 138 89
150 144 93
151 147 94
152 147 94
154 148 95
159 152 95
157 150 91
154 148 92
157 150 96
160 153 96
159 151 94
163 155 95
157 151 94
158 152 93
162 154 97
162 155 97
160 153 95
162 155 94
166 157 98
166 159 98
167 160 99
164 158 98
167 160 98
165 157 99
165 158 95
168 161 98
168 161 98
164 157 93
165 160 97
167 161 97
168 160 100
169 161 96
170 164 99
170 163 98
170 163 97
169 162 97
174 166 100
172 166 103
169 161 97
168 163 98
170 163 98
172 165 98
169 163 98
170 165 100
171 165 100
175 166 99
171 166 102
172 165 98
172 165 101
169 164 97
170 163 100
172 164 99
170 163 100
169 164 97
171 165 99
170 163 96
170 164 96
170 164 97
171 166 103
170 164 101
172 166 101
168 163 97
168 162 91
167 161 97
170 163 97
167 161 98
165 159 94
167 160 94
167 161 94
167 161 95
169 163 98
168 162 94
164 159 92
164 159 92
166 161 96
164 158 96
169 163 97
163 157 91
167 160 93
163 156 94
165 159 95
164 158 92
164 159 93
164 158 92
163 157 95
167 160 95
166 159 95
163 156 92
166 159 94
162 156 93
159 154 91
161 155 92
158 152 85
156 150 87
163 156 92
162 156 92
159 153 91
159 153 90
154 147 88
156 150 85
160 153 91
158 153 87
158 152 88
161 155 90
158 151 86
151 145 84
154 148 84
159 152 89
154 148 88
188 205 228
188 205 228
187 205 228
188 205 228
188 205 228
188 205 228
187 205 228
187 205 228
187 204 228
187 205 228
187 205 228
187 205 228
186 204 228
187 204 228
187 205 228
186 204 228
186 204 228
187 205 228
187 205 228
186 204 228
186 204 228
186 204 228
186 204 228
186 204 228
186 204 228
186 204 228
185 204 228
186 204 228
185 204 228
186 204 228
185 204 228
185 203 228
185 204 228
185 203 228
185 204 228
184 203 228
185 203 228
184 203 228
184 203 228
184 203 228
184 203 228
184 203 228
184 203 228
184 203 228
184 203 228
183 203 228
184 203 228
184 203 228
183 203 228
183 202 228
183 202 228
183 202 228
182 202 228
183 202 228
183 203 228
183 203 228
183 202 228
183 202 228
182 202 228
183 202 228
182 202 228
182 202 228
182 202 228
182 202 228
182 202 228
181 202 228
183 202 228
182 202 228
181 202 228
181 202 228
182 202 228
181 202 228
181 201 228
181 201 228
182 202 228
181 201 228
181 201 228
181 201 228
180 201 228
180 201 228
181 201 228
181 201 228
180 201 228
180 201 228
180 201 228
180 201 228
180 201 228
180 201 228
180 201 228
179 200 228
180 201 228
179 200 228
180 201 228
180 201 228
179 200 228
179 200 228
179 200 228
180 201 228
178 200 228
179 200 228
179 200 228
179 200 228
178 200 228
179 200 228
179 200 228
179 199 227
178 198 226
177 196 224
175 194 221
177 194 220
174 191 218
170 184 209
171 184 210
171 183 209
162 176 203
154 163 189
147 152 181
146 150 177
148 151 177
132 135 164
137 140 168
128 132 164
129 132 164
120 120 152
113 111 144
101 105 144
105 108 146
102 107 143
91 101 145
95 103 144
97 110 157
101 116 160
102 119 163
115 135 177
123 145 185
115 136 179
122 143 183
123 144 183
139 159 194
149 169 202
158 177 207
173 192 218
180 198 223
174 190 212
163 178 197
214 231 254
216 232 255
216 232 255
216 232 255
216 232 255
215 232 255
214 231 254
81 106 160
58 92 154
58 92 152
58 92 155
58 92 152
57 91 149
59 93 152
59 92 147
60 94 151
60 94 153
59 94 154
60 94 152
59 93 144
59 93 146
60 94 151
59 93 150
60 95 151
59 93 146
60 94 150
60 94 150
60 94 148
61 95 149
60 95 149
62 97 154
60 95 150
61 95 147
60 94 151
60 94 145
61 95 152
60 94 149
60 94 145
59 93 147
60 95 145
61 96 152
61 96 154
60 93 144
61 96 151
61 96 150
60 95 146
61 96 146
60 94 145
60 94 148
61 95 149
59 93 149
60 95 148
60 94 145
61 95 144
61 95 152
61 95 144
61 96 150
60 94 146
60 94 147
61 96 154
60 94 146
61 95 149
61 95 148
61 96 149
60 94 148
60 94 146
60 95 143
61 95 146
61 95 149
61 95 150
60 95 143
62 96 154
59 94 141
60 94 143
61 95 148
59 93 146
59 93 143
60 94 149
60 94 146
59 92 140
59 92 145
61 96 152
59 93 147
60 94 144
60 95 151
60 94 146
60 93 145
60 94 147
59 92 141
59 93 149
59 92 146
60 93 150
60 93 149
58 91 144
58 90 142
57 89 137
58 89 141
57 89 138
57 88 134
55 85 131
57 89 143
56 87 137
92 114 156
214 231 255
215 232 255
216 232 255
216 232 255
216 232 255
216 232 255
215 232 254
129 131 114
113 108 72
109 104 69
103 101 69
98 95 66
93 88 62
97 96 67
105 101 71
92 88 62
96 96 69
104 97 69
92 89 65
104 101 72
100 97 70
109 106 75
115 108 75
111 103 70
113 108 76
117 113 77
118 114 80
121 114 77
129 121 80
128 122 82
126 121 81
126 119 82
126 117 78
134 130 85
134 126 80
142 136 86
137 130 83
147 140 89
143 137 88
144 136 87
142 136 87
147 141 91
147 140 88
147 139 89
148 142 91
147 140 89
151 144 93
156 149 93
152 145 92
155 146 90
157 150 95
160 152 95
160 151 95
157 151 91
155 149 91
159 151 94
161 152 94
160 152 95
164 158 99
164 157 96
165 157 97
167 159 98
162 154 95
166 160 94
166 160 98
169 162 99
162 156 95
167 160 96
171 164 100
169 161 99
168 162 98
170 163 100
172 164 101
169 163 97
172 165 100
168 160 95
170 164 102
170 164 100
172 165 98
171 162 98
170 162 99
169 163 98
170 162 95
170 164 97
172 164 99
173 166 98
172 165 99
169 163 95
171 164 102
171 165 97
170 163 96
168 162 98
171 163 99
170 164 97
168 163 97
171 165 99
168 162 95
169 163 97
171 164 96
173 167 100
168 162 96
170 164 98
169 163 98
166 161 94
169 163 96
171 164 98
165 159 94
164 158 93
169 163 93
167 161 94
168 161 93
164 159 91
165 159 94
169 162 96
170 163 98
164 159 89
169 163 98
167 161 94
164 157 92
165 159 93
169 163 96
166 159 96
167 160 97
158 152 88
166 160 95
161 154 88
167 161 94
166 159 96
167 161 94
165 160 95
165 158 95
165 158 92
162 156 92
160 153 86
164 158 93
161 154 91
158 151 89
160 153 90
156 151 89
166 159 96
162 156 90
158 153 87
156 150 86
156 150 87
157 151 87
157 151 88
158 151 90
157 151 85
159 153 89
155 150 87
153 146 86
153 147 88
188 205 228
189 206 228
189 206 228
188 205 228
188 205 228
187 205 228
188 205 228
188 205 228
187 205 228
188 205 228
188 205 228
187 205 228
187 205 228
188 205 228
187 205 228
188 205 228
187 205 228
186 204 228
187 205 228
187 205 228
186 204 228
186 204 228
187 204 228
186 204 228
186 204 228
186 204 228
186 204 228
187 204 228
186 204 228
185 204 228
186 204 228
185 204 228
185 204 228
185 204 228
185 203 228
186 204 228
185 204 228
185 203 228
185 204 228
185 204 228
184 203 228
184 203 228
185 203 228
185 203 228
184 203 228
184 203 228
185 203 228
184 203 228
184 203 228
184 203 228
184 203 228
184 203 228
184 203 228
184 203 228
183 203 228
183 203 228
184 203 228
183 202 228
183 202 228
183 203 228
183 203 228
183 202 228
183 203 228
184 203 228
183 202 228
182 202 228
183 202 228
182 202 228
182 202 228
182 202 228
182 202 228
182 202 228
182 202 228
182 202 228
182 202 228
182 202 228
182 202 228
181 201 228
182 202 228
181 201 228
182 202 228
181 201 228
182 202 228
182 202 228
181 201 228
181 201 228
181 201 228
181 201 228
180 201 228
180 201 228
180 201 228
180 201 228
180 201 228
180 201 228
180 201 228
180 201 228
180 201 228
181 201 228
180 201 228
180 201 228
180 201 228
180 201 228
180 201 228
180 201 228
180 201 228
180 201 228
179 200 228
180 201 228
179 200 228
178 198 226
178 197 224
176 195 221
173 190 217
172 186 212
164 179 208
163 177 205
155 165 193
148 160 188
143 151 181
134 140 171
130 135 167
128 135 169
125 128 161
116 120 156
102 110 150
102 109 146
93 98 142
93 101 144
93 100 141
84 93 140
85 101 148
92 105 152
94 113 160
97 119 165
104 126 172
106 127 172
111 132 175
120 141 183
136 155 191
133 154 191
148 167 200
157 176 207
175 194 221
182 199 222
169 184 204
198 213 235
216 233 255
216 233 255
216 233 255
216 232 255
216 232 255
175 192 221
55 87 148
55 87 143
58 91 149
58 91 144
59 92 151
59 93 151
59 94 150
59 92 149
58 92 148
59 93 148
60 94 148
60 94 150
60 95 153
60 95 147
61 96 152
60 93 149
60 94 146
60 93 150
59 93 144
60 93 145
61 95 148
60 95 150
60 95 148
61 97 149
59 93 143
60 94 145
60 95 151
60 93 145
60 94 146
61 95 143
61 96 149
60 94 146
60 95 148
60 95 149
61 96 149
61 96 149
60 94 146
60 94 144
61 95 151
62 97 154
60 94 143
60 95 140
61 96 152
59 93 148
60 95 145
61 96 155
61 96 144
61 96 150
60 94 146
60 95 150
60 95 144
60 95 147
60 94 148
61 96 147
61 96 148
60 95 150
61 95 152
62 97 153
60 94 150
60 94 145
60 94 149
60 94 144
59 93 143
60 94 142
60 94 147
61 96 153
60 93 142
61 94 148
60 94 152
60 94 147
60 94 145
60 94 146
60 93 142
61 95 151
59 93 142
60 95 142
61 95 149
59 92 142
60 93 147
59 93 147
59 93 148
59 92 145
58 90 142
59 92 146
59 93 149
58 90 140
59 91 142
57 89 137
59 91 143
58 90 142
56 87 132
55 86 132
56 86 130
56 87 136
55 85 135
52 80 127
180 197 222
216 232 255
216 232 255
216 233 255
216 233 255
216 233 255
187 198 206
111 108 69
103 100 66
100 98 69
97 95 66
101 99 69
95 93 67
96 93 67
95 92 64
95 91 64
104 97 70
98 95 69
97 95 67
106 98 70
104 100 71
103 97 68
115 110 76
104 101 69
107 102 70
119 112 75
129 121 81
121 115 76
121 116 76
131 124 82
129 123 81
128 123 80
131 125 82
134 128 84
133 129 84
139 134 86
132 126 80
138 131 84
142 136 86
143 136 87
139 131 82
141 135 86
152 146 92
146 139 86
152 144 91
154 147 92
153 145 93
155 149 94
152 145 91
158 149 93
154 147 92
156 149 91
161 153 96
157 150 93
158 151 92
157 151 94
162 154 95
159 153 95
162 155 98
160 154 94
166 158 95
165 159 100
164 156 93
166 158 96
163 155 95
166 158 95
167 160 96
169 161 96
167 161 97
171 163 98
170 163 98
168 160 97
169 162 99
168 160 97
166 160 98
168 162 99
172 164 99
170 163 97
167 161 97
170 162 100
170 163 99
168 161 97
172 166 99
174 168 101
172 165 98
173 166 98
172 165 98
172 165 99
168 162 95
173 166 98
169 162 96
168 161 96
172 165 99
171 163 98
171 164 98
168 161 95
167 160 95
170 164 98
170 164 97
172 166 100
168 161 96
169 163 97
171 164 99
165 160 91
167 161 93
171 164 96
167 161 96
167 161 95
167 162 98
169 162 97
166 160 95
170 164 98
167 161 93
167 160 92
166 160 94
166 160 92
163 158 90
166 160 95
164 159 95
165 158 90
164 158 92
165 159 92
165 160 94
165 159 93
166 160 96
164 157 93
164 158 87
160 153 91
166 159 96
167 160 96
159 154 87
163 157 93
164 157 90
164 157 92
162 155 86
160 154 91
158 153 87
160 153 90
165 159 93
160 154 87
157 151 91
157 152 85
161 155 91
161 154 90
160 153 89
157 151 90
156 150 87
157 150 88
154 149 87
154 147 84
156 150 88
158 152 87
190 206 228
190 206 228
189 206 228
188 205 228
189 206 228
189 206 228
189 205 228
188 205 228
188 205 228
189 206 228
188 205 228
188 205 228
188 205 228
188 205 228
188 205 228
187 205 228
188 205 228
187 205 228
187 205 228
187 205 228
187 205 228
187 205 228
187 205 228
187 205 228
187 205 228
187 205 228
187 205 228
187 205 228
186 204 228
187 205 228
186 204 228
187 205 228
186 204 228
187 204 228
186 204 228
186 204 228
185 204 228
186 204 228
186 204 228
185 204 228
185 204 228
186 204 228
185 204 228
186 204 228
185 203 228
185 203 228
185 203 228
186 204 228
185 204 228
185 203 228
184 203 228
185 203 228
185 203 228
185 203 228
184 203 228
184 203 228
185 203 228
184 203 228
184 203 228
184 203 228
183 202 228
184 203 228
184 203 228
183 202 228
184 203 228
183 203 228
183 202 228
183 203 228
183 202 228
183 202 228
183 203 228
183 203 228
183 202 228
182 202 228
182 202 228
183 202 228
183 202 228
182 202 228
183 202 228
182 202 228
182 202 228
182 202 228
182 202 228
182 202 228
182 202 228
181 201 228
182 202 228
181 202 228
182 202 228
182 202 228
181 201 228
182 202 228
182 202 228
181 202 228
182 202 228
181 201 228
181 202 228
181 202 228
181 201 228
181 201 228
181 201 228
181 201 228
180 201 228
181 201 228
180 201 228
180 201 228
181 201 228
181 201 228
181 201 228
181 201 228
181 201 228
180 200 227
174 194 222
170 188 215
164 181 209
162 176 205
150 162 189
151 163 193
147 160 190
131 141 174
131 139 173
122 125 156
113 119 156
110 120 154
107 116 153
89 100 146
89 94 138
86 96 143
86 95 139
77 91 142
83 98 147
83 101 149
90 112 159
92 115 161
88 111 157
94 117 163
95 117 162
114 135 177
118 138 178
121 141 181
139 158 194
148 166 199
160 178 208
178 196 221
173 189 211
174 189 209
216 233 255
216 233 255
216 233 255
216 233 255
216 233 255
129 148 187
56 89 149
56 89 143
56 89 143
59 92 151
58 90 143
59 94 153
59 93 154
58 91 141
58 92 143
59 92 145
60 94 154
59 93 148
60 94 146
60 94 151
60 94 148
60 95 151
60 94 146
60 94 149
60 95 151
60 94 145
61 96 155
60 94 145
60 94 151
60 95 152
60 94 149
61 96 149
61 96 151
61 96 151
61 96 152
61 95 151
61 95 150
60 94 149
61 95 150
60 94 143
61 95 144
61 95 150
60 94 146
61 95 149
61 95 146
61 97 149
60 95 147
60 94 147
60 94 144
60 95 146
60 95 150
61 96 152
61 95 148
60 95 147
61 95 147
61 95 144
61 96 149
61 95 148
62 97 154
61 95 146
60 95 147
61 95 147
60 95 149
60 94 144
60 94 147
61 96 147
60 94 145
60 95 145
61 96 151
61 95 151
60 95 144
60 94 143
60 94 144
59 94 143
59 93 147
60 93 142
60 93 146
59 93 142
60 94 146
59 93 140
60 94 147
59 93 146
60 94 150
59 93 140
60 94 149
60 95 148
59 92 143
59 92 147
58 90 140
60 94 146
58 91 134
59 92 141
58 91 147
57 89 142
59 91 140
58 90 140
58 90 140
56 87 133
57 88 136
55 86 134
55 85 131
54 81 122
133 150 181
216 233 255
216 233 255
216 233 255
216 233 255
216 233 255
141 146 134
105 102 67
84 83 57
104 101 69
108 103 70
95 92 64
89 87 62
96 93 65
93 92 66
85 83 62
97 94 66
96 93 67
103 99 70
106 103 72
114 109 76
102 98 70
110 105 71
112 105 72
113 110 75
108 102 70
125 120 80
121 117 79
124 116 75
130 125 82
123 117 78
126 119 80
124 118 78
135 128 83
131 123 82
133 127 84
137 132 84
144 138 88
142 135 86
144 139 90
149 142 88
148 142 89
147 141 86
151 142 88
149 142 86
157 150 91
153 147 91
155 149 94
155 147 89
158 153 95
154 148 87
158 150 93
155 149 93
160 152 91
155 149 90
163 156 97
158 150 90
160 154 94
168 160 98
165 157 95
159 153 95
165 157 95
162 154 95
165 158 95
167 160 94
160 154 92
171 164 98
165 158 96
165 158 95
168 160 96
173 165 97
166 158 91
172 165 99
173 166 99
170 163 97
166 160 92
173 166 97
166 159 94
171 164 98
171 164 98
169 163 94
172 165 99
171 163 96
173 166 97
171 165 97
171 165 98
172 165 100
168 161 95
172 165 98
165 159 90
169 163 97
172 165 99
170 164 96
172 165 98
171 165 97
170 163 95
170 163 96
169 162 92
169 162 92
173 167 99
166 160 93
166 160 92
170 164 96
170 163 97
170 163 94
166 160 94
172 165 97
168 161 94
168 161 96
167 162 93
166 160 90
164 159 91
165 160 92
166 160 90
165 159 93
170 163 97
167 161 92
168 161 94
164 159 92
166 159 93
166 160 96
163 157 90
164 158 90
162 156 90
166 159 93
161 155 91
165 159 93
162 155 91
161 155 91
158 152 89
165 159 93
165 159 90
160 153 89
161 155 90
158 152 86
160 155 90
166 160 93
160 153 87
157 151 86
158 151 89
157 151 88
160 153 87
161 154 89
162 156 90
164 156 94
160 154 92
157 151 87
161 155 91
159 152 90
156 149 87
149 143 83
154 148 88
190 206 228
189 206 228
189 206 228
189 206 228
189 206 228
189 206 228
189 206 228
189 206 228
189 206 228
189 206 228
189 206 228
188 205 228
188 205 228
189 205 228
189 206 228
188 205 228
188 205 228
189 206 228
189 206 228
189 206 228
187 205 228
188 205 228
188 205 228
188 205 228
187 205 228
187 205 228
188 205 228
187 205 228
188 205 228
187 205 228
187 205 228
187 205 228
187 205 228
187 205 228
187 205 228
187 205 228
186 204 228
186 204 228
186 204 228
187 204 228
186 204 228
186 204 228
186 204 228
186 204 228
185 204 228
187 204 228
186 204 228
185 204 228
186 204 228
185 204 228
185 204 228
185 204 228
186 204 228
185 204 228
186 204 228
185 203 228
185 203 228
186 204 228
185 204 228
184 203 228
184 203 228
184 203 228
184 203 228
184 203 228
184 203 228
185 204 228
184 203 228
184 203 228
183 203 228
184 203 228
184 203 228
184 203 228
183 203 228
183 202 228
183 203 228
183 203 228
183 203 228
183 202 228
184 203 228
183 202 228
183 202 228
184 203 228
182 202 228
183 202 228
183 203 228
182 202 228
182 202 228
183 202 228
182 202 228
183 202 228
183 202 228
183 202 228
181 201 228
183 202 228
183 202 228
182 202 228
182 202 228
182 202 228
182 202 228
182 202 228
183 202 228
182 202 228
182 202 228
182 202 228
182 202 228
181 201 228
181 202 228
182 202 228
181 202 228
182 202 228
181 201 228
178 199 227
176 196 224
173 194 222
163 182 211
164 181 209
153 169 198
151 168 197
143 155 185
141 150 180
122 136 170
122 135 170
106 117 152
106 119 161
97 111 153
95 107 149
88 101 145
89 97 141
83 93 141
75 91 142
79 96 148
72 95 147
74 97 147
77 101 153
77 101 151
85 108 159
84 106 154
93 115 162
95 116 161
110 130 169
116 135 174
140 159 192
156 174 203
166 184 211
179 195 218
159 173 191
210 226 247
216 233 255
216 233 255
216 233 255
211 227 251
60 90 147
56 90 150
57 89 144
58 91 149
56 89 142
59 93 147
59 93 148
59 93 148
58 92 146
60 94 151
59 93 144
59 94 148
59 93 141
59 93 145
59 92 144
59 93 143
60 95 151
59 93 144
60 95 151
60 94 148
60 95 149
59 93 142
60 95 151
60 94 150
60 95 147
59 94 144
60 95 146
60 94 149
60 94 149
61 95 147
60 94 145
60 95 151
60 94 147
61 95 150
59 94 138
60 95 147
60 94 145
61 95 144
60 94 145
60 94 146
61 95 149
60 95 144
60 95 140
61 96 151
60 94 143
61 96 148
61 95 149
61 96 151
60 95 146
61 95 148
60 95 149
60 95 142
60 93 144
61 96 151
60 95 147
60 95 143
60 95 146
60 94 143
60 94 145
60 94 142
60 94 144
61 95 148
61 96 150
60 94 147
61 95 151
61 96 152
60 93 147
61 96 149
61 95 151
60 94 142
60 94 144
60 93 141
59 93 144
60 94 146
61 95 148
60 93 143
60 94 145
60 93 140
60 94 147
59 92 142
59 92 144
58 90 138
60 93 142
59 93 143
59 92 140
57 90 138
59 92 147
59 93 143
57 88 134
57 89 136
59 92 144
57 88 136
56 87 133
57 88 138
58 89 138
56 87 140
52 80 119
72 95 132
210 226 249
216 233 255
216 233 255
216 233 255
204 219 237
120 117 75
95 93 62
100 98 67
95 93 67
101 99 69
93 87 61
85 83 61
80 77 56
98 95 66
92 91 65
105 100 70
96 97 70
105 99 71
99 96 68
108 103 71
104 98 68
109 105 72
112 106 73
113 108 73
123 114 76
119 113 76
120 113 75
127 121 79
121 118 79
125 120 77
134 130 82
130 125 84
133 128 78
132 127 79
141 134 86
140 135 86
141 137 90
138 135 88
148 142 90
136 131 81
152 146 91
149 143 91
152 145 90
141 137 87
155 147 91
152 145 88
156 147 94
155 150 93
155 148 89
154 148 90
160 154 95
159 152 93
163 156 95
157 150 88
163 156 94
163 156 96
166 159 97
162 155 93
161 154 94
165 156 95
164 157 93
163 157 94
167 160 94
164 157 92
167 160 96
165 159 95
167 160 97
166 159 95
166 159 95
168 161 94
169 160 94
168 161 96
166 159 93
167 161 96
171 165 97
169 162 96
170 164 98
171 163 93
170 164 95
167 159 93
169 161 95
171 165 98
172 165 100
171 165 98
169 164 97
171 163 98
171 164 96
168 161 94
170 163 94
171 164 100
171 164 96
170 164 98
169 163 97
165 159 89
168 162 94
172 166 96
170 163 94
167 162 96
171 164 98
171 165 101
170 162 93
168 162 97
171 165 98
168 161 95
171 164 97
171 164 95
167 160 92
168 161 95
165 159 93
165 159 93
167 161 94
166 161 90
165 159 93
168 161 91
160 155 90
165 159 92
168 161 95
170 163 95
166 160 95
165 159 91
161 156 91
164 158 93
165 158 91
160 155 88
165 159 95
163 157 91
161 155 87
160 154 86
164 157 90
164 158 92
164 159 95
162 155 90
158 153 87
160 154 89
164 158 91
163 157 91
162 157 93
162 155 91
156 150 89
160 155 91
161 155 90
154 148 85
159 152 86
164 157 92
159 152 89
158 153 88
155 149 86
156 150 88
160 153 88
159 152 93
158 151 85
190 206 228
190 206 228
190 206 228
190 206 228
190 206 228
189 206 228
190 206 228
190 206 228
189 206 228
189 206 228
189 206 228
189 206 228
189 206 228
189 206 228
189 205 228
189 206 228
189 206 228
189 206 228
188 205 228
188 205 228
189 206 228
188 205 228
188 205 228
189 206 228
188 205 228
189 205 228
188 205 228
189 206 228
188 205 228
188 205 228
188 205 228
188 205 228
187 205 228
188 205 228
189 206 228
186 204 228
188 205 228
188 205 228
187 205 228
187 205 228
186 204 228
187 205 228
187 205 228
187 205 228
186 204 228
187 205 228
186 204 228
187 205 228
186 204 228
186 204 228
186 204 228
187 204 228
187 204 228
186 204 228
186 204 228
186 204 228
186 204 228
185 203 228
186 204 228
185 204 228
186 204 228
185 203 228
186 204 228
186 204 228
185 203 228
185 204 228
185 204 228
185 203 228
185 203 228
185 204 228
185 203 228
185 204 228
185 203 228
185 203 228
185 203 228
185 203 228
185 203 228
184 203 228
184 203 228
184 203 228
184 203 228
184 203 228
184 203 228
183 202 228
184 203 228
184 203 228
184 203 228
183 202 228
184 203 228
184 203 228
184 203 228
184 203 228
182 202 228
183 203 228
182 202 228
183 203 228
183 203 228
183 202 228
183 202 228
184 203 228
182 202 228
183 202 228
182 202 228
182 202 228
183 203 228
182 202 228
183 202 228
183 202 228
182 202 228
182 202 228
182 202 228
179 198 225
170 190 218
169 189 218
164 184 214
161 181 210
158 177 208
140 158 192
144 159 189
135 150 183
127 142 176
119 132 165
114 131 167
105 116 154
102 119 159
87 100 145
81 94 140
79 94 143
72 89 136
67 86 136
66 88 140
63 86 141
59 86 143
58 84 140
53 81 137
60 86 142
63 89 145
79 101 152
86 107 152
101 121 163
110 129 169
128 146 183
141 159 191
158 175 203
177 194 218
176 191 211
190 205 226
217 233 255
217 233 255
217 233 255
174 191 219
54 86 143
55 87 140
57 90 146
58 91 144
58 91 144
58 91 140
58 92 143
56 89 132
58 92 144
59 93 149
59 93 151
60 94 155
60 94 147
59 93 143
59 94 142
59 94 146
59 93 144
59 93 140
60 95 148
60 94 147
61 95 150
59 93 146
59 93 144
61 95 147
60 94 145
60 95 146
60 95 147
61 96 154
60 94 144
60 94 142
61 95 147
59 93 139
60 95 150
61 96 148
60 95 147
61 96 150
60 94 143
61 95 148
60 94 148
61 96 151
60 95 142
61 96 149
60 95 147
61 96 147
61 95 146
60 95 145
61 96 146
60 95 147
60 94 140
61 96 151
62 96 148
61 95 148
61 95 143
61 95 150
60 93 140
61 96 151
60 94 145
60 95 149
60 95 147
62 97 153
60 94 143
60 93 144
61 96 150
60 94 148
59 93 140
60 95 148
59 93 140
60 95 149
61 95 149
60 94 143
59 93 138
60 93 146
60 94 145
59 91 141
59 92 137
60 94 143
60 93 143
59 93 145
59 93 144
60 92 141
60 93 146
59 92 142
60 93 146
58 90 139
57 90 134
59 93 141
59 92 144
58 90 134
57 89 137
57 88 128
59 91 139
58 90 139
56 87 129
57 89 136
55 85 124
54 83 127
53 81 123
54 83 128
178 195 221
217 233 255
217 233 255
217 233 255
171 180 184
107 104 68
102 100 67
92 90 61
92 90 63
92 91 64
87 87 62
87 87 63
99 96 67
92 91 67
104 101 74
93 87 63
92 86 62
105 98 69
99 95 66
99 95 68
108 102 69
107 104 70
108 104 71
112 111 75
117 114 77
124 116 77
117 111 74
128 121 78
126 119 76
119 116 79
128 123 80
126 119 78
124 121 78
137 132 85
135 128 82
137 130 83
138 131 83
141 134 85
138 131 83
146 139 86
140 133 82
147 140 86
142 136 82
150 142 87
155 146 89
154 149 90
153 145 90
154 147 87
153 146 90
152 146 88
155 149 90
162 155 93
151 145 90
152 145 88
155 149 93
161 152 90
158 152 90
164 155 92
163 157 94
165 159 94
165 157 93
167 160 94
164 158 95
164 157 94
167 159 95
166 159 94
168 160 96
167 162 99
168 163 96
165 158 94
169 162 95
171 165 94
170 164 97
166 160 93
171 165 97
169 162 96
168 162 94
170 163 99
170 163 95
171 165 99
172 164 95
170 163 94
172 165 94
171 164 93
173 165 98
171 164 93
172 166 98
170 164 95
172 166 97
169 163 94
169 162 93
173 166 96
173 166 97
168 162 94
171 165 94
171 164 98
170 163 93
170 164 94
168 162 94
169 162 93
170 165 94
172 165 98
170 163 95
170 164 96
170 164 97
167 161 93
164 159 91
172 165 98
167 161 95
168 163 96
170 163 96
169 162 95
163 157 91
168 161 96
167 161 92
169 163 94
170 163 97
171 165 95
166 159 92
165 157 90
168 161 95
166 160 93
160 154 88
164 157 93
166 160 93
163 157 92
161 155 88
167 159 93
165 159 92
166 159 93
163 157 90
163 156 90
164 158 87
162 156 89
158 152 86
159 153 87
162 155 90
164 157 93
158 152 85
157 150 85
160 154 88
158 153 87
160 154 88
157 151 89
153 146 84
159 152 88
158 151 86
165 158 94
161 155 93
157 150 87
157 151 87
190 206 228
191 207 228
191 207 228
190 206 228
190 206 228
190 206 228
189 206 228
189 206 228
190 206 228
190 206 228
190 206 228
190 206 228
189 206 228
190 206 228
190 206 228
190 206 228
190 206 228
190 206 228
189 206 228
189 206 228
189 206 228
189 206 228
190 206 228
189 206 228
188 205 228
189 206 228
189 206 228
189 206 228
188 205 228
188 205 228
189 206 228
189 206 228
188 205 228
188 205 228
188 205 228
188 205 228
188 205 228
187 205 228
188 205 228
188 205 228
188 205 228
188 205 228
188 205 228
188 205 228
187 205 228
188 205 228
187 205 228
187 205 228
186 204 228
188 205 228
187 205 228
187 204 228
187 204 228
187 205 228
186 204 228
187 205 228
186 204 228
187 204 228
186 204 228
187 205 228
186 204 228
186 204 228
186 204 228
186 204 228
187 204 228
186 204 228
186 204 228
186 204 228
185 203 228
185 204 228
186 204 228
185 204 228
186 204 228
185 204 228
185 204 228
185 204 228
185 204 228
186 204 228
185 204 228
185 203 228
185 204 228
185 203 228
185 204 228
184 203 228
185 203 228
185 203 228
185 203 228
185 203 228
185 204 228
184 203 228
184 203 228
184 203 228
184 203 228
184 203 228
185 203 228
184 203 228
184 203 228
183 203 228
185 204 228
184 203 228
184 203 228
184 203 228
184 203 228
183 203 228
184 203 228
184 203 228
184 203 228
184 203 228
184 203 228
183 202 228
181 200 225
176 195 222
172 192 219
170 190 217
160 180 210
161 180 208
149 169 201
152 171 202
146 164 195
135 152 183
123 141 177
122 140 176
113 129 165
104 118 155
89 105 145
91 110 151
75 94 141
70 91 138
64 83 133
56 82 137
51 78 133
50 78 137
50 80 138
49 78 139
50 79 139
48 76 134
50 77 134
47 74 132
62 86 142
78 99 147
90 110 153
106 125 165
124 142 176
144 161 190
163 179 206
173 189 210
162 175 192
217 233 255
217 233 255
217 233 255
139 157 191
54 85 142
56 89 143
56 88 141
58 91 147
58 91 146
58 91 145
58 92 143
59 92 144
59 92 146
59 93 143
58 92 139
60 94 143
59 93 142
59 94 148
60 95 147
59 93 144
59 93 142
60 95 151
60 95 148
60 95 148
60 94 146
60 94 145
60 94 143
61 95 148
60 94 142
60 94 151
60 93 140
60 94 146
60 95 147
59 94 142
60 95 145
60 94 144
60 95 144
60 94 138
60 95 146
61 95 151
60 94 146
61 96 149
59 94 138
61 97 149
62 97 154
59 92 140
59 94 147
60 95 147
60 94 148
61 96 151
60 95 146
60 94 146
61 96 147
61 96 153
59 93 136
60 94 139
60 94 143
60 94 143
59 94 142
60 94 148
59 93 144
60 94 145
61 96 151
60 94 141
59 93 139
59 94 143
60 94 147
61 95 148
61 95 149
60 94 147
60 94 145
60 95 148
60 93 139
59 93 136
59 93 149
60 94 144
60 94 146
60 95 144
60 93 143
60 93 145
58 91 138
60 95 150
60 94 142
59 93 144
59 93 142
60 93 142
58 91 138
60 93 145
60 93 144
59 92 145
60 94 150
58 91 141
58 90 137
58 91 145
58 90 137
56 87 137
58 90 138
57 88 133
56 87 134
55 84 122
54 83 126
53 80 119
142 158 182
217 233 255
217 233 255
217 233 255
132 132 109
102 100 66
86 84 58
87 84 58
97 95 65
86 82 59
78 75 55
85 86 64
89 88 63
86 84 61
93 92 65
95 90 64
88 85 62
98 94 67
98 96 68
92 91 64
96 94 66
102 99 68
104 100 67
112 110 73
107 101 68
114 110 73
119 116 77
122 116 76
124 118 76
125 120 78
129 126 81
135 129 83
140 133 85
130 124 80
138 134 84
139 133 84
133 128 80
140 134 82
142 135 85
141 135 83
145 139 86
148 142 89
137 132 77
150 141 86
149 143 90
149 140 83
148 140 88
159 150 92
152 148 90
153 147 89
159 151 90
158 151 91
160 152 91
160 153 90
161 155 93
160 154 92
163 156 96
166 159 94
160 153 91
165 157 94
163 155 93
165 159 95
162 155 93
169 161 95
167 159 94
170 162 96
167 159 95
166 158 94
167 160 94
166 160 89
171 164 93
170 162 96
169 163 95
166 160 93
171 164 97
172 166 96
169 161 91
174 166 98
169 162 95
167 160 91
168 162 95
172 166 100
172 165 97
169 162 92
174 167 100
169 163 94
173 165 98
172 164 96
172 166 91
169 162 93
169 163 94
172 165 98
170 163 93
172 165 96
170 164 95
172 165 97
172 165 98
170 163 95
171 164 95
170 162 94
171 165 98
171 164 98
171 165 97
169 162 93
162 156 89
168 162 93
168 162 92
168 162 94
172 165 94
162 157 93
169 162 94
168 161 94
164 158 87
169 162 94
167 161 94
166 160 88
164 158 92
169 162 94
162 157 89
161 154 88
161 155 86
163 158 92
165 158 88
167 161 90
169 162 95
164 157 90
166 159 89
160 154 86
159 153 87
161 155 89
165 158 94
161 156 90
159 153 82
162 155 90
163 157 89
165 158 92
159 152 89
161 154 86
162 156 90
160 153 89
159 153 88
158 152 89
161 154 89
161 154 89
155 149 86
160 154 89
155 149 84
158 151 87
160 153 86
159 152 87
157 150 86
191 207 228
191 207 228
191 207 228
191 207 228
191 207 228
192 207 228
190 206 228
191 207 228
191 207 228
191 207 228
190 206 228
190 206 228
190 206 228
190 206 228
191 207 228
190 206 228
191 207 228
190 206 228
189 206 228
190 206 228
190 206 228
190 206 228
190 206 228
189 206 228
189 206 228
189 206 228
189 206 228
189 206 228
189 206 228
189 206 228
189 206 228
190 206 228
190 206 228
188 205 228
188 205 228
188 205 228
189 206 228
189 206 228
189 205 228
188 205 228
188 205 228
188 205 228
189 206 228
188 205 228
189 206 228
187 205 228
188 205 228
188 205 228
188 205 228
188 205 228
188 205 228
187 205 228
188 205 228
188 205 228
188 205 228
187 205 228
187 205 228
188 205 228
187 205 228
187 205 228
187 205 228
188 205 228
187 205 228
186 204 228
187 204 228
187 204 228
186 204 228
187 204 228
186 204 228
187 204 228
186 204 228
186 204 228
186 204 228
187 205 228
186 204 228
186 204 228
186 204 228
186 204 228
185 204 228
186 204 228
185 204 228
185 204 228
186 204 228
185 204 228
186 204 228
185 204 228
186 204 228
186 204 228
186 204 228
185 203 228
186 204 228
185 204 228
185 204 228
185 204 228
185 203 228
186 204 228
185 203 228
185 204 228
185 203 228
185 203 228
185 204 228
185 203 228
185 203 228
185 203 228
184 203 228
185 204 228
184 203 228
185 203 228
184 203 228
184 203 227
176 195 221
176 195 220
166 185 211
164 183 209
157 176 203
157 177 206
148 168 198
146 165 195
133 154 189
127 147 184
119 138 175
117 134 171
107 126 168
103 121 162
98 116 156
77 98 147
75 94 145
62 86 140
53 79 131
53 79 136
51 80 138
50 78 136
48 76 127
49 77 137
48 76 132
46 71 124
45 71 127
46 74 133
44 70 125
54 77 132
74 93 139
85 103 144
114 131 167
137 154 187
146 163 192
165 180 204
166 180 199
207 222 243
217 233 255
217 233 255
90 112 156
56 88 146
56 89 147
56 89 145
57 90 143
57 90 142
58 92 150
58 91 140
59 92 140
60 94 151
59 93 145
60 94 144
60 94 149
59 92 146
58 92 142
60 94 145
59 94 142
59 93 142
60 95 148
59 92 141
59 93 142
59 92 137
59 93 142
60 94 147
60 94 143
61 95 151
59 93 139
61 96 146
61 95 149
59 92 144
60 94 143
60 95 152
60 94 149
60 94 141
60 94 141
61 96 151
59 94 140
60 93 140
60 95 147
59 94 141
61 95 141
60 95 141
61 96 146
61 95 147
60 95 145
59 93 149
60 95 141
60 93 144
58 92 131
61 96 152
60 95 146
61 97 155
60 94 141
60 94 141
61 95 150
61 96 148
59 93 143
60 95 145
59 94 139
61 95 151
59 93 138
59 93 137
59 93 137
61 96 147
60 94 141
61 95 147
61 95 147
59 93 147
59 92 141
60 95 146
60 94 141
60 93 144
60 95 142
60 94 142
60 94 147
59 93 143
60 94 141
60 94 148
60 94 148
59 92 134
58 91 135
60 94 145
58 91 136
57 90 135
59 92 141
59 92 138
58 91 137
57 89 136
58 91 139
58 90 139
58 91 133
58 89 134
56 87 133
56 88 135
55 86 132
56 86 132
55 84 124
54 84 128
52 79 123
75 96 131
217 233 255
217 233 255
203 218 235
105 104 64
93 91 62
91 86 58
87 85 59
78 76 55
78 78 56
76 75 55
71 69 53
75 74 56
76 75 56
78 77 55
85 81 55
95 91 64
85 82 60
101 100 69
96 93 65
103 102 69
106 102 72
108 102 69
126 121 81
117 115 77
120 116 77
124 118 78
122 117 77
120 115 71
119 115 72
131 125 81
132 126 79
135 131 84
143 136 83
137 130 81
134 128 80
136 129 80
145 139 88
136 132 83
147 142 87
150 144 88
143 134 79
146 139 85
153 147 88
147 141 82
148 141 84
155 149 87
151 145 84
160 152 92
154 148 87
160 153 91
159 151 92
157 150 90
160 152 93
158 152 90
158 151 90
161 154 90
157 151 87
160 152 89
160 153 91
165 157 92
164 157 92
166 158 95
166 158 92
166 159 92
166 158 93
169 162 94
168 161 96
167 161 90
168 161 95
168 160 95
168 161 94
173 166 98
166 159 91
170 162 95
168 162 93
168 161 93
172 164 96
176 168 98
174 167 97
174 166 97
168 161 93
169 162 94
172 165 98
170 164 94
170 163 93
171 164 96
169 162 95
172 165 94
169 163 94
171 163 95
169 163 93
170 163 94
173 166 97
169 162 93
172 166 95
170 164 96
170 162 94
167 161 89
167 161 93
171 164 95
167 161 93
170 164 91
168 162 93
169 163 93
169 162 92
168 161 94
169 162 91
172 165 98
167 160 86
166 158 92
166 159 92
167 161 92
165 159 93
165 160 89
167 160 92
168 162 93
165 158 92
168 162 93
165 159 90
166 159 89
166 160 93
163 157 89
162 155 85
164 157 87
164 158 89
165 158 90
161 155 88
162 156 91
164 157 86
163 157 90
164 158 89
163 156 90
157 150 84
161 154 88
157 152 87
155 149 82
162 155 87
163 155 88
154 148 83
158 152 85
157 151 84
158 152 87
155 149 84
160 153 88
153 146 84
158 152 88
157 150 87
159 152 86
153 147 87
156 150 87
191 207 228
191 207 228
192 207 228
191 207 228
191 207 228
192 207 228
191 207 228
191 207 228
191 207 228
191 207 228
192 207 228
191 207 228
191 207 228
191 207 228
191 207 228
190 206 228
190 206 228
190 206 228
191 207 228
190 206 228
191 207 228
191 207 228
190 206 228
191 207 228
190 206 228
190 206 228
190 206 228
190 206 228
191 207 228
189 206 228
190 206 228
190 206 228
190 206 228
189 206 228
190 206 228
190 206 228
189 206 228
190 206 228
189 205 228
189 205 228
190 206 228
188 205 228
189 205 228
189 206 228
189 206 228
189 206 228
189 205 228
188 205 228
189 206 228
189 206 228
189 205 228
188 205 228
189 206 228
188 205 228
189 206 228
188 205 228
188 205 228
188 205 228
187 205 228
188 205 228
188 205 228
188 205 228
188 205 228
188 205 228
188 205 228
188 205 228
188 205 228
188 205 228
187 205 228
187 205 228
188 205 228
187 205 228
187 205 228
187 205 228
187 205 228
187 205 228
187 205 228
187 205 228
187 205 228
187 205 228
187 204 228
187 205 228
187 204 228
186 204 228
187 205 228
187 204 228
187 204 228
186 204 228
186 204 228
186 204 228
187 204 228
186 204 228
186 204 228
186 204 228
186 204 228
186 204 228
186 204 228
186 204 228
186 204 228
186 204 228
185 204 228
186 204 228
185 204 228
186 204 228
184 203 228
186 204 228
186 204 228
186 204 228
185 203 226
183 200 222
179 196 221
176 195 220
176 194 218
164 182 208
162 181 208
163 182 210
152 171 201
149 169 198
137 157 190
139 159 193
121 142 178
117 137 172
107 127 163
98 119 158
82 104 148
81 104 147
62 86 133
53 82 137
51 80 134
49 77 133
49 78 134
49 78 134
48 76 128
48 76 132
47 75 130
48 75 131
46 73 128
46 72 127
45 71 125
44 69 122
51 74 125
64 85 135
90 108 150
112 129 162
139 154 182
160 176 203
169 184 204
184 199 216
218 233 255
206 222 246
53 85 139
54 85 141
55 87 135
55 87 137
57 91 144
58 91 144
58 91 147
59 93 147
59 94 152
59 93 141
58 92 139
59 94 143
59 93 143
57 90 134
59 93 145
60 94 147
60 93 144
60 94 145
60 94 149
59 94 142
60 94 141
60 95 146
60 95 147
59 92 142
60 95 147
60 94 141
60 95 152
60 94 146
60 94 141
60 94 143
60 95 151
60 94 144
61 95 146
60 95 141
60 94 143
60 94 141
60 94 143
60 95 144
60 95 143
60 94 142
60 95 144
61 95 150
61 95 142
60 95 145
61 96 144
60 94 145
61 96 147
60 94 139
60 94 139
61 95 145
61 95 145
60 94 143
61 96 149
61 96 146
60 93 142
60 94 139
58 92 133
60 93 141
62 97 151
61 96 150
60 94 142
61 95 146
60 95 145
60 94 144
59 93 139
60 94 140
60 94 144
59 92 138
60 94 146
59 93 145
59 93 144
59 93 139
60 93 139
60 92 140
60 93 141
58 92 137
59 92 134
59 93 140
59 91 138
59 92 138
58 91 140
59 93 142
60 93 143
59 91 135
59 91 141
59 93 144
56 88 135
58 91 140
58 91 137
58 91 136
57 88 130
57 90 136
57 89 139
56 87 132
56 86 129
57 88 138
54 84 124
55 84 129
52 80 119
51 79 121
202 218 240
218 234 255
174 183 186
99 97 62
98 96 63
79 77 52
80 79 56
66 66 50
72 73 55
85 82 59
80 78 56
73 74 55
76 78 58
84 82 60
81 80 58
86 84 60
96 93 66
105 101 69
87 85 60
101 99 68
106 104 69
107 103 70
109 103 69
109 106 70
113 112 74
127 120 76
120 118 77
121 118 76
124 119 76
124 120 75
130 125 79
131 125 79
133 128 79
140 134 85
142 136 87
137 130 79
134 126 80
144 137 82
138 134 83
140 134 81
143 138 84
151 145 89
156 148 87
157 149 91
149 143 86
155 148 88
158 151 88
152 145 87
152 146 87
155 149 87
160 151 92
151 146 86
159 153 93
163 156 91
164 157 92
158 150 89
162 154 91
166 159 93
166 157 93
165 158 91
162 153 88
167 160 94
166 158 89
168 161 95
167 160 95
171 162 98
169 163 96
168 162 95
166 160 89
165 159 90
168 161 95
169 162 94
168 162 92
167 161 92
171 163 94
166 158 88
171 163 92
173 165 97
167 161 91
170 163 92
171 165 96
167 161 92
171 163 97
170 164 95
172 166 94
171 164 92
173 165 96
169 163 91
173 166 97
169 163 93
167 162 90
171 164 95
170 163 91
171 165 94
168 161 92
172 165 95
169 163 93
166 160 92
173 166 96
171 164 95
171 163 92
171 164 96
167 161 91
169 162 94
167 160 92
168 162 95
171 163 92
171 164 93
167 161 93
168 161 93
170 162 93
164 157 87
164 159 89
168 161 93
166 158 90
164 158 89
166 160 91
163 156 87
166 160 90
164 157 86
160 154 88
169 162 92
168 161 91
164 157 90
168 162 92
158 152 84
163 157 89
164 156 88
167 159 91
157 151 83
164 158 89
163 157 87
162 156 90
164 157 92
161 154 85
159 153 86
161 155 88
159 152 90
162 155 87
158 152 88
158 151 86
160 154 90
160 153 84
161 153 87
159 152 87
157 151 85
158 152 87
153 147 83
154 147 81
158 151 84
192 207 228
192 207 227
192 207 227
192 207 227
191 207 227
192 207 227
192 207 227
190 206 227
191 207 228
192 207 228
191 207 228
192 207 228
192 207 228
192 207 228
191 207 228
191 207 228
192 207 228
191 207 228
192 207 228
191 207 228
191 207 228
191 207 228
191 207 228
191 207 228
191 207 228
191 207 228
190 206 228
190 206 228
190 207 228
191 207 228
190 206 228
190 206 228
190 206 228
191 207 228
191 207 228
190 206 228
190 206 228
190 206 228
190 206 228
190 206 228
190 206 228
190 206 228
190 206 228
190 206 228
190 206 228
190 206 228
190 206 228
190 206 228
190 206 228
190 206 228
189 206 228
190 206 228
190 206 228
188 205 228
188 205 228
189 206 228
189 206 228
188 205 228
189 206 228
189 206 228
189 206 228
188 205 228
189 206 228
188 205 228
188 205 228
189 206 228
188 205 228
189 206 228
188 205 228
188 205 228
188 205 228
188 205 228
188 205 228
188 205 228
188 205 228
188 205 228
188 205 228
188 205 228
188 205 228
187 204 228
188 205 228
188 205 228
187 205 228
187 205 228
187 205 228
187 205 228
187 205 228
188 205 228
187 205 228
187 204 228
187 204 228
187 205 228
186 204 228
187 205 228
186 204 228
186 204 228
186 204 228
187 204 228
187 204 228
187 205 228
187 204 228
187 204 228
187 204 228
187 204 228
187 204 228
187 204 228
186 204 228
186 204 228
183 200 223
182 199 221
180 198 221
171 188 211
172 189 215
161 179 204
160 178 205
156 175 204
149 167 194
140 159 192
137 157 188
122 142 173
128 148 183
108 130 170
101 123 164
91 114 158
82 105 153
67 93 142
52 80 134
51 81 133
50 80 134
50 80 135
48 76 129
49 79 136
46 74 126
46 72 126
46 74 125
44 70 123
46 73 130
46 72 128
45 72 129
43 69 124
42 67 124
51 72 121
76 94 137
98 116 155
116 132 166
153 169 196
163 177 196
170 183 198
218 234 255
171 187 214
53 84 139
54 84 135
56 88 144
57 90 145
56 88 141
57 90 136
59 92 146
58 91 141
58 92 139
58 91 137
59 93 142
59 92 144
58 91 142
59 92 142
60 94 148
57 90 137
59 94 145
59 92 139
59 93 140
58 92 140
59 94 145
59 93 139
60 94 145
60 94 146
59 93 138
59 94 143
59 93 142
60 95 146
60 94 147
60 94 142
61 96 149
61 96 150
61 95 143
60 95 140
60 94 141
59 93 132
60 94 148
59 93 138
61 95 147
60 95 143
61 96 147
60 95 143
60 95 144
60 94 149
59 93 139
60 95 143
60 95 139
60 94 144
59 93 137
61 95 144
60 95 142
61 95 144
60 94 144
61 95 146
60 94 139
60 95 147
60 95 142
59 93 135
61 94 145
60 95 144
60 94 142
59 92 136
59 92 135
60 95 146
60 94 140
59 92 138
61 95 147
60 94 143
60 94 146
61 95 149
59 92 141
59 93 137
61 95 144
60 94 146
60 93 141
59 92 140
60 93 141
59 92 135
58 92 136
60 94 139
57 89 131
59 92 140
59 92 139
58 91 135
60 93 140
58 91 135
59 91 142
60 93 152
59 92 140
57 89 132
58 90 135
58 90 137
57 88 129
56 88 132
56 86 128
55 85 132
55 84 126
55 86 130
51 78 110
52 79 123
179 194 216
218 234 255
147 151 140
78 78 54
90 90 60
84 83 56
88 87 60
67 68 50
77 75 53
82 83 61
66 66 49
79 77 56
83 82 60
87 86 62
91 91 63
86 86 60
95 92 65
99 98 67
97 97 66
103 102 68
101 95 63
99 94 63
117 114 76
115 109 68
119 116 76
110 106 67
121 116 72
124 117 74
122 118 75
128 123 80
128 124 78
134 127 80
134 130 81
134 128 78
135 129 80
141 136 85
143 136 81
141 135 83
143 137 85
148 144 88
147 139 81
147 141 88
155 147 84
153 146 85
148 142 85
156 150 92
150 142 88
148 143 83
154 148 85
152 145 85
159 153 87
160 154 92
152 146 86
156 148 88
159 151 90
160 152 86
160 153 88
157 150 86
160 153 90
161 154 88
161 154 92
166 158 91
165 156 91
167 160 95
169 162 93
165 157 91
170 160 93
167 160 90
172 164 95
169 161 93
168 162 93
169 161 93
168 162 95
169 162 96
170 162 94
168 161 92
168 161 93
170 164 95
174 166 97
172 166 96
171 165 93
173 166 95
168 162 90
171 164 94
171 165 93
172 165 91
170 163 93
172 165 95
171 164 94
171 165 95
170 164 91
169 163 91
170 164 93
169 163 93
168 161 91
170 163 94
169 162 91
170 164 95
166 160 87
165 158 89
171 164 91
169 162 95
166 159 90
171 164 94
168 162 91
167 160 93
165 160 88
167 161 94
169 162 92
168 161 93
165 159 87
168 161 90
167 161 92
169 162 94
165 159 89
166 160 94
164 158 90
165 158 88
169 162 93
165 157 88
165 158 89
167 160 90
163 157 88
162 156 89
163 157 89
163 156 88
160 154 88
161 153 87
164 158 90
164 157 90
166 159 89
161 155 85
165 159 88
165 159 90
162 155 88
160 153 89
160 153 89
159 153 86
162 156 87
162 155 88
154 147 80
162 155 89
157 150 83
156 150 86
160 152 91
156 149 83
155 148 85
156 150 84
159 152 86
155 148 81
191 207 225
192 207 226
192 207 225
191 206 223
190 206 223
192 207 225
192 207 226
191 207 226
191 207 226
190 206 224
192 208 228
191 206 224
191 207 226
192 207 228
191 207 226
191 207 227
191 207 227
191 207 227
191 207 227
192 207 228
192 207 228
192 207 228
191 207 228
191 207 228
191 207 228
191 207 228
192 207 228
191 207 228
191 207 228
191 207 228
191 207 228
191 207 228
191 207 228
191 207 228
191 207 228
190 206 228
191 207 228
191 207 228
191 207 228
191 207 228
191 207 228
190 206 228
190 206 228
190 206 228
191 207 228
191 207 228
190 206 228
191 207 228
191 207 228
190 206 228
190 206 228
189 206 228
190 206 228
190 206 228
190 206 228
190 206 228
190 206 228
189 206 228
190 206 228
190 206 228
189 206 228
190 206 228
190 206 228
189 206 228
190 206 228
190 206 228
190 206 228
189 206 228
189 206 228
189 206 228
189 206 228
189 206 228
189 206 228
188 205 228
189 205 228
188 205 228
189 206 228
188 205 228
188 205 228
189 206 228
189 206 228
189 205 228
189 205 228
189 205 228
188 205 228
188 205 228
188 205 228
188 205 228
189 206 228
188 205 228
187 205 228
188 205 228
188 205 228
188 205 228
187 205 228
188 205 228
188 205 228
188 205 228
188 205 228
188 205 228
188 205 228
188 205 228
188 205 228
188 205 228
188 205 228
188 205 228
188 205 228
185 202 225
184 200 222
183 199 220
177 195 218
172 189 212
165 183 208
168 185 210
152 170 195
150 168 196
142 160 190
138 157 188
129 148 182
117 138 173
113 134 171
107 127 165
98 120 161
84 107 151
80 104 150
62 89 139
51 80 132
50 79 130
50 78 129
49 78 129
49 78 130
48 76 124
49 77 131
45 72 123
46 73 125
46 73 128
47 74 127
44 70 121
42 67 117
43 67 117
41 65 117
40 64 117
51 72 123
93 109 145
123 138 167
138 154 184
164 179 200
165 178 193
216 231 252
144 161 188
51 80 124
55 88 138
57 90 138
56 88 140
55 87 138
58 91 148
58 92 143
58 92 141
60 93 142
59 94 150
58 92 142
59 92 134
60 95 147
58 92 141
59 94 142
59 93 138
59 93 138
59 93 139
59 94 141
59 93 140
60 95 146
59 93 137
60 93 140
60 94 147
60 94 143
58 91 134
60 94 145
60 94 143
61 96 150
60 94 142
60 94 142
60 94 140
60 94 145
60 94 143
60 95 144
60 93 140
60 94 143
59 94 142
60 94 147
60 95 148
59 94 142
60 94 145
60 95 145
60 94 140
61 95 146
60 94 139
60 94 143
60 94 141
59 92 140
60 94 144
61 95 146
60 94 146
60 94 143
60 94 141
60 95 144
60 94 142
60 93 140
60 95 144
60 94 142
59 92 138
60 94 144
60 94 146
62 96 150
60 94 143
60 94 146
61 95 146
59 93 140
60 94 138
60 93 141
60 94 139
59 93 141
58 91 134
59 92 139
59 92 136
60 94 144
59 92 139
59 92 141
59 92 139
59 93 143
59 92 138
58 91 136
58 91 134
59 91 136
59 92 142
59 91 140
58 90 134
58 90 137
58 91 139
55 87 122
58 91 136
56 87 128
57 88 134
57 88 135
58 90 137
56 87 131
56 86 130
55 84 127
54 83 125
53 80 121
50 77 113
138 154 180
215 231 251
103 103 71
91 90 57
77 74 51
70 73 52
68 69 49
75 76 55
73 72 52
76 76 55
67 67 50
73 71 52
85 83 61
71 72 53
79 77 55
76 77 58
95 91 65
92 92 65
96 94 66
106 104 69
109 105 70
104 103 67
99 98 67
113 110 70
108 105 68
112 108 71
121 116 75
121 117 71
123 117 76
126 122 78
127 122 76
130 127 80
132 126 75
138 129 80
137 133 83
133 129 76
145 138 85
145 139 83
144 138 88
148 142 87
147 140 86
146 139 84
149 141 83
153 146 87
153 147 83
149 144 86
155 148 86
154 147 83
160 153 95
154 147 89
155 146 87
155 148 83
156 150 90
160 153 90
157 150 89
164 156 91
163 154 92
162 155 89
162 156 91
164 157 90
163 156 87
162 157 89
167 160 93
163 157 91
164 157 93
170 163 95
169 163 94
170 164 96
166 160 90
165 159 88
167 160 91
169 162 93
171 164 96
168 161 92
173 165 95
174 167 96
169 163 94
169 162 89
172 165 96
171 164 94
171 164 95
171 164 92
172 165 96
168 161 89
174 166 95
172 166 96
170 164 94
171 165 96
170 163 94
170 163 92
171 164 94
168 162 91
170 164 93
170 163 93
168 162 90
169 163 91
171 164 94
165 158 86
171 165 95
167 161 89
170 163 92
173 166 94
167 160 91
168 161 87
169 162 92
169 162 90
169 163 91
166 160 89
170 162 93
170 163 92
169 162 90
171 164 95
164 158 87
170 163 95
166 160 90
166 160 86
163 158 89
161 155 88
165 158 89
165 158 88
163 156 86
162 156 89
161 156 87
166 160 87
164 158 87
158 152 84
164 158 88
163 156 85
163 157 89
165 158 92
160 153 84
160 154 86
164 157 93
161 155 88
160 154 87
155 149 83
159 152 84
158 151 84
159 153 85
158 152 84
155 148 82
156 148 83
154 148 82
157 151 88
162 154 86
153 146 81
159 153 86
157 150 83
158 151 85
156 149 83
190 205 220
191 206 222
190 206 221
189 205 220
190 206 221
190 205 220
190 206 222
191 206 222
191 206 223
190 206 222
191 206 224
190 206 223
190 205 221
191 207 226
191 207 226
191 207 224
190 206 221
191 206 223
191 206 225
191 206 223
190 206 224
191 207 225
192 207 226
191 206 225
192 207 227
190 206 225
190 206 226
190 206 226
191 207 227
191 207 227
191 207 227
191 207 227
191 207 226
191 207 227
191 207 227
190 206 227
191 207 227
191 207 228
191 207 228
192 207 228
192 208 228
190 206 228
191 207 228
191 207 228
191 207 228
190 207 228
191 207 228
191 207 228
192 207 228
190 206 228
191 207 228
191 207 228
190 206 228
191 207 228
191 207 228
191 207 228
191 207 228
191 207 228
191 207 228
191 207 228
190 206 228
190 206 228
190 206 228
190 207 228
190 206 228
190 206 228
190 206 228
190 206 228
190 206 228
190 206 228
189 206 228
190 206 228
189 206 228
190 206 228
190 206 228
189 206 228
190 206 228
190 206 228
189 206 228
190 206 228
189 206 228
189 206 228
189 206 228
189 206 228
189 205 228
189 205 228
189 206 228
189 206 228
189 206 228
189 206 228
189 206 228
189 206 228
189 206 228
189 206 228
189 206 228
189 206 228
189 205 228
189 206 228
189 205 228
189 205 228
189 206 228
189 206 228
189 206 228
188 205 228
189 206 228
189 206 228
189 206 228
185 201 222
185 201 222
181 198 219
175 191 212
174 190 212
172 188 211
160 177 201
155 172 197
153 170 196
143 161 191
145 163 192
132 151 181
121 140 172
110 131 168
115 136 173
92 114 158
77 102 146
62 89 137
51 81 130
50 79 129
50 79 129
51 80 130
50 79 128
48 76 126
48 76 125
47 75 124
48 77 130
46 73 122
45 71 117
45 72 123
42 67 117
43 68 118
42 67 117
39 63 115
39 62 116
36 58 111
66 83 126
100 114 147
127 142 173
143 158 178
166 180 188
204 219 238
125 143 179
54 85 140
55 87 137
56 88 138
57 89 142
55 87 129
58 90 143
57 89 134
58 91 139
59 93 145
57 90 137
58 92 138
58 92 135
59 92 144
59 93 140
58 92 137
58 91 131
59 93 142
60 94 147
59 92 139
59 93 143
59 93 143
59 93 139
59 93 140
59 93 141
59 93 142
60 94 144
60 94 144
59 92 134
61 95 150
60 93 140
60 95 138
60 95 141
59 91 135
60 94 138
60 95 146
61 96 150
60 94 147
59 93 135
60 94 142
61 95 146
60 94 141
59 93 136
59 94 136
60 94 139
60 94 139
61 95 147
59 93 136
59 93 137
61 95 142
59 94 140
61 96 148
60 94 144
60 95 141
61 95 144
59 92 137
60 94 139
60 93 138
59 93 147
59 93 137
61 95 144
59 93 138
59 93 141
59 93 140
60 95 141
59 92 131
60 94 137
60 93 138
60 93 138
59 93 137
59 93 135
60 94 143
60 94 138
59 93 144
60 94 138
59 93 135
60 94 144
59 92 140
59 92 135
59 91 135
59 92 139
60 94 142
60 94 144
59 92 137
58 91 133
59 92 140
60 93 142
58 89 135
58 90 134
57 89 125
58 90 137
57 89 134
59 90 139
57 87 130
57 88 134
57 88 126
56 86 129
54 83 122
54 83 120
55 84 127
51 78 113
106 123 152
196 208 223
95 92 55
83 83 54
75 76 51
77 78 55
79 77 54
70 70 51
69 69 50
62 60 44
72 70 51
77 77 55
70 69 50
77 76 56
81 81 57
87 87 57
88 84 56
88 86 60
91 91 61
101 97 66
97 95 62
103 101 65
102 101 65
105 102 64
117 113 72
121 118 76
116 111 72
123 117 73
128 122 76
121 118 74
124 118 74
127 124 75
131 125 76
142 138 82
142 134 83
138 132 80
141 135 80
141 134 80
148 142 84
137 133 78
146 140 82
141 135 81
147 141 83
145 140 84
153 146 85
153 147 85
151 145 85
148 142 81
158 150 89
158 151 87
160 154 90
158 153 91
158 151 86
158 150 88
162 155 92
159 153 89
161 155 91
161 154 88
163 157 90
165 159 92
163 157 92
161 154 88
167 160 91
164 156 87
164 157 92
167 160 94
164 158 89
165 158 91
168 159 90
168 161 92
170 163 97
168 161 91
169 162 89
170 163 97
171 164 95
168 161 88
170 164 91
170 163 93
168 162 92
172 165 94
170 164 93
170 163 90
172 166 98
171 164 93
169 163 91
171 164 92
171 164 95
168 161 91
172 164 92
169 161 91
169 163 92
170 163 95
165 159 85
170 163 87
170 163 94
174 167 93
169 163 89
173 166 93
169 162 92
169 163 93
171 164 89
168 162 93
166 160 85
171 164 93
168 161 91
169 162 90
165 158 93
167 159 88
169 162 94
168 162 89
166 160 90
168 161 94
166 159 89
169 162 91
168 162 90
162 157 86
168 161 91
166 159 88
164 157 86
166 159 90
164 157 88
162 156 84
162 156 88
166 159 89
163 156 86
170 162 93
162 155 89
164 158 87
165 158 92
161 154 84
163 156 86
161 154 83
161 155 85
161 154 86
160 153 84
160 154 85
159 153 84
159 152 84
162 155 86
161 154 86
162 156 89
154 148 82
159 152 84
159 153 86
155 147 82
157 151 82
154 147 81
157 150 82
158 151 88
155 149 81
191 206 222
188 204 216
191 206 221
190 205 219
190 205 219
190 205 219
190 205 217
190 205 218
190 205 218
190 205 218
190 206 223
190 205 219
188 204 214
191 206 223
189 205 217
191 206 223
190 205 222
189 205 220
192 207 226
190 206 223
189 205 219
192 207 223
190 206 221
191 206 224
191 207 226
190 206 221
189 205 221
190 206 223
191 206 223
190 206 223
190 205 220
191 206 223
190 206 223
191 207 225
191 207 225
191 206 224
191 207 225
191 206 224
190 206 223
191 207 227
191 207 225
191 207 226
191 206 224
191 207 227
190 206 226
191 207 228
190 206 225
190 206 225
190 206 225
192 207 227
191 207 228
191 207 227
192 207 227
191 207 228
191 206 227
192 207 228
191 207 228
191 207 228
191 207 228
191 207 228
190 206 227
192 207 228
191 207 228
190 206 228
191 207 228
192 207 228
191 207 228
191 207 228
191 207 228
190 207 228
191 207 228
191 207 228
191 207 228
192 207 228
190 206 228
191 207 228
191 207 228
190 206 228
190 206 228
190 206 228
191 207 228
190 206 228
190 206 228
191 207 228
191 207 228
191 207 228
190 206 228
190 206 228
191 207 228
189 206 228
190 206 228
190 206 228
191 207 228
190 206 228
190 206 228
190 206 228
190 206 228
190 206 228
190 206 228
190 206 228
190 206 228
189 206 228
190 206 228
189 206 228
189 206 228
188 205 227
187 203 224
187 203 223
185 200 219
179 195 216
174 189 209
169 185 203
165 182 204
163 179 203
162 179 203
150 168 197
139 157 187
134 152 180
119 138 168
115 135 168
105 126 159
105 126 163
80 104 147
75 100 147
56 85 139
51 81 132
51 80 128
50 79 133
50 78 126
49 77 128
49 77 128
48 77 126
47 74 122
47 74 125
45 72 118
43 68 118
44 70 121
44 71 121
42 68 115
40 62 106
40 63 112
37 59 107
37 59 108
41 61 109
89 104 136
117 132 162
136 151 172
164 179 186
187 201 218
75 99 144
54 86 136
55 86 137
55 87 133
57 89 141
56 88 136
58 91 139
56 89 139
58 91 138
58 92 137
58 92 142
58 91 133
58 91 137
57 90 137
59 93 142
60 94 141
59 93 135
59 92 137
60 93 148
59 92 137
59 93 144
59 94 146
60 94 147
60 93 143
59 94 141
60 94 145
60 94 143
59 92 139
60 94 136
59 93 141
60 94 146
60 94 137
59 93 144
60 95 142
59 92 139
60 94 141
60 94 146
60 93 139
61 95 149
59 93 138
60 95 142
60 95 143
61 95 147
60 95 141
60 94 143
60 95 143
61 95 144
59 93 135
60 95 140
60 94 140
60 94 143
60 94 136
61 95 144
59 92 136
59 93 140
60 95 140
59 93 136
60 94 141
60 94 143
60 94 139
61 95 143
60 95 143
59 92 138
60 94 143
60 94 137
59 92 134
59 93 138
60 94 143
59 93 139
60 93 140
58 91 130
59 93 132
60 95 144
59 93 144
59 92 133
60 94 141
60 93 139
59 92 142
59 92 142
60 93 144
60 93 143
60 94 145
59 93 137
60 93 143
58 92 135
57 90 135
58 90 134
59 92 142
58 91 141
58 89 134
57 88 131
57 88 131
57 89 135
57 88 131
58 90 141
55 85 127
55 86 132
54 83 126
51 79 115
53 82 119
52 79 118
64 86 123
182 192 199
90 89 52
73 73 46
77 77 51
66 64 44
63 63 45
47 48 34
54 55 40
70 71 51
69 67 50
64 66 50
71 70 53
74 75 56
71 72 52
85 86 60
78 77 54
92 89 58
101 97 63
96 95 64
92 91 59
95 94 65
110 106 70
109 106 65
105 101 65
120 115 70
116 108 66
120 116 71
132 129 73
127 121 74
133 130 77
124 118 71
129 124 77
138 131 79
144 135 83
134 127 75
136 131 83
137 132 80
148 142 84
142 137 81
145 140 82
146 142 82
150 144 87
151 144 86
150 143 84
154 149 86
155 148 84
152 145 83
152 145 83
159 153 87
154 148 86
160 154 86
158 151 88
156 150 87
157 150 85
164 158 92
164 156 91
162 155 87
162 155 87
162 155 88
169 161 94
164 157 92
166 159 90
164 158 90
164 158 90
166 158 88
164 158 84
163 156 86
169 162 92
167 161 89
165 157 92
166 159 89
168 162 91
166 160 87
170 163 92
170 162 90
166 160 85
165 159 85
168 161 88
167 161 91
171 164 95
170 164 93
169 161 89
171 164 92
170 162 91
170 164 90
168 161 90
172 165 93
170 163 90
172 165 95
171 164 90
168 161 88
170 163 92
170 164 89
164 158 89
170 163 91
166 159 86
167 160 87
168 161 87
166 159 85
166 161 89
169 163 91
172 166 94
168 161 90
169 162 89
165 159 89
169 162 90
169 162 91
164 158 87
166 160 88
168 162 92
167 160 89
158 152 83
161 155 85
168 161 86
165 157 86
163 157 85
162 157 85
162 156 85
162 156 81
163 156 91
162 155 86
164 157 88
162 155 87
157 150 86
167 159 90
162 155 88
159 152 88
161 154 87
168 159 93
165 158 87
162 155 85
163 155 86
157 151 83
160 154 83
156 149 82
158 152 83
157 150 82
160 153 82
159 152 86
158 152 81
162 155 87
160 153 85
155 150 86
155 149 82
159 152 87
162 156 90
158 151 85
157 149 82
160 152 85
188 204 212
188 203 209
187 203 208
187 203 211
189 205 217
190 205 219
189 204 216
190 205 216
189 204 216
189 205 217
189 205 217
189 205 217
190 205 217
190 205 219
189 204 214
190 205 219
189 204 216
189 205 218
189 205 216
190 206 220
189 205 219
191 206 221
189 205 217
188 204 214
189 205 217
190 205 219
189 205 217
189 204 216
188 204 214
190 205 220
190 206 221
190 206 223
191 206 223
190 206 223
190 205 222
189 205 217
189 205 217
189 205 218
190 206 222
191 207 225
190 205 221
190 205 219
190 206 226
190 206 221
191 207 225
190 206 223
190 206 222
189 205 218
191 206 224
190 206 223
190 206 223
191 207 226
190 206 221
190 206 222
190 206 224
191 207 226
190 205 220
190 206 223
190 206 225
190 206 223
191 207 224
190 206 225
191 207 226
191 206 224
191 206 223
190 206 225
190 206 225
191 207 226
191 206 226
191 207 227
191 206 226
191 207 228
190 206 227
191 207 228
190 206 226
191 207 228
191 207 227
191 206 227
192 208 228
190 206 226
190 206 227
191 206 227
191 207 226
191 207 227
190 206 227
191 207 228
191 207 228
191 207 228
191 207 228
191 207 228
191 207 228
191 207 228
191 207 228
191 207 228
191 207 228
190 206 228
191 207 228
191 207 228
191 207 228
190 206 228
191 207 228
191 207 228
191 207 228
191 207 228
191 207 228
189 205 227
187 202 222
187 202 221
185 200 219
180 195 214
178 193 213
171 186 205
165 181 203
154 170 194
154 171 195
148 165 191
142 160 184
132 150 178
125 144 175
117 135 165
114 133 167
98 119 157
86 108 144
69 95 135
51 80 128
52 81 131
50 79 126
51 81 130
49 78 123
48 76 125
48 76 121
47 75 122
47 74 125
48 77 127
46 73 120
44 69 116
44 69 115
42 66 114
41 66 113
40 64 114
39 62 111
38 59 105
38 59 108
36 57 108
59 73 110
101 115 145
134 148 171
149 163 176
168 182 195
50 79 126
52 83 132
55 87 137
56 89 137
57 90 140
56 88 130
57 89 132
58 92 139
57 90 134
57 89 132
57 90 137
58 91 139
57 90 136
59 93 138
59 93 138
58 90 137
59 93 138
60 93 140
59 93 139
59 92 144
59 93 144
59 93 142
59 93 143
59 93 140
59 93 143
60 95 146
59 92 138
59 93 138
59 93 143
59 93 137
61 95 145
60 94 138
59 94 135
60 95 144
60 94 136
60 94 140
59 92 138
60 94 138
60 93 141
61 95 143
60 94 140
59 92 137
60 94 146
60 94 141
60 94 144
60 94 144
59 93 143
59 93 139
59 93 138
60 95 138
60 94 138
60 95 145
60 94 137
60 94 140
59 92 139
60 94 146
60 94 137
59 94 138
59 93 137
59 93 132
59 92 137
59 93 142
60 94 147
59 93 135
59 92 134
60 94 143
58 91 135
59 92 134
60 93 137
60 93 137
60 94 141
60 93 142
59 93 139
59 92 135
60 94 139
59 92 140
59 92 134
58 90 131
60 93 139
59 92 137
58 91 135
58 91 138
58 91 132
59 93 143
57 89 134
58 90 135
58 90 135
58 91 134
59 92 137
59 93 146
59 91 139
57 89 132
57 88 133
56 87 129
56 86 129
57 88 135
55 84 125
54 84 129
54 83 122
49 74 102
51 77 112
49 74 105
137 141 136
86 85 54
73 72 48
71 71 46
61 61 44
65 66 46
55 57 42
69 68 47
63 62 46
70 66 47
63 63 46
76 76 55
71 72 50
85 84 59
76 75 54
76 75 52
97 93 59
99 98 66
99 93 60
97 93 59
102 99 65
103 101 64
107 103 64
107 105 70
118 114 73
117 112 69
118 116 72
128 122 75
130 125 73
130 124 73
130 125 77
132 128 77
136 131 79
136 130 75
138 133 76
139 135 78
140 133 79
148 142 79
144 137 82
148 143 83
149 142 81
143 136 80
149 143 83
150 143 85
150 143 81
147 141 80
154 149 87
151 143 84
153 146 82
154 148 81
152 146 83
157 151 88
158 151 86
158 152 87
161 155 87
165 156 91
162 154 87
159 153 85
161 153 83
162 155 88
167 160 90
165 158 90
163 156 87
166 159 90
168 161 93
166 159 88
167 160 87
168 161 89
168 160 89
169 162 91
165 159 90
170 164 93
169 163 88
169 162 90
169 162 93
167 161 88
168 161 89
170 164 92
171 164 91
168 161 90
171 165 89
169 163 90
171 164 90
172 165 94
171 164 89
170 163 89
171 164 94
169 163 90
170 164 90
173 166 91
172 165 93
172 165 94
168 161 90
169 164 90
171 165 92
168 162 88
168 161 91
168 161 92
166 159 89
167 161 90
165 159 82
169 163 92
165 159 86
165 158 86
168 162 91
171 164 91
166 160 87
168 161 88
173 166 92
165 159 89
162 156 82
164 157 87
169 162 91
164 157 83
167 160 86
164 158 86
164 158 86
163 156 89
160 153 85
162 156 82
164 157 87
162 155 85
164 157 86
163 155 87
164 157 89
164 156 88
159 152 85
163 156 85
163 157 89
164 157 85
165 157 88
161 154 83
156 150 79
165 158 88
159 153 85
158 152 84
156 150 80
160 153 82
158 151 83
157 150 84
160 153 87
153 147 79
158 152 86
161 154 84
161 154 86
159 152 87
156 149 82
153 148 80
156 150 82
189 204 213
189 204 214
190 205 217
186 202 204
187 202 205
189 204 211
188 204 212
189 205 217
187 203 207
188 204 212
189 204 214
188 204 211
189 204 211
187 203 208
187 203 209
189 204 213
188 204 212
187 203 211
189 204 213
189 205 217
189 204 213
187 203 210
188 204 214
188 204 212
190 205 220
187 203 209
189 204 214
188 204 214
190 205 215
190 206 219
190 205 217
189 204 212
189 205 217
191 206 220
189 205 218
189 205 216
188 204 212
188 204 214
190 205 216
189 204 214
190 206 220
189 205 218
189 205 219
190 205 219
191 206 217
190 206 221
191 206 222
189 205 217
191 206 223
190 205 219
190 205 219
189 204 215
190 205 220
188 204 216
189 205 218
191 206 220
190 205 220
188 204 217
190 206 223
190 206 220
189 205 218
190 205 220
189 205 220
189 205 217
190 205 220
188 204 215
191 207 225
191 206 221
190 205 221
190 206 222
190 205 220
190 206 224
190 206 223
190 205 221
190 206 223
190 205 221
190 205 221
190 206 223
190 206 221
190 206 222
189 205 221
190 206 221
190 206 222
190 206 223
191 206 224
191 206 224
190 206 224
190 206 221
190 206 223
189 205 221
189 205 222
190 206 223
189 205 221
191 206 223
191 207 226
191 207 227
191 206 226
191 207 227
190 206 223
191 206 223
191 207 227
191 206 224
192 207 228
191 207 226
191 207 227
187 202 221
187 202 220
185 199 214
182 197 214
182 197 213
174 189 210
167 181 199
166 182 203
157 173 194
155 170 193
146 162 186
135 152 179
126 143 169
124 142 173
115 134 165
106 126 160
88 110 148
73 98 139
64 89 132
52 82 129
51 81 126
50 78 123
48 76 121
49 77 128
48 75 119
49 77 124
47 75 121
48 75 120
46 72 121
45 71 117
44 70 119
43 68 116
42 67 116
38 61 106
39 63 108
39 63 107
37 58 101
36 57 103
32 53 96
47 61 98
85 98 126
113 126 148
145 159 173
144 158 166
51 82 132
53 83 134
54 86 134
55 87 133
55 87 134
57 89 134
57 90 133
57 89 132
58 91 139
58 91 135
58 92 135
59 93 146
58 92 136
58 91 141
58 92 136
58 91 137
59 93 145
59 93 147
60 94 144
59 93 140
58 91 133
59 93 139
59 93 135
59 92 138
60 95 145
59 93 141
58 91 131
59 92 142
60 94 138
60 94 144
59 93 140
60 94 139
60 94 141
60 94 138
59 93 136
60 94 139
60 95 142
59 93 139
60 94 145
60 94 140
59 93 139
59 92 137
60 94 141
60 93 137
59 93 139
58 92 134
60 93 139
59 93 140
60 94 142
60 94 140
59 92 131
60 94 135
60 94 142
60 94 138
60 94 144
59 94 138
60 94 139
60 94 140
60 94 141
59 93 139
59 92 136
60 94 141
58 92 134
59 93 137
59 92 136
60 94 140
58 92 133
60 93 138
60 94 142
59 93 138
60 94 139
58 91 134
60 93 137
59 92 136
59 93 143
59 92 137
60 94 143
59 93 142
59 92 137
60 93 138
58 91 135
59 92 136
59 92 132
58 91 136
58 91 138
59 92 139
57 89 130
57 89 127
58 90 134
59 91 136
58 90 131
56 86 125
57 89 133
57 87 126
58 89 132
55 86 126
56 86 127
53 83 123
51 79 113
54 82 121
53 81 115
48 74 102
97 100 84
83 82 51
66 65 44
70 67 45
60 59 43
48 50 35
52 55 39
65 67 49
56 57 41
67 67 47
60 61 48
70 71 51
68 71 53
83 82 57
83 83 56
84 83 57
86 85 56
94 94 60
100 95 61
102 101 63
103 98 63
108 106 62
110 106 69
114 111 67
115 110 64
117 110 68
117 113 68
117 114 72
124 120 73
128 125 76
125 122 73
133 128 75
136 130 76
133 128 71
135 130 80
136 130 74
137 133 76
146 141 80
152 145 85
144 138 79
145 139 77
146 139 80
147 141 82
151 146 85
145 139 79
151 145 87
155 149 83
154 147 79
151 145 82
158 149 85
154 148 84
156 150 86
157 151 88
162 154 86
161 155 88
157 151 85
163 156 86
156 151 81
160 153 84
160 155 85
166 159 88
166 160 89
167 159 89
163 157 87
165 158 88
164 156 84
168 160 90
167 161 90
168 161 91
164 157 87
162 157 87
166 159 86
169 162 91
169 162 91
165 158 83
168 162 86
169 161 90
170 163 89
172 165 90
168 160 89
172 165 93
170 162 92
166 160 84
170 163 88
171 164 92
172 164 92
170 164 87
169 163 91
170 164 92
171 164 94
166 160 87
170 163 89
170 163 88
168 161 89
168 162 86
165 159 87
170 163 91
169 161 85
170 163 89
169 162 88
170 163 88
167 160 89
169 162 88
168 161 84
169 162 91
169 161 91
167 160 91
164 158 87
168 161 86
166 160 90
166 160 87
161 154 86
164 157 84
163 157 85
162 156 83
163 157 88
168 161 89
167 160 88
164 157 85
161 154 88
166 160 85
164 157 87
162 155 84
167 160 88
164 157 85
162 155 86
154 149 76
161 155 90
160 153 82
166 159 91
162 155 87
159 151 82
161 154 86
161 154 86
161 155 86
154 148 80
160 153 85
165 156 91
158 151 82
163 156 86
159 152 86
153 147 80
159 153 84
157 150 81
165 158 89
152 146 77
153 146 81
158 151 82
156 149 83
186 202 204
187 203 210
189 204 212
189 204 212
189 205 216
188 203 210
186 202 204
187 203 207
187 202 206
188 204 211
186 202 204
187 202 205
188 203 209
186 202 204
187 203 209
188 204 211
189 205 215
189 204 214
189 204 212
185 201 201
188 204 211
189 204 212
189 204 213
188 203 209
186 202 206
189 204 212
188 204 212
188 203 209
188 204 212
188 203 209
188 204 211
188 204 212
186 202 208
189 205 214
187 203 211
188 204 214
188 203 209
186 202 206
189 204 214
189 204 212
189 204 211
188 204 213
189 205 217
188 203 211
189 205 216
186 203 208
188 204 212
189 204 213
187 203 207
189 205 214
189 205 214
189 205 217
189 204 212
188 204 213
188 204 212
189 204 216
187 203 211
189 205 217
188 204 212
188 204 215
189 204 214
190 205 217
188 204 215
189 204 214
188 204 214
189 205 218
189 205 217
190 205 219
188 204 212
190 205 217
191 206 221
188 204 214
188 204 215
190 206 219
189 205 220
189 205 215
189 205 219
189 205 219
189 205 220
191 206 221
190 206 223
188 204 214
189 204 216
189 205 220
189 205 216
188 204 215
189 204 217
189 205 218
190 206 221
189 205 218
189 205 221
189 205 219
190 205 219
189 205 219
189 205 219
189 205 219
190 206 221
190 205 217
190 206 219
190 206 224
189 205 219
190 205 221
189 205 218
188 204 216
188 203 215
184 198 207
187 201 214
185 200 212
179 193 202
176 191 200
176 191 206
169 185 201
166 181 199
162 178 197
146 163 190
147 164 185
137 154 180
129 146 171
114 133 161
111 130 159
99 120 154
90 111 144
69 94 131
57 85 130
51 80 122
51 80 121
50 79 122
48 77 124
50 79 124
48 75 116
47 74 115
46 74 115
46 73 120
44 71 116
46 73 117
42 67 113
43 68 113
41 66 109
40 64 107
40 63 110
36 58 98
35 56 97
31 51 93
32 51 92
31 49 90
83 95 121
113 126 150
134 148 157
128 143 153
50 79 122
53 83 131
54 86 125
56 89 133
56 88 137
57 90 136
57 91 138
57 90 134
57 91 135
58 91 140
59 93 143
59 92 142
58 92 141
57 90 130
59 92 135
58 92 135
59 93 143
59 93 136
58 91 131
58 92 131
59 92 137
59 93 141
59 93 137
60 94 140
58 90 132
60 94 139
60 94 141
59 93 137
60 94 141
60 94 141
59 93 137
59 93 138
59 92 134
59 93 140
60 94 141
58 92 134
60 94 142
59 93 141
59 94 139
60 93 138
61 95 148
60 95 142
61 95 140
61 95 144
59 93 134
59 93 139
60 94 139
60 95 141
59 92 134
59 93 133
59 93 135
60 95 140
60 94 138
59 92 134
60 95 143
59 93 139
60 94 136
59 92 135
59 93 137
59 93 137
59 93 137
60 94 140
59 93 135
60 93 139
60 93 141
59 93 132
60 95 145
59 92 131
58 91 133
59 93 138
60 93 140
60 94 142
59 93 136
59 92 141
59 93 135
58 91 130
59 93 143
59 91 137
59 93 141
59 92 135
59 92 141
59 93 134
59 91 139
59 92 137
56 88 125
59 92 136
59 91 140
58 90 133
57 88 126
58 89 130
57 89 131
58 89 131
57 88 124
56 87 127
57 88 128
56 87 129
55 84 118
56 86 127
53 81 121
51 78 111
52 77 114
46 69 94
87 90 71
80 77 46
68 67 44
58 59 39
55 57 40
56 57 40
59 62 45
61 59 41
53 58 43
64 65 45
57 58 41
62 63 45
75 74 51
64 67 47
75 74 49
82 81 57
90 86 57
86 86 55
98 95 61
92 91 60
100 99 62
104 101 65
107 105 68
110 104 65
104 102 63
117 112 66
113 110 69
120 118 69
127 123 72
129 124 71
132 127 77
131 126 74
131 126 76
126 120 74
134 131 77
134 128 73
141 136 78
138 132 77
141 136 77
138 135 76
146 141 81
147 140 83
143 137 80
145 140 77
151 143 77
150 145 84
152 145 78
154 148 83
157 150 89
153 147 82
156 152 83
158 151 87
160 153 85
159 153 87
158 151 85
160 154 85
157 149 79
162 156 89
164 158 90
159 154 83
163 156 87
164 157 87
166 160 88
164 156 84
168 161 91
164 157 82
167 160 89
166 160 88
168 161 91
164 157 87
166 160 90
168 161 92
169 162 89
171 164 88
167 161 90
168 161 87
169 163 95
167 161 88
169 163 91
167 161 89
172 164 92
167 161 85
169 162 88
169 162 89
169 163 90
169 162 88
170 163 91
169 163 91
168 162 89
169 162 92
168 161 87
169 163 88
169 162 90
173 166 94
170 163 91
165 158 84
168 162 87
172 164 91
168 161 88
169 162 88
167 160 88
171 164 90
168 161 88
165 159 80
165 158 86
165 159 83
168 161 86
169 162 92
166 159 90
161 156 82
165 159 88
164 158 85
164 157 87
164 157 87
161 154 83
168 161 90
162 154 82
158 152 81
161 154 89
164 157 83
163 156 86
164 157 84
167 158 88
166 159 88
161 155 84
165 158 87
161 153 85
163 155 86
163 156 84
160 154 86
156 149 82
162 155 86
163 155 84
165 158 89
166 158 89
159 152 80
162 155 86
160 152 84
159 153 83
159 152 85
158 150 82
154 147 81
159 153 82
159 152 83
153 147 78
158 150 83
151 145 78
149 142 77
159 153 85
187 203 206
185 201 200
187 203 206
187 203 206
187 203 207
186 202 201
188 204 212
188 203 209
188 204 209
189 205 212
186 202 202
187 202 204
186 202 201
188 203 207
189 204 212
187 203 210
187 203 206
187 203 208
187 202 204
187 203 208
187 203 207
187 203 206
186 202 204
188 203 208
186 202 202
187 203 206
188 203 207
188 204 211
186 202 203
188 204 209
186 202 206
188 203 209
186 202 206
187 202 205
187 203 207
187 203 207
187 202 206
187 203 209
186 202 202
187 203 208
189 204 212
185 201 201
187 202 206
187 203 206
187 202 204
189 204 213
186 201 204
187 202 204
188 203 210
188 203 210
188 204 211
187 203 207
188 203 210
185 201 203
188 203 209
188 204 211
187 203 207
188 203 211
188 204 211
187 203 206
189 204 212
187 203 209
187 203 210
189 204 215
187 203 208
188 204 212
186 202 202
186 202 207
187 202 207
188 204 210
188 204 211
187 203 208
189 204 214
187 203 208
188 204 212
186 202 206
188 203 209
189 204 213
188 203 212
189 204 214
187 203 212
190 205 217
186 202 206
188 204 213
188 204 214
187 203 211
188 204 213
188 204 212
188 204 211
186 202 204
187 203 210
188 204 214
186 202 206
189 205 216
188 204 212
187 203 208
189 204 213
188 204 212
187 203 211
186 202 206
188 204 214
189 205 216
188 204 215
189 204 212
186 202 211
184 200 208
182 196 200
183 197 200
178 193 199
178 193 203
164 180 191
163 178 189
160 175 185
153 169 182
153 169 187
143 160 175
141 157 179
133 151 170
124 141 167
109 128 159
104 124 157
87 109 142
63 90 133
51 80 126
50 79 120
51 80 129
49 77 113
48 75 117
47 74 114
49 77 124
46 73 113
47 74 118
46 72 113
44 70 108
44 69 113
41 65 105
42 67 110
40 62 104
41 65 110
39 61 105
36 58 99
33 52 91
33 53 94
27 44 82
30 48 91
62 75 107
111 123 143
128 142 151
128 143 156
52 82 130
53 83 127
53 84 127
55 86 132
54 85 131
57 90 130
57 90 134
58 91 144
57 90 133
58 91 137
58 92 137
57 91 137
59 92 140
58 92 137
59 92 139
59 92 142
57 91 134
59 93 133
58 92 138
59 93 142
59 93 132
58 92 136
59 92 140
60 93 141
59 92 139
59 93 137
60 94 140
59 91 134
59 92 134
58 91 132
59 93 140
59 93 138
59 92 136
60 94 141
59 93 135
60 94 135
60 95 141
61 95 146
58 92 133
59 92 137
60 94 142
59 94 136
60 93 133
59 93 138
60 94 132
60 94 143
60 94 141
60 95 146
59 92 135
59 94 139
59 93 136
59 93 134
60 94 140
61 95 144
58 91 133
59 92 135
59 93 132
59 93 139
60 93 141
60 94 144
59 93 136
60 94 145
61 95 140
59 93 138
60 94 144
59 93 139
59 92 140
60 93 134
58 91 132
59 93 129
59 93 138
59 92 135
60 93 145
58 91 133
58 91 132
58 91 140
60 94 141
59 92 133
58 91 127
59 92 137
58 91 131
59 92 133
58 91 140
59 92 133
58 91 133
58 90 128
57 89 130
58 90 129
56 87 128
56 88 125
56 88 128
57 88 133
57 88 131
55 86 128
55 85 122
53 81 116
55 85 125
54 83 117
51 79 117
54 83 119
53 81 115
48 72 101
77 80 65
70 70 42
58 57 37
58 57 37
60 59 42
56 58 41
53 54 39
48 51 39
51 52 40
52 51 39
64 64 44
66 67 47
64 67 49
71 71 50
80 81 56
77 77 56
80 80 54
90 87 54
97 95 60
96 94 59
111 107 67
102 101 63
102 99 62
109 107 61
111 109 69
113 109 67
116 111 68
123 119 70
120 116 68
133 128 78
129 123 68
125 122 73
125 119 68
134 129 72
134 130 78
142 135 80
139 133 73
138 132 73
141 135 76
137 132 78
149 144 79
145 139 79
145 140 75
147 140 81
147 141 78
151 144 81
149 142 79
150 145 78
152 146 86
154 147 82
157 151 82
156 149 84
152 146 81
160 154 89
156 150 81
161 155 87
161 153 86
159 154 88
158 152 81
165 158 85
166 159 90
167 160 88
165 159 85
165 159 88
164 158 87
166 159 85
164 157 85
165 159 88
167 161 85
165 158 84
166 160 86
168 161 88
166 159 85
166 159 85
167 161 89
166 159 83
169 162 88
170 162 87
170 162 89
167 160 86
169 162 86
168 162 86
169 162 87
168 161 88
168 161 86
167 161 85
166 159 85
168 162 90
168 162 86
169 162 86
170 163 86
167 161 86
169 162 89
169 162 89
163 156 81
164 157 83
170 163 90
168 161 89
168 161 88
168 162 88
169 162 88
166 159 87
164 159 85
164 158 82
169 162 90
166 159 86
168 161 86
170 162 86
166 159 87
167 160 91
164 157 83
164 157 86
165 159 90
168 161 90
163 157 86
166 159 89
162 156 85
167 160 86
160 153 81
159 153 80
161 154 82
168 160 91
160 151 83
164 156 87
156 149 77
162 155 82
162 155 83
164 156 84
160 153 82
164 158 84
160 154 82
164 156 89
159 152 85
159 152 81
154 146 77
161 155 86
158 150 83
153 147 80
159 153 83
161 154 84
162 155 82
151 144 76
162 155 84
157 150 81
159 152 81
153 147 79
153 147 81
159 152 84
156 149 81
185 201 198
183 199 192
188 203 204
184 200 194
185 201 197
186 202 200
184 200 197
185 201 200
186 202 202
186 202 202
187 203 207
186 202 199
184 200 193
184 200 198
186 202 202
186 201 200
183 199 192
185 201 196
187 202 202
186 202 200
185 201 199
186 202 202
185 201 199
186 202 202
186 201 198
184 200 196
186 202 203
187 202 200
186 202 202
186 202 204
185 201 199
185 201 201
186 202 205
186 202 202
186 202 200
186 202 202
187 203 206
186 202 201
185 201 198
187 202 204
187 203 207
185 201 200
187 202 204
187 203 210
187 203 206
186 202 203
187 202 206
185 201 202
185 200 196
187 202 205
186 202 201
187 202 206
185 201 197
185 201 201
188 203 210
187 203 207
185 201 201
186 201 200
187 202 207
187 203 208
186 202 204
186 202 201
187 202 205
189 204 211
186 202 202
186 202 203
186 202 202
188 203 209
187 203 207
187 203 206
185 201 202
188 204 211
186 202 202
184 201 199
187 202 206
188 204 210
185 202 202
187 203 207
188 203 211
185 201 200
189 204 213
188 204 210
187 202 204
186 202 206
186 202 206
188 204 211
186 202 206
186 202 205
186 202 200
186 202 206
187 203 210
187 203 209
186 202 206
185 201 204
186 202 204
186 202 206
188 203 209
185 201 200
188 204 214
188 204 212
187 203 210
185 201 202
186 202 205
186 201 204
186 202 210
183 198 197
181 195 198
180 194 189
177 191 191
175 190 194
168 183 191
163 178 180
153 168 170
149 165 172
154 170 180
139 155 164
130 147 165
125 143 164
126 143 163
100 120 149
101 120 148
83 105 138
64 89 131
50 79 123
50 79 122
49 78 121
51 79 125
49 77 118
49 77 126
47 75 111
47 74 118
46 73 120
46 72 115
46 72 113
41 66 105
43 68 111
42 67 105
39 62 99
38 61 99
36 58 97
37 59 98
32 52 89
32 51 88
30 49 87
28 43 79
48 61 92
107 119 137
119 133 132
113 130 138
51 81 123
54 84 130
54 85 133
54 85 126
55 86 129
55 87 129
57 89 133
57 90 134
57 90 134
56 89 129
58 91 133
58 91 139
59 93 139
59 92 139
58 92 129
59 92 133
58 92 135
59 92 138
59 92 138
59 93 135
60 94 146
58 91 134
60 94 140
60 94 140
59 93 139
58 91 136
59 92 136
60 94 143
60 94 144
59 93 136
59 94 142
59 93 135
60 94 145
59 93 134
59 93 138
59 93 133
58 92 133
59 93 138
61 95 148
60 94 137
59 92 133
59 92 134
59 93 137
60 94 143
60 95 142
60 94 141
60 94 141
60 94 139
59 93 135
59 92 130
59 93 133
59 93 133
59 93 135
60 94 144
60 94 139
59 93 136
59 92 138
60 95 143
60 94 143
59 93 137
59 93 135
60 94 140
58 91 136
58 91 135
59 92 133
60 94 142
58 91 128
60 93 140
59 92 135
59 93 137
60 94 142
59 93 140
59 92 136
59 92 138
59 92 132
58 91 132
57 90 126
59 92 137
58 91 135
57 90 129
58 90 125
58 92 134
58 90 131
57 89 130
57 89 130
58 90 134
59 91 136
59 92 137
59 91 136
57 89 128
55 85 123
57 89 134
57 88 136
56 87 131
57 88 128
55 86 124
54 84 124
53 81 114
52 80 113
52 80 111
50 76 109
49 74 105
71 77 73
75 74 47
53 54 36
51 51 33
57 58 38
52 53 35
49 51 35
51 53 38
43 48 32
58 57 40
57 59 43
55 58 39
64 67 46
65 67 44
76 75 50
74 72 49
83 85 53
93 91 56
88 86 50
98 99 63
94 91 58
102 98 57
103 100 61
101 97 60
115 110 67
115 112 64
117 113 65
110 107 65
125 120 65
120 118 66
126 120 71
124 118 69
130 125 71
134 129 72
136 130 76
134 127 73
142 138 77
136 131 71
138 134 72
146 141 79
145 138 73
143 138 77
147 140 80
145 139 74
147 141 79
149 143 81
155 148 81
148 142 78
152 146 77
155 149 82
157 151 85
155 147 80
154 148 79
162 156 85
159 152 86
165 158 86
164 156 86
161 155 86
164 157 84
161 154 86
164 157 87
162 155 88
163 156 89
162 155 82
164 157 84
166 158 84
164 157 82
168 161 87
166 159 88
163 157 82
164 158 83
167 161 85
169 162 86
169 163 90
169 162 86
165 159 80
168 160 85
168 161 88
167 160 83
165 159 80
171 163 89
168 162 86
169 163 88
167 160 85
169 162 87
170 163 91
170 163 93
171 163 87
169 162 85
171 164 88
167 160 84
170 163 91
165 158 85
172 164 89
163 156 80
170 163 86
167 160 87
163 157 79
167 160 87
166 158 84
166 160 88
165 158 84
166 160 85
169 162 89
167 160 85
165 159 87
167 161 84
168 160 89
164 157 81
168 161 87
164 157 86
165 159 85
163 156 84
163 156 87
162 155 82
166 159 87
162 155 83
163 155 86
163 156 82
164 157 84
159 153 80
164 157 86
162 154 81
159 153 80
159 153 81
159 153 80
159 153 81
162 155 84
163 156 83
161 154 83
159 152 81
157 149 80
154 148 76
158 152 79
158 150 81
162 155 87
155 147 78
156 149 81
161 154 88
162 154 85
152 146 79
155 148 78
155 148 79
155 148 79
153 147 76
151 144 78
156 148 79
154 148 81
153 147 78
185 201 198
185 201 200
185 201 196
184 200 196
186 202 200
184 200 196
186 201 201
184 200 196
186 201 198
187 202 200
184 200 196
184 200 192
186 202 200
187 203 205
184 200 193
184 200 195
185 201 200
186 201 200
186 202 202
188 204 209
186 202 202
186 202 200
183 199 192
187 202 203
184 200 194
188 204 210
186 202 204
186 201 198
187 202 202
185 201 200
185 200 197
185 201 198
186 202 202
183 200 190
187 203 206
185 201 198
184 200 192
186 202 202
184 200 192
186 201 200
187 202 203
185 201 196
187 203 206
187 203 205
186 201 200
185 201 199
184 201 196
186 202 202
184 199 196
185 201 200
186 201 199
185 201 198
186 202 200
186 202 201
187 203 204
184 200 199
186 202 202
185 201 198
184 200 197
186 201 200
187 203 206
184 200 196
186 201 203
186 201 198
186 201 203
186 201 201
186 202 200
186 201 201
185 201 200
187 202 204
185 201 197
187 203 207
184 200 198
187 203 202
184 201 197
186 202 202
188 203 207
185 201 196
186 202 202
185 201 196
185 201 198
186 202 202
186 202 200
184 200 192
184 200 196
186 201 202
185 201 200
184 200 196
185 201 200
186 202 204
184 200 192
185 201 198
186 202 203
186 202 201
186 202 206
185 201 200
185 201 197
187 203 206
184 201 197
186 201 202
185 201 199
185 201 198
187 202 204
187 202 204
182 197 192
183 198 193
177 192 184
178 192 184
171 186 181
165 179 180
167 181 185
155 170 171
160 176 178
150 165 171
142 157 160
145 161 175
130 147 163
120 137 152
108 127 150
110 128 151
91 111 137
73 95 127
69 94 134
51 80 121
49 78 116
50 79 116
49 78 118
48 76 116
48 76 114
47 74 110
45 71 111
47 74 119
46 72 112
44 70 108
42 67 103
42 66 104
40 65 100
38 61 96
40 64 102
37 60 93
37 59 98
33 52 89
33 53 85
31 49 88
29 46 84
45 57 88
93 104 123
130 143 141
105 122 140
50 79 118
51 81 122
55 86 128
54 85 121
56 88 129
56 89 135
58 91 143
56 88 124
56 88 126
57 90 132
59 92 141
58 91 135
58 91 132
59 93 136
59 92 139
59 93 137
59 92 135
58 91 130
58 91 129
58 92 135
59 93 139
59 93 141
59 92 134
59 92 132
60 94 142
59 92 136
59 93 140
59 92 132
60 94 139
59 92 133
59 93 140
60 94 136
59 92 131
58 91 138
59 93 138
59 93 134
59 92 132
60 94 144
60 94 143
60 95 143
58 91 126
59 92 137
59 94 139
59 93 138
59 93 139
60 93 144
59 94 137
60 94 142
60 94 138
59 92 135
59 93 133
59 93 132
60 94 140
59 94 134
59 92 135
60 94 136
60 94 140
60 95 145
58 92 134
60 93 140
59 93 135
59 93 130
60 93 143
59 93 136
59 94 137
59 92 137
59 93 136
58 91 134
57 90 124
59 93 133
60 94 140
59 92 135
59 93 140
59 92 135
58 91 135
58 91 129
58 91 130
58 90 130
58 91 126
59 92 132
57 89 128
57 90 128
59 93 139
59 92 130
59 92 138
58 90 132
57 88 123
58 90 134
57 89 133
57 90 133
57 87 129
56 86 128
57 88 125
55 86 122
55 85 116
57 88 127
53 82 115
54 83 116
53 81 114
53 81 123
52 80 108
47 72 99
60 70 71
71 69 40
73 72 44
49 50 32
51 52 35
37 42 30
47 47 33
45 46 32
50 49 34
59 61 42
58 60 40
61 65 45
75 73 46
70 71 47
68 67 47
79 79 51
91 90 60
85 82 50
87 88 54
93 90 53
96 95 58
100 99 64
104 100 56
111 108 62
114 110 64
104 101 59
128 123 70
118 115 67
124 119 72
121 117 68
114 108 63
126 123 70
132 127 68
132 128 74
139 134 76
133 127 69
137 133 73
140 135 72
140 134 72
143 139 78
143 138 74
150 144 81
151 143 80
148 143 75
150 145 79
152 147 81
154 147 82
156 150 85
152 146 77
152 147 78
156 149 82
156 150 83
158 152 81
157 150 85
159 153 79
162 155 84
157 150 77
160 153 80
160 155 85
160 154 78
165 158 87
162 155 82
160 154 85
162 156 83
165 158 88
164 158 80
167 160 89
167 160 87
164 158 86
167 160 90
167 160 90
168 161 88
168 162 87
167 161 86
170 163 90
169 162 87
170 163 91
169 162 89
169 162 89
168 162 88
168 161 83
170 163 87
167 160 84
168 161 84
166 159 85
170 162 90
171 165 92
166 159 86
170 163 90
169 162 85
168 162 87
169 163 86
170 162 85
166 159 85
169 162 85
164 158 86
168 160 86
166 159 84
171 165 89
168 161 85
165 158 87
168 160 86
168 162 85
169 162 91
165 159 84
166 158 86
166 159 84
163 156 81
169 163 91
164 158 80
164 158 83
167 159 87
165 159 88
165 158 82
165 158 84
166 158 86
163 155 81
168 160 87
159 151 80
162 156 81
162 156 84
163 156 83
165 159 87
162 155 86
161 155 84
164 157 85
159 152 80
161 154 81
163 155 83
160 153 80
163 155 82
157 150 79
163 156 85
158 152 82
160 153 82
153 146 75
157 150 79
160 153 83
158 150 77
161 154 83
156 149 82
159 152 79
148 142 76
156 150 81
156 150 79
157 149 78
154 147 76
155 148 80
153 147 78
185 200 196
186 202 202
182 199 187
183 199 190
184 200 193
186 202 200
184 200 192
183 199 189
185 201 195
185 201 198
185 200 192
184 200 192
185 200 194
184 200 192
185 201 198
184 200 192
185 200 194
185 201 198
185 201 198
185 201 196
183 199 190
184 200 195
185 201 197
184 200 194
184 200 194
184 200 193
182 199 189
185 201 195
185 200 196
182 199 190
182 199 187
184 200 196
183 199 189
186 202 200
185 201 196
186 202 201
186 201 200
186 201 198
183 200 192
183 199 190
184 200 195
182 198 187
185 201 198
184 200 192
185 200 194
183 199 193
184 200 190
184 199 193
184 200 193
183 199 189
186 201 203
182 199 188
185 201 196
184 200 190
182 199 188
182 198 188
186 201 198
183 199 191
183 199 190
182 198 183
184 200 192
183 199 189
184 200 193
187 202 202
185 201 200
183 199 190
184 200 195
186 202 201
183 199 188
182 199 191
184 200 192
183 199 192
182 199 188
184 200 194
182 198 186
182 198 186
185 201 198
183 199 192
184 200 195
185 201 203
185 201 198
185 201 194
187 202 203
183 199 190
184 199 196
184 199 194
185 201 199
183 199 189
181 197 185
184 199 194
183 199 194
184 199 198
185 201 196
181 198 183
183 199 190
185 201 196
186 201 200
183 200 194
184 200 196
185 201 198
182 197 186
184 199 195
183 199 196
183 198 196
181 197 190
179 194 187
179 193 183
177 191 182
175 190 182
169 184 172
163 178 178
155 170 167
154 168 161
144 160 159
141 158 160
136 153 165
131 148 154
127 144 154
110 128 142
118 136 154
93 114 138
77 99 130
54 82 122
50 79 117
49 77 117
49 77 115
50 79 118
47 73 107
46 73 110
48 75 120
47 75 112
44 70 102
45 70 105
45 71 110
43 66 105
42 66 101
41 65 100
40 65 103
40 64 100
38 61 96
34 53 86
33 52 85
31 49 79
30 49 76
26 42 73
42 55 80
95 106 119
127 140 140
101 118 129
50 78 119
54 85 126
54 85 124
55 86 132
56 87 133
55 87 125
55 87 128
57 89 130
56 89 129
57 90 133
57 89 136
57 90 128
57 90 126
57 90 133
59 92 134
57 90 134
60 93 137
58 92 133
57 89 134
58 92 136
58 92 138
58 92 136
59 93 136
57 91 131
59 93 138
58 91 135
58 91 134
59 92 133
60 94 140
60 94 139
58 91 130
60 94 139
59 93 134
59 92 136
60 94 140
60 94 136
59 92 137
60 93 135
59 92 130
60 94 139
58 91 132
60 94 138
59 92 133
60 94 136
58 92 127
60 94 143
60 94 136
59 92 135
60 95 137
60 94 140
59 93 138
59 91 138
59 93 135
60 94 140
59 93 138
59 94 139
60 93 138
59 93 135
60 94 140
60 93 141
59 92 131
59 93 135
60 93 138
60 94 142
58 92 127
59 93 135
59 91 134
59 93 138
59 92 135
59 93 131
59 92 128
59 92 131
59 92 138
59 92 136
59 91 134
58 92 130
59 93 141
57 90 132
59 91 129
58 91 133
58 90 130
58 90 134
58 91 130
58 91 134
57 89 129
57 88 125
57 88 126
56 87 125
58 90 127
57 88 126
58 89 130
56 86 122
56 86 123
54 85 117
55 86 124
56 86 127
54 83 120
53 82 118
53 80 114
53 81 118
50 77 109
48 73 98
62 72 72
70 69 38
66 66 40
54 55 35
47 50 32
40 41 25
44 47 33
48 51 36
44 44 29
51 54 36
53 59 40
52 57 39
60 62 42
68 70 45
79 79 50
77 76 47
86 85 51
93 93 57
96 91 54
102 100 60
96 94 57
105 102 58
102 100 60
103 100 60
106 104 61
120 116 66
107 105 57
110 107 62
118 115 69
128 121 70
130 125 74
126 123 71
124 120 67
130 125 68
136 132 77
141 135 74
136 130 74
140 134 76
138 132 74
140 134 73
140 134 72
147 142 78
146 140 77
149 143 80
146 141 75
147 142 78
154 148 81
147 140 74
152 146 75
155 150 80
152 146 77
150 145 76
155 150 76
153 148 72
158 151 81
158 152 84
159 153 83
162 154 80
160 153 80
160 154 81
165 159 86
168 161 88
161 155 83
162 156 80
160 153 82
165 158 87
165 159 82
164 158 80
165 159 82
164 157 82
167 160 85
163 157 79
165 159 84
164 158 81
168 162 82
169 163 84
168 162 86
165 159 81
166 159 82
168 162 88
166 159 82
166 160 86
167 161 83
166 159 85
171 163 90
168 161 85
170 163 87
169 162 85
166 159 87
167 160 88
165 157 82
166 159 83
167 160 83
170 163 88
166 160 82
168 161 88
168 161 88
167 160 84
167 160 86
166 160 85
162 155 77
163 157 82
164 157 84
167 160 85
169 162 87
168 161 85
161 155 77
160 154 79
163 157 85
164 157 79
160 154 83
162 156 81
166 157 88
160 154 80
162 155 80
164 157 83
161 155 79
163 156 81
163 157 85
162 156 85
164 156 83
161 155 84
155 149 79
162 154 83
156 151 77
162 155 83
159 152 80
159 153 79
161 153 79
158 151 78
159 151 79
162 155 82
161 154 82
157 150 81
156 150 76
160 152 83
160 152 83
156 150 82
155 149 77
159 151 84
157 150 77
153 146 78
160 153 82
152 146 78
158 151 81
154 147 80
151 145 78
157 150 77
157 150 81
182 199 188
183 200 192
183 199 187
182 198 182
182 198 183
183 199 186
181 198 184
185 201 198
185 200 194
182 199 185
183 199 190
187 202 204
183 199 188
183 199 188
181 197 181
184 200 191
185 200 194
185 201 195
184 200 192
183 199 188
185 200 194
183 199 188
183 199 188
182 198 186
183 199 185
182 198 184
181 198 181
187 202 201
184 200 190
183 199 188
183 199 190
183 199 190
183 199 190
182 198 186
185 201 196
180 197 175
180 196 177
183 199 190
183 199 188
182 198 185
184 200 193
183 199 186
183 199 190
183 199 190
182 198 184
184 200 192
183 199 188
183 199 189
181 197 184
181 198 182
182 198 186
185 200 195
184 200 192
183 199 192
182 198 188
184 200 194
182 198 183
183 199 185
184 200 190
183 199 189
183 199 187
182 198 183
183 199 188
183 199 190
183 199 190
182 198 186
181 197 183
183 199 189
183 199 190
182 198 183
183 199 191
183 199 189
182 198 187
183 198 191
182 199 187
181 197 182
182 198 186
182 198 186
183 199 187
185 200 194
182 198 183
182 198 186
183 198 187
183 199 189
182 198 186
182 198 186
182 198 186
183 199 191
182 198 186
181 198 183
178 195 172
183 199 187
180 197 183
181 197 182
181 198 186
184 200 194
183 199 188
180 196 182
183 199 190
180 196 179
181 197 186
182 198 186
182 198 188
180 196 180
179 194 182
179 195 182
179 193 181
174 188 173
174 187 179
166 180 173
157 171 153
161 176 164
151 166 156
149 164 158
144 159 156
133 149 152
127 144 146
119 136 149
120 138 149
91 111 124
98 116 137
79 101 126
56 83 120
50 78 118
48 76 109
48 76 112
49 77 113
48 76 113
48 76 114
47 73 109
47 74 114
46 73 108
44 71 106
44 70 109
43 67 99
43 68 105
40 64 99
40 64 97
37 59 93
36 57 87
36 57 93
31 50 85
30 49 83
27 43 74
28 44 70
29 43 72
90 102 116
129 142 142
90 107 122
51 80 123
51 81 120
53 84 125
54 85 128
54 85 126
56 88 131
55 87 124
58 91 136
56 89 128
58 90 130
57 90 133
58 91 138
57 90 130
58 91 135
58 91 131
59 92 134
58 91 132
58 91 132
59 93 135
58 91 133
59 93 140
59 92 133
59 93 136
58 91 136
59 93 136
58 92 134
59 93 138
59 92 134
58 91 128
59 93 135
59 93 136
60 94 137
59 93 138
60 94 137
59 93 137
59 93 134
59 92 136
59 93 134
60 94 138
60 94 136
60 94 140
59 93 134
59 92 139
60 94 136
61 95 142
59 92 128
60 94 138
60 94 143
60 94 138
59 93 140
59 92 135
59 93 136
59 92 134
58 91 132
58 92 134
58 92 129
59 93 138
60 94 141
60 95 145
59 93 133
59 92 131
59 93 134
59 93 138
59 92 135
59 92 136
60 94 140
59 93 139
59 93 139
58 91 126
59 92 134
59 92 131
59 93 137
58 90 124
59 93 136
58 91 129
59 92 139
58 91 135
58 91 132
59 92 136
58 90 128
58 91 124
58 90 134
57 88 127
57 90 125
58 90 130
58 91 126
57 89 128
58 90 132
57 89 124
55 85 120
58 89 132
56 88 118
57 88 127
56 86 128
56 86 122
55 85 122
52 80 109
55 84 120
53 81 110
52 80 113
49 76 107
47 72 96
65 73 74
63 62 33
53 52 29
47 48 32
57 59 37
49 50 33
44 49 33
46 51 36
45 46 31
48 50 35
58 57 37
58 60 40
61 64 41
71 73 42
73 74 47
77 75 45
86 83 49
79 78 48
93 91 54
103 101 59
94 91 50
98 97 58
105 102 57
101 100 57
109 107 64
119 117 68
115 113 66
115 111 62
117 114 64
127 122 65
123 118 66
132 128 70
125 120 63
136 131 70
130 124 66
139 133 69
138 131 72
140 134 69
139 134 72
141 136 77
143 138 76
143 136 74
150 143 76
147 141 76
151 146 81
147 142 76
155 149 77
152 147 78
150 145 76
152 147 80
156 149 80
157 152 79
158 151 85
157 151 80
160 154 82
160 154 83
159 153 80
159 153 79
162 156 85
159 153 77
159 152 81
159 153 80
161 154 79
164 157 85
163 156 83
166 158 84
164 158 80
161 154 81
166 159 86
168 161 87
162 155 84
162 156 80
166 159 80
166 160 83
167 161 82
171 163 88
168 161 88
165 158 81
166 159 84
170 163 83
166 159 82
167 160 85
167 160 81
166 160 82
169 162 87
169 162 87
167 160 84
169 161 89
170 163 89
170 163 86
166 158 83
164 157 81
168 161 83
167 160 87
172 165 91
167 159 84
164 157 83
161 154 77
168 161 86
167 159 84
164 157 81
170 162 85
168 162 86
166 159 85
166 159 84
164 156 84
165 158 81
164 156 84
164 158 81
167 160 83
163 156 85
166 159 85
164 157 82
164 156 83
161 154 81
165 158 83
160 154 82
165 157 78
160 153 82
163 155 79
161 153 82
162 155 82
160 152 78
164 157 80
158 151 75
159 151 80
165 158 81
157 151 79
156 151 81
157 150 77
157 151 77
155 149 78
160 152 81
158 151 82
157 150 80
153 146 75
161 153 81
163 156 85
156 148 78
151 144 77
159 151 82
151 145 72
154 148 78
156 150 78
154 148 76
154 147 78
156 149 77
154 146 79
155 149 81
181 198 183
181 197 181
182 198 185
179 196 175
182 198 187
181 197 182
181 197 176
183 199 190
182 198 183
184 200 190
180 196 178
180 196 175
182 198 183
183 198 185
182 198 186
184 200 190
183 199 185
183 199 184
180 197 177
182 198 186
180 197 176
183 198 187
182 198 186
181 197 183
182 198 186
181 197 183
180 196 174
183 199 187
181 197 179
184 200 193
182 198 183
180 196 176
180 196 175
178 195 171
179 196 175
183 199 190
181 198 183
184 199 190
182 198 183
181 197 181
182 198 183
183 199 188
183 199 187
180 196 176
181 197 181
184 200 192
180 196 174
183 199 187
181 197 179
180 196 176
182 197 183
178 195 173
181 198 184
180 197 178
181 197 179
181 197 176
182 198 181
183 199 189
181 198 182
184 200 192
182 197 183
181 197 178
182 198 183
182 198 187
181 197 178
183 199 185
180 196 179
184 199 187
181 197 181
178 195 173
182 198 183
181 197 180
181 197 181
183 199 186
183 199 191
182 197 183
180 197 181
182 198 186
182 197 181
182 198 185
181 196 179
180 196 178
180 196 181
180 196 179
182 198 183
182 198 185
181 197 180
181 196 182
180 196 178
180 196 181
181 197 182
182 197 182
181 197 180
180 196 178
179 195 174
180 196 182
181 197 182
178 194 173
178 194 173
181 197 183
180 196 175
179 194 174
181 196 186
178 195 177
182 198 188
176 191 175
176 190 164
173 186 165
165 179 158
160 174 156
163 179 163
157 172 153
150 165 153
143 159 149
140 155 143
139 155 147
124 140 145
121 138 152
115 133 143
106 125 131
92 112 132
79 100 118
58 86 120
52 81 121
48 76 107
49 77 112
48 75 114
47 74 106
47 74 107
46 72 108
46 73 105
46 73 112
44 69 102
43 68 97
43 68 100
42 67 100
40 63 97
41 65 101
38 61 91
37 59 90
34 54 83
32 52 82
31 49 77
29 47 72
27 43 70
47 59 77
79 91 101
116 129 125
105 122 132
49 79 115
52 82 119
52 82 119
54 85 123
54 86 124
57 90 131
55 87 128
58 90 133
56 89 129
58 91 134
57 89 131
58 92 130
58 92 136
58 92 137
56 88 121
58 90 136
58 91 133
59 92 130
57 90 130
57 90 130
58 91 132
59 92 133
59 92 136
58 92 134
58 92 128
59 93 136
58 92 135
59 92 130
59 93 137
58 92 131
58 91 128
58 91 130
59 93 138
61 95 137
59 93 135
60 94 136
59 91 129
60 94 136
61 95 145
59 93 136
58 92 130
57 90 129
59 93 141
60 94 142
60 93 136
59 93 126
59 93 137
58 91 137
59 92 132
59 93 137
59 93 132
59 93 134
58 91 134
59 92 138
59 93 133
58 91 129
60 94 136
59 93 138
58 91 135
59 93 135
59 93 134
59 92 130
60 93 138
59 92 132
58 91 130
60 94 142
59 93 137
58 90 128
58 92 136
59 93 134
59 92 131
59 93 132
58 91 134
58 90 125
56 88 122
58 90 130
59 91 130
58 91 130
58 90 125
59 92 133
59 92 133
56 88 125
59 92 135
56 88 123
58 91 130
56 87 127
56 88 122
56 87 127
57 89 128
56 88 127
56 87 125
56 87 124
55 85 125
56 87 125
55 85 117
53 82 114
55 85 122
54 83 119
52 80 116
52 78 101
51 77 107
51 77 110
53 63 67
63 62 35
58 57 31
45 47 26
42 42 24
36 41 23
44 48 29
46 51 33
34 39 23
41 46 31
52 54 32
59 61 36
58 60 36
67 67 40
61 63 39
79 79 45
80 77 47
86 86 52
84 83 46
97 97 56
97 98 57
98 96 58
109 108 58
114 111 60
109 109 64
114 112 62
115 114 63
119 116 64
123 118 68
124 122 67
131 127 68
128 123 62
135 130 69
138 133 72
134 129 70
130 128 68
135 130 71
140 135 69
140 134 72
132 129 68
145 140 76
143 138 74
151 145 79
142 136 76
149 145 79
143 138 76
151 145 77
150 145 75
151 145 77
148 142 72
147 141 71
155 148 79
153 148 74
155 148 78
164 158 82
159 153 83
160 154 80
161 154 82
164 157 85
163 157 83
162 156 83
159 154 78
162 155 84
160 153 79
162 157 82
165 159 86
159 153 73
164 158 85
162 156 81
165 158 82
166 159 82
164 158 79
164 157 85
167 159 84
169 162 88
164 158 80
163 156 81
167 159 86
165 159 83
170 162 88
166 161 84
168 161 85
166 159 80
167 160 79
167 159 84
166 160 82
169 162 86
168 162 83
167 160 83
168 161 84
168 162 82
164 157 81
166 159 83
169 161 83
163 156 81
166 159 82
166 158 83
167 160 86
164 157 84
167 160 86
166 159 85
170 162 86
165 159 83
163 157 79
163 156 82
163 156 82
157 151 74
167 158 81
165 158 82
167 160 85
166 159 81
165 157 78
162 155 80
164 157 77
165 158 83
164 156 80
163 157 82
161 154 78
164 156 84
163 156 80
160 153 77
162 155 82
165 158 83
159 153 81
159 151 80
159 152 78
158 151 77
163 155 80
160 152 79
160 153 81
160 152 79
159 151 85
156 149 78
152 146 74
154 146 75
153 146 78
160 152 81
154 147 74
155 148 78
160 153 83
157 150 80
157 150 80
156 149 78
156 149 79
153 146 78
163 155 85
158 150 80
156 149 77
147 140 74
181 198 183
182 198 183
181 197 178
180 196 172
182 198 183
180 196 178
183 199 185
178 195 168
183 198 187
180 197 176
182 198 183
181 197 181
182 198 182
182 198 182
183 199 185
181 197 182
180 197 177
182 198 181
181 197 179
182 198 180
181 197 181
181 197 181
182 198 186
181 197 182
182 198 183
182 197 181
182 198 185
180 196 176
180 196 175
181 197 177
181 197 180
181 197 183
182 198 183
178 195 169
181 197 180
179 196 170
181 197 178
182 198 185
178 194 169
178 195 173
181 198 180
181 197 179
179 196 176
180 196 176
181 198 183
179 195 172
179 195 171
180 197 176
181 196 179
179 195 171
178 195 171
181 197 181
179 195 173
181 196 178
181 197 176
180 197 176
181 198 182
182 197 183
183 198 185
180 196 174
177 193 165
180 196 174
178 195 172
178 194 168
178 195 169
177 194 166
178 194 171
180 196 175
179 195 169
180 197 177
179 196 173
181 197 181
178 195 171
178 194 168
181 197 179
177 194 169
182 198 186
179 196 176
180 196 175
175 193 161
176 193 161
181 197 176
179 196 171
181 197 180
177 193 170
180 196 174
181 197 180
176 193 163
177 193 169
178 194 172
180 195 172
179 195 171
177 194 165
180 196 180
179 195 171
179 195 175
174 190 156
181 196 180
180 195 175
179 195 172
179 194 175
178 193 172
177 193 169
178 193 173
177 191 173
173 189 164
172 187 163
172 186 157
168 182 158
160 174 155
157 172 152
157 171 149
148 163 145
143 158 141
132 148 139
129 145 136
128 143 140
117 134 132
104 122 129
102 121 130
86 107 119
68 91 114
57 84 116
48 75 105
50 79 116
49 77 119
47 75 104
47 74 101
48 76 112
45 70 96
45 70 102
46 73 111
44 70 102
45 71 107
42 67 100
41 64 95
40 64 92
37 59 84
39 61 88
35 56 83
34 54 79
33 52 75
30 48 75
29 47 74
26 42 57
37 50 68
91 102 98
107 119 112
101 117 122
50 79 119
52 82 121
54 84 124
54 85 122
55 86 127
55 87 125
55 87 124
55 87 132
56 89 125
57 89 129
57 89 131
58 91 138
59 92 137
58 90 133
59 92 135
57 90 133
57 90 130
59 92 136
58 91 133
59 93 136
58 91 133
59 92 134
58 91 132
58 91 126
59 93 142
57 90 138
58 92 130
58 92 128
59 92 131
59 92 134
60 93 133
58 92 128
58 92 132
59 92 128
58 91 138
59 93 141
58 91 127
58 92 134
59 93 136
59 92 135
59 93 137
59 92 130
59 93 138
57 90 127
60 93 140
57 90 121
59 92 134
59 93 131
58 90 131
59 92 133
59 92 132
58 91 130
60 94 143
59 92 134
57 89 125
60 95 144
58 91 129
59 92 134
57 89 121
59 92 130
58 91 129
59 92 135
59 92 141
59 92 131
59 93 135
59 93 136
57 89 129
60 94 140
59 92 132
57 90 125
59 91 130
59 92 136
59 92 130
57 90 130
59 91 139
59 92 135
59 92 137
57 91 124
59 92 134
58 90 131
59 92 137
59 92 137
58 89 125
57 89 129
57 89 128
57 89 126
57 89 131
56 86 118
57 88 130
56 87 119
57 89 132
56 87 125
56 86 125
55 85 118
55 84 118
56 86 126
53 81 111
53 81 112
53 82 119
51 78 107
52 78 108
46 70 97
57 67 68
65 64 35
63 61 31
37 39 23
49 51 31
31 37 20
38 43 27
40 43 31
45 48 29
50 51 33
47 52 32
50 55 37
59 62 34
65 67 44
65 68 42
69 71 40
86 85 47
76 76 45
94 93 49
90 90 50
98 96 55
96 94 55
109 106 61
100 98 54
108 107 62
110 106 61
116 112 63
121 117 65
126 123 72
126 122 66
128 124 67
126 122 65
126 120 63
121 118 63
138 132 69
127 123 66
134 127 71
139 134 72
137 132 68
138 134 73
137 133 70
143 137 78
142 137 74
145 140 71
144 139 73
148 141 77
148 142 74
146 141 70
153 147 73
152 146 78
153 147 80
157 151 84
154 149 77
157 152 79
158 151 81
150 144 71
156 150 79
157 150 76
157 151 79
157 151 76
159 153 81
159 153 74
158 152 78
158 152 79
162 154 82
162 155 79
165 158 85
165 158 81
165 159 84
162 155 80
167 160 83
168 162 85
162 156 83
163 156 78
165 159 82
166 159 78
165 159 81
169 160 82
168 161 84
167 160 85
165 157 78
161 154 74
166 158 82
169 162 84
166 160 82
167 160 80
167 160 81
167 159 85
165 159 79
165 158 81
168 160 85
164 158 79
169 161 83
164 158 82
164 158 82
163 156 76
168 160 82
166 158 81
165 157 75
163 157 79
166 159 80
164 157 80
167 159 85
165 157 83
167 159 82
166 158 83
163 156 81
162 154 83
165 157 83
164 157 79
160 153 77
165 158 84
165 157 84
162 156 77
165 158 80
167 160 82
166 158 83
160 153 83
164 156 84
157 150 78
163 155 82
160 154 76
164 155 83
163 156 84
158 152 74
161 153 82
161 154 80
160 153 83
155 147 77
162 156 80
160 152 79
159 152 78
160 153 80
156 149 75
159 152 75
154 147 77
153 147 76
162 154 82
155 148 73
162 155 82
159 153 80
156 149 76
161 154 82
151 144 77
160 152 82
152 145 79
153 145 74
153 146 78
155 149 79
179 196 171
181 197 178
180 196 181
182 198 181
177 194 165
182 198 182
182 198 183
182 198 181
180 196 175
181 197 178
180 196 173
181 198 181
180 196 180
182 198 181
181 197 176
180 196 176
179 196 174
181 197 176
181 197 177
181 197 177
180 196 174
180 196 176
182 198 181
176 193 165
178 195 168
178 195 169
178 195 165
178 195 167
179 195 170
179 195 170
178 195 169
179 196 174
178 194 163
182 197 183
178 195 172
180 196 176
181 197 181
180 197 175
179 196 175
180 196 173
180 196 175
177 194 165
179 196 173
178 194 167
179 195 171
178 195 167
179 195 170
178 194 169
178 195 166
179 195 173
178 194 169
179 196 170
179 196 172
181 198 180
178 194 171
177 194 163
177 194 165
178 194 167
179 195 171
177 194 169
177 194 165
179 195 172
176 193 163
178 195 171
180 196 173
175 192 155
177 193 169
177 193 165
177 194 167
174 191 157
178 195 172
179 195 174
178 194 169
181 197 178
178 195 171
177 193 165
176 193 161
177 193 165
179 195 170
179 195 174
179 195 169
177 194 165
178 194 169
176 193 162
176 193 161
174 191 156
179 195 169
175 192 156
175 192 161
179 194 172
176 192 165
175 191 162
178 195 169
177 193 169
177 193 165
175 191 160
174 190 150
172 189 150
175 192 160
174 191 155
175 190 163
178 193 172
175 190 157
176 192 161
173 189 157
169 183 138
170 184 153
166 179 147
159 173 142
165 180 156
151 164 134
149 163 141
144 159 134
142 157 141
127 142 132
120 136 131
124 140 133
117 133 121
118 134 120
93 112 119
91 110 115
70 92 106
61 87 108
48 77 107
48 75 103
47 74 107
48 76 106
46 74 106
46 72 102
46 72 105
46 73 103
45 70 101
43 69 95
44 70 104
42 67 94
42 66 98
40 62 89
38 60 84
39 62 94
34 54 75
33 53 77
32 51 76
29 47 74
27 44 68
26 41 58
40 54 70
88 98 90
124 138 130
110 126 117
48 76 109
52 82 118
52 81 114
55 86 123
55 87 126
55 87 118
55 87 116
58 91 136
57 89 130
57 89 129
57 90 129
58 91 128
58 91 132
57 90 130
58 92 133
58 90 139
57 90 127
57 89 125
58 91 132
58 92 135
58 92 129
58 91 128
59 92 133
59 93 138
60 93 141
58 91 131
57 90 124
58 91 131
58 91 129
58 92 136
61 94 140
58 91 127
59 93 134
58 91 128
59 92 128
58 91 134
58 92 135
60 94 134
59 92 138
59 93 136
59 93 133
58 92 133
57 90 128
60 93 137
58 91 127
58 92 135
58 91 133
59 93 136
60 93 134
57 89 124
58 91 128
58 91 128
59 93 137
59 92 132
59 92 128
59 93 126
60 94 139
59 93 134
59 92 134
59 92 128
59 92 136
58 91 129
57 90 130
59 92 134
60 94 138
58 91 129
58 91 134
59 92 132
59 92 133
58 92 129
59 92 132
59 92 135
59 92 138
58 91 132
57 90 127
57 90 132
59 92 128
58 91 131
58 90 126
58 89 130
57 89 128
57 89 125
58 91 129
57 89 124
58 90 128
58 90 122
58 89 123
58 90 131
56 86 132
57 89 128
56 87 124
55 85 121
56 86 118
55 85 125
55 85 121
56 86 124
54 83 114
52 81 109
53 81 109
50 77 110
51 78 100
49 74 100
71 78 70
63 62 32
48 47 24
52 52 31
47 48 23
44 44 22
43 46 22
43 47 29
49 51 30
47 49 27
53 56 33
63 66 35
60 63 38
61 64 39
68 69 40
73 75 40
80 81 45
82 82 48
81 82 49
86 84 48
93 92 52
101 100 55
97 97 57
109 105 53
112 109 59
108 108 54
118 114 62
118 115 61
118 114 59
120 115 66
123 119 65
128 124 69
132 127 71
134 129 67
134 129 69
134 128 70
141 136 72
136 131 69
138 133 71
140 135 68
137 132 70
141 135 70
144 140 69
142 137 69
148 142 75
143 138 71
148 142 74
147 141 77
151 145 78
156 150 78
147 142 73
154 148 73
154 147 77
154 149 77
152 146 77
161 155 80
160 153 81
160 153 82
160 153 80
155 149 79
158 152 77
160 153 77
160 153 79
162 156 82
157 151 76
165 158 85
164 157 81
161 155 80
161 153 78
165 158 80
168 161 85
163 156 80
167 161 84
166 160 78
164 158 79
166 159 82
165 158 77
167 159 83
167 160 83
167 160 83
164 157 79
169 161 83
165 158 82
166 159 79
168 160 83
165 159 80
169 162 85
168 160 85
164 157 76
169 161 85
165 159 80
164 156 81
162 155 79
166 159 83
164 158 85
163 155 81
168 161 85
167 161 83
159 153 75
165 158 81
165 157 84
162 154 77
166 159 82
167 159 86
165 157 84
164 158 81
161 154 79
163 156 80
168 160 79
161 155 80
167 160 83
160 152 81
159 154 76
165 158 85
159 152 80
164 157 80
162 155 82
165 158 83
159 153 78
163 156 85
161 153 78
160 153 77
161 154 78
163 156 84
158 151 80
158 152 78
159 154 76
159 154 83
161 154 80
160 153 78
156 149 76
161 153 82
156 149 73
161 153 80
156 148 78
160 153 79
155 147 74
157 150 78
154 148 74
159 151 82
152 145 72
156 149 79
159 151 79
152 146 71
148 142 72
155 148 76
152 145 75
155 148 83
151 144 76
182 197 180
180 196 174
180 196 174
181 197 181
181 197 178
182 198 182
180 197 177
179 196 172
178 194 166
178 194 166
180 196 177
181 197 179
179 196 171
181 197 176
178 194 165
179 195 169
182 198 181
182 198 181
178 195 168
180 196 175
180 196 172
179 195 170
178 195 168
178 195 169
181 197 177
178 194 168
176 193 160
179 195 171
178 194 170
177 194 165
178 194 165
177 194 165
181 197 175
178 195 166
178 194 169
178 195 165
175 192 156
178 194 166
178 194 170
179 195 171
177 193 166
178 194 165
178 194 167
178 194 168
176 193 162
179 195 171
177 194 166
178 194 165
175 192 159
178 194 165
175 192 157
180 196 176
177 193 165
175 192 161
177 193 165
174 191 152
178 194 164
177 194 159
176 193 160
176 193 161
177 194 165
176 192 157
177 194 165
176 192 165
173 190 150
175 192 156
175 192 158
178 194 169
176 192 159
175 192 153
173 190 147
176 192 160
178 194 165
182 197 181
173 190 153
173 190 148
175 192 159
175 192 156
174 191 152
176 193 156
176 193 160
173 190 149
173 190 153
173 190 151
171 188 149
173 190 147
173 189 156
176 192 161
174 191 157
173 189 156
175 192 158
174 190 151
174 190 156
175 191 159
174 190 158
177 193 165
176 192 161
175 191 156
172 189 154
174 188 156
172 188 151
173 190 154
171 188 142
173 188 156
174 189 159
166 181 146
170 184 151
167 180 145
165 178 148
155 169 128
150 164 131
146 160 135
139 154 121
139 155 128
132 149 120
127 142 118
121 137 124
111 128 120
99 117 119
94 113 110
89 109 115
73 95 110
62 88 111
52 80 119
48 76 106
48 75 102
46 71 103
47 74 101
46 73 106
47 74 107
45 71 100
44 69 92
42 66 94
44 69 93
41 66 95
41 65 100
38 60 79
35 56 81
38 61 86
33 54 76
31 49 75
31 49 67
28 45 58
28 44 60
24 40 55
61 71 72
97 109 98
122 136 111
120 134 135
48 76 111
52 82 116
53 84 116
54 86 129
53 83 115
54 85 119
56 88 129
55 87 124
56 88 125
57 89 125
57 90 134
57 89 128
57 91 127
57 90 132
57 90 126
57 89 128
58 91 133
56 89 123
56 88 123
57 90 124
59 92 135
59 92 133
58 92 134
58 90 131
57 90 125
59 93 133
58 91 131
56 89 125
57 90 128
57 91 124
58 91 121
59 93 136
59 93 127
60 93 139
58 91 131
58 91 132
59 92 131
59 93 131
59 92 135
58 91 133
59 93 131
59 92 131
58 92 130
59 92 139
58 92 130
59 92 132
60 94 130
59 93 137
59 92 133
59 93 135
58 91 128
60 95 138
59 92 135
58 91 127
58 90 134
59 92 126
59 93 133
58 91 132
59 92 131
59 92 134
58 92 131
60 93 133
59 93 130
57 90 128
58 91 127
58 92 135
58 91 130
59 92 133
57 90 122
58 89 126
59 92 132
59 92 133
58 89 128
57 90 128
57 89 121
57 90 127
58 90 127
57 89 121
57 89 123
59 91 132
57 89 126
56 88 120
57 89 123
57 89 119
57 88 126
56 87 123
59 91 135
58 89 127
56 87 122
57 88 128
57 90 132
57 89 130
56 87 123
56 85 120
53 83 112
55 85 116
54 83 113
54 82 116
53 80 112
51 77 102
47 72 95
48 71 92
75 79 62
73 71 33
54 54 22
54 54 23
42 43 23
46 48 20
45 49 24
37 42 25
47 50 27
48 52 25
53 56 32
64 64 29
64 65 35
64 67 35
73 75 38
73 73 42
77 75 44
82 80 43
80 82 46
84 84 48
94 93 52
92 93 52
100 98 50
104 101 52
107 105 57
106 104 53
113 112 61
109 105 55
114 111 60
119 116 62
120 116 56
130 127 64
117 115 56
127 123 61
130 126 67
127 122 65
140 135 71
136 131 69
144 138 71
142 137 72
139 135 72
137 132 69
147 142 71
148 143 75
141 137 67
143 138 72
145 139 72
144 140 69
154 147 77
151 147 77
152 147 71
155 149 79
155 148 76
150 145 77
152 146 71
164 157 82
160 154 77
156 150 75
155 149 69
159 153 80
157 151 75
162 155 79
162 155 79
162 156 82
160 154 79
160 153 75
161 154 80
162 154 74
163 155 79
165 158 83
166 159 84
163 157 80
160 155 75
164 157 79
162 155 79
164 157 83
165 158 83
164 158 80
166 159 83
165 158 81
166 160 81
166 159 82
166 158 81
166 159 78
166 160 83
166 159 81
166 158 81
167 160 82
162 156 77
167 160 81
167 159 82
166 159 81
168 161 82
166 159 84
164 157 81
166 158 81
165 157 78
168 160 82
164 158 78
162 155 75
160 154 74
165 158 80
165 158 79
162 155 82
167 159 84
163 157 78
165 158 80
165 157 80
162 155 75
161 154 78
166 158 84
166 159 81
163 156 79
166 159 83
165 157 84
156 149 74
163 155 84
165 158 83
162 153 79
162 156 80
163 155 79
154 148 68
162 156 80
155 149 76
162 154 82
162 154 81
159 152 80
156 150 75
157 150 80
159 152 77
159 152 78
161 154 82
162 154 78
160 154 81
153 146 76
156 149 79
160 152 81
157 149 78
161 153 82
152 145 74
156 150 80
157 150 77
153 146 72
151 144 72
156 150 76
156 148 78
155 147 75
152 146 76
154 146 77
180 196 175
178 194 165
178 194 163
178 194 168
179 196 172
181 197 176
176 193 161
180 196 176
177 194 164
178 194 168
177 194 163
177 194 164
180 196 176
177 194 162
177 194 165
177 194 166
180 196 173
179 195 170
177 194 165
177 193 165
175 192 156
177 194 165
176 193 159
178 195 167
176 193 161
177 194 164
176 192 161
179 195 167
177 194 162
179 195 169
177 194 161
179 195 170
178 195 168
174 190 151
175 192 156
178 195 166
176 193 157
177 193 160
176 192 158
177 194 161
178 195 165
175 191 158
179 195 169
178 194 165
177 193 160
178 194 165
177 193 159
177 194 160
176 192 158
175 192 155
175 192 156
176 192 157
175 192 152
178 194 167
177 193 161
175 191 151
174 191 148
175 192 156
176 193 160
174 191 149
175 192 157
175 191 151
173 190 151
172 190 145
173 190 154
174 191 146
174 191 152
172 189 146
175 192 156
176 192 156
177 193 161
171 187 146
174 191 155
171 188 143
176 192 158
170 187 138
173 189 149
173 190 149
173 190 144
169 187 144
171 187 137
175 191 158
172 188 146
172 189 147
175 191 153
171 187 144
171 189 142
172 188 144
175 191 156
173 189 156
174 190 152
173 190 146
172 189 146
172 188 144
172 189 148
174 190 153
173 190 157
172 188 149
170 187 144
166 183 136
171 187 147
169 185 143
170 186 142
172 188 149
174 189 152
166 181 135
168 182 142
158 172 122
162 177 138
150 163 125
157 170 142
141 155 131
132 147 113
138 152 127
137 153 113
124 141 116
112 129 113
111 127 104
103 121 109
91 108 100
80 100 103
69 91 101
62 87 109
48 76 102
50 78 106
48 76 102
47 74 102
45 71 99
46 72 99
46 72 99
46 73 99
42 67 95
43 68 89
42 67 89
42 66 93
40 63 86
39 63 92
38 59 78
36 58 81
33 53 74
32 52 63
31 50 72
32 51 65
30 48 64
32 48 53
59 70 56
111 124 113
128 143 121
121 135 128
48 76 106
51 81 116
53 83 116
52 83 116
55 85 120
54 86 121
55 86 121
57 89 126
56 88 123
56 88 122
57 90 129
55 88 116
58 91 135
57 90 125
55 87 122
59 92 132
58 91 128
56 88 126
58 91 130
58 92 137
58 92 129
56 89 120
57 90 123
58 92 131
57 90 129
58 91 131
57 89 122
59 92 136
59 92 133
58 91 127
58 91 131
58 91 127
57 91 127
59 92 125
59 92 134
58 91 126
59 92 133
58 91 128
59 93 140
58 91 131
58 91 132
57 90 126
57 90 119
58 92 138
59 93 136
59 93 135
58 91 135
59 92 129
59 93 138
58 92 134
60 94 136
60 93 136
58 91 131
58 92 130
59 93 131
59 92 131
59 92 136
58 90 125
58 91 127
58 92 129
60 93 136
61 95 135
58 92 132
58 90 123
58 91 131
59 92 130
58 90 128
59 92 128
59 92 128
59 92 135
58 90 127
59 92 137
58 91 132
57 90 127
57 89 126
58 91 135
57 89 129
57 89 122
58 91 133
58 91 125
57 89 126
57 89 128
57 90 126
56 88 120
57 89 124
57 89 127
55 86 119
56 88 121
56 87 121
56 87 127
55 86 119
55 86 117
56 87 125
55 86 125
55 85 119
55 84 114
53 82 112
53 82 107
53 81 108
50 76 97
49 74 96
43 64 78
78 81 57
75 73 35
58 57 27
56 56 25
46 47 14
42 45 22
40 42 23
47 48 21
46 50 29
39 44 25
56 60 31
52 57 33
65 65 35
63 66 41
75 76 40
80 78 42
72 75 40
77 80 42
93 93 50
84 85 46
97 96 50
91 91 45
92 91 46
109 107 53
108 107 53
114 110 58
114 111 57
124 120 63
113 111 59
114 110 61
117 115 60
125 121 63
130 127 65
117 112 52
129 125 59
135 130 64
138 132 65
142 136 67
136 132 70
138 133 72
141 136 72
141 135 67
136 131 66
145 141 66
145 140 70
144 139 72
149 143 73
150 144 71
152 146 77
154 148 75
154 147 75
154 149 76
155 149 75
150 144 72
159 153 79
157 151 74
159 152 78
158 151 76
157 151 72
154 147 73
160 153 76
159 153 76
158 152 76
156 150 74
161 155 82
161 155 75
163 157 80
163 156 78
162 155 77
162 155 79
161 154 75
165 159 83
161 155 75
166 158 81
166 160 80
166 159 84
164 158 77
164 158 81
162 155 75
164 158 77
163 157 76
164 157 76
165 159 81
166 158 82
169 162 83
163 156 78
165 158 80
166 159 83
164 157 80
163 155 80
167 160 84
165 158 80
165 158 82
164 157 78
162 155 79
166 160 79
163 157 76
163 156 79
163 156 79
163 156 78
165 158 82
165 157 82
168 160 82
165 157 80
161 154 77
167 158 83
164 157 79
163 155 81
161 155 75
165 157 80
164 157 80
165 158 83
159 152 77
164 157 82
160 153 79
164 156 81
163 156 78
158 151 78
161 154 79
161 153 76
164 156 81
161 154 79
162 155 79
156 149 74
158 150 77
161 155 78
158 150 75
154 148 77
153 146 75
159 152 78
155 149 72
159 151 78
157 149 74
158 151 75
158 151 76
156 148 76
156 149 79
156 148 77
154 148 78
156 150 78
155 148 78
152 145 73
154 147 80
152 144 74
159 151 77
149 142 72
151 145 74
149 142 70
154 147 80
179 195 166
177 193 162
180 197 175
177 194 161
180 196 172
179 195 168
177 194 164
177 194 161
176 192 161
178 194 167
178 194 167
179 195 167
178 195 165
177 193 161
178 194 165
177 194 160
177 194 164
176 193 159
175 192 154
176 192 155
175 192 155
177 194 160
175 192 159
176 193 158
175 191 151
176 193 158
175 192 151
179 196 173
173 190 147
175 191 155
176 193 159
176 193 158
176 193 161
176 193 157
175 192 156
176 192 160
177 194 161
176 193 159
173 190 146
175 192 151
174 190 151
176 193 159
174 192 150
176 192 159
174 191 148
174 191 150
172 189 141
175 191 155
173 190 144
173 190 148
175 192 151
175 192 154
174 191 151
174 191 151
171 188 145
173 190 149
173 191 146
171 189 141
172 189 142
173 190 151
174 191 156
171 188 141
170 188 134
173 190 142
174 190 154
169 186 141
171 188 140
170 188 140
173 190 151
172 189 140
172 189 141
172 189 144
172 189 146
171 188 136
175 191 152
176 192 156
169 188 135
171 187 142
174 191 151
170 188 138
168 185 130
170 186 135
174 189 151
171 188 139
169 186 136
169 186 132
171 188 142
171 187 145
170 187 135
171 187 142
172 188 146
169 186 133
171 187 145
169 186 137
169 186 140
166 183 131
167 184 132
167 184 130
167 183 142
166 183 132
166 182 139
167 183 133
166 183 126
167 183 137
167 183 137
168 183 143
162 176 131
158 173 118
158 173 118
151 165 119
142 156 110
148 161 128
144 160 112
127 142 106
127 138 105
117 132 111
114 132 100
117 134 113
106 123 94
99 116 102
85 103 88
73 95 93
65 88 96
53 80 105
48 75 103
47 74 97
46 72 101
46 72 94
48 75 107
45 71 97
43 68 93
44 69 100
41 65 86
40 63 82
40 64 85
38 61 78
37 59 79
37 58 83
36 58 77
34 55 79
33 53 68
31 50 69
30 48 67
26 42 52
37 51 49
71 83 67
106 119 100
133 146 108
142 156 137
48 76 113
51 80 117
52 82 120
53 83 117
54 86 121
52 83 119
55 86 124
53 84 119
55 87 122
57 89 127
58 91 133
56 88 125
56 88 121
56 89 119
58 92 135
58 91 134
58 92 134
58 91 129
58 90 128
57 89 129
58 91 123
58 92 131
59 92 132
58 91 131
57 90 124
59 92 132
57 88 125
58 91 133
59 92 139
58 91 131
59 92 129
59 93 139
58 90 130
58 91 127
59 92 136
58 92 129
58 92 132
59 93 141
59 92 133
58 91 126
59 92 130
58 91 126
59 92 134
58 91 129
59 93 138
58 91 131
58 91 129
58 92 132
58 91 131
59 92 128
58 91 128
57 90 130
58 91 126
58 91 127
59 92 127
58 92 131
57 89 122
59 93 132
58 92 133
58 92 126
58 91 130
59 92 133
59 92 132
57 89 125
58 90 130
58 91 126
57 89 126
59 92 128
57 90 128
58 91 129
58 91 131
58 90 128
58 90 131
59 91 138
59 93 129
59 92 130
57 89 124
58 90 123
57 90 124
57 89 134
59 93 135
57 89 123
58 90 130
55 86 116
56 88 125
57 89 127
56 87 124
56 87 122
55 86 118
56 87 126
56 87 123
55 84 114
56 85 117
56 86 122
54 84 118
52 80 104
52 79 102
53 81 112
52 80 108
51 77 100
47 72 90
44 67 77
92 94 73
69 67 29
68 66 33
52 52 24
42 45 16
49 51 16
49 51 23
41 44 23
52 55 23
48 53 28
49 53 31
55 58 30
56 58 30
63 65 33
69 71 35
77 79 41
81 82 40
79 77 43
86 87 46
91 88 44
94 93 50
86 88 44
99 99 53
100 97 47
108 106 57
104 102 55
112 109 58
113 112 53
117 115 58
128 125 60
127 124 63
119 115 56
126 119 61
129 125 61
131 126 65
129 124 61
131 128 62
129 125 63
133 129 64
138 133 64
146 141 70
143 138 68
138 134 72
144 139 68
147 141 72
146 139 69
143 139 69
149 144 76
149 143 68
150 145 71
153 146 77
145 141 74
151 144 75
149 143 75
156 149 76
152 147 70
153 147 74
159 152 74
156 149 74
156 148 70
160 154 76
158 151 73
159 152 74
161 154 78
158 153 76
166 159 84
165 158 81
162 156 76
160 153 74
160 153 75
168 160 81
163 157 79
161 155 77
164 157 81
164 157 76
161 155 71
167 160 80
160 154 74
159 153 72
159 152 72
162 155 76
169 162 82
163 155 76
165 158 76
160 155 74
165 157 80
168 161 83
167 160 82
168 161 82
169 160 83
166 158 78
168 161 79
167 159 82
162 155 74
164 157 74
165 158 77
168 160 83
163 155 72
162 155 77
168 160 84
168 160 85
163 155 77
164 157 79
164 157 81
167 159 81
159 153 72
162 156 77
159 153 71
164 155 82
164 158 82
160 153 76
159 153 75
167 159 83
162 155 74
161 155 77
160 153 80
162 155 77
160 154 76
161 153 79
160 153 73
156 148 75
158 152 76
160 153 77
162 155 80
158 151 75
157 150 76
161 152 79
158 151 75
160 153 77
158 151 76
157 150 77
160 153 77
158 152 77
162 154 81
161 153 79
153 146 77
155 147 72
157 150 74
151 143 75
158 151 78
156 149 77
156 148 77
155 148 79
155 146 80
150 143 74
152 145 73
156 149 77
151 144 75
157 149 76
177 194 164
177 193 158
176 192 155
178 194 165
176 193 156
175 192 154
177 194 161
177 194 163
173 190 146
176 193 160
176 193 156
176 193 158
175 192 153
174 191 152
178 195 167
176 193 161
176 193 156
174 192 151
175 192 153
177 194 161
176 193 158
175 192 155
175 192 155
175 191 152
177 194 162
175 192 153
176 193 157
176 193 158
173 190 149
174 191 151
175 191 152
174 191 151
175 191 154
176 192 154
172 190 142
172 189 144
172 190 142
173 190 150
172 189 142
174 191 147
172 190 142
174 190 149
171 188 145
175 192 151
175 192 151
172 189 138
170 187 139
171 188 138
173 190 145
173 190 143
174 191 150
172 189 141
172 190 144
170 188 135
172 189 142
173 190 144
170 188 136
172 189 140
170 188 137
167 185 127
171 188 142
170 187 132
169 186 137
167 184 127
173 189 142
169 186 127
170 188 140
170 187 137
169 187 137
168 186 124
170 188 132
169 187 131
168 185 131
173 190 147
170 187 130
167 184 121
167 184 129
167 185 128
169 185 125
168 185 132
168 185 134
169 187 129
168 185 127
170 187 137
166 183 124
167 183 125
171 187 140
168 185 129
172 188 142
165 183 120
168 185 127
165 182 121
164 181 115
169 186 134
164 181 113
164 180 118
168 183 137
164 180 127
164 181 121
162 179 112
163 179 118
167 184 133
160 176 109
166 182 131
162 177 112
162 178 128
160 174 122
154 169 106
151 164 110
154 168 122
148 161 114
145 160 116
138 154 110
136 150 114
125 137 91
120 137 104
113 129 101
108 125 88
96 114 86
95 115 96
84 102 81
79 100 93
63 85 92
53 78 103
47 73 91
46 72 91
46 72 93
45 72 95
45 71 90
44 69 90
44 70 99
42 67 88
42 66 82
40 63 81
43 68 89
39 62 80
38 61 77
38 60 71
36 57 64
33 53 72
32 52 63
30 48 59
30 48 56
28 43 59
50 63 51
96 109 86
115 128 104
131 145 115
164 178 166
49 77 110
50 78 109
51 80 116
53 84 114
53 84 124
54 84 117
54 85 116
56 87 129
56 87 121
56 88 123
56 89 120
57 89 131
55 86 121
57 89 128
58 91 130
56 88 117
58 91 128
58 90 132
58 91 129
57 91 126
57 90 129
58 91 129
58 91 130
57 89 128
59 92 136
57 89 126
58 90 134
58 92 129
58 92 131
58 91 134
56 88 124
59 93 136
59 92 135
58 91 122
59 92 132
59 92 133
59 92 131
60 93 127
58 91 129
57 90 123
59 92 132
59 93 131
58 91 131
57 90 126
58 91 126
60 93 141
58 91 127
57 89 125
58 92 132
59 93 133
59 92 132
59 92 134
57 90 121
59 93 129
60 93 137
59 93 127
57 89 121
60 93 134
58 91 126
58 92 127
58 91 135
58 90 129
58 91 130
58 90 129
58 92 126
58 92 133
58 91 125
58 90 127
59 91 124
59 92 132
59 92 135
58 91 129
57 90 125
57 90 129
58 91 127
58 91 136
56 88 119
58 91 129
58 91 128
57 90 120
56 88 123
57 90 125
57 89 122
56 86 115
56 86 119
55 85 115
56 88 122
55 86 120
57 89 123
56 88 118
54 84 113
55 86 120
54 83 111
54 83 109
55 84 113
53 81 107
54 83 112
53 81 111
51 77 100
51 78 100
48 72 88
46 68 77
128 134 127
81 78 38
61 60 26
52 52 17
52 53 22
36 40 14
45 48 22
43 46 18
50 51 23
46 50 26
57 61 28
53 57 22
61 64 34
56 59 30
70 70 33
73 75 36
75 73 42
77 78 41
80 83 44
85 86 44
85 86 45
97 95 42
105 103 55
107 103 55
107 105 54
106 105 52
111 107 55
109 107 54
126 124 61
113 110 59
120 116 62
134 129 67
119 115 59
125 121 53
126 122 62
127 122 58
135 130 63
132 126 61
136 131 66
139 135 64
133 129 64
144 140 70
138 134 64
143 138 68
148 141 72
144 138 69
146 142 71
146 141 69
152 147 71
147 141 64
152 147 72
152 147 71
153 147 74
149 144 66
159 152 78
152 146 71
157 151 73
158 152 77
158 151 75
154 148 72
154 147 71
161 155 73
158 150 67
161 154 77
157 150 76
160 153 73
159 152 72
158 150 74
161 154 75
157 150 72
163 155 77
161 154 73
161 155 73
161 154 78
164 157 79
163 157 74
163 156 80
165 157 75
160 153 75
164 158 78
165 157 78
164 156 79
165 158 80
163 156 76
162 156 78
163 157 76
162 156 77
164 157 77
168 160 82
163 156 71
162 155 75
162 155 77
163 156 79
165 157 77
159 153 77
161 153 74
160 153 75
160 153 74
164 156 77
165 156 79
161 154 78
161 154 77
163 156 76
166 159 75
162 155 78
157 149 71
161 153 75
164 157 77
164 156 83
163 156 82
162 155 76
161 154 71
160 151 75
160 153 77
158 151 72
163 155 80
167 159 85
158 152 67
161 154 77
158 151 76
162 154 81
163 155 78
161 154 77
159 151 73
165 157 83
157 150 79
156 149 76
157 150 75
156 149 72
161 153 76
156 150 76
152 145 70
157 150 79
152 146 73
158 151 78
159 151 76
159 152 78
153 145 73
160 153 80
156 148 75
155 147 75
154 147 69
155 147 76
151 144 70
151 146 76
153 146 72
150 143 74
141 134 66
152 145 75
176 193 158
175 192 155
173 190 147
179 195 169
175 192 156
175 192 154
174 191 155
176 192 161
174 191 153
176 193 156
176 193 156
175 191 151
176 193 157
175 192 155
173 190 145
174 191 151
173 190 147
174 191 151
173 189 144
172 189 140
172 189 138
173 190 142
171 188 142
173 190 144
172 190 142
171 188 142
170 188 131
171 189 136
171 189 138
170 187 136
173 190 142
173 191 151
171 188 137
175 192 154
172 190 139
175 192 151
175 192 151
173 190 143
171 188 136
170 187 135
174 191 150
170 188 138
171 189 138
172 189 143
172 190 145
172 190 144
172 189 146
170 187 131
170 187 134
176 193 158
171 188 136
170 187 135
171 189 140
169 186 127
168 186 125
171 188 134
170 188 139
169 186 129
170 188 135
172 189 138
171 189 137
171 187 140
167 185 126
170 186 134
168 185 126
169 186 127
167 184 123
167 184 125
166 183 116
168 186 123
165 183 117
166 184 122
166 184 114
167 185 124
164 182 109
167 185 127
165 183 123
163 180 108
167 185 120
167 184 124
166 184 116
166 184 120
165 183 114
164 181 121
167 184 125
167 184 122
160 178 104
168 184 130
167 184 126
166 183 122
165 182 114
165 182 120
160 177 107
165 182 123
166 182 127
165 181 124
161 177 118
163 179 122
167 183 129
161 177 113
164 181 117
165 182 126
159 176 103
157 175 94
163 179 116
158 174 112
152 167 86
158 172 113
149 164 92
152 166 110
140 154 97
141 156 90
137 150 95
128 145 94
127 142 90
121 137 89
113 129 93
107 123 85
93 109 82
90 107 89
82 102 92
71 91 88
63 84 92
58 84 100
47 73 90
46 72 88
45 72 84
48 75 105
45 71 92
46 73 98
45 70 93
42 67 80
42 66 88
42 66 89
40 64 79
38 60 72
39 62 79
38 60 75
35 57 66
34 54 69
32 51 58
31 50 55
29 46 54
36 54 54
66 79 52
101 113 86
127 142 108
143 159 116
190 203 204
78 98 124
51 80 113
50 79 113
52 82 116
52 82 112
54 84 116
57 89 123
55 86 121
54 86 122
54 85 119
57 89 126
56 88 122
55 87 117
58 91 130
57 89 127
58 91 132
55 87 117
56 88 123
58 91 133
59 92 129
58 91 136
58 92 130
57 90 125
56 89 120
58 91 127
58 92 134
58 92 130
59 92 132
58 91 126
59 92 127
59 92 130
58 91 123
58 90 127
57 89 122
58 91 129
57 89 116
59 92 129
58 90 128
58 90 123
59 92 130
58 91 126
59 92 134
58 90 124
59 92 128
58 91 129
57 89 126
57 90 123
59 92 129
58 91 121
59 92 132
59 93 134
58 91 128
59 93 136
60 94 135
57 90 121
57 90 126
58 90 122
58 91 132
59 92 127
59 92 134
57 90 130
57 90 126
59 92 131
58 91 130
58 91 124
58 91 127
58 90 127
58 91 128
58 91 135
58 91 131
59 92 128
57 90 130
59 91 135
57 89 123
57 90 117
58 90 127
58 91 129
56 88 121
58 90 123
56 88 121
55 87 115
57 88 128
55 87 116
58 90 128
56 87 123
57 88 120
56 87 117
54 84 115
56 88 124
55 86 115
54 84 120
54 84 119
55 84 112
55 85 113
54 83 114
53 82 112
53 80 107
52 80 110
49 75 95
51 77 110
48 72 87
77 93 110
173 180 184
78 75 28
73 71 31
61 61 21
55 56 23
48 50 19
46 50 19
45 46 19
53 54 18
55 57 23
60 61 23
60 62 28
54 60 33
65 67 31
69 69 34
63 65 27
74 75 35
78 80 37
82 80 42
94 93 48
84 84 46
85 86 45
96 95 46
107 105 51
106 103 50
103 99 50
104 102 49
109 106 53
115 113 56
113 112 57
123 120 60
118 114 59
127 124 62
129 123 62
126 121 63
127 123 57
133 128 63
139 134 64
130 126 64
134 130 62
132 126 57
136 132 65
143 137 68
139 135 67
141 135 63
147 141 67
149 144 70
149 144 69
144 140 65
153 146 70
143 138 62
150 145 73
151 146 70
150 144 69
152 147 73
156 149 72
154 148 71
156 149 75
158 152 76
159 152 79
154 148 73
161 154 77
152 147 72
156 150 73
160 153 75
161 154 75
161 155 81
158 151 71
164 157 76
159 152 74
165 158 80
162 156 75
164 157 79
160 154 74
162 155 76
159 152 74
162 154 75
159 152 70
160 153 75
156 149 68
164 157 76
163 155 75
161 154 73
165 157 76
166 159 81
162 155 76
167 160 79
163 156 78
165 158 77
163 156 80
165 157 77
164 157 77
161 154 71
166 159 75
162 155 74
163 156 78
166 159 81
159 152 74
163 156 77
161 155 76
157 151 71
162 155 75
164 156 76
158 151 74
160 152 74
158 150 68
162 154 77
163 155 76
165 158 80
161 152 75
166 158 81
164 156 77
163 156 80
158 152 75
160 153 72
159 151 76
157 151 71
160 153 76
159 151 76
159 151 76
163 156 76
157 150 77
161 153 74
159 151 79
160 152 75
159 152 77
159 152 77
156 149 71
157 150 74
163 155 79
153 146 70
154 146 71
161 153 80
157 151 70
154 147 77
155 148 74
153 147 75
159 152 78
156 149 77
154 146 71
150 143 68
147 140 67
155 148 74
153 145 73
149 143 68
146 139 72
155 148 76
149 141 70
148 141 70
174 191 148
172 190 142
173 189 145
169 187 126
176 193 157
176 193 156
173 191 143
175 192 153
174 191 147
173 190 148
169 187 131
174 191 145
173 191 144
173 190 147
172 189 139
174 191 148
176 193 155
175 192 152
174 191 148
172 189 136
174 191 150
170 188 128
171 189 133
175 191 151
170 188 131
171 189 137
171 188 134
169 187 124
169 187 130
174 191 146
173 190 144
172 188 138
172 189 139
166 184 118
170 187 133
170 188 135
170 187 129
170 188 134
171 189 138
171 189 139
172 188 142
167 184 129
169 187 126
171 188 138
170 188 128
171 189 137
168 186 126
170 187 132
170 188 136
167 185 122
166 184 126
172 189 138
170 186 125
167 185 118
168 185 128
168 186 123
167 184 122
165 183 114
166 183 118
168 185 122
170 187 136
164 183 106
168 185 123
164 183 107
166 183 117
163 180 107
169 187 128
165 182 109
167 184 125
165 182 118
164 182 112
163 181 107
166 184 118
165 184 116
165 183 117
162 179 103
166 184 115
163 181 106
167 184 116
164 182 108
163 182 101
162 181 102
163 181 109
161 180 102
160 178 94
166 183 118
162 179 110
163 181 112
163 180 108
161 178 109
160 179 99
163 180 115
162 179 107
160 176 98
161 178 104
156 174 93
160 178 106
160 177 101
158 176 97
158 174 99
158 173 108
157 175 91
159 176 104
159 175 104
156 173 94
153 168 97
159 175 102
156 170 102
144 158 79
146 159 87
145 160 91
137 153 90
136 151 94
125 139 90
122 138 91
111 126 72
109 127 79
111 129 81
92 109 77
97 116 78
85 104 86
81 102 80
65 87 87
60 83 89
52 77 92
46 72 100
46 72 94
45 71 90
45 71 88
45 70 87
44 69 86
42 66 81
42 66 84
42 66 79
40 63 74
39 62 77
37 59 72
34 55 63
35 56 74
35 56 63
31 50 54
32 50 53
31 49 46
53 69 51
78 91 55
110 126 85
135 150 110
142 157 113
202 215 224
109 124 143
50 78 108
51 80 102
53 83 114
52 82 110
53 83 115
55 87 119
55 86 121
54 85 117
54 85 113
56 88 126
56 88 125
55 87 120
56 88 119
57 90 131
57 89 126
57 90 125
57 89 126
57 89 123
57 90 127
59 92 131
57 90 130
57 90 125
58 91 129
58 92 126
57 89 118
58 90 127
57 90 126
58 90 125
57 90 121
58 90 124
59 93 126
57 90 125
59 91 129
58 91 133
58 91 125
58 91 127
58 91 129
58 91 126
58 92 124
59 92 134
57 90 125
58 90 128
58 90 129
58 91 130
59 93 125
58 90 126
58 91 121
58 91 130
58 90 127
58 91 126
57 90 113
57 90 126
58 91 127
57 89 119
59 92 130
57 89 124
59 92 135
59 92 128
58 91 126
56 89 120
58 91 130
58 90 126
60 93 139
58 91 132
57 90 127
58 90 128
59 91 126
57 89 126
57 90 123
57 90 127
57 89 130
60 93 138
58 90 121
57 89 120
58 90 127
57 90 117
58 90 129
58 90 123
58 90 121
58 91 129
56 87 118
58 90 128
56 87 122
57 88 119
56 87 117
55 86 122
56 87 119
55 85 116
55 85 121
54 84 109
57 88 121
53 83 110
54 84 111
53 81 109
52 80 102
53 82 108
49 76 102
52 80 105
48 72 91
47 72 93
112 124 135
196 206 217
77 77 30
66 66 27
57 56 25
48 49 15
53 54 20
47 49 15
47 49 20
47 50 21
55 58 21
52 57 27
61 61 25
64 66 28
56 59 25
64 64 32
71 75 39
79 80 38
78 77 41
76 77 36
88 88 48
92 91 45
97 96 49
98 96 49
98 96 42
103 101 48
112 110 47
103 101 51
107 106 54
113 110 52
118 114 61
121 117 58
118 115 55
123 120 55
131 126 57
129 125 62
129 123 62
128 123 60
133 129 58
132 129 61
139 135 64
143 138 69
139 135 69
132 129 58
141 136 69
136 133 61
139 135 64
142 136 67
142 138 67
142 137 65
144 139 61
153 148 72
148 144 64
147 141 68
151 145 67
155 148 75
154 147 67
149 144 67
155 149 72
151 145 63
158 152 70
158 152 70
154 149 70
158 151 72
158 151 74
155 149 70
160 153 77
160 153 75
158 152 69
157 152 74
158 152 70
161 154 74
161 154 75
161 154 75
164 157 76
160 154 69
161 155 74
159 152 70
159 152 69
163 156 73
165 158 76
164 157 77
166 158 76
165 157 77
162 155 77
159 152 73
161 154 78
160 152 72
164 157 80
162 155 71
161 154 70
159 152 73
163 156 77
159 153 74
159 152 79
162 155 72
161 155 74
162 155 73
159 152 74
160 153 69
161 154 74
163 155 79
163 156 76
160 153 74
162 155 75
163 156 75
163 155 78
160 153 75
163 156 76
160 152 74
161 154 77
163 156 77
159 152 75
159 153 74
160 153 73
158 151 74
157 150 73
160 152 79
160 153 72
163 156 78
157 150 68
159 151 76
159 152 74
155 149 66
158 151 74
160 152 77
157 150 76
160 153 78
151 145 70
155 149 71
159 151 78
155 147 72
149 142 68
154 147 71
159 151 79
162 154 81
153 146 74
159 151 73
155 149 75
156 148 75
153 146 68
155 149 77
154 148 76
151 144 74
150 144 66
154 145 70
154 147 76
152 145 76
150 144 72
152 145 74
172 189 142
176 193 154
173 190 143
172 189 141
174 191 142
171 189 137
171 189 142
173 190 142
171 188 140
175 192 151
175 191 153
169 187 130
173 190 146
171 188 136
171 189 142
171 188 132
171 189 138
171 189 134
171 188 136
169 188 128
167 186 125
172 189 139
170 188 135
170 187 134
171 189 132
168 186 128
171 188 136
173 190 144
169 186 127
171 188 135
172 189 137
171 188 134
171 189 139
170 187 131
168 185 125
169 186 130
169 187 128
168 186 121
166 184 116
167 184 126
165 183 115
167 185 123
168 185 129
167 184 127
170 188 132
167 185 121
165 183 109
170 188 128
166 185 118
162 181 104
165 184 103
168 185 123
167 185 117
170 188 133
162 181 102
165 183 115
168 186 120
167 185 113
167 185 126
163 181 103
163 181 106
166 184 117
166 184 123
166 183 117
162 181 107
165 183 112
165 183 107
163 181 98
163 181 106
164 183 110
163 181 101
165 182 107
165 183 106
159 178 88
161 179 104
161 178 101
158 177 87
161 179 99
164 182 106
158 176 95
162 180 95
162 180 106
158 177 88
160 178 99
163 181 107
158 176 90
158 176 95
159 177 88
156 173 85
155 174 80
158 176 97
159 177 90
161 178 107
160 177 95
154 171 87
156 175 82
154 172 88
157 175 87
153 170 77
155 172 87
151 167 84
155 174 87
153 169 88
155 173 77
150 167 62
152 167 88
144 159 66
146 161 85
146 159 81
140 154 75
142 158 81
135 149 68
130 145 76
129 145 72
123 139 81
107 124 76
112 129 81
93 111 77
104 123 73
92 110 72
85 102 79
70 91 80
68 88 84
56 79 78
51 76 91
46 71 82
44 70 84
44 69 84
44 69 83
45 71 84
45 71 87
41 65 73
41 65 71
40 62 75
39 62 75
38 60 71
38 61 64
36 57 66
35 56 69
34 53 65
35 54 51
33 52 55
43 59 45
69 84 44
92 107 63
127 143 96
138 153 119
146 161 117
219 232 249
145 159 176
46 72 96
50 78 101
54 84 116
52 82 111
53 83 115
51 81 109
53 83 108
55 87 121
55 86 118
55 87 113
55 87 116
56 88 118
55 86 123
55 86 118
57 90 128
57 89 125
57 90 122
58 90 129
57 89 120
58 90 128
56 87 118
57 90 126
58 91 124
58 91 128
57 90 125
57 89 125
59 92 128
58 91 127
59 91 132
59 92 128
57 90 125
57 90 126
57 91 126
58 91 126
59 92 132
59 92 132
59 92 130
58 91 130
57 89 122
57 89 127
58 91 129
57 89 126
58 90 124
58 92 129
58 90 125
59 92 129
58 92 128
58 91 125
58 92 132
59 92 128
59 92 127
58 92 130
58 90 124
58 92 126
58 90 125
58 90 130
60 93 135
59 92 136
58 91 125
58 92 128
58 91 123
59 92 133
58 92 131
59 91 131
58 91 127
59 92 131
58 92 126
57 89 124
57 89 121
58 91 130
57 89 118
58 90 127
57 89 128
55 86 116
58 90 118
56 88 122
58 90 123
58 90 127
58 90 131
56 88 125
54 85 114
56 87 121
57 88 120
56 88 127
55 85 111
56 86 119
55 85 116
54 84 111
55 86 120
55 85 115
55 85 114
54 83 109
53 81 108
53 82 104
56 85 115
52 80 107
50 77 101
50 76 85
47 72 90
47 70 86
150 163 176
222 235 252
94 92 52
75 73 29
59 57 23
57 57 25
58 59 20
48 50 8
50 50 21
51 54 18
48 51 23
55 59 25
54 57 28
61 63 27
59 63 30
65 67 34
67 69 35
73 74 31
77 79 33
78 77 39
85 82 38
90 88 42
91 91 43
93 92 42
100 98 45
99 97 45
106 104 48
108 106 44
112 109 51
113 110 54
112 110 47
129 124 59
125 122 55
118 116 54
127 123 60
128 124 57
129 126 58
130 125 60
134 130 62
129 125 62
132 127 61
138 134 59
141 136 64
138 133 66
139 134 61
143 137 64
141 137 67
148 143 66
141 136 64
145 140 66
143 138 64
151 146 70
151 145 64
147 141 64
151 145 68
153 146 71
152 146 71
154 147 72
151 146 70
160 153 76
153 147 72
150 145 68
153 147 72
151 146 68
158 151 73
155 149 72
157 151 73
159 152 70
163 156 76
157 149 70
160 153 71
157 151 74
159 154 74
162 155 72
163 155 75
161 154 72
165 158 77
164 157 75
159 152 70
165 158 75
164 157 75
166 158 78
161 154 78
163 156 74
161 154 76
158 151 70
160 152 74
164 156 75
164 157 75
164 157 76
165 158 78
164 157 77
163 156 72
166 159 75
165 157 78
161 153 72
159 153 73
163 156 75
160 154 69
160 153 70
160 153 73
161 153 74
159 153 67
164 157 80
163 156 75
163 156 76
162 155 75
155 148 72
159 151 71
165 158 79
162 154 74
159 151 71
161 154 74
152 145 64
161 154 76
157 150 70
164 156 82
157 150 72
163 156 81
160 153 73
158 152 71
160 153 77
159 152 75
157 149 70
158 151 75
161 154 76
154 146 73
155 148 72
158 152 77
157 149 75
155 147 71
154 146 72
156 150 72
159 152 77
154 147 74
157 149 73
157 150 75
153 146 73
157 149 74
153 146 73
160 153 75
153 146 73
154 146 74
154 146 71
155 146 76
145 138 63
154 145 74
148 141 68
151 143 75
149 143 66
174 191 142
172 189 143
169 185 128
172 189 142
175 191 150
173 190 140
170 188 135
172 190 138
172 190 142
170 188 126
174 190 147
169 186 128
169 187 129
171 188 132
167 185 121
172 189 139
168 185 121
169 187 131
170 188 129
169 186 125
170 187 129
170 187 131
170 187 133
170 188 132
169 186 127
165 183 108
170 188 135
169 187 132
170 187 131
169 186 126
169 187 125
164 183 104
165 184 109
169 187 127
167 185 117
166 184 115
165 183 114
168 186 116
166 184 125
167 185 117
164 182 109
165 184 107
167 184 120
163 182 106
170 187 133
163 182 99
167 185 120
168 186 122
167 185 116
166 184 107
168 186 120
165 183 109
162 181 97
165 183 112
162 180 95
161 180 95
164 182 106
164 182 110
165 183 108
162 180 94
163 180 102
163 181 103
162 180 102
163 182 102
161 179 95
161 179 93
164 182 99
162 180 101
160 179 90
159 176 93
161 180 95
160 178 87
163 181 99
160 179 101
159 178 87
160 178 90
163 181 102
160 178 95
156 175 74
159 178 82
160 177 84
159 177 80
158 175 91
158 176 90
155 174 64
157 176 66
154 173 74
156 174 79
159 178 93
154 171 72
153 171 66
158 175 82
155 173 68
154 173 72
154 171 75
150 169 68
152 170 56
152 171 66
150 167 64
150 168 64
153 171 74
151 168 75
148 165 68
149 166 64
149 165 66
145 161 60
148 164 58
142 157 67
147 161 71
143 157 54
138 153 65
134 148 65
129 143 64
124 140 60
120 136 64
112 129 59
107 123 61
102 119 60
99 115 69
88 106 69
85 105 71
81 99 61
65 86 77
67 86 79
53 77 83
50 75 87
45 71 84
44 70 79
45 70 85
44 69 86
43 67 80
41 64 74
43 67 80
38 61 77
36 58 60
38 59 69
36 58 58
38 60 71
36 57 63
34 53 51
33 52 56
39 57 48
49 66 45
80 94 53
94 108 54
127 143 95
145 160 114
160 174 148
216 230 230
175 190 187
47 74 102
50 80 100
51 80 110
53 84 110
54 84 118
54 84 116
55 86 118
53 84 113
56 87 124
56 88 119
58 90 126
55 87 114
56 88 127
55 86 121
56 88 114
57 89 122
56 88 119
57 89 126
57 89 121
57 90 123
57 90 119
57 90 127
56 88 123
59 92 134
54 85 115
58 91 126
58 90 134
58 90 127
57 90 121
58 91 127
58 90 126
57 90 120
57 89 125
56 89 115
59 92 135
57 90 119
57 89 120
57 89 121
57 89 124
57 90 117
58 90 127
58 91 127
57 90 129
58 91 128
59 92 125
59 91 127
57 89 115
58 91 124
58 91 126
59 92 132
59 91 125
57 90 120
58 90 124
58 90 120
59 92 124
58 91 130
59 93 134
58 91 130
57 89 118
58 91 123
58 91 129
58 90 126
58 90 128
57 90 129
59 93 131
58 91 128
55 87 121
58 90 123
57 90 127
58 90 124
57 89 122
58 91 129
57 90 123
57 88 123
56 87 120
56 87 122
57 90 118
54 84 111
58 90 128
57 89 122
56 86 114
57 88 127
57 90 124
54 85 113
57 88 125
54 83 107
56 87 122
52 81 110
53 81 108
55 85 115
53 83 116
53 82 112
54 84 114
51 79 101
53 81 110
52 79 99
50 77 94
50 76 98
48 74 89
48 72 90
181 195 195
216 231 231
135 139 115
67 66 30
72 69 24
61 60 19
57 58 22
58 59 21
57 57 12
45 48 15
62 62 19
56 57 20
57 60 22
63 64 22
69 69 24
67 68 27
70 71 31
77 77 34
85 86 37
90 91 40
86 87 39
84 83 40
88 86 38
90 89 43
91 91 39
102 101 46
106 103 52
108 106 49
109 106 51
109 107 52
115 112 54
111 108 43
126 122 55
119 115 50
126 122 51
123 119 58
126 120 52
130 126 58
134 128 63
127 122 58
129 125 60
133 129 60
134 130 59
133 128 59
141 136 61
141 136 61
145 140 65
143 138 67
146 140 65
147 142 67
142 137 63
148 142 69
150 144 69
146 141 63
149 144 70
153 146 68
153 146 69
150 145 63
150 145 68
157 151 69
153 147 69
156 149 70
153 148 69
157 150 71
153 147 70
158 152 74
160 153 72
159 153 69
159 153 71
158 151 70
159 153 70
159 152 70
157 151 72
158 152 69
162 155 70
160 152 71
158 152 72
157 151 65
161 154 70
164 156 76
161 154 72
159 152 66
163 156 73
161 154 72
160 153 72
163 156 72
159 151 68
160 153 76
162 155 71
160 152 71
158 151 68
159 151 72
161 155 77
166 158 79
160 152 74
164 157 72
160 153 70
162 154 74
161 154 71
162 155 75
162 153 77
162 154 75
163 156 71
161 154 75
159 152 71
163 155 73
161 154 74
158 152 68
157 150 73
163 156 78
161 153 78
158 152 72
158 151 74
159 153 76
159 151 74
163 156 79
159 151 71
160 153 75
162 154 73
159 152 72
158 149 73
157 149 71
161 154 77
154 147 72
156 149 69
161 154 77
160 153 77
153 145 71
159 152 73
157 149 74
157 149 76
154 146 73
155 147 72
159 150 74
154 146 73
152 144 75
154 147 67
157 150 70
153 145 74
151 143 72
150 142 72
155 148 71
154 147 74
154 146 70
159 152 78
156 147 75
149 142 68
152 143 72
147 140 65
151 143 70
175 192 147
175 192 155
172 189 139
170 187 130
170 188 130
170 188 128
172 189 136
172 189 141
171 188 134
171 188 136
170 188 135
169 187 125
170 188 133
168 187 127
171 188 131
171 188 129
168 185 127
169 186 126
172 189 137
168 186 120
170 186 123
170 187 132
168 185 122
167 184 118
170 187 127
169 187 129
165 183 108
168 185 117
167 185 115
167 185 116
165 184 107
165 184 108
165 183 106
165 183 114
164 183 102
163 181 101
164 181 113
165 182 110
166 184 116
167 185 113
163 181 106
163 182 99
165 183 99
164 183 103
166 184 108
162 181 90
164 182 106
162 180 97
164 183 98
159 178 94
164 182 101
166 183 114
163 182 104
162 181 101
160 179 85
163 182 99
159 178 80
160 178 85
162 181 93
163 182 99
158 177 79
160 177 91
162 180 87
160 179 90
160 179 77
160 177 90
158 176 85
161 179 93
158 178 80
157 177 72
160 179 90
159 178 85
157 177 79
156 176 72
158 178 75
157 176 75
156 175 64
157 177 70
157 176 66
155 174 62
155 173 68
157 176 80
150 168 60
156 175 64
152 171 53
155 173 60
153 172 53
153 172 62
150 169 39
153 172 60
154 173 60
149 168 42
152 171 51
151 170 51
150 169 36
154 173 53
149 167 45
145 162 53
150 168 48
145 163 39
145 160 58
147 164 32
146 163 51
147 163 39
146 163 28
145 161 39
144 161 42
143 159 42
139 155 39
138 154 41
136 151 47
130 146 35
127 143 37
123 140 50
115 130 42
110 126 56
114 130 54
99 116 65
94 110 67
91 107 55
85 102 69
83 100 68
69 88 70
65 83 67
54 75 74
51 74 72
46 70 75
44 69 78
43 68 81
42 66 76
41 65 79
40 63 68
39 63 69
39 61 70
38 60 69
38 61 62
39 60 65
36 56 62
34 54 55
36 56 62
37 53 46
54 71 40
72 88 41
90 105 47
117 133 81
136 152 95
152 168 113
160 179 91
175 198 0
164 187 31
47 74 100
51 81 106
53 83 109
53 83 111
53 84 114
53 83 106
55 86 122
53 84 113
56 88 120
54 85 113
56 87 121
56 88 126
55 87 108
56 88 120
56 88 117
55 87 121
58 90 130
56 88 117
56 88 125
57 90 125
58 91 127
57 90 130
57 90 123
56 87 122
58 91 120
58 90 125
58 91 125
57 89 123
57 90 125
58 90 123
56 89 124
57 90 122
58 91 127
57 90 127
59 92 130
56 89 119
57 89 124
56 88 115
58 90 118
58 90 126
56 89 114
58 91 128
58 91 129
57 90 121
59 92 131
58 91 127
57 90 120
58 91 124
58 91 136
58 90 124
57 90 124
59 92 131
58 92 122
58 92 123
57 89 125
58 91 124
58 91 124
57 90 129
57 89 121
57 89 118
58 91 118
58 90 122
58 91 125
58 91 125
58 90 120
58 90 125
58 91 127
57 91 127
57 89 120
57 90 121
57 88 122
58 90 121
55 86 119
57 89 120
57 89 123
57 89 121
58 91 131
56 88 117
56 87 117
54 83 107
56 87 113
56 88 119
56 88 128
57 89 120
55 87 115
57 88 125
55 86 116
55 85 117
55 84 114
54 84 109
54 84 109
56 86 114
53 83 108
53 82 110
54 83 111
51 78 108
51 78 105
49 75 96
48 73 91
46 69 80
168 191 20
174 197 0
141 157 23
89 85 38
59 58 19
65 63 22
64 64 19
59 59 15
50 52 21
57 59 21
56 56 15
66 66 21
65 65 19
54 56 24
57 61 25
67 69 29
75 75 31
88 88 34
76 76 36
72 75 28
84 83 43
92 92 41
98 96 41
94 93 39
102 101 44
103 101 47
100 99 45
104 102 45
115 114 52
104 100 45
111 108 54
114 112 51
115 111 50
125 121 53
122 118 56
124 121 57
128 124 57
123 120 56
129 125 53
135 131 62
131 126 59
137 131 63
140 135 62
136 130 62
135 130 58
137 133 60
141 136 59
142 136 62
146 141 64
148 143 67
147 141 62
145 139 69
149 143 65
151 146 67
146 140 66
149 143 71
147 142 63
150 145 68
147 142 62
153 148 71
149 142 65
156 150 68
150 144 63
153 147 67
155 147 71
157 151 69
159 152 73
158 151 72
152 146 62
160 153 70
154 149 72
157 151 65
158 151 68
158 151 72
159 153 69
160 153 72
155 149 69
157 151 68
163 156 73
156 150 64
160 153 71
163 156 77
162 154 75
158 151 68
162 154 74
163 156 75
159 152 70
162 154 70
159 151 74
161 155 72
159 152 72
160 152 71
160 152 72
158 150 69
160 154 71
157 150 65
161 153 69
160 153 73
157 150 67
156 149 71
160 153 76
157 150 70
163 156 75
159 151 71
159 151 72
161 153 74
164 156 78
159 152 75
164 156 84
157 150 69
158 151 73
157 150 70
158 150 77
159 151 71
157 150 72
156 148 70
159 151 75
159 151 77
156 149 72
154 147 71
154 146 66
156 149 75
157 150 74
162 154 74
153 145 72
154 146 72
152 146 68
153 145 71
156 148 70
155 149 69
160 152 79
156 149 72
153 146 71
154 147 70
157 148 75
154 146 69
155 147 73
156 148 73
151 144 69
152 145 69
150 143 66
154 148 72
152 145 68
149 142 69
151 143 70
148 142 66
150 142 66
152 144 74
149 143 69
149 142 71
170 188 133
169 186 127
169 186 127
169 186 127
170 188 127
172 189 137
169 186 123
169 187 124
168 186 126
167 185 121
170 187 131
169 187 132
165 184 115
169 187 128
170 187 127
168 186 122
168 185 117
166 184 110
169 187 125
170 187 125
168 186 120
166 184 122
167 185 116
167 185 117
165 183 107
166 184 109
165 183 102
164 183 103
165 183 109
162 180 98
163 182 103
165 182 106
161 180 91
165 183 103
165 184 107
163 182 102
161 180 90
162 181 95
160 180 90
164 182 102
164 182 107
163 182 95
164 182 104
160 179 88
161 180 91
162 180 94
163 181 99
161 180 85
160 179 82
161 180 93
159 178 87
164 182 94
159 178 79
160 179 85
162 181 91
160 179 84
162 180 94
158 177 74
160 179 82
159 178 72
159 179 74
158 177 74
157 176 68
159 178 75
159 178 80
158 176 72
155 172 58
156 176 56
157 177 72
156 175 56
156 175 53
154 173 68
152 172 51
156 175 64
156 174 64
150 169 42
154 173 42
151 171 51
152 171 42
151 171 36
153 173 48
152 171 32
149 170 39
149 169 32
152 170 42
151 170 39
150 169 22
152 171 22
151 171 28
150 169 32
146 165 16
148 167 28
148 167 16
148 168 32
145 164 0
146 165 0
146 165 16
145 164 16
145 164 0
140 158 0
139 157 0
142 159 0
144 162 0
140 158 0
140 156 0
140 157 0
143 159 0
139 156 0
140 156 0
136 152 0
136 152 22
126 141 22
129 145 28
120 135 38
120 136 44
116 129 37
100 117 53
108 124 51
98 114 63
97 113 58
82 100 64
78 97 68
72 91 73
66 84 65
63 83 77
55 77 80
54 75 66
44 68 75
45 70 78
40 63 73
43 67 80
42 65 79
41 64 64
41 64 68
39 62 62
37 58 61
37 58 59
36 57 55
34 54 42
36 56 44
49 67 41
58 74 31
81 98 44
102 119 60
119 135 82
145 161 109
151 168 110
167 188 62
174 197 0
173 197 0
64 89 90
45 71 91
51 81 109
53 83 108
54 85 121
52 82 102
52 83 112
53 83 105
53 84 121
54 85 115
56 88 114
54 84 111
55 85 116
56 89 117
58 90 126
56 88 120
56 88 117
57 90 123
56 87 123
56 88 123
56 87 121
57 89 127
57 89 119
56 88 123
57 89 120
57 90 118
57 90 122
57 89 117
58 91 127
57 90 128
57 90 127
58 91 128
57 89 121
57 89 117
58 90 131
58 91 126
59 92 129
57 89 119
59 93 131
58 90 125
58 91 130
57 90 125
56 88 119
57 89 123
57 90 127
58 91 124
57 90 122
58 91 126
58 91 121
57 90 116
57 89 117
58 90 128
57 89 125
57 90 122
58 89 120
58 91 124
58 90 126
56 88 115
57 90 118
58 90 126
57 90 120
57 89 120
58 90 124
57 89 118
58 91 124
58 90 124
57 90 128
58 91 127
57 89 121
57 89 117
57 89 120
57 89 118
57 89 124
57 89 119
56 88 117
56 88 122
56 88 119
54 84 107
57 89 119
55 86 117
56 87 119
57 88 123
57 89 121
55 86 113
55 85 119
57 88 121
54 84 119
55 86 119
56 86 123
56 86 118
53 83 106
52 79 99
52 80 101
52 79 104
52 79 106
52 80 103
47 72 83
48 73 93
47 71 86
71 91 71
173 197 0
174 198 0
161 182 12
91 88 41
78 76 26
69 67 23
61 61 15
56 55 14
52 53 16
62 61 17
55 55 16
63 63 19
59 61 19
62 63 25
72 73 26
76 76 24
78 80 29
78 77 34
64 67 25
86 84 34
84 84 38
91 90 39
88 88 35
94 93 45
100 98 44
99 97 42
104 102 48
105 104 46
104 103 50
107 105 49
108 105 50
120 117 53
115 113 52
118 116 53
123 119 52
124 120 52
124 120 49
128 124 61
128 123 54
131 127 59
126 122 52
131 127 54
126 122 49
138 132 59
141 136 61
139 135 60
138 134 62
137 133 58
141 136 60
139 133 67
141 136 66
146 141 66
147 142 61
145 139 65
151 145 67
148 144 58
149 143 60
154 148 71
147 141 62
153 148 67
153 146 70
158 152 72
154 147 64
156 148 71
154 148 67
150 144 65
151 145 62
156 149 67
157 149 67
156 149 71
153 146 69
154 147 66
153 145 69
154 148 67
156 149 69
161 153 71
161 153 77
162 155 71
162 155 74
158 151 68
162 155 70
158 151 66
161 155 69
153 146 68
158 152 69
160 153 71
159 153 65
160 152 72
156 149 69
160 152 71
158 151 68
160 153 72
161 153 74
158 151 70
163 156 71
162 155 74
160 152 77
158 151 69
158 151 66
163 156 75
157 150 70
154 148 65
159 151 72
161 154 73
154 147 65
156 149 71
160 152 73
161 153 77
161 153 72
160 153 71
159 152 67
161 155 74
163 155 76
158 149 77
161 153 74
153 146 67
157 149 68
157 150 72
154 146 74
155 149 66
155 148 69
159 151 74
155 149 70
155 148 70
153 145 71
159 151 75
157 150 73
160 152 73
158 151 70
156 148 70
158 149 74
149 142 67
158 151 75
157 150 71
152 145 70
143 136 64
151 144 70
150 143 69
150 142 68
147 140 66
151 144 66
151 144 69
152 144 69
152 146 67
150 143 70
146 138 69
154 146 69
147 139 65
153 146 69
146 139 68
168 186 122
169 187 125
169 187 122
173 190 138
167 185 123
170 188 130
166 184 114
166 185 116
170 187 130
167 185 113
169 187 122
166 185 108
170 188 132
164 183 99
166 184 110
166 184 110
166 184 113
165 183 113
162 181 98
167 185 110
165 183 110
165 183 107
162 181 99
165 184 103
164 182 106
161 180 87
165 183 107
164 182 102
166 184 102
160 179 94
161 180 91
162 181 95
161 180 91
163 182 95
164 182 101
162 180 93
162 180 88
163 181 95
158 177 90
161 180 88
160 179 80
158 178 75
156 176 75
159 177 74
161 180 84
160 179 84
158 177 66
157 176 68
162 180 93
159 178 79
160 179 85
158 177 72
160 179 80
157 177 70
154 174 58
156 175 74
155 174 60
160 179 72
157 176 62
157 177 68
156 175 68
158 177 70
154 174 56
156 176 48
152 171 48
155 174 53
157 176 60
154 173 48
153 172 51
152 172 51
154 174 42
151 170 28
153 172 45
153 172 32
152 172 22
150 168 28
153 173 22
152 171 32
149 168 0
150 169 16
151 171 22
152 172 0
150 170 0
148 167 0
150 170 0
147 166 0
147 167 0
150 169 0
144 163 0
146 164 0
146 166 0
144 163 0
147 166 0
146 164 0
146 166 0
143 161 0
143 162 0
142 160 0
142 160 0
144 162 0
144 161 0
140 158 0
140 158 0
137 155 0
142 159 0
139 156 0
139 156 0
135 151 0
137 154 0
135 151 0
130 146 16
127 141 19
129 146 33
117 131 39
112 126 35
113 128 43
112 127 45
105 121 50
101 116 55
91 107 45
87 103 53
73 91 71
77 94 55
65 84 80
63 82 71
59 81 78
58 78 77
48 72 77
44 64 62
39 62 69
44 68 70
40 63 68
38 61 67
40 63 63
38 60 55
37 58 52
37 59 61
40 61 56
43 61 52
51 67 44
74 90 39
77 93 43
95 109 42
113 130 60
137 154 93
144 159 106
148 163 104
175 198 0
174 197 0
173 197 0
115 137 72
49 77 104
51 80 106
51 80 108
53 83 105
54 85 116
53 84 111
56 88 119
55 86 114
54 85 115
52 82 103
56 87 123
56 88 118
56 88 115
55 87 116
57 89 121
56 88 116
57 90 125
56 88 119
57 89 122
58 91 127
57 89 125
57 89 128
56 88 118
56 88 108
55 87 117
58 91 129
58 91 122
58 90 121
59 92 135
56 88 119
56 88 119
56 88 114
55 87 114
58 91 122
58 91 122
57 89 122
58 90 126
58 90 125
57 90 120
56 88 119
58 91 130
55 87 118
58 89 123
57 89 126
59 91 130
57 90 122
55 87 114
56 88 116
57 90 122
57 90 127
57 90 123
58 91 124
58 91 128
58 91 126
56 88 124
59 92 123
58 91 125
58 91 128
59 92 130
58 90 120
58 91 126
57 90 127
58 90 122
57 89 120
58 91 128
58 91 130
58 91 127
57 90 119
57 89 125
57 89 122
55 87 112
57 89 119
55 85 115
57 89 120
57 89 121
56 88 120
55 86 116
55 86 118
56 87 118
55 85 116
55 86 118
55 86 113
56 88 119
55 85 118
55 85 119
54 84 109
54 83 104
54 83 109
53 82 103
54 84 110
55 85 114
52 80 99
53 82 105
51 79 101
49 75 90
49 76 96
49 74 87
49 74 90
109 127 48
174 197 0
174 197 0
175 197 14
101 102 34
79 78 28
72 70 21
60 59 17
71 70 25
60 61 20
61 61 16
55 57 17
68 69 14
65 66 23
65 66 21
75 74 26
78 77 27
66 67 30
78 79 33
73 75 31
87 88 39
88 87 27
84 84 35
95 93 42
99 98 38
86 85 41
96 96 44
108 106 40
113 111 47
112 110 49
113 110 45
110 108 43
116 113 51
118 114 46
115 111 48
127 122 51
125 119 57
121 117 50
123 120 53
131 127 55
137 131 58
128 123 51
128 124 55
133 129 54
136 131 58
134 129 56
136 131 57
142 137 58
141 136 58
140 134 59
139 134 60
144 139 64
144 138 57
149 144 63
143 138 58
144 139 62
149 142 65
149 143 62
151 144 71
148 142 62
147 141 55
152 145 65
157 151 69
153 146 67
153 148 67
159 151 70
156 149 66
153 147 64
157 151 71
155 148 70
160 153 71
151 143 61
153 146 67
157 150 65
155 149 65
162 154 70
157 150 64
157 150 65
156 150 68
162 154 74
156 148 66
159 152 69
163 156 72
160 153 74
158 150 65
158 151 66
156 149 70
159 152 68
160 153 70
165 157 73
163 155 73
156 148 69
160 153 68
160 152 72
157 151 68
157 150 68
158 151 65
160 153 74
164 156 71
159 153 67
160 152 75
161 154 75
163 155 73
157 149 69
159 152 75
157 149 72
154 147 65
154 148 63
161 154 74
157 150 71
162 155 73
159 152 70
160 153 72
161 153 71
157 149 66
156 148 67
162 155 74
156 148 70
158 152 73
157 150 71
156 149 71
157 150 72
151 144 66
156 147 71
162 155 72
156 148 69
156 149 72
154 146 69
152 144 66
150 144 67
160 152 80
157 149 74
159 151 75
154 146 67
151 144 72
155 147 72
149 141 68
148 141 65
153 146 74
152 144 71
159 150 78
152 145 71
149 143 71
156 148 75
152 145 68
148 141 68
151 144 71
151 143 71
149 142 66
149 142 66
143 135 65
168 186 121
169 187 123
167 185 121
165 183 104
165 184 113
167 185 116
166 184 110
164 182 103
165 184 107
168 185 123
168 186 122
164 183 103
167 185 118
164 183 103
163 180 106
165 183 99
164 183 104
166 184 110
168 185 116
162 180 90
164 182 104
161 179 91
165 183 108
163 181 88
160 180 79
163 182 101
163 181 98
163 182 101
162 181 93
162 181 93
163 181 99
161 180 91
161 180 85
159 178 72
160 179 85
160 179 91
160 179 84
158 178 70
161 180 79
157 176 64
158 177 68
157 176 75
162 181 90
157 176 72
157 176 72
157 177 53
158 177 62
156 175 58
155 175 48
156 176 53
154 174 51
156 176 62
152 172 36
154 174 48
154 173 45
155 175 53
154 173 39
156 176 42
153 174 42
155 174 36
152 171 39
155 175 39
152 172 22
153 172 36
150 168 32
153 173 28
150 169 28
154 173 22
150 170 0
149 168 16
150 170 0
151 171 0
148 167 0
151 172 0
149 170 0
150 171 0
151 169 0
150 170 0
146 165 0
147 165 0
149 169 0
147 166 0
152 172 0
149 168 0
144 163 0
146 164 0
145 164 0
146 166 0
146 165 0
147 166 0
148 166 0
146 164 0
141 159 0
140 159 0
147 165 0
148 166 0
141 158 0
142 159 0
141 159 0
140 159 0
144 162 0
143 161 0
141 159 0
142 159 0
138 157 0
140 157 0
136 152 0
132 150 0
138 152 0
131 145 0
131 147 0
123 140 16
128 144 25
116 132 36
118 133 30
110 126 39
111 127 41
110 125 49
102 118 42
89 105 52
83 99 56
82 97 55
76 91 61
78 95 71
65 83 71
58 78 70
50 69 68
50 71 58
49 70 63
44 66 61
44 66 68
41 62 60
38 60 53
39 60 55
40 62 61
42 61 64
46 64 60
53 71 55
52 70 43
72 88 42
81 97 35
99 115 29
102 119 49
127 144 67
137 154 82
143 159 97
157 176 68
173 197 0
175 198 0
175 198 0
143 164 45
47 74 94
47 74 90
51 80 103
53 83 110
51 79 94
53 84 112
56 88 117
53 84 111
54 85 103
55 87 116
56 88 115
54 85 115
56 87 115
57 90 124
57 89 120
55 88 114
56 88 124
57 89 124
56 89 118
56 88 119
58 90 125
58 90 128
56 88 122
57 89 121
58 91 125
56 88 115
57 90 128
57 90 126
58 90 123
55 87 112
56 88 119
57 90 123
57 90 126
57 89 124
55 87 114
56 88 107
58 91 125
58 91 130
57 89 120
57 89 124
58 91 127
57 89 116
56 88 117
58 90 125
58 91 126
56 87 117
58 91 123
57 89 121
58 92 130
57 89 120
58 90 130
57 89 119
57 90 127
57 90 123
58 91 129
58 91 127
57 89 123
57 89 112
57 89 123
55 87 118
57 89 128
58 91 127
57 90 119
57 90 123
58 92 127
57 88 116
59 92 132
56 88 111
57 88 121
56 88 121
56 88 118
57 88 118
55 85 110
56 88 119
56 87 116
57 88 124
57 90 129
55 86 111
57 88 118
56 86 120
56 87 112
56 87 118
54 84 108
52 81 99
55 85 113
55 85 104
54 84 108
54 84 107
51 79 103
53 83 103
53 82 108
54 84 113
52 78 99
52 79 95
51 78 99
48 74 89
48 73 85
43 65 70
149 171 44
174 198 0
175 198 0
173 197 0
134 145 30
76 75 34
73 73 25
74 72 24
70 69 23
65 66 20
62 61 16
59 59 11
55 56 22
58 59 16
69 68 16
69 69 25
67 70 27
63 65 21
69 69 26
77 75 26
80 81 32
86 86 32
89 89 32
87 87 32
93 92 34
93 92 32
95 93 35
109 106 43
112 109 49
110 108 45
109 106 49
109 105 45
118 115 51
116 112 50
111 108 44
113 109 42
121 118 50
127 123 49
121 117 54
125 122 54
130 125 48
126 122 55
136 130 56
128 123 53
136 131 57
133 128 57
133 128 51
140 136 61
137 132 60
137 132 62
149 143 65
142 137 57
141 137 61
148 143 66
146 140 60
145 139 61
148 141 67
146 140 66
148 142 57
145 140 58
148 142 64
149 143 61
146 139 61
149 143 62
152 145 64
154 146 68
152 146 62
155 148 66
151 145 61
151 145 62
157 149 66
154 148 64
156 149 63
155 148 60
156 149 66
154 148 62
159 151 71
157 149 65
158 149 68
160 154 69
151 144 67
159 152 69
158 151 69
156 149 68
160 152 70
158 150 66
155 149 62
162 156 73
159 152 68
162 154 75
153 147 61
159 152 67
154 147 61
159 152 72
157 150 65
160 152 74
155 149 65
162 154 72
157 150 65
160 153 68
159 152 70
156 149 68
163 155 73
160 153 70
161 154 73
154 147 66
159 151 72
163 155 76
155 148 69
160 152 70
158 151 72
154 146 65
157 149 72
157 149 71
153 147 68
159 152 72
158 152 71
160 151 73
156 148 71
154 147 69
150 143 64
155 148 73
155 147 67
155 148 71
154 147 70
153 145 68
155 147 71
157 150 70
158 150 69
153 144 67
152 146 69
149 142 62
156 148 76
149 142 61
151 144 67
150 142 68
154 146 71
149 142 65
156 149 74
147 140 68
154 145 70
147 139 67
147 140 63
151 143 67
149 141 72
151 143 72
148 141 68
155 147 74
155 147 74
150 144 74
150 142 69
168 186 121
166 185 112
166 184 110
165 183 106
165 183 108
167 185 114
166 184 106
164 183 108
166 184 115
164 183 98
162 181 88
163 181 103
164 182 104
164 182 107
162 181 93
164 182 108
164 183 98
162 181 95
163 182 88
163 182 97
164 181 99
161 180 93
165 183 103
161 179 87
161 179 90
162 181 93
161 180 82
159 179 74
159 178 77
164 182 102
158 178 66
162 181 91
162 181 87
159 178 70
160 179 70
158 177 64
157 177 58
156 175 75
158 177 72
155 175 58
157 176 70
159 178 75
158 177 72
155 174 62
157 177 64
153 173 45
154 173 45
155 174 51
155 175 39
153 172 45
154 174 32
153 173 51
153 172 36
151 171 39
151 172 0
153 173 28
153 173 16
152 171 28
151 170 16
151 172 0
153 173 0
150 169 0
149 170 0
149 169 0
149 167 0
152 172 0
151 171 0
151 171 0
150 170 0
150 170 0
147 167 0
148 169 0
147 165 0
148 168 0
148 168 0
151 171 0
150 170 0
150 169 0
147 165 0
149 169 0
148 166 0
144 164 0
146 166 0
149 169 0
147 167 0
148 167 0
147 165 0
144 162 0
147 167 0
146 165 0
144 162 0
148 167 0
144 163 0
145 162 0
141 160 0
141 158 0
144 163 0
141 159 0
146 162 0
138 156 0
135 152 0
143 161 0
138 155 0
136 152 0
135 151 0
136 153 0
138 154 0
135 152 0
128 144 0
130 145 0
125 139 0
124 139 0
129 144 25
118 135 22
112 127 32
110 126 36
110 124 41
103 118 37
97 113 52
92 107 49
87 104 49
80 96 57
70 86 61
83 100 60
71 89 66
68 85 57
57 74 57
57 77 65
58 78 67
49 69 68
52 71 71
48 67 65
46 67 50
49 67 57
47 67 57
52 70 46
51 69 46
53 71 42
64 80 43
79 95 46
89 103 34
96 113 32
118 134 64
128 146 67
142 159 94
142 157 101
168 190 39
174 197 0
174 197 0
173 197 0
171 195 11
54 80 74
49 77 89
48 76 90
51 80 98
52 82 105
52 82 104
52 81 106
54 84 112
54 85 121
53 84 106
55 85 113
55 87 123
56 88 111
56 88 120
56 87 116
56 88 118
56 88 116
54 84 111
56 88 117
56 88 115
58 90 124
57 89 122
54 86 113
58 90 124
56 89 118
57 89 123
57 89 124
57 91 118
55 86 115
58 90 123
58 91 124
57 90 124
57 90 121
57 89 118
56 88 115
57 89 122
58 90 115
56 88 118
57 89 122
58 91 116
57 89 124
58 91 122
56 88 113
56 89 114
56 89 117
56 88 118
57 90 123
57 90 122
56 89 110
58 91 130
59 92 128
56 89 121
56 89 122
57 90 121
57 90 122
56 88 114
57 90 122
57 90 123
56 89 118
57 90 122
57 90 120
58 90 127
57 89 120
56 88 119
57 88 121
57 89 120
57 88 115
56 86 112
57 89 125
57 89 121
56 89 116
58 90 130
55 87 123
56 88 123
57 90 116
56 88 119
56 87 120
55 87 120
57 88 116
57 89 119
55 85 112
55 85 117
55 86 115
54 84 107
54 85 109
53 83 106
54 84 111
54 84 109
52 80 103
53 82 105
52 81 106
53 82 102
51 78 100
49 75 95
50 77 92
48 73 85
48 73 87
60 80 80
168 191 25
172 196 0
173 196 0
173 197 0
162 182 22
93 90 35
79 77 28
70 69 17
73 72 19
63 63 11
65 64 12
61 61 16
69 68 16
62 62 18
64 65 22
67 69 19
69 70 22
78 78 26
71 72 23
73 73 26
80 78 26
93 91 30
90 88 31
81 82 29
93 92 36
95 93 40
102 99 33
100 98 39
96 94 38
112 108 45
104 103 38
115 111 44
105 105 39
119 113 45
120 117 49
120 115 48
123 120 44
123 119 52
128 123 51
124 120 52
125 120 48
132 127 64
134 128 53
135 130 51
129 125 53
133 129 53
132 127 54
140 135 58
138 132 56
141 136 60
142 136 59
141 136 53
142 137 62
142 136 60
150 144 66
144 138 56
145 139 60
146 140 66
146 140 60
146 140 63
149 143 58
152 146 64
151 145 61
149 142 64
154 147 62
150 142 61
150 143 62
156 149 63
152 147 64
156 148 66
155 147 65
156 151 65
146 140 56
156 150 63
158 151 70
159 151 71
150 144 61
161 152 73
157 149 67
158 150 67
154 146 68
158 152 63
159 152 66
160 152 68
158 152 69
155 149 62
151 145 63
160 153 71
161 153 69
161 153 65
154 146 64
156 150 72
159 152 74
152 145 63
156 148 69
158 150 67
154 147 69
156 149 70
153 146 61
153 146 67
152 145 65
160 154 68
151 146 62
164 157 70
159 151 68
156 148 68
156 149 68
154 147 65
156 149 69
158 152 68
156 149 68
153 145 68
162 153 75
159 151 73
156 149 69
158 150 70
153 145 68
159 153 72
156 148 71
160 152 73
157 149 70
156 150 68
156 148 65
161 153 73
154 146 68
158 150 73
155 148 67
155 148 73
153 146 71
155 146 71
150 143 64
152 145 67
158 150 73
147 139 67
149 143 63
151 143 68
150 143 64
152 144 67
150 142 67
154 147 75
147 141 63
150 143 65
155 150 71
148 141 66
155 148 76
147 139 72
154 145 68
147 140 63
149 142 67
149 143 66
147 140 67
163 181 102
164 184 103
165 183 109
165 183 102
167 185 121
166 184 110
166 184 114
163 182 97
164 182 103
164 182 99
160 179 90
161 180 85
163 182 101
163 181 94
162 181 95
159 178 82
160 179 85
163 181 91
159 178 77
160 179 77
161 181 85
160 179 82
160 180 82
159 178 82
158 177 72
159 178 72
161 180 75
156 176 60
159 179 74
157 176 60
155 174 45
157 177 56
160 179 79
158 177 64
156 176 58
154 174 45
156 176 53
156 176 53
156 175 53
156 176 56
158 178 53
154 174 36
153 174 32
153 174 28
153 173 22
153 173 0
154 174 0
152 173 16
151 171 16
152 171 0
152 172 0
150 170 0
150 170 0
149 169 0
151 172 0
154 174 0
152 172 0
152 173 0
149 170 0
150 171 0
152 171 0
151 170 0
151 171 0
153 172 0
152 172 0
150 170 0
149 169 0
151 170 0
150 170 0
148 168 0
146 165 0
149 169 0
150 168 0
149 168 0
148 166 0
148 167 0
147 166 0
150 170 0
148 167 0
150 170 0
145 165 0
147 166 0
145 164 0
150 170 0
146 165 0
147 167 0
145 163 0
148 168 0
147 166 0
146 164 0
146 165 0
146 165 0
145 164 0
142 160 0
143 161 0
139 156 0
141 158 0
139 156 0
141 160 0
138 156 0
139 156 0
138 156 0
139 156 0
134 152 0
135 152 0
132 149 0
131 148 0
133 148 0
132 148 0
132 149 0
129 144 0
124 138 11
123 140 22
119 134 16
122 137 30
109 125 37
106 121 44
102 117 38
96 110 43
94 109 42
88 102 48
91 108 49
79 95 53
76 91 45
71 87 57
63 82 51
60 77 59
55 73 55
64 80 61
49 67 54
56 73 54
59 78 55
48 67 54
56 72 56
60 76 42
57 72 39
66 80 34
73 88 36
78 94 38
84 101 41
93 109 35
113 130 40
130 146 58
148 166 84
143 159 94
148 164 85
174 197 0
173 197 0
174 198 0
174 197 0
174 197 0
108 129 60
48 76 98
49 78 97
50 79 100
53 83 107
53 83 114
53 82 105
53 83 104
53 84 111
56 87 123
55 86 115
55 86 115
56 88 118
55 86 112
56 88 115
55 87 118
56 88 117
55 87 113
56 88 119
56 88 117
56 88 117
56 88 111
56 88 113
55 86 107
55 86 110
57 89 113
55 88 114
58 91 121
57 90 125
56 87 117
57 90 123
57 90 122
58 90 122
57 89 119
56 88 118
57 90 120
58 90 127
56 88 114
57 90 119
58 90 121
57 89 119
58 90 125
58 90 122
58 90 122
57 90 115
57 90 125
58 90 123
58 90 122
58 91 122
56 88 116
56 88 119
57 90 118
56 88 117
56 88 115
56 88 121
56 88 119
57 89 123
58 91 122
58 91 123
55 87 121
58 90 125
57 88 113
57 88 118
56 87 114
57 90 127
56 87 117
58 90 124
57 88 120
56 88 117
57 90 126
55 87 112
57 89 123
56 88 117
57 90 122
57 88 121
55 86 117
57 88 123
55 86 118
56 88 116
54 85 104
56 87 115
56 87 116
55 86 114
55 86 117
53 82 96
56 86 112
53 81 103
54 84 107
52 81 103
53 82 104
53 83 106
53 82 108
51 78 99
49 75 94
50 77 91
49 75 92
44 68 79
106 125 52
172 196 0
173 196 0
173 197 0
174 197 0
173 196 0
111 115 31
89 84 34
79 76 28
72 70 22
67 67 17
74 73 17
61 62 13
65 63 17
55 57 18
67 66 14
66 68 17
75 75 17
69 70 21
76 75 28
89 88 28
81 82 25
89 87 26
80 80 29
90 89 33
87 86 34
94 94 29
95 93 41
105 104 42
107 105 41
108 106 47
106 102 42
105 103 41
115 112 39
119 116 46
119 116 40
115 112 43
119 115 47
125 120 56
125 122 51
121 118 47
124 121 44
132 127 51
127 123 47
137 131 52
131 126 54
123 121 50
132 128 53
139 134 54
139 134 51
136 131 55
138 133 54
139 133 55
148 141 63
142 137 50
140 135 58
144 140 57
145 140 58
139 135 56
148 141 56
145 138 55
149 144 62
148 142 62
147 141 59
150 143 61
144 139 57
155 148 62
148 142 60
149 143 59
150 143 61
155 148 65
153 147 62
155 148 63
150 143 57
153 146 63
158 151 66
153 145 61
154 146 63
154 146 63
156 150 63
157 150 64
156 148 61
161 153 66
160 153 69
154 147 64
156 150 64
157 149 67
160 152 68
154 147 60
156 149 66
155 148 69
158 152 64
157 149 70
161 154 67
159 151 71
155 148 65
162 155 69
158 150 67
157 150 68
158 150 66
158 150 68
155 147 69
155 149 60
161 154 70
155 147 67
155 148 64
149 142 58
157 150 68
155 148 61
155 148 66
158 150 70
156 149 69
156 149 67
157 150 62
156 148 66
159 151 74
154 148 65
154 147 67
154 148 65
157 149 71
156 147 67
155 148 70
156 148 71
153 146 64
160 151 73
156 148 71
154 146 68
155 146 68
154 146 71
152 144 66
156 147 74
153 145 64
154 147 71
151 144 66
152 144 67
149 142 69
155 148 68
154 147 72
151 145 66
153 145 67
147 141 65
152 144 72
150 143 60
160 150 74
145 138 67
145 139 65
149 142 64
150 144 70
150 141 67
149 141 66
146 138 60
149 141 65
162 181 88
162 181 91
165 183 104
164 183 99
162 181 90
164 182 99
165 183 108
164 183 103
163 182 97
161 179 87
162 181 87
161 180 91
161 181 85
160 178 82
159 178 82
159 179 66
161 180 82
161 180 82
160 179 79
160 179 84
157 176 62
158 177 70
157 177 60
157 176 60
156 175 56
159 178 60
159 178 66
157 177 56
156 176 53
156 175 48
158 178 60
155 175 51
156 176 56
156 176 56
154 175 42
154 174 36
153 173 16
154 175 16
155 173 36
155 174 0
153 174 22
152 172 16
152 170 16
153 173 16
151 171 0
154 175 0
153 173 0
151 170 0
149 170 0
152 173 0
151 170 0
152 171 0
152 172 0
151 172 0
148 168 0
149 168 0
152 172 0
150 171 0
152 171 0
152 173 0
149 169 0
152 171 0
151 171 0
149 169 0
152 172 0
150 171 0
149 168 0
150 169 0
148 169 0
151 171 0
148 166 0
148 167 0
148 168 0
146 167 0
146 165 0
145 164 0
147 166 0
144 163 0
147 165 0
147 165 0
146 166 0
146 165 0
147 166 0
145 163 0
145 163 0
143 161 0
142 161 0
147 166 0
146 165 0
146 165 0
145 163 0
140 158 0
143 161 0
143 162 0
141 159 0
140 159 0
139 156 0
137 155 0
138 156 0
134 151 0
140 159 0
142 159 0
139 156 0
135 152 0
135 153 0
128 145 0
128 144 0
131 147 0
127 142 0
126 143 0
127 144 0
124 139 0
118 131 0
116 129 22
114 128 28
109 124 28
105 119 30
99 113 42
102 116 42
96 110 41
97 113 32
87 103 47
87 103 44
76 90 47
74 89 54
75 91 56
69 85 58
64 79 42
54 73 51
61 76 54
51 68 45
57 72 52
57 72 33
52 68 41
66 81 53
65 79 20
71 87 34
80 94 27
91 107 38
93 109 26
103 121 27
126 144 32
133 151 39
141 159 77
137 152 87
161 182 45
174 196 0
173 196 0
174 197 0
172 195 0
173 196 0
139 161 53
47 74 97
49 77 92
51 80 94
50 79 95
50 79 102
52 82 106
52 83 106
52 80 103
54 86 111
54 85 109
53 82 110
53 83 108
55 87 116
55 85 112
55 87 117
56 88 113
57 89 119
56 87 117
56 89 116
56 88 117
55 86 111
55 87 112
57 89 117
56 88 115
56 88 117
56 88 124
57 89 117
56 87 108
56 88 122
57 90 123
55 86 115
56 88 119
56 88 117
56 88 117
57 89 119
57 89 123
57 89 118
57 89 120
56 89 115
57 90 117
57 88 118
56 89 114
58 90 124
57 90 125
56 88 113
58 90 128
56 88 115
58 91 124
57 89 123
56 88 121
57 89 113
57 90 121
57 89 118
58 91 122
57 89 121
58 91 129
57 88 118
56 88 118
57 89 118
57 88 115
57 89 119
57 89 121
57 89 122
56 87 117
56 88 116
54 85 110
56 88 119
57 89 115
56 88 117
56 88 109
56 87 115
56 87 107
56 88 114
56 87 112
56 86 116
56 86 117
55 85 109
56 87 113
57 89 119
55 85 116
54 84 107
54 84 108
53 83 107
55 85 110
53 83 106
54 83 110
53 82 100
54 84 111
53 81 103
52 80 98
50 75 88
51 79 94
49 74 82
51 77 93
45 69 81
47 71 78
147 168 34
174 197 0
172 196 0
173 196 0
172 194 0
174 197 0
146 163 18
86 83 33
80 77 29
77 77 23
73 72 20
67 66 14
65 65 20
68 68 17
69 68 18
73 70 15
67 68 23
72 72 21
72 73 22
81 79 20
87 85 27
80 81 23
82 81 28
84 82 30
87 84 29
83 82 35
92 91 36
91 89 33
105 101 35
102 100 41
104 102 42
106 103 37
112 109 44
108 105 40
111 108 41
108 104 38
120 117 45
116 112 43
122 117 46
127 121 54
127 124 47
126 121 52
127 122 48
118 114 49
123 120 48
132 128 53
132 128 52
136 131 52
137 129 54
138 133 54
136 132 50
134 129 54
137 131 49
143 137 59
143 138 60
140 134 55
143 137 58
143 138 55
144 138 54
141 136 58
144 138 57
145 140 53
149 143 57
144 138 60
143 137 55
147 140 61
151 144 58
149 142 63
149 143 58
150 143 60
151 143 57
153 146 65
151 144 58
154 147 66
152 145 61
148 142 57
150 145 55
159 151 67
153 146 61
156 150 63
154 148 65
155 148 65
156 148 64
160 153 68
154 147 67
158 150 69
153 146 60
155 148 65
157 149 70
155 148 57
161 153 70
154 146 60
152 144 63
156 149 64
156 149 65
152 145 61
158 151 69
156 149 64
156 148 66
158 151 69
158 150 66
153 146 62
161 153 71
155 148 69
154 149 64
157 150 67
154 147 62
158 151 71
158 152 62
153 145 64
154 147 66
155 147 66
147 141 57
157 149 69
157 150 69
150 143 59
155 148 61
156 147 65
158 149 71
151 145 59
157 149 69
156 147 69
152 145 66
150 144 64
158 150 73
157 149 69
150 142 66
153 146 63
156 148 70
154 147 64
156 148 69
150 142 66
150 143 61
153 145 67
150 143 59
154 146 70
153 146 62
148 141 63
151 144 69
149 141 62
146 140 65
156 147 73
154 146 70
150 142 65
141 135 59
143 137 66
147 139 69
151 144 70
143 136 62
147 140 65
151 144 74
146 139 62
163 182 102
163 182 93
164 182 97
164 183 101
162 181 93
163 182 95
160 178 82
162 180 87
159 179 82
159 179 79
161 180 85
161 180 80
162 180 84
159 178 80
160 179 74
158 176 74
159 179 75
157 175 62
155 176 48
159 179 70
157 176 60
158 178 60
157 177 70
157 177 62
157 177 53
155 175 36
155 174 42
155 175 39
154 174 22
154 175 42
155 175 36
155 176 32
153 173 0
153 173 0
155 176 0
154 174 0
153 174 0
152 172 0
152 173 0
151 171 0
151 171 0
152 172 0
151 171 0
150 169 0
152 171 0
152 172 0
150 169 0
151 171 0
151 171 0
151 172 0
150 169 0
152 171 0
149 168 0
153 173 0
151 172 0
149 168 0
151 171 0
150 171 0
151 171 0
150 169 0
149 168 0
149 169 0
150 170 0
147 167 0
151 171 0
151 171 0
149 168 0
150 169 0
150 169 0
147 166 0
149 169 0
148 167 0
148 165 0
148 167 0
145 165 0
148 167 0
147 166 0
144 164 0
147 167 0
145 164 0
149 168 0
146 164 0
146 164 0
142 160 0
148 168 0
145 164 0
143 161 0
140 159 0
145 163 0
144 162 0
144 162 0
138 155 0
143 160 0
141 158 0
139 158 0
142 161 0
138 157 0
141 159 0
139 156 0
136 154 0
140 157 0
136 152 0
135 153 0
132 150 0
135 152 0
135 151 0
135 151 0
135 151 0
131 149 0
127 143 0
126 141 0
127 143 0
118 131 0
119 134 11
115 130 22
113 127 16
106 120 25
101 116 25
105 119 39
97 111 35
91 105 40
85 99 42
81 96 46
86 103 53
78 92 52
73 88 51
66 81 43
65 81 47
68 84 42
67 81 40
62 78 49
61 77 43
65 81 47
63 79 29
68 84 38
71 85 34
75 89 23
84 100 33
97 111 11
106 123 26
119 136 25
131 149 25
143 161 52
142 159 74
132 148 74
173 196 16
172 195 0
173 196 0
173 196 0
172 196 0
173 196 0
170 193 12
73 97 81
48 75 92
52 81 101
51 80 97
53 84 107
54 85 112
56 87 116
54 84 105
55 86 109
54 85 111
54 85 108
54 84 108
55 86 115
56 87 118
55 86 116
56 88 120
55 86 114
56 88 119
56 88 121
56 88 117
54 85 109
55 87 106
55 87 113
54 85 106
56 88 119
56 88 115
58 90 121
55 86 117
56 88 119
56 88 119
57 89 118
57 89 112
57 89 122
56 88 119
56 88 115
57 88 120
57 89 127
57 89 115
57 90 124
57 89 125
57 89 118
55 86 110
57 89 124
56 88 113
56 87 116
58 91 124
57 90 122
58 91 121
56 88 113
56 88 120
55 87 113
56 87 114
57 89 119
56 88 113
58 91 118
58 91 121
56 88 111
57 90 120
56 88 117
58 90 121
56 88 113
56 88 117
55 86 110
58 90 128
56 88 115
56 87 123
54 85 114
58 91 122
56 88 114
54 85 104
57 88 121
57 89 119
56 87 117
55 85 110
56 87 112
55 86 112
57 88 117
56 88 115
55 86 109
57 88 118
55 86 114
53 83 102
55 86 111
54 84 106
54 84 111
53 81 107
52 81 103
53 82 106
53 81 102
51 79 101
51 78 102
52 79 99
50 76 96
50 76 96
48 73 89
71 90 66
169 192 14
172 196 0
172 196 0
172 195 0
172 194 0
172 194 0
172 195 8
113 115 31
91 86 36
91 87 35
75 73 18
72 69 13
68 68 18
77 74 18
72 70 18
63 64 16
61 62 17
74 73 16
77 76 16
72 71 17
68 68 24
78 78 26
82 81 26
85 84 28
94 90 33
93 91 29
92 91 28
98 95 37
100 98 39
102 100 35
96 95 42
103 102 35
112 109 47
117 112 44
113 109 44
106 104 36
115 112 43
122 118 47
111 107 45
122 118 46
131 126 46
125 121 49
134 130 50
123 118 43
130 125 45
131 126 50
136 131 56
130 126 51
129 124 44
132 127 51
137 131 55
138 133 54
135 131 52
147 140 61
141 134 55
138 134 49
144 138 56
143 138 55
139 134 51
148 141 59
147 142 58
147 141 58
150 143 61
150 143 63
151 144 63
148 142 57
151 145 59
153 146 63
151 145 60
144 137 56
157 149 64
153 147 59
152 144 62
148 142 60
152 145 59
150 143 59
151 144 57
157 149 66
156 148 63
156 149 66
152 144 64
147 139 52
159 151 66
151 144 62
159 153 67
154 147 63
162 153 71
151 143 58
154 148 62
156 148 62
153 146 61
157 149 65
152 145 61
155 148 63
153 147 65
159 152 66
162 154 72
153 146 65
159 151 69
158 150 70
151 143 58
158 150 65
156 148 66
154 147 65
154 146 67
159 151 69
155 148 60
155 147 68
146 139 59
154 147 68
156 149 70
157 150 68
158 150 69
152 146 60
153 146 58
155 147 67
154 147 68
157 149 67
156 149 63
154 146 70
159 152 71
154 146 65
151 143 64
154 147 68
152 144 67
155 147 69
152 145 70
154 147 64
150 143 64
148 142 62
155 148 68
148 141 61
146 138 65
151 143 67
150 143 64
148 140 63
145 138 65
157 148 72
148 142 63
154 147 71
147 140 59
145 137 65
148 140 63
152 145 71
150 142 64
149 141 62
149 142 66
144 137 61
151 143 70
152 145 68
150 143 68
149 141 65
161 179 93
162 181 85
162 180 82
160 180 75
159 178 77
159 178 72
159 179 68
157 177 60
160 180 74
160 179 80
158 177 68
155 175 56
159 178 79
159 178 75
159 178 66
156 176 56
155 174 48
156 176 56
156 176 42
155 175 56
157 177 60
155 175 45
155 175 45
153 173 16
155 176 22
151 171 22
153 174 22
154 173 0
152 172 0
152 172 0
154 174 0
154 174 0
154 174 0
151 171 0
152 172 0
153 173 0
153 173 0
154 175 0
154 173 0
151 172 0
153 173 0
151 171 0
152 172 0
150 171 0
150 169 0
151 172 0
151 171 0
152 171 0
152 172 0
151 171 0
150 170 0
153 172 0
151 172 0
150 169 0
152 172 0
149 169 0
150 170 0
148 167 0
148 168 0
149 169 0
148 168 0
149 169 0
151 171 0
148 168 0
150 169 0
149 168 0
150 169 0
148 168 0
149 168 0
146 165 0
147 166 0
145 162 0
147 165 0
144 163 0
147 166 0
148 167 0
146 165 0
146 166 0
147 166 0
145 165 0
148 167 0
145 163 0
146 165 0
147 165 0
143 161 0
142 160 0
145 164 0
143 162 0
141 158 0
141 160 0
143 161 0
137 154 0
140 158 0
139 156 0
140 158 0
136 151 0
137 154 0
135 151 0
136 152 0
132 148 0
132 147 0
135 153 0
131 146 0
132 148 0
124 140 0
134 151 0
127 142 0
132 150 0
128 143 0
126 143 0
122 137 0
129 145 0
122 137 0
119 132 0
117 130 16
115 130 16
112 126 19
106 120 20
95 110 27
114 130 33
90 105 37
89 102 40
88 103 46
84 99 37
74 90 50
74 88 44
69 85 44
65 82 47
72 87 42
68 82 38
69 83 37
66 82 37
69 84 36
68 82 32
72 86 29
76 91 36
86 101 30
91 105 22
102 118 33
114 130 24
126 143 29
137 156 19
142 159 58
134 149 79
157 177 51
172 196 0
171 193 0
172 195 0
171 194 0
172 194 0
171 194 0
173 196 0
130 150 59
47 74 84
48 76 87
50 78 99
52 82 103
52 82 106
53 83 110
52 82 108
54 84 113
54 84 110
55 86 115
56 88 117
55 86 104
54 85 111
55 86 110
56 89 116
56 88 120
56 88 117
54 84 101
55 86 117
56 88 112
55 87 116
55 86 109
56 87 121
56 88 123
57 89 113
54 85 103
56 87 115
56 88 122
56 88 114
57 89 119
56 89 117
56 88 117
57 90 125
56 88 119
57 90 116
58 91 121
57 90 117
57 89 114
56 87 119
54 85 111
58 91 128
57 89 114
56 87 112
57 88 118
58 90 123
57 89 118
57 90 120
57 89 108
55 86 113
56 88 116
56 87 118
57 89 120
58 91 121
55 86 107
56 87 112
57 90 120
58 90 123
58 91 125
57 88 113
56 87 114
57 89 120
57 89 113
56 87 110
57 89 121
56 87 119
56 87 119
56 88 124
55 85 101
57 88 119
57 88 118
56 86 120
57 88 122
56 86 118
54 85 112
56 87 120
56 87 119
56 87 109
56 88 118
55 85 109
55 84 108
55 86 115
53 82 107
54 83 110
52 81 101
55 86 116
53 81 102
52 80 93
52 79 101
50 77 89
52 80 98
51 78 95
51 77 91
50 77 89
45 68 77
121 141 65
173 196 0
172 196 0
171 195 0
173 196 0
171 194 0
171 195 0
173 196 0
145 158 29
98 93 34
79 77 25
79 77 22
70 68 22
75 72 16
69 67 17
72 70 15
66 67 18
74 72 14
78 77 24
77 75 15
80 78 21
77 74 19
88 87 24
80 79 23
85 84 25
87 87 25
92 90 33
97 95 31
87 86 30
98 96 27
110 106 31
103 100 28
105 104 34
103 101 35
107 104 41
119 116 34
115 111 39
119 115 40
113 111 41
118 112 42
121 116 43
119 116 40
119 117 46
124 120 50
132 127 50
126 121 43
137 131 56
127 123 41
135 130 47
129 125 48
131 126 51
135 130 45
139 134 56
134 130 45
138 132 51
141 133 50
141 135 58
139 133 55
146 141 63
140 134 52
148 142 57
142 136 45
143 137 53
149 143 56
145 138 56
147 141 58
146 141 60
146 138 52
144 137 55
146 140 55
150 143 59
148 142 54
149 141 58
149 143 60
150 144 56
151 144 63
149 143 59
153 146 62
154 147 58
151 146 60
155 149 59
154 147 59
149 140 58
154 145 65
152 145 60
152 145 62
152 145 57
154 147 64
155 148 64
153 145 65
154 147 62
153 145 62
157 150 65
157 149 67
161 153 66
150 142 60
157 150 64
154 146 67
148 142 61
157 149 61
158 150 66
153 145 61
156 149 63
153 146 69
157 150 66
153 147 62
152 145 62
158 150 69
155 148 67
154 147 64
158 150 66
154 147 66
153 145 65
152 144 64
154 147 60
157 150 70
150 144 63
152 145 66
152 144 63
153 145 64
154 147 65
147 142 54
154 147 65
147 140 60
156 149 69
156 148 70
155 147 65
154 146 63
157 150 67
156 149 68
143 136 59
152 144 65
148 141 61
154 146 70
151 143 65
153 145 66
151 144 64
149 142 62
151 144 68
148 141 66
153 144 68
154 147 64
153 145 68
149 142 66
148 139 68
149 141 64
151 143 66
148 140 65
152 145 65
146 138 61
147 140 62
147 140 61
143 135 60
160 180 79
160 180 75
160 178 75
159 178 72
158 177 72
158 177 64
160 179 79
158 177 64
158 176 60
159 178 64
157 177 62
159 178 72
156 175 53
157 176 51
155 175 45
156 176 42
156 175 45
156 176 42
154 175 36
155 174 28
155 175 22
154 174 22
153 173 16
151 171 0
154 174 0
154 174 0
153 174 0
151 171 0
152 172 0
153 172 0
154 174 0
153 172 0
152 172 0
153 172 0
153 173 0
153 173 0
151 172 0
153 174 0
150 170 0
152 173 0
151 171 0
150 169 0
151 171 0
149 168 0
153 174 0
151 171 0
152 172 0
150 168 0
149 169 0
151 170 0
150 169 0
150 169 0
152 172 0
148 168 0
150 171 0
151 170 0
147 167 0
150 170 0
147 167 0
149 170 0
149 167 0
148 167 0
147 166 0
150 169 0
149 169 0
147 165 0
149 169 0
149 168 0
149 168 0
147 167 0
146 165 0
146 165 0
147 165 0
148 166 0
146 164 0
147 166 0
145 165 0
148 167 0
141 159 0
148 167 0
143 161 0
140 157 0
142 160 0
143 162 0
142 160 0
143 162 0
140 158 0
139 158 0
140 158 0
139 157 0
140 159 0
139 158 0
138 155 0
142 161 0
140 157 0
135 153 0
138 156 0
137 152 0
137 155 0
134 152 0
135 153 0
131 148 0
136 153 0
138 154 0
133 151 0
126 141 0
126 142 0
129 146 0
128 144 0
131 149 0
122 138 0
115 130 0
127 141 0
119 133 0
112 125 11
110 125 4
112 127 16
102 114 0
109 125 19
96 112 22
95 109 25
89 102 30
86 101 30
81 95 32
82 95 30
81 95 37
82 97 41
77 92 38
78 92 38
69 84 39
67 81 35
73 88 27
75 88 31
75 89 36
82 96 30
83 96 20
96 111 33
102 118 24
113 129 20
120 135 13
131 150 10
134 152 0
136 152 58
135 151 66
170 194 0
170 192 0
173 195 0
173 197 0
173 196 0
171 193 0
172 195 0
171 195 0
165 188 25
52 78 88
47 75 76
50 78 94
50 79 93
52 81 107
53 82 106
54 84 103
54 85 112
54 84 106
54 84 105
55 87 115
54 86 108
54 85 110
55 86 114
55 86 108
53 83 105
54 85 105
55 86 113
56 87 117
55 87 109
55 86 116
55 86 109
54 85 107
55 87 115
56 89 114
55 86 111
57 89 121
54 85 110
56 88 110
57 89 120
55 87 115
56 87 109
56 87 110
54 85 110
58 90 120
56 87 117
56 88 112
54 85 109
56 88 122
56 88 111
56 88 117
55 86 110
54 86 106
57 89 118
58 91 126
56 88 118
55 86 112
56 88 113
57 90 117
56 88 114
56 88 112
55 87 116
57 89 117
56 88 116
54 85 110
56 89 110
57 88 115
53 84 107
56 88 111
57 88 125
56 87 112
56 88 116
56 87 115
54 85 110
56 88 119
54 85 108
54 84 105
57 88 119
55 85 112
54 85 107
57 89 116
53 84 105
55 86 112
56 87 112
55 86 110
54 84 109
56 87 112
54 84 109
56 85 106
54 84 103
53 83 107
54 84 105
56 87 108
55 85 114
53 82 107
52 81 101
52 79 96
52 80 98
50 77 96
49 75 97
51 79 84
47 71 83
47 72 85
48 72 76
165 187 9
171 194 0
171 194 0
172 194 0
169 191 0
171 194 0
171 192 0
172 195 0
169 191 8
106 108 29
89 86 32
82 79 26
82 79 27
85 82 19
78 74 21
66 65 17
66 65 15
70 71 18
70 67 8
82 80 22
81 79 23
79 78 18
80 79 24
88 86 26
87 85 28
98 95 33
87 86 27
99 96 31
97 94 30
98 96 29
94 93 32
96 93 34
100 97 32
109 107 37
108 104 37
109 106 38
105 102 39
118 114 40
118 115 40
111 108 38
117 115 41
123 118 43
123 119 47
125 120 44
127 122 52
123 119 39
127 123 43
134 129 47
131 127 49
127 122 38
125 121 52
133 128 48
136 131 54
139 133 55
137 131 53
140 134 54
145 139 56
135 129 49
141 137 53
147 141 57
146 139 58
143 137 53
142 136 53
143 138 54
145 139 55
149 143 56
148 141 58
150 142 59
149 142 59
148 141 59
149 142 58
143 137 50
146 140 51
152 146 59
148 141 52
152 145 57
151 143 62
147 141 53
153 147 60
154 147 66
148 141 55
152 144 59
158 150 65
151 143 60
153 146 61
153 145 60
151 144 59
154 146 57
154 146 62
153 144 63
150 142 58
154 147 61
159 151 65
151 144 57
156 148 67
155 147 65
155 148 59
153 146 62
153 145 62
152 145 58
156 149 62
157 149 67
150 143 57
152 145 65
152 144 64
149 142 57
159 150 68
155 147 64
156 148 62
152 144 58
148 141 59
156 148 64
147 140 57
151 142 62
152 146 61
149 143 61
153 146 62
152 144 63
146 140 56
158 150 67
153 146 63
144 136 55
157 149 67
153 146 63
152 145 63
149 142 65
146 139 63
147 139 62
152 144 59
153 146 63
154 146 70
147 141 56
150 141 65
151 143 65
150 142 66
147 138 61
152 144 63
147 140 55
149 141 64
156 148 66
148 141 63
147 139 59
148 140 63
147 139 66
150 143 64
150 143 68
150 143 64
142 135 63
148 140 65
147 140 64
149 143 67
147 140 66
147 140 64
158 176 71
158 177 64
157 177 62
158 177 70
160 179 74
158 178 58
158 177 66
157 177 51
155 174 48
157 177 48
156 176 45
155 174 48
154 175 28
154 175 32
154 174 0
154 174 16
154 174 16
151 171 16
151 171 0
152 172 0
153 174 0
154 174 0
153 174 0
153 173 0
152 173 0
155 175 0
151 171 0
151 172 0
153 173 0
151 171 0
153 173 0
153 174 0
152 173 0
151 172 0
153 173 0
150 170 0
153 173 0
149 170 0
150 170 0
151 171 0
151 171 0
151 171 0
153 172 0
150 170 0
151 172 0
150 170 0
149 170 0
151 171 0
152 172 0
149 168 0
153 172 0
149 169 0
151 171 0
148 168 0
150 171 0
149 169 0
149 168 0
149 169 0
148 167 0
149 168 0
151 170 0
146 166 0
147 166 0
148 168 0
148 167 0
148 168 0
145 165 0
147 166 0
147 165 0
147 167 0
147 163 0
148 166 0
146 165 0
144 163 0
145 164 0
144 164 0
143 162 0
148 166 0
145 164 0
147 165 0
148 168 0
143 162 0
141 158 0
142 160 0
142 159 0
140 158 0
143 163 0
141 159 0
140 157 0
140 157 0
142 160 0
138 157 0
138 155 0
137 153 0
142 161 0
136 153 0
135 152 0
134 150 0
133 151 0
130 146 0
136 151 0
136 154 0
131 147 0
131 148 0
124 139 0
127 143 0
131 148 0
128 143 0
127 142 0
123 140 0
122 138 0
120 136 0
120 135 0
119 133 0
114 127 0
111 124 0
108 123 0
110 123 19
103 117 29
102 117 25
92 108 31
99 113 24
95 109 34
88 103 40
77 90 32
92 106 27
82 95 30
75 89 40
86 100 41
81 94 35
79 93 36
75 89 30
77 91 34
84 99 38
86 100 21
99 114 21
102 118 17
105 120 21
122 139 19
131 148 5
136 153 0
135 152 36
128 144 66
158 178 42
173 195 0
172 195 0
173 197 0
172 195 0
171 193 0
172 194 0
171 194 0
172 194 0
171 193 0
111 132 52
48 76 91
51 81 97
50 78 90
50 79 93
51 80 98
52 82 102
51 81 98
52 82 105
52 82 99
52 83 106
54 85 111
55 86 107
54 85 110
54 85 113
56 87 113
53 84 107
57 89 118
57 88 117
55 86 113
55 86 105
56 89 118
56 87 116
57 89 115
58 90 124
56 87 111
55 87 109
56 88 117
55 87 107
55 87 114
57 89 118
55 87 101
56 87 118
57 89 119
56 89 118
57 89 116
57 89 121
56 87 111
56 88 114
55 87 107
55 87 109
57 89 122
57 89 117
55 86 114
55 87 109
56 89 118
58 91 122
57 88 113
56 88 112
56 88 116
55 85 113
57 88 119
57 88 118
56 88 110
57 89 122
58 90 121
58 91 131
55 87 114
57 89 123
56 87 114
56 87 112
57 89 119
56 87 108
55 86 108
56 88 120
56 88 114
57 89 116
55 86 113
54 84 104
57 88 113
56 87 117
55 85 108
56 87 122
55 85 114
54 84 108
55 85 108
54 83 108
53 83 107
54 84 102
55 85 110
54 84 107
54 83 106
53 83 103
54 83 105
54 82 101
53 82 100
53 80 95
50 77 101
51 77 102
49 75 81
50 77 98
50 75 93
44 67 73
110 129 49
171 193 0
172 195 0
171 193 0
172 194 0
170 193 0
171 194 0
172 194 0
173 196 0
171 195 0
151 168 20
93 88 33
82 78 23
81 78 26
81 77 21
75 74 22
71 69 14
80 77 15
67 66 16
71 71 15
71 69 16
74 72 15
76 75 21
84 81 14
83 82 20
82 79 21
90 88 23
81 78 23
96 94 25
96 95 30
92 91 30
96 93 28
100 98 34
93 91 34
98 97 36
108 105 34
103 100 31
111 107 30
116 112 37
110 107 34
121 117 42
104 100 35
119 115 40
125 120 45
119 114 41
128 123 47
131 126 50
126 120 45
127 122 44
135 131 52
129 123 48
127 121 48
132 127 43
137 130 52
136 129 48
138 132 47
141 136 54
135 129 50
133 128 49
141 136 50
134 128 55
143 136 52
142 136 57
143 136 51
144 137 52
139 132 50
142 135 50
137 132 43
138 133 47
144 138 55
141 133 53
146 140 58
142 133 53
152 144 56
150 143 57
153 145 60
148 142 50
153 145 57
151 144 61
152 145 55
147 140 54
151 143 60
153 145 55
150 144 54
153 146 61
156 148 63
155 148 58
149 142 61
154 147 60
156 148 62
152 145 61
153 144 62
153 146 60
152 145 60
151 144 61
153 146 58
151 144 59
157 148 63
152 145 57
150 144 58
153 145 58
154 146 62
156 147 67
153 145 63
157 150 65
150 143 60
148 141 56
146 139 57
159 151 67
154 145 61
154 146 59
148 141 56
148 141 60
158 150 69
156 148 65
149 144 55
153 146 61
152 145 62
150 143 61
148 140 57
147 140 56
154 147 64
148 140 66
148 141 59
153 143 67
155 146 65
152 145 68
149 140 65
150 143 58
148 140 63
146 139 60
150 144 58
151 143 61
148 141 60
149 142 62
145 137 59
155 146 64
152 145 67
143 136 61
148 140 64
147 141 63
151 144 64
149 142 62
148 141 67
141 135 59
146 140 60
148 140 62
148 140 66
150 144 62
148 140 66
144 138 66
147 140 64
147 140 64
147 141 65
153 172 59
153 172 59
157 177 62
155 174 44
155 175 53
156 176 43
156 176 56
157 177 45
155 174 36
153 173 0
152 173 0
155 176 28
153 173 16
154 175 0
154 174 0
154 174 0
153 173 0
154 175 0
153 174 0
154 174 0
154 174 0
154 174 0
152 173 0
154 173 0
152 172 0
152 172 0
153 173 0
153 174 0
151 170 0
152 172 0
151 171 0
151 172 0
151 171 0
153 173 0
153 173 0
152 172 0
151 171 0
150 170 0
152 173 0
151 172 0
150 170 0
150 170 0
151 170 0
152 171 0
149 169 0
149 168 0
151 171 0
149 167 0
149 168 0
148 168 0
149 169 0
150 171 0
149 169 0
150 169 0
151 170 0
148 168 0
147 166 0
147 166 0
151 171 0
150 171 0
148 167 0
151 172 0
150 170 0
146 166 0
148 167 0
146 164 0
147 166 0
149 169 0
147 166 0
149 169 0
145 163 0
147 165 0
146 167 0
146 166 0
146 164 0
146 164 0
144 162 0
144 163 0
140 159 0
145 164 0
142 161 0
143 162 0
144 161 0
140 159 0
144 163 0
144 163 0
139 158 0
136 154 0
139 158 0
142 159 0
139 155 0
141 158 0
136 154 0
136 153 0
141 157 0
139 156 0
132 150 0
140 158 0
135 152 0
140 157 0
132 149 0
131 149 0
132 150 0
125 141 0
129 144 0
129 146 0
128 144 0
132 148 0
128 145 0
125 141 0
124 139 0
123 136 0
123 138 0
120 135 0
112 126 0
109 123 0
114 130 11
103 117 11
100 115 11
101 114 11
87 100 22
94 108 19
100 113 25
86 101 34
87 100 20
85 99 25
80 92 20
79 91 17
78 91 23
80 93 29
87 102 32
77 90 33
82 96 27
85 99 25
96 110 27
94 109 25
110 126 0
118 133 15
125 142 0
134 151 0
135 154 0
138 154 39
139 156 48
172 193 0
172 195 0
172 195 0
171 193 0
172 195 0
171 194 0
171 194 0
171 194 0
171 194 0
170 192 0
158 179 25
48 74 81
47 74 85
52 81 101
51 80 87
49 78 86
52 82 101
52 82 101
53 83 104
53 82 101
52 82 101
53 84 107
53 83 104
54 85 104
54 85 109
56 87 113
55 86 112
55 87 114
56 87 121
55 86 112
52 82 101
55 87 109
54 85 106
55 86 111
54 85 109
55 87 114
54 85 111
56 87 113
56 88 116
55 87 111
56 88 118
55 85 113
54 86 111
56 88 110
55 86 111
57 90 118
57 89 112
55 87 110
57 89 122
54 86 102
55 87 109
56 88 117
57 89 114
57 89 114
56 88 117
56 87 116
57 89 119
56 89 117
54 85 106
56 87 117
56 88 117
57 90 120
56 87 117
57 90 120
56 88 108
56 87 116
55 87 114
56 87 114
56 88 121
56 87 115
55 86 113
57 88 114
57 90 124
56 87 116
56 87 109
56 87 109
57 88 119
55 87 111
54 85 104
56 88 118
55 85 109
56 87 118
55 85 113
55 85 104
54 83 100
52 81 105
53 83 104
55 86 113
54 84 108
55 85 110
51 79 98
52 82 103
52 82 103
53 83 106
52 80 99
50 76 89
52 80 92
49 76 84
47 73 87
49 76 83
49 74 88
49 74 87
49 71 69
152 172 26
171 194 0
170 193 0
169 191 0
172 194 0
171 193 0
173 194 0
170 193 0
171 193 0
169 191 0
171 194 0
123 127 29
84 81 28
89 86 27
81 79 17
75 73 17
63 62 13
71 70 15
73 72 14
76 74 13
72 71 13
84 82 17
84 83 20
81 80 23
81 80 22
80 79 18
93 90 26
85 83 24
90 86 29
90 88 25
93 90 29
99 95 25
103 100 31
98 96 27
102 99 34
104 102 27
112 108 34
111 106 35
106 102 38
111 109 40
114 109 41
118 114 43
117 112 35
123 119 43
124 121 46
124 118 41
128 122 41
127 122 45
126 120 42
123 117 37
126 120 46
124 120 36
126 122 39
133 128 49
134 127 46
131 127 47
137 131 48
137 131 44
137 132 49
141 135 47
136 129 52
141 135 53
139 133 48
141 136 50
137 131 47
144 137 50
141 135 50
148 141 56
147 140 52
147 140 55
147 139 55
145 138 57
150 143 59
142 136 51
144 137 53
154 146 55
151 144 59
150 143 57
148 140 56
145 138 49
145 137 46
151 144 62
149 143 54
152 145 59
153 144 57
151 144 62
156 149 61
155 147 61
149 142 54
151 144 61
151 144 62
153 146 58
154 147 62
147 141 53
152 144 59
151 144 55
154 145 60
155 147 61
153 146 57
157 149 60
150 142 57
153 146 57
153 144 64
154 146 62
150 141 57
152 145 59
154 147 63
153 146 61
154 146 66
154 146 59
150 144 58
150 143 55
154 147 63
154 147 58
150 142 61
148 141 60
154 146 60
156 148 68
154 145 67
155 147 63
156 146 65
146 139 59
150 142 62
155 147 66
146 139 60
147 140 62
143 136 58
142 134 55
148 141 64
149 142 61
151 143 64
152 143 66
152 144 64
147 140 64
144 138 60
144 137 59
144 138 57
150 142 66
148 140 66
146 140 59
149 143 62
144 138 57
147 140 62
149 142 64
145 138 61
148 141 63
147 139 57
144 137 62
146 139 63
146 139 65
146 139 64
146 139 61
153 146 66
143 136 61
153 172 52
153 171 50
154 172 47
151 170 37
154 173 37
150 169 35
150 170 7
152 171 21
152 171 18
152 172 0
153 173 11
150 170 0
152 173 6
150 170 0
154 173 9
155 174 0
153 173 0
153 174 0
155 175 0
154 173 0
151 171 0
153 174 0
151 171 0
153 174 0
152 171 0
153 173 0
153 173 0
151 171 0
151 172 0
151 171 0
150 169 0
151 171 0
151 172 0
152 172 0
151 171 0
150 170 0
152 172 0
150 170 0
151 172 0
148 169 0
151 170 0
151 170 0
150 168 0
149 169 0
151 170 0
149 167 0
150 169 0
147 166 0
148 167 0
150 170 0
149 169 0
147 166 0
149 169 0
151 170 0
149 167 0
147 165 0
146 164 0
148 170 0
146 164 0
147 166 0
147 166 0
146 165 0
147 166 0
146 166 0
147 164 0
147 166 0
145 163 0
148 168 0
147 165 0
144 164 0
144 162 0
147 166 0
143 163 0
146 165 0
144 163 0
145 163 0
145 163 0
145 163 0
143 160 0
144 162 0
143 161 0
147 165 0
140 157 0
139 156 0
139 156 0
142 161 0
143 161 0
142 160 0
140 159 0
139 157 0
140 158 0
138 157 0
136 155 0
140 157 0
138 154 0
136 153 0
134 151 0
138 155 0
135 152 0
133 148 0
131 147 0
131 148 0
129 144 0
131 146 0
131 147 0
129 147 0
129 144 0
130 147 0
124 139 0
124 140 0
124 138 0
121 135 0
123 136 0
112 125 0
117 129 0
116 131 0
114 126 0
112 127 0
110 122 16
100 114 19
94 107 2
98 112 19
93 108 27
101 113 28
84 96 26
86 97 16
78 90 19
83 95 20
94 106 26
88 100 20
86 99 19
89 102 27
89 102 16
90 103 11
107 120 22
109 123 11
118 134 0
120 137 0
122 139 0
135 153 0
131 148 0
131 147 51
162 184 28
170 193 0
170 193 0
171 193 0
172 194 0
171 194 0
170 193 0
172 195 0
170 192 0
165 187 0
171 193 0
169 192 0
112 134 56
48 75 90
48 75 82
50 78 98
53 83 102
52 82 99
53 83 103
53 83 99
53 82 104
52 82 92
52 82 96
54 85 109
53 83 99
54 85 108
55 87 111
54 85 110
55 87 116
56 88 116
54 85 96
56 88 115
56 87 111
56 88 111
57 89 116
55 86 114
56 87 111
53 83 98
56 87 108
55 87 113
58 90 124
54 85 106
56 87 106
55 86 114
55 86 109
54 85 109
55 86 110
54 85 105
56 88 112
56 88 115
55 87 110
55 87 113
56 87 111
56 87 109
56 88 111
56 87 114
55 86 104
56 87 113
56 87 118
57 89 111
57 89 123
56 88 111
56 89 107
55 86 111
55 86 108
57 89 116
56 88 117
56 87 111
56 88 116
56 87 114
56 88 119
55 87 110
57 88 118
53 83 95
56 88 113
56 87 116
55 87 109
54 84 106
55 86 119
55 86 117
56 86 114
54 84 108
54 84 104
57 89 118
57 88 111
54 85 104
53 82 99
55 86 110
54 85 105
54 84 106
51 80 100
52 81 102
51 79 96
54 83 101
50 78 92
50 76 94
50 77 90
51 80 93
51 78 99
48 74 90
49 76 95
47 72 87
46 70 76
106 125 41
168 190 0
171 193 0
167 190 0
170 192 0
170 192 0
171 193 0
167 189 0
168 190 0
170 192 0
170 191 0
170 191 0
157 175 22
97 92 32
82 78 24
88 85 20
76 71 21
80 78 19
73 71 15
89 85 20
80 77 14
81 79 16
74 72 18
75 72 9
82 79 14
74 73 15
79 77 20
90 88 26
93 90 24
88 85 24
91 88 27
97 96 31
99 95 32
101 97 27
100 96 33
93 90 27
107 103 33
108 105 36
110 107 27
112 107 38
108 103 33
112 107 35
118 113 41
120 115 36
121 116 37
120 116 35
127 123 46
121 118 41
121 116 30
129 123 47
124 119 42
128 125 42
135 129 46
132 127 45
135 129 52
131 126 46
137 131 46
134 127 38
136 130 49
138 131 48
136 129 46
141 134 55
143 136 55
144 137 52
142 135 52
143 137 55
139 131 48
147 141 52
141 135 51
146 140 48
139 133 46
150 143 55
147 140 55
148 141 57
145 136 51
146 139 53
147 140 52
147 141 52
147 140 55
146 140 49
149 142 57
147 140 54
147 140 58
149 141 50
151 144 60
147 140 56
152 146 55
148 142 53
151 144 54
154 146 61
152 144 55
144 136 48
151 143 61
144 137 53
150 143 54
154 147 61
146 139 58
155 147 59
155 148 56
149 143 50
150 143 59
152 144 62
153 145 62
147 141 47
152 145 62
152 143 57
151 144 60
149 142 57
155 148 62
153 144 62
157 149 68
156 148 64
152 143 62
153 145 60
147 140 56
150 142 60
154 146 63
153 144 64
149 142 57
149 143 59
145 138 56
150 143 61
151 144 59
150 142 60
151 143 62
151 143 59
144 136 55
154 146 65
148 141 58
150 142 61
152 145 61
147 139 58
151 143 65
144 138 61
151 143 59
150 142 58
151 145 63
149 141 66
145 139 61
154 147 66
150 143 57
153 145 66
147 140 56
150 143 64
141 134 57
147 139 59
146 139 58
148 141 61
145 138 64
138 130 59
143 137 53
153 145 69
144 137 56
144 135 61
147 139 65
153 171 40
151 168 35
150 168 27
147 164 26
150 169 11
152 170 14
150 167 19
151 169 17
153 172 11
152 171 11
153 174 0
154 173 16
151 169 8
153 172 16
152 173 7
154 172 8
152 173 0
155 174 8
154 173 0
153 172 0
151 172 0
152 173 0
152 172 0
152 173 0
150 170 0
153 173 0
150 170 0
153 172 0
153 172 0
152 173 0
152 172 0
152 171 0
153 172 0
149 169 0
150 169 0
149 168 0
152 173 0
151 171 0
151 171 0
151 171 0
150 170 0
151 171 0
148 166 0
148 167 0
149 169 0
150 169 0
149 168 0
149 169 0
151 170 0
148 168 0
147 167 0
149 170 0
147 166 0
150 170 0
146 164 0
147 167 0
146 166 0
150 169 0
147 166 0
147 166 0
145 164 0
148 168 0
147 166 0
144 162 0
145 163 0
143 160 0
146 165 0
144 162 0
146 165 0
148 167 0
144 163 0
144 162 0
140 158 0
145 164 0
141 158 0
147 165 0
144 161 0
140 158 0
146 164 0
139 156 0
141 161 0
140 158 0
141 160 0
143 162 0
140 158 0
143 163 0
135 153 0
139 155 0
137 154 0
139 157 0
142 161 0
134 152 0
140 158 0
136 152 0
137 156 0
133 149 0
130 146 0
132 148 0
132 149 0
134 151 0
131 148 0
136 152 0
133 149 0
127 142 0
125 141 0
131 146 0
126 142 0
125 142 0
129 145 0
118 132 0
122 136 0
124 138 0
119 133 0
116 129 0
116 128 0
118 133 0
109 123 0
112 126 0
105 119 0
109 123 0
103 118 0
101 114 0
94 107 11
91 104 19
98 111 11
94 106 16
95 107 6
91 102 13
84 96 18
88 101 21
92 105 21
94 108 25
98 111 5
104 118 16
99 113 11
116 132 11
123 137 0
125 140 0
128 145 0
134 152 0
122 138 0
146 165 42
171 193 0
170 192 0
171 194 0
169 192 0
171 194 0
167 190 0
170 193 0
170 192 0
170 193 0
166 189 0
172 195 0
169 191 0
158 179 30
58 83 75
47 74 82
47 75 85
52 81 92
52 81 99
53 82 101
51 81 88
51 81 101
55 85 113
53 84 102
52 81 101
54 84 111
53 84 102
53 83 106
55 86 109
53 83 107
53 83 103
54 86 107
54 86 102
53 84 108
55 87 112
57 89 120
56 88 112
54 86 102
55 87 110
56 87 118
58 90 121
57 89 120
53 83 103
56 87 111
55 85 109
54 84 105
56 87 108
55 87 112
56 87 120
57 89 121
56 88 107
57 90 119
56 88 113
55 86 107
56 88 116
55 87 106
56 88 108
56 87 118
56 88 121
55 87 106
57 89 115
54 84 102
55 87 109
56 88 117
55 86 110
56 87 111
55 87 106
55 87 114
56 88 114
57 89 119
55 86 111
54 84 108
54 85 109
55 87 113
55 87 112
55 85 111
55 86 111
54 85 103
56 87 115
54 84 104
55 86 106
55 85 108
55 86 104
53 83 99
55 85 112
54 85 111
51 80 97
55 86 106
52 82 99
53 83 107
54 84 112
53 82 106
53 83 100
54 83 98
53 82 96
53 82 104
50 77 92
51 79 91
51 77 89
50 76 93
47 72 75
49 74 88
48 72 83
53 74 73
156 177 4
170 191 0
169 191 0
167 187 0
169 192 0
170 192 0
172 195 0
170 192 0
169 192 0
169 191 0
168 190 0
171 193 0
170 193 0
133 143 20
89 85 25
83 79 26
87 82 27
82 79 22
75 73 20
79 77 22
74 70 14
74 72 12
81 79 17
79 77 14
77 75 16
77 76 21
86 84 21
84 81 14
89 88 21
92 90 22
90 88 19
94 92 25
88 85 19
95 92 26
96 94 23
111 106 29
108 105 36
105 102 32
107 103 35
110 105 35
109 104 33
110 107 29
114 110 39
107 103 30
117 113 38
123 118 34
120 115 38
113 108 37
121 116 39
124 118 41
128 122 43
125 120 37
123 119 37
132 126 35
127 121 40
124 119 38
134 129 42
139 133 49
140 134 49
135 130 47
131 125 43
140 132 46
138 132 49
134 130 38
140 133 50
140 135 46
139 133 50
138 131 47
141 135 44
145 138 50
147 140 55
147 140 53
145 138 57
145 138 49
145 140 52
144 136 53
144 138 52
146 139 50
152 145 60
145 138 50
148 140 55
146 138 50
147 141 51
150 143 59
149 142 53
143 136 53
150 143 53
149 142 57
150 142 58
147 140 51
150 143 55
150 143 57
150 143 57
150 142 55
153 145 65
154 146 61
151 143 58
151 144 60
151 144 54
151 143 56
152 144 63
152 145 56
148 141 59
147 140 55
150 142 61
153 145 60
149 141 56
147 140 52
152 144 61
148 141 59
153 145 60
153 146 55
153 145 59
147 139 57
149 142 62
154 147 65
146 139 55
149 141 55
148 141 61
146 139 53
153 146 62
152 144 62
148 140 61
145 138 56
147 139 54
150 141 58
149 142 59
147 141 56
157 148 69
156 148 65
151 142 66
144 137 59
146 138 59
148 142 59
154 145 64
145 138 55
151 142 61
144 138 61
147 139 58
147 141 61
149 142 65
148 140 60
148 141 58
149 141 66
143 136 55
144 137 61
148 141 59
148 140 67
143 138 56
148 141 66
147 140 62
148 140 66
144 136 62
138 131 56
144 137 55
150 168 26
149 167 20
149 166 26
147 164 19
147 163 22
150 167 17
152 171 12
149 166 20
150 168 16
151 170 8
149 166 17
152 170 17
150 167 16
151 169 15
152 169 15
152 171 1
151 170 12
153 173 0
150 169 11
150 170 7
151 171 8
150 169 0
151 171 0
151 171 0
151 171 0
150 170 0
150 171 0
152 171 0
152 172 0
152 172 0
151 170 0
151 171 0
152 172 0
151 172 0
149 168 0
152 171 0
151 171 0
150 171 0
149 169 0
150 169 0
147 165 0
151 172 0
150 169 0
152 172 0
148 166 0
150 169 0
149 168 0
150 167 0
148 167 0
149 169 0
149 167 0
145 164 0
150 169 0
148 167 0
150 169 0
146 165 0
148 167 0
149 170 0
148 167 0
148 167 0
146 165 0
146 166 0
148 167 0
144 162 0
147 166 0
148 167 0
144 162 0
146 165 0
149 169 0
144 162 0
146 165 0
145 163 0
145 162 0
146 166 0
143 162 0
144 161 0
144 161 0
142 160 0
143 161 0
145 164 0
143 160 0
138 154 0
144 163 0
141 158 0
142 161 0
139 156 0
141 160 0
142 159 0
139 156 0
137 155 0
141 158 0
137 154 0
135 151 0
133 150 0
134 151 0
136 154 0
135 151 0
138 156 0
133 150 0
134 150 0
129 145 0
128 146 0
130 147 0
130 147 0
130 146 0
128 142 0
128 144 0
127 142 0
121 137 0
128 143 0
122 138 0
118 133 0
116 131 0
118 133 0
114 127 0
112 126 0
108 120 0
117 131 0
110 124 0
102 116 0
106 119 0
101 115 15
104 117 0
96 106 17
92 105 0
88 100 19
89 101 21
89 103 19
92 102 0
102 114 19
101 114 0
103 116 11
103 117 11
104 116 11
117 132 0
117 131 0
120 135 0
130 147 0
123 140 0
127 145 0
127 144 39
165 188 0
169 192 0
169 192 0
168 190 0
169 191 0
167 190 0
171 193 0
168 190 0
170 192 0
170 193 0
170 193 0
168 190 0
165 185 0
168 189 0
121 141 54
49 77 93
49 78 95
49 76 83
51 80 90
52 82 103
51 79 100
52 82 104
53 83 102
51 80 88
53 82 108
54 84 105
54 85 105
55 86 109
55 86 110
53 82 100
54 86 107
54 85 113
54 86 104
54 85 108
54 85 110
55 87 113
55 86 110
55 86 112
55 87 107
56 87 107
55 87 112
55 86 108
54 84 103
54 84 114
54 85 111
55 86 109
56 88 116
55 87 111
55 86 100
55 86 108
54 85 104
54 85 109
55 87 110
55 87 108
55 86 111
57 89 115
55 87 111
58 91 127
56 87 106
54 86 111
55 87 108
55 87 114
56 86 113
55 86 103
54 85 101
56 87 105
55 85 111
54 85 100
55 87 108
55 86 111
56 87 110
54 84 105
55 86 105
56 87 113
57 88 112
56 87 119
56 87 109
55 86 113
55 85 111
55 85 109
55 86 107
55 85 109
53 83 104
55 86 108
55 85 111
54 83 110
54 84 100
54 84 104
53 82 98
53 83 104
52 80 104
53 82 94
52 79 94
53 83 108
51 78 79
51 79 95
51 79 93
51 79 91
50 76 87
48 74 89
49 75 88
48 74 84
46 70 74
121 141 44
169 191 0
168 188 0
167 189 0
167 188 0
166 188 0
169 190 0
171 192 0
168 189 0
168 190 0
169 191 0
170 191 0
167 189 0
166 187 0
167 188 8
108 112 30
92 87 28
89 86 29
84 81 21
85 82 18
82 78 19
75 72 12
76 73 17
74 72 14
81 78 8
76 75 16
85 83 16
90 86 18
84 83 17
92 89 10
94 91 22
84 82 29
96 91 21
100 97 22
94 90 27
102 98 26
104 101 26
101 98 29
104 101 30
107 104 30
110 105 23
117 112 33
110 106 33
103 99 30
117 111 37
117 113 35
118 114 35
121 115 36
113 109 34
118 112 35
122 117 38
123 117 36
117 113 37
126 122 39
130 123 42
128 123 40
134 129 44
130 125 40
130 122 45
133 126 41
134 128 45
138 132 49
136 131 45
135 128 45
138 131 40
143 137 47
133 127 37
135 128 41
146 138 51
144 137 50
142 136 46
138 132 47
135 128 42
141 135 52
142 136 45
142 135 50
141 133 49
148 141 52
145 138 47
144 138 53
148 140 52
148 141 54
147 141 49
143 136 49
145 138 53
147 140 54
147 140 54
150 142 54
153 145 61
150 143 52
148 141 56
147 140 55
145 138 49
152 143 60
147 140 52
149 142 54
147 140 50
145 138 55
149 142 56
149 142 56
150 143 56
147 139 57
151 143 60
149 142 56
144 137 50
152 144 57
150 142 62
147 139 56
149 142 59
148 139 58
147 139 55
150 143 59
151 142 64
150 142 58
151 144 56
149 142 51
154 147 60
152 146 62
155 147 65
142 135 54
145 138 49
147 140 57
148 140 58
150 142 61
146 140 56
152 144 63
140 134 50
145 138 54
143 136 53
145 137 59
146 138 59
146 137 58
147 141 59
150 143 62
147 140 59
145 139 61
150 144 59
147 140 57
142 134 55
146 137 61
147 140 57
144 137 60
147 140 63
144 136 55
145 138 58
150 143 63
146 140 55
145 138 61
139 132 55
147 139 60
146 139 62
140 134 59
144 136 62
142 136 63
150 142 64
144 136 65
149 167 21
148 166 15
147 162 26
146 164 21
150 166 26
149 165 26
151 169 21
147 164 18
149 166 21
150 169 17
147 165 16
150 168 14
148 168 14
149 168 11
149 168 8
147 166 9
152 169 21
151 169 19
151 171 15
150 169 12
152 170 9
152 171 8
150 169 0
150 170 8
151 171 8
151 171 0
153 173 0
152 171 0
151 171 0
149 168 0
152 172 0
150 169 0
149 168 0
150 171 0
152 171 0
149 169 0
152 171 0
152 171 0
150 170 0
147 166 0
151 171 0
151 171 0
148 167 0
148 168 0
148 167 0
149 167 0
147 166 0
148 167 0
150 170 0
149 168 0
148 168 0
149 168 0
147 167 0
148 167 0
147 167 0
147 167 0
147 166 0
148 168 0
147 166 0
150 169 0
148 167 0
149 169 0
143 161 0
143 163 0
147 165 0
143 161 0
141 158 0
145 163 0
145 164 0
148 166 0
147 166 0
143 162 0
144 162 0
142 162 0
143 163 0
140 159 0
143 161 0
141 159 0
143 160 0
142 160 0
140 158 0
142 159 0
141 158 0
140 159 0
142 159 0
134 151 0
140 158 0
138 156 0
139 156 0
142 160 0
138 156 0
139 156 0
138 154 0
130 146 0
135 152 0
139 155 0
130 146 0
133 150 0
135 152 0
129 145 0
132 150 0
130 145 0
132 149 0
128 144 0
125 140 0
127 142 0
126 141 0
126 141 0
129 145 0
121 136 0
119 136 0
118 131 0
122 138 0
116 132 0
120 137 0
112 127 0
116 131 0
115 131 0
111 125 0
108 122 0
104 117 0
100 112 0
99 112 0
99 112 6
100 112 0
98 110 0
94 107 0
100 113 11
95 109 0
101 113 0
99 112 0
103 114 0
113 127 0
111 124 0
114 130 0
118 133 0
124 140 0
125 141 0
126 144 0
117 133 22
157 179 16
168 191 0
167 190 0
168 189 0
167 189 0
167 191 0
167 189 0
166 188 0
167 190 0
172 195 0
166 187 0
167 189 0
167 190 0
168 191 0
167 189 0
162 183 11
67 89 64
50 78 87
49 77 81
51 79 94
50 79 89
51 80 94
52 82 95
50 79 90
53 84 97
55 86 105
52 82 98
53 83 103
51 81 98
52 82 103
53 84 103
54 84 109
54 85 107
54 85 103
55 86 102
54 86 105
53 84 107
56 88 114
56 89 115
56 88 108
54 84 103
55 87 111
55 85 107
55 86 112
55 86 113
55 87 107
55 87 108
56 86 112
55 87 110
57 89 117
55 86 111
56 89 107
55 87 109
56 88 113
55 86 109
55 85 109
54 85 106
56 88 113
57 88 115
56 87 117
56 88 112
54 85 108
56 88 115
55 87 114
53 83 105
54 85 106
55 87 107
55 86 113
56 88 114
54 84 105
55 85 114
55 87 110
56 87 111
54 84 105
55 85 112
55 86 107
54 85 107
54 84 107
54 85 107
53 83 107
54 85 100
55 86 113
55 85 111
55 86 117
54 83 103
54 84 105
54 84 98
53 83 98
55 85 104
55 85 106
52 80 96
53 82 107
52 80 90
51 80 95
53 82 99
53 82 97
51 79 96
51 77 90
50 77 85
49 76 87
47 72 77
48 73 75
46 69 77
73 93 74
165 186 0
165 186 0
165 187 0
169 191 0
167 189 0
163 185 0
170 191 0
166 187 0
165 187 0
169 191 0
165 187 0
165 187 0
166 188 0
170 192 0
170 193 0
152 170 14
94 87 28
90 86 21
81 77 14
84 81 20
82 79 12
78 74 13
82 78 18
91 88 17
82 78 6
80 78 14
89 87 16
86 84 17
84 82 22
90 86 18
86 81 15
90 86 25
92 88 18
92 91 26
94 91 18
94 91 27
101 98 29
105 101 32
108 104 22
108 106 34
111 105 29
110 106 28
111 108 28
112 106 24
119 115 32
109 103 27
115 112 40
115 111 30
116 111 30
121 114 31
123 116 30
128 121 43
120 116 39
117 113 37
129 122 39
130 124 41
128 124 39
128 123 42
126 121 35
132 127 42
139 132 46
134 128 44
129 125 40
133 127 46
138 131 47
144 137 48
141 135 52
140 134 48
143 136 44
139 132 41
139 130 47
137 132 43
141 134 46
140 133 43
140 134 44
143 137 53
147 141 50
141 134 40
143 136 46
149 143 53
143 137 44
140 134 42
146 140 52
148 140 51
148 141 51
151 144 56
149 141 52
149 142 52
145 139 51
147 140 48
140 132 45
145 138 53
146 139 54
147 137 55
152 145 52
144 138 48
148 141 49
149 141 53
155 147 58
148 139 53
151 143 56
151 144 53
145 137 53
147 138 55
145 137 54
144 137 49
144 138 49
147 139 50
148 140 57
148 142 56
142 136 53
144 136 54
150 141 58
151 144 55
151 143 58
152 145 61
145 138 58
148 139 54
151 143 58
143 136 49
146 139 55
143 135 47
148 140 54
152 145 61
148 141 54
147 141 57
145 137 56
150 142 59
147 140 56
144 137 55
157 150 64
149 140 59
150 143 60
150 140 60
143 136 55
144 136 59
144 137 57
147 140 58
144 136 55
141 133 57
147 139 57
144 138 55
146 139 58
145 136 57
142 136 53
143 136 59
147 139 62
140 134 52
142 135 59
144 136 64
146 139 58
143 135 61
145 137 58
144 136 60
144 138 56
145 137 62
142 157 22
147 164 17
148 166 17
145 161 22
148 164 18
148 165 21
147 165 16
147 164 20
147 166 12
149 166 14
150 167 20
149 167 18
151 169 24
145 164 9
149 166 19
147 166 11
147 166 8
149 167 18
149 167 15
148 167 17
151 170 14
151 170 12
149 168 11
152 170 8
149 168 8
150 170 8
150 170 7
151 171 0
151 170 8
149 168 0
149 169 0
150 169 0
151 171 0
152 172 0
149 169 0
150 170 0
149 168 0
150 170 0
148 167 0
151 171 0
149 170 0
150 170 0
149 168 0
148 167 0
149 167 0
148 167 0
150 170 0
147 166 0
146 166 0
149 169 0
149 166 0
146 164 0
148 167 0
147 167 0
146 164 0
148 168 0
146 165 0
148 166 0
142 161 0
148 166 0
144 164 0
144 163 0
146 164 0
147 165 0
147 167 0
147 166 0
146 165 0
144 162 0
145 163 0
142 160 0
144 164 0
145 165 0
143 163 0
144 162 0
146 166 0
141 160 0
143 161 0
145 164 0
137 154 0
144 162 0
145 164 0
141 159 0
141 158 0
142 161 0
139 157 0
138 156 0
137 154 0
141 159 0
139 157 0
137 152 0
137 153 0
136 154 0
136 153 0
136 151 0
134 153 0
139 156 0
135 152 0
130 146 0
133 149 0
130 144 0
131 147 0
127 143 0
127 144 0
127 144 0
128 144 0
128 144 0
124 140 0
124 140 0
131 148 0
123 137 0
116 130 0
116 130 0
115 130 0
121 137 0
115 129 0
119 134 0
115 129 0
111 126 0
106 118 0
110 124 0
104 116 0
110 125 0
109 123 0
107 121 0
108 119 0
108 120 0
102 115 0
99 110 0
97 109 0
109 121 0
110 123 0
107 120 0
111 126 0
112 126 0
124 139 0
124 140 0
128 145 0
127 144 0
117 132 16
138 156 22
167 190 0
166 189 0
169 192 0
166 189 0
166 188 0
167 189 0
167 189 0
167 189 0
168 191 0
166 188 0
166 188 0
167 188 0
166 188 0
165 186 0
168 189 0
163 185 0
149 170 33
44 69 66
48 76 81
48 75 82
50 78 92
52 82 105
51 79 94
54 84 111
53 84 103
51 81 96
52 82 99
52 81 100
54 85 112
54 85 108
54 85 107
53 84 104
54 84 105
54 84 106
54 86 106
55 86 107
53 82 102
56 87 112
55 85 107
54 85 107
55 86 115
54 85 106
54 85 108
54 86 111
54 84 103
57 89 106
54 85 108
53 83 105
56 88 110
54 85 103
55 86 103
55 86 100
55 87 115
54 85 103
56 87 111
55 87 101
54 86 105
55 87 109
56 87 115
57 89 116
56 88 115
56 87 117
55 86 106
56 87 115
56 88 112
54 85 108
55 86 112
55 85 106
54 85 106
55 86 103
54 85 107
56 87 112
55 86 107
55 85 111
55 86 109
55 86 115
53 82 97
55 86 108
53 82 100
53 84 102
54 85 103
53 83 102
55 85 106
54 85 103
55 85 110
54 84 102
53 82 95
55 85 104
54 84 101
53 83 103
52 82 99
52 81 105
53 81 104
52 81 90
51 79 91
49 76 86
51 79 94
49 75 81
48 75 88
49 75 81
46 70 74
47 72 75
43 64 55
145 164 40
166 187 0
166 187 0
164 185 0
168 189 0
167 187 0
166 186 0
166 186 0
167 188 0
169 190 0
165 186 0
162 184 0
166 187 0
165 186 0
165 187 0
167 188 0
168 189 0
134 142 24
98 91 38
93 88 26
89 82 24
85 82 18
76 74 12
75 72 12
77 74 12
80 76 14
80 77 14
79 78 14
79 75 13
89 87 18
91 87 13
83 80 22
98 93 14
90 86 13
94 90 26
95 92 28
103 99 16
97 94 25
100 97 27
102 98 27
105 102 25
102 99 27
106 102 25
110 104 26
105 101 31
110 106 27
109 105 30
110 108 26
119 114 33
126 120 39
121 116 29
125 120 36
118 113 38
123 117 28
120 115 30
124 118 33
126 119 45
125 119 36
128 123 34
128 123 34
131 124 39
133 125 43
133 125 39
134 129 39
132 127 35
138 132 45
135 129 37
133 127 38
135 129 43
134 128 45
135 129 41
141 135 46
138 130 47
136 129 42
141 134 50
144 137 53
144 137 43
137 131 43
140 133 40
140 132 41
143 136 47
140 134 43
140 134 46
146 136 54
139 133 46
145 139 49
142 136 46
138 132 47
153 143 60
146 140 52
144 137 48
149 140 54
145 138 50
150 143 53
150 143 51
147 140 51
147 140 52
146 138 52
149 141 55
148 141 58
146 138 50
150 143 56
147 141 49
144 137 50
149 141 62
147 139 57
149 141 53
147 140 55
150 141 61
152 145 56
146 139 53
146 138 56
144 136 48
149 142 54
147 140 60
151 143 60
149 141 58
144 138 55
148 140 55
150 143 60
151 143 53
150 143 59
147 140 56
154 145 59
149 142 57
151 143 63
146 139 60
143 136 59
146 138 57
149 141 63
146 138 59
152 145 62
142 134 55
154 146 67
146 139 58
143 136 57
141 133 56
145 139 58
141 133 50
144 135 59
148 139 59
148 141 61
149 142 59
139 133 53
136 130 52
143 136 58
137 131 50
142 134 57
147 139 58
137 129 52
140 133 54
143 136 56
148 141 60
136 129 53
149 141 60
148 140 63
144 137 55
146 164 22
144 159 25
147 164 23
146 161 27
143 159 23
146 160 27
148 162 28
144 161 16
146 162 24
147 163 26
148 164 17
151 170 17
148 165 23
148 165 23
147 162 23
150 166 21
148 165 15
150 167 19
149 167 14
150 168 17
148 166 16
149 168 15
150 168 16
150 168 14
150 169 8
149 168 12
151 170 8
150 170 0
149 167 8
147 166 7
149 168 10
152 171 0
150 170 0
149 169 0
148 166 0
149 170 0
149 168 0
149 167 0
149 169 0
149 168 0
150 168 0
149 168 0
148 168 0
147 166 0
147 167 0
148 168 0
147 166 0
145 164 0
148 167 0
149 168 0
148 167 0
146 166 0
144 162 0
143 162 0
144 164 0
148 166 0
146 164 0
146 163 0
148 167 0
142 161 0
144 162 0
145 163 0
144 162 0
143 162 0
144 163 0
145 164 0
145 165 0
141 159 0
144 162 0
142 161 0
144 162 0
144 163 0
144 162 0
144 162 0
143 161 0
140 157 0
142 160 0
141 159 0
139 158 0
141 160 0
137 153 0
140 157 0
138 155 0
141 158 0
139 156 0
139 157 0
140 158 0
138 155 0
139 157 0
138 154 0
134 149 0
133 149 0
137 156 0
136 154 0
132 149 0
135 151 0
133 151 0
133 150 0
134 151 0
132 149 0
133 149 0
128 143 0
128 145 0
128 144 0
127 143 0
124 140 0
122 137 0
125 140 0
119 133 0
125 141 0
124 138 0
122 137 0
123 137 0
110 125 0
122 137 0
119 133 0
118 132 0
116 130 0
105 118 0
108 121 0
103 116 0
106 119 0
103 117 0
109 120 0
102 115 0
105 117 0
106 118 0
97 110 0
103 115 0
107 120 0
105 118 0
113 127 0
114 129 0
118 132 0
123 138 0
127 143 0
124 140 0
125 139 0
124 141 0
169 191 0
166 189 0
167 190 0
163 184 0
165 187 0
169 191 0
167 189 0
165 186 0
165 186 0
164 186 0
164 186 0
164 186 0
165 187 0
165 187 0
168 189 0
164 187 0
161 183 0
164 186 0
98 117 53
49 77 88
50 78 89
49 77 87
51 79 97
50 78 86
52 81 103
53 84 105
52 81 96
51 81 94
53 82 98
55 86 96
54 85 103
52 82 101
54 85 94
53 84 107
52 83 104
53 83 102
54 85 106
53 83 95
54 85 109
54 85 109
54 86 97
55 86 108
53 84 102
54 85 102
55 86 108
54 85 106
54 85 96
54 85 108
56 87 116
54 85 108
55 85 109
55 87 112
55 86 113
56 88 120
55 86 101
55 86 110
54 85 106
56 88 116
54 85 104
55 86 112
54 84 106
55 86 105
53 84 103
56 88 115
54 85 105
55 85 107
54 84 105
55 85 108
55 87 107
55 87 110
54 85 108
54 85 100
55 86 102
54 85 107
54 84 99
55 86 111
55 87 106
54 84 108
54 84 100
55 87 108
52 82 102
52 82 96
54 85 109
54 85 109
54 84 105
52 81 90
55 85 109
53 83 105
54 83 109
53 82 97
52 82 100
53 83 100
53 83 98
53 83 102
52 81 95
51 79 90
49 77 87
50 77 89
49 77 87
50 76 94
48 73 79
47 73 81
48 73 78
101 118 51
166 188 0
161 183 0
160 181 0
164 185 0
162 182 0
161 181 0
164 184 0
162 182 0
162 183 0
163 184 0
162 182 0
163 185 0
163 183 0
166 186 0
166 185 0
168 188 0
164 184 0
163 183 0
120 126 29
91 86 19
93 88 29
86 84 17
82 79 20
86 81 21
78 73 15
85 81 10
84 81 11
84 79 13
84 78 12
79 76 13
80 77 14
88 85 12
94 90 23
97 93 21
93 89 17
100 92 15
101 97 19
98 93 19
113 108 24
104 101 28
100 95 27
104 101 28
103 98 26
112 109 28
110 106 20
115 109 28
117 111 25
115 110 26
121 115 30
121 115 37
121 116 29
121 115 36
117 112 33
131 125 38
121 114 34
122 115 33
127 120 38
123 118 33
128 120 35
134 128 39
130 123 36
130 124 32
131 124 42
130 124 43
131 126 38
131 127 43
131 123 32
138 132 40
135 130 37
134 128 40
135 128 36
137 130 41
142 133 49
139 133 46
143 137 51
142 135 48
143 136 40
139 132 46
142 136 48
141 134 43
139 131 46
141 133 49
141 135 44
141 134 46
141 134 46
145 139 48
140 133 40
143 136 53
146 139 53
144 139 41
138 131 45
150 142 54
144 137 51
150 143 49
147 139 48
142 135 44
148 141 53
145 136 52
149 140 53
144 137 50
145 138 53
151 142 55
145 137 55
146 137 60
142 134 48
145 137 52
146 139 50
147 141 49
146 138 52
152 144 58
148 139 54
148 141 56
150 141 56
146 138 52
147 138 57
147 140 53
143 133 51
143 136 53
147 140 55
143 135 54
150 141 56
151 143 60
146 139 55
149 142 50
150 142 60
141 134 55
141 134 52
140 133 52
147 138 53
146 137 54
145 138 53
149 141 55
144 137 58
145 138 55
143 134 56
148 138 56
144 136 55
146 138 59
142 134 54
142 135 54
144 136 58
143 136 55
145 137 56
143 135 62
137 131 48
147 139 60
148 140 58
142 134 57
144 138 55
139 131 57
144 137 54
139 131 55
143 137 57
144 137 56
141 133 55
140 132 56
146 138 61
146 162 26
144 159 18
146 163 21
148 163 28
148 164 23
145 159 29
146 163 18
146 162 20
146 161 27
147 161 26
148 164 24
143 160 27
146 161 25
148 162 28
147 164 25
149 165 17
146 162 19
147 165 17
145 162 15
148 165 21
148 168 0
146 163 21
150 169 8
147 165 20
146 165 7
147 166 14
149 167 14
148 167 8
149 168 7
150 170 7
149 166 8
150 168 7
148 167 0
147 166 0
149 169 0
147 167 0
150 168 0
148 166 0
148 168 0
147 167 0
149 168 0
148 168 0
148 167 0
147 167 0
145 163 0
149 168 0
150 170 0
149 169 0
150 169 0
146 164 0
146 165 0
146 165 0
149 168 0
147 167 0
146 167 0
147 166 0
147 167 0
144 163 0
147 166 0
143 162 0
148 166 0
144 163 0
148 167 0
145 163 0
142 161 0
144 162 0
143 161 0
144 162 0
144 162 0
143 161 0
143 161 0
139 157 0
141 158 0
144 161 0
139 157 0
141 160 0
140 158 0
140 159 0
141 159 0
139 156 0
143 161 0
140 158 0
139 156 0
139 157 0
138 155 0
141 158 0
138 155 0
139 156 0
139 156 0
134 151 0
137 154 0
137 156 0
136 153 0
134 150 0
134 150 0
136 152 0
137 155 0
131 147 0
134 151 0
128 144 0
130 145 0
126 140 0
129 143 0
131 147 0
122 136 0
126 143 0
118 133 0
126 141 0
122 137 0
121 135 0
123 139 0
119 135 0
119 134 0
116 129 0
114 129 0
113 127 0
117 131 0
117 132 0
115 128 0
107 119 0
110 123 0
110 122 0
114 126 0
105 118 0
113 127 0
104 118 0
102 114 0
104 117 0
107 121 0
105 118 0
99 111 0
115 129 0
112 127 0
123 138 0
119 135 0
122 137 0
119 134 0
121 136 16
162 184 0
164 186 0
168 190 0
165 187 0
169 191 0
165 186 0
166 188 0
164 186 0
164 186 0
163 185 0
164 186 0
163 185 0
164 186 0
164 186 0
163 183 0
162 184 0
163 185 0
160 181 0
162 185 0
159 181 20
77 99 60
46 73 75
49 77 87
50 79 93
52 81 96
50 79 93
51 81 89
51 80 88
52 82 96
52 82 103
52 82 99
53 83 96
53 83 105
52 82 97
54 85 106
53 84 103
53 82 101
53 84 101
54 84 97
53 84 97
55 86 103
54 84 105
53 83 102
54 84 106
54 84 100
53 84 100
53 84 100
56 88 109
54 85 104
53 84 98
55 86 112
53 83 91
53 84 104
55 86 105
54 85 101
55 86 108
55 86 112
55 86 104
54 85 99
55 87 109
54 84 97
56 88 117
54 85 104
55 86 110
54 84 101
55 85 105
54 85 101
56 87 111
55 85 100
54 84 108
54 85 106
54 84 108
54 84 103
54 84 105
54 85 107
54 85 105
55 87 114
56 87 115
55 85 111
53 81 99
53 83 96
53 84 96
52 82 100
54 84 98
55 86 113
55 86 103
53 82 102
53 82 97
53 82 98
52 81 99
52 82 91
50 79 86
52 82 98
51 80 87
52 82 97
51 79 81
51 79 92
50 78 83
51 79 88
48 74 89
49 75 85
47 72 76
48 74 83
78 98 68
156 176 12
165 184 0
159 178 0
164 185 0
161 182 0
161 181 0
161 181 0
167 187 0
165 187 0
163 183 0
160 179 0
163 183 0
159 178 0
163 183 0
165 184 0
164 184 0
166 186 0
165 186 0
167 186 0
161 178 8
101 98 31
91 87 27
89 82 19
86 79 24
77 74 17
85 82 8
85 81 10
82 79 17
83 79 18
78 75 13
87 83 11
87 82 16
89 86 13
86 81 14
84 81 10
98 94 15
93 89 23
94 90 24
96 91 19
106 101 20
99 95 22
99 94 22
103 100 22
102 98 21
112 105 30
109 104 27
111 106 21
106 101 22
121 114 30
115 109 27
114 110 34
117 111 32
113 108 26
121 115 33
120 114 32
120 115 35
123 119 34
121 116 31
125 120 39
120 114 32
123 116 31
131 124 33
129 123 33
133 126 41
131 125 41
127 121 32
127 121 32
134 129 40
136 130 43
132 126 41
130 123 37
139 132 41
134 126 36
134 129 39
137 131 44
143 138 47
141 134 40
142 135 48
141 136 44
131 124 40
138 131 42
144 137 48
139 130 49
141 135 51
143 135 48
143 137 46
139 132 41
136 129 41
144 137 46
141 133 47
145 137 50
145 136 48
144 136 46
140 132 48
144 137 44
144 137 41
143 136 45
143 135 52
144 136 51
141 133 48
150 142 54
145 137 50
145 137 48
143 138 41
147 139 49
149 142 56
145 138 47
151 144 52
148 139 53
142 134 53
143 136 50
144 136 48
144 136 52
144 136 49
145 138 50
147 139 49
149 142 54
147 138 56
147 138 58
146 138 54
145 139 50
146 139 48
144 135 50
144 136 52
145 136 56
147 139 58
149 141 56
150 143 61
147 140 60
139 131 50
143 136 53
149 141 59
140 133 51
144 137 52
143 137 54
143 136 54
148 139 54
145 138 57
146 138 58
141 135 49
149 141 54
139 134 49
151 143 64
147 139 57
138 132 52
142 135 53
142 135 59
142 135 55
144 137 55
143 136 61
141 135 47
145 137 54
143 137 59
144 138 60
146 138 61
139 132 53
140 134 56
134 127 55
143 158 22
144 159 24
145 160 29
145 160 26
141 156 24
143 158 25
148 163 29
144 159 25
146 162 23
141 153 38
145 159 27
145 160 27
145 159 30
144 159 22
146 162 23
146 163 21
145 161 23
145 160 26
143 161 18
145 164 15
146 164 14
145 162 24
148 165 20
148 165 14
147 164 12
146 164 19
145 163 12
149 168 7
146 163 7
147 164 16
146 163 13
145 162 17
146 165 10
150 170 0
148 166 11
148 166 7
147 165 0
147 167 0
150 170 0
148 167 0
149 168 0
147 165 0
147 166 0
147 165 0
150 169 0
149 169 0
145 163 0
145 164 0
148 167 0
144 163 0
144 162 0
146 164 0
149 169 0
149 168 0
148 167 0
145 164 0
146 166 0
146 165 0
144 163 0
144 162 0
143 160 0
145 164 0
143 163 0
143 162 0
145 163 0
146 163 0
145 163 0
141 160 0
140 158 0
141 159 0
141 160 0
144 163 0
140 157 0
142 160 0
138 155 0
144 163 0
138 156 0
137 155 0
141 157 0
134 151 0
140 155 0
140 159 0
136 154 0
139 156 0
133 149 0
137 154 0
134 151 0
137 155 0
138 155 0
139 156 0
133 150 0
134 150 0
131 149 0
128 143 0
135 151 0
132 148 0
131 148 0
131 146 0
127 142 0
132 149 0
127 143 0
131 149 0
125 141 0
127 144 0
125 140 0
127 142 0
130 145 0
123 137 0
120 134 0
122 137 0
120 133 0
119 134 0
114 127 0
115 128 0
122 136 0
111 126 0
117 128 0
115 130 0
105 118 0
115 127 0
100 113 0
109 122 0
106 119 0
109 122 0
109 124 0
105 117 0
104 116 0
108 121 0
104 116 0
116 130 0
110 124 0
117 132 0
115 129 0
120 134 0
124 138 0
120 135 0
114 129 16
151 171 0
162 184 0
163 184 0
164 185 0
164 185 0
166 188 0
164 187 0
163 185 0
164 185 0
163 186 0
162 183 0
162 184 0
160 180 0
166 187 0
156 177 0
160 182 0
158 178 0
159 182 0
162 182 0
156 178 0
161 182 0
143 163 28
58 83 78
46 72 73
48 76 81
51 80 91
52 81 96
51 80 87
50 79 85
50 79 81
53 83 104
54 85 98
54 84 98
52 81 96
52 81 96
53 83 102
52 82 97
52 83 93
54 85 97
53 82 98
53 83 96
54 85 102
52 81 93
54 85 105
55 86 103
54 85 109
53 84 96
53 83 99
53 83 104
56 88 109
55 86 105
53 84 98
55 86 109
53 83 103
55 85 109
55 86 102
54 85 107
51 81 90
53 83 94
56 87 113
53 83 96
55 87 108
56 87 111
55 86 106
54 85 106
55 85 110
54 84 101
55 86 108
55 86 111
55 87 109
55 85 105
55 86 108
55 85 100
54 85 110
53 82 95
53 83 104
55 85 110
54 85 105
54 85 111
53 83 99
52 82 95
55 85 107
53 83 100
55 86 108
52 81 91
52 81 98
54 84 102
51 81 91
53 82 103
52 81 100
51 79 91
52 80 93
52 80 102
51 80 95
53 81 93
49 76 85
53 81 106
48 74 82
51 78 86
49 75 78
48 73 87
48 73 91
45 68 70
52 75 65
144 163 22
159 180 0
163 183 0
163 182 0
160 182 0
161 179 0
160 179 0
158 177 0
157 178 0
160 180 0
160 180 0
160 180 0
163 183 0
163 182 0
162 182 0
161 181 0
160 179 0
160 179 0
163 184 0
163 183 0
162 182 0
146 161 8
90 85 29
89 83 30
90 84 29
87 82 22
80 76 22
79 75 11
86 83 17
81 76 18
86 81 17
89 84 13
87 83 6
93 87 12
90 88 15
90 86 20
99 95 11
87 82 10
91 87 13
101 97 22
91 87 12
101 95 16
90 86 16
99 93 16
94 90 20
104 100 20
101 95 24
111 105 22
110 106 21
114 109 27
116 111 21
114 109 26
122 115 30
115 109 29
116 111 32
118 113 28
119 113 31
117 110 31
125 119 33
127 122 34
124 116 34
123 116 31
121 114 32
125 118 38
130 123 38
134 129 31
135 129 34
131 124 38
132 125 37
135 128 46
133 127 36
134 126 36
135 128 40
136 129 39
132 125 41
136 129 42
138 131 41
137 130 37
140 132 40
138 133 40
135 129 45
140 134 38
138 131 41
139 131 47
142 136 39
141 133 41
137 130 44
139 133 43
143 136 49
142 134 51
140 134 46
138 131 45
143 137 45
146 138 45
145 137 50
137 128 46
146 139 48
137 131 37
144 135 52
144 137 50
144 135 48
135 127 42
146 139 48
137 129 43
146 137 52
141 133 48
151 142 51
140 133 50
150 141 57
141 134 48
145 138 48
144 137 50
149 143 59
144 136 51
150 144 54
141 134 42
144 136 48
145 136 47
149 141 54
147 140 58
150 142 53
147 140 59
146 137 56
143 136 50
144 136 48
145 137 52
143 135 53
140 133 52
140 133 53
149 140 58
137 128 47
147 139 54
141 134 56
146 137 59
141 133 50
143 136 54
141 134 57
144 137 54
147 138 61
145 137 56
142 134 49
141 134 51
138 130 52
147 139 56
142 135 53
138 131 52
134 127 41
140 133 53
137 129 51
148 141 59
144 138 60
142 134 55
142 134 57
139 132 53
141 132 60
138 130 53
144 137 58
143 133 50
139 131 59
142 155 30
144 155 34
141 154 29
144 159 26
141 157 19
144 160 20
145 161 21
145 161 23
144 158 32
144 158 25
145 161 26
146 161 29
146 161 30
144 160 26
146 162 24
144 161 20
144 159 22
145 160 22
148 166 22
146 161 25
141 157 29
145 161 23
148 165 16
145 161 21
148 164 25
144 160 23
143 159 21
144 162 19
149 166 22
146 164 12
145 163 14
147 163 21
145 164 12
145 164 11
148 165 16
147 165 4
145 163 8
145 163 15
147 166 0
147 165 0
145 164 0
148 167 0
148 166 0
146 164 0
150 169 0
147 166 0
145 165 0
146 166 0
145 164 0
149 168 0
147 166 0
145 164 0
145 163 0
147 166 0
149 167 0
142 158 0
144 163 0
144 162 0
148 167 0
146 164 0
144 162 0
145 164 0
143 161 0
141 160 0
143 162 0
144 161 0
146 164 0
144 162 0
143 160 0
141 159 0
142 159 0
138 156 0
140 158 0
142 159 0
140 158 0
140 157 0
138 155 0
140 155 0
141 158 0
141 159 0
136 153 0
138 156 0
140 156 0
139 156 0
135 152 0
136 153 0
133 149 0
135 152 0
136 153 0
136 154 0
134 152 0
138 154 0
128 143 0
127 144 0
131 149 0
134 149 0
136 153 0
131 145 0
131 149 0
125 140 0
127 142 0
128 144 0
127 144 0
127 142 0
124 141 0
126 140 0
126 141 0
123 136 0
127 142 0
122 137 0
118 132 0
123 137 0
116 130 0
113 127 0
108 122 0
116 129 0
113 124 0
114 127 0
113 125 0
113 127 0
112 126 0
108 120 0
108 120 0
103 117 0
112 124 0
117 131 0
112 126 0
108 121 0
112 125 0
106 119 0
108 120 0
117 130 0
118 132 0
125 140 0
117 132 0
110 125 0
145 163 0
164 185 0
163 185 0
164 186 0
163 184 0
163 183 0
160 180 0
159 180 0
161 183 0
161 182 0
163 184 0
163 183 0
161 182 0
159 180 0
161 183 0
158 180 0
157 179 0
159 180 0
160 180 0
155 175 0
161 184 0
162 184 0
159 181 0
126 145 47
46 73 66
49 77 83
47 73 76
51 80 87
51 81 99
50 79 86
50 79 83
50 79 86
51 80 91
54 84 95
51 80 97
52 82 99
53 84 98
53 84 96
52 81 87
53 83 96
54 85 102
54 84 104
52 82 94
54 84 100
52 82 100
54 85 108
53 83 100
54 85 100
54 85 108
55 86 108
54 85 106
53 84 99
53 83 100
54 85 107
54 84 104
55 87 110
52 82 94
53 83 98
55 85 104
53 83 96
54 85 108
55 85 99
54 84 102
54 83 104
54 85 107
53 83 97
54 85 106
57 89 115
55 86 104
52 82 95
53 83 99
56 87 117
55 86 107
56 86 107
54 84 108
53 83 107
55 86 106
54 84 102
54 84 104
54 85 97
53 83 96
53 84 94
53 83 103
53 83 94
53 83 101
53 84 105
53 83 95
52 81 97
52 82 94
52 81 99
54 84 100
51 80 89
53 84 105
52 81 90
51 78 93
50 78 84
51 78 88
50 76 93
47 73 80
48 74 83
46 70 78
48 73 76
45 68 63
45 70 65
114 131 43
156 175 0
158 178 0
155 173 0
153 171 0
157 173 0
157 177 0
156 175 0
158 178 0
160 179 0
160 179 0
154 172 0
158 176 0
156 173 0
158 177 0
162 181 0
162 181 0
163 183 0
160 178 0
163 182 0
164 184 0
165 184 0
159 178 0
138 151 14
92 86 27
86 80 26
90 86 22
88 83 16
82 76 11
85 80 11
83 79 13
89 84 12
88 85 14
83 80 15
80 77 16
91 85 12
87 82 18
93 88 12
92 87 14
93 88 24
97 93 20
102 97 18
98 94 13
105 101 26
100 96 19
103 100 19
102 97 13
107 103 21
103 99 20
111 107 23
108 103 27
102 98 21
114 109 28
112 106 23
116 112 28
116 110 25
118 111 27
121 116 25
117 111 26
119 115 25
122 117 24
118 114 27
125 120 31
130 125 37
126 120 34
124 118 33
127 122 38
127 121 36
131 125 33
126 119 31
131 125 35
131 125 41
131 125 36
143 136 44
137 130 37
133 126 34
132 126 38
133 127 33
139 131 43
138 132 41
134 126 37
134 124 40
132 125 35
133 126 35
136 130 42
137 131 40
142 136 44
139 133 45
140 134 47
139 131 38
133 126 36
149 141 54
144 136 53
138 131 39
139 131 45
143 136 45
136 128 39
143 136 47
140 133 41
139 131 44
144 137 45
144 136 48
144 137 47
140 133 45
150 142 51
142 135 45
138 132 42
146 138 51
142 134 43
145 138 48
143 135 46
143 135 48
143 135 49
142 135 45
141 134 46
145 139 48
144 137 49
145 138 47
144 137 47
142 134 50
145 137 50
146 138 54
144 137 51
145 138 54
142 133 51
142 137 53
142 135 49
144 136 52
140 134 50
151 144 59
144 135 54
144 136 55
140 132 51
147 139 57
144 136 49
150 143 58
144 136 51
149 139 60
142 133 50
143 135 54
142 134 53
143 136 53
142 134 53
148 141 59
145 138 57
144 138 51
140 132 55
140 134 55
142 134 54
138 130 56
147 138 58
136 130 50
137 131 49
138 131 53
142 134 57
136 130 50
139 132 51
130 122 51
139 133 52
140 132 50
143 156 28
143 158 26
143 158 20
143 157 31
143 158 23
143 158 23
136 149 23
145 160 25
143 156 33
142 153 36
142 154 34
144 159 27
143 160 18
143 157 30
143 158 21
144 161 24
143 158 26
144 159 23
140 156 20
140 155 24
146 162 21
145 161 26
146 161 24
147 163 24
145 160 28
144 159 26
146 161 18
147 165 16
144 162 14
144 160 22
147 165 10
147 165 15
147 163 22
146 163 19
148 166 15
148 165 10
147 165 19
147 165 15
147 167 11
146 164 6
147 166 8
147 165 0
147 165 0
148 168 0
145 163 0
147 165 0
149 167 0
150 168 0
148 167 0
144 163 0
146 164 0
147 165 0
146 164 0
145 163 0
145 163 0
142 161 0
146 165 0
144 162 0
145 164 0
146 165 0
140 157 0
144 162 0
143 161 0
144 162 0
146 166 0
143 163 0
142 160 0
140 159 0
143 162 0
139 157 0
142 160 0
140 156 0
142 159 0
142 159 0
141 158 0
139 156 0
140 157 0
141 157 0
138 155 0
135 153 0
135 152 0
139 156 0
135 152 0
138 154 0
135 151 0
142 159 0
141 157 0
140 157 0
135 152 0
139 155 0
135 151 0
135 152 0
133 151 0
132 149 0
136 153 0
128 143 0
134 150 0
125 140 0
134 151 0
133 148 0
130 145 0
131 146 0
131 145 0
127 142 0
124 140 0
126 141 0
123 139 0
122 136 0
124 139 0
124 139 0
121 135 0
121 134 0
120 134 0
122 136 0
124 138 0
113 128 0
113 126 0
115 130 0
113 126 0
114 127 0
106 119 0
119 134 0
113 126 0
104 116 0
116 130 0
112 126 0
108 120 0
110 124 0
113 126 0
107 119 0
117 131 0
122 137 0
119 134 0
114 128 0
109 123 0
138 156 0
161 182 0
161 183 0
165 186 0
158 180 0
160 180 0
164 184 0
161 183 0
163 185 0
164 185 0
160 181 0
163 185 0
159 181 0
161 182 0
161 182 0
156 177 0
159 179 0
154 173 0
160 181 0
162 183 0
158 179 0
154 175 0
154 174 0
153 173 0
154 174 0
102 122 59
48 75 79
48 75 83
49 77 79
51 80 93
49 78 87
51 79 89
51 80 92
51 79 95
52 82 100
52 82 91
50 79 88
51 80 93
54 84 98
50 78 88
54 86 99
55 87 109
53 83 99
51 80 94
54 85 103
54 84 101
53 83 100
54 84 101
54 84 97
53 83 91
53 82 106
53 82 96
52 81 95
55 86 101
55 86 99
54 86 102
54 84 103
52 82 94
52 83 95
54 84 104
53 83 105
53 83 100
52 82 101
56 87 113
53 84 94
54 85 104
54 84 106
55 86 108
54 84 104
53 83 93
53 83 96
53 83 97
55 86 101
54 85 108
54 85 94
53 83 101
53 83 100
53 82 102
53 83 100
55 86 110
54 84 98
52 80 93
52 80 101
53 83 102
54 85 101
54 84 106
53 82 98
52 82 95
53 82 102
51 80 90
51 79 88
51 80 91
51 79 93
52 82 99
50 77 83
51 79 88
50 77 83
49 75 86
48 75 75
47 71 75
49 76 85
52 80 92
47 73 79
45 70 67
102 120 48
151 168 0
153 170 0
155 174 0
156 174 0
159 179 0
153 172 0
156 174 0
157 176 0
157 176 0
158 177 0
156 175 0
153 170 0
158 175 0
158 178 0
153 170 0
154 171 0
161 180 0
162 181 0
157 175 0
158 174 0
160 179 0
158 175 0
159 177 0
159 175 0
134 146 16
89 83 25
90 84 21
91 86 22
82 78 19
87 83 19
84 79 10
84 79 16
87 84 18
83 78 13
87 82 16
87 83 9
83 79 14
91 84 12
92 86 13
89 85 9
91 87 16
100 96 16
97 92 11
104 100 22
93 90 19
103 98 22
104 99 15
105 99 15
115 110 24
112 106 22
109 105 22
106 100 21
108 103 20
117 110 26
114 109 21
118 112 32
123 116 30
115 112 25
123 116 28
114 109 23
120 115 27
115 110 16
126 120 28
123 117 26
124 118 35
123 117 31
126 119 34
124 117 21
128 120 35
131 125 31
129 122 29
131 125 37
129 122 39
131 125 34
134 127 37
138 130 34
131 125 34
130 123 25
136 127 39
136 130 39
135 127 32
132 125 31
133 125 41
135 130 37
136 130 40
135 129 39
137 129 40
137 130 41
137 130 37
144 137 45
144 136 44
141 135 44
142 134 42
139 131 45
143 136 47
147 138 52
142 135 46
139 133 42
144 136 45
142 134 45
141 133 44
141 134 46
143 136 47
142 133 39
140 132 40
144 136 52
146 140 45
146 138 51
144 136 42
136 130 44
145 138 55
143 134 49
144 136 50
139 132 46
141 132 52
145 137 53
145 139 51
144 136 45
140 132 47
145 137 52
136 129 46
143 135 52
141 133 46
143 135 55
143 135 55
142 134 50
148 140 53
143 137 50
150 142 61
148 140 54
144 136 53
138 131 49
144 136 49
141 134 47
138 131 51
143 136 48
141 134 48
139 132 51
149 141 57
144 137 47
141 134 53
147 138 54
138 131 47
140 135 47
143 135 57
137 129 52
141 134 54
139 131 55
133 126 48
139 132 53
144 136 51
140 133 58
136 129 48
142 134 58
145 138 60
144 136 56
137 130 56
141 133 58
138 131 51
142 135 60
142 158 22
143 155 30
142 157 23
143 155 33
144 160 25
140 155 21
140 155 21
145 161 17
146 161 30
141 156 22
141 156 19
138 151 27
145 159 26
143 156 29
143 157 28
143 158 23
140 156 25
140 154 28
142 156 28
142 157 22
148 162 26
141 155 21
147 161 24
141 155 29
143 156 28
143 159 23
147 163 24
143 158 21
143 158 28
146 164 12
146 164 15
144 159 23
146 163 17
144 161 17
144 161 14
144 160 18
144 161 9
145 161 20
148 165 17
146 164 15
144 162 16
146 165 7
148 165 16
147 165 8
148 168 0
146 163 0
146 165 0
148 165 0
146 165 0
146 164 0
143 162 0
147 166 0
147 165 0
148 165 0
145 164 0
146 166 0
146 164 0
141 161 0
143 162 0
142 159 0
145 163 0
143 162 0
141 158 0
144 164 0
143 161 0
142 158 0
145 162 0
146 165 0
142 161 0
139 158 0
141 159 0
140 159 0
141 158 0
139 156 0
140 157 0
138 156 0
140 156 0
138 155 0
137 154 0
136 152 0
134 153 0
140 157 0
135 153 0
133 149 0
139 155 0
137 153 0
137 154 0
134 150 0
134 150 0
135 152 0
133 149 0
137 153 0
134 150 0
133 149 0
135 152 0
131 147 0
133 150 0
129 144 0
123 139 0
126 140 0
127 142 0
130 147 0
126 142 0
126 141 0
128 143 0
131 146 0
124 138 0
121 134 0
122 135 0
123 138 0
118 132 0
119 132 0
115 129 0
110 122 0
120 134 0
111 124 0
116 130 0
116 131 0
116 128 0
108 121 0
106 119 0
112 124 0
101 115 0
107 118 0
109 123 0
110 123 0
110 123 0
109 123 0
118 130 0
117 130 0
116 129 0
121 136 0
118 132 0
112 126 0
122 137 0
162 183 0
160 182 0
157 178 0
161 180 0
161 182 0
160 180 0
159 179 0
155 175 0
160 181 0
163 184 0
158 178 0
159 179 0
152 173 0
155 176 0
155 175 0
158 180 0
153 173 0
156 177 0
154 176 0
156 177 0
156 175 0
154 175 0
153 174 0
157 177 0
151 171 0
154 175 0
85 107 52
45 70 66
48 76 81
49 77 92
48 76 77
49 77 84
50 79 86
53 83 97
49 76 87
51 80 83
51 80 91
51 80 92
52 81 94
51 80 89
53 83 99
53 84 103
54 85 102
51 80 91
52 82 95
52 81 91
54 85 102
52 83 95
53 83 101
51 81 92
54 84 105
52 82 102
53 84 104
54 85 99
53 83 96
55 87 112
56 89 113
55 86 104
54 85 100
53 83 105
52 82 92
53 83 100
54 85 104
54 84 98
54 85 105
55 87 111
56 87 108
53 83 101
52 82 97
52 82 94
52 82 90
52 81 92
55 86 106
51 81 84
52 82 89
52 81 90
53 82 100
54 84 104
53 83 99
53 83 97
53 83 101
53 83 104
54 84 101
52 81 94
52 82 88
54 84 102
52 82 83
52 81 99
51 81 89
53 83 102
51 80 91
52 82 96
51 80 90
52 80 94
51 80 96
49 75 86
49 76 87
52 80 90
51 79 94
49 76 82
51 78 85
47 72 67
47 72 72
86 105 62
150 168 0
155 174 0
149 166 0
154 173 0
154 173 0
156 173 0
150 168 0
149 165 0
151 167 0
153 170 0
156 174 0
153 170 0
152 169 0
153 170 0
155 173 0
156 174 0
156 173 0
158 174 0
157 174 0
157 175 0
153 169 0
157 175 0
155 172 0
159 178 0
156 174 0
158 175 0
122 129 24
91 87 26
87 82 22
80 77 14
80 74 16
84 77 16
88 83 14
84 78 18
87 81 10
82 77 16
83 78 10
90 85 11
93 89 11
97 92 16
97 92 8
89 85 9
92 88 13
93 89 8
99 93 10
99 92 16
92 88 21
101 94 19
103 98 13
103 98 19
101 97 14
112 105 23
108 103 20
111 106 19
118 111 22
114 108 26
115 108 26
111 106 20
111 105 18
118 111 25
119 111 23
119 113 28
120 114 27
122 116 26
122 116 28
125 117 31
125 121 26
124 117 32
124 118 31
133 126 32
128 123 27
130 122 35
127 120 32
129 122 35
134 127 33
127 122 34
132 126 32
129 122 34
134 126 38
131 123 36
137 130 43
134 127 40
130 123 33
135 129 30
135 128 39
140 132 41
137 130 34
137 130 36
134 127 42
136 129 38
135 129 41
139 133 44
138 131 38
134 128 36
138 131 37
136 129 38
140 132 43
137 130 37
142 134 43
138 130 38
141 133 44
145 139 44
143 135 47
141 136 46
141 132 48
139 132 37
144 137 48
143 135 43
147 140 46
142 133 48
137 130 45
145 137 50
141 134 45
141 135 46
147 138 48
143 135 47
142 133 45
139 132 48
142 136 44
147 139 52
136 129 44
143 133 48
143 136 45
143 134 50
140 133 44
144 137 50
144 136 51
143 136 51
141 135 52
141 134 48
141 134 49
147 140 50
142 135 49
143 135 54
148 140 54
144 135 52
141 134 49
140 131 46
142 135 55
144 135 59
145 138 50
146 137 59
149 142 55
137 130 49
143 135 49
144 136 55
142 133 52
139 131 49
144 135 51
143 134 54
142 133 53
140 132 49
141 134 52
140 133 51
138 129 51
128 120 48
142 133 58
143 135 55
139 131 57
136 130 48
138 131 55
141 157 20
143 159 22
143 157 28
144 157 25
137 149 34
142 156 33
136 148 29
143 158 27
141 151 39
141 154 30
139 154 23
143 156 28
140 152 34
140 156 25
138 149 27
144 156 33
140 153 28
139 153 24
145 162 16
142 155 28
140 154 27
143 154 35
140 154 28
145 159 26
144 160 21
143 157 25
138 152 24
141 156 14
145 162 24
146 161 25
142 156 24
144 160 19
142 157 21
143 159 18
144 157 26
142 160 20
142 158 22
146 165 14
143 160 18
142 159 19
144 160 16
143 161 7
146 164 19
145 163 11
140 158 11
145 162 11
145 162 12
144 161 0
146 164 0
146 164 0
146 165 0
147 165 0
147 167 0
145 162 0
145 163 0
143 162 0
141 158 0
144 162 0
144 161 0
144 162 0
145 164 0
140 158 0
141 159 0
142 160 0
142 159 0
144 162 0
141 158 0
146 164 0
141 158 0
141 159 0
139 156 0
143 161 0
139 156 0
139 156 0
137 155 0
140 157 0
138 156 0
142 159 0
136 153 0
140 158 0
138 155 0
140 158 0
138 156 0
136 153 0
136 154 0
134 151 0
134 151 0
133 150 0
131 147 0
134 150 0
137 154 0
131 147 0
130 145 0
129 145 0
132 149 0
126 139 0
128 145 0
131 145 0
128 144 0
129 143 0
125 138 0
133 150 0
132 148 0
124 139 0
120 134 0
121 136 0
119 132 0
120 134 0
123 137 0
113 127 0
117 131 0
116 129 0
118 132 0
119 132 0
113 127 0
117 131 0
119 132 0
113 127 0
112 127 0
118 130 0
116 129 0
113 127 0
114 126 0
108 121 0
112 126 0
116 129 0
114 126 0
118 129 0
120 133 0
112 126 0
119 132 0
113 127 0
111 124 0
127 143 0
161 182 0
155 176 0
162 183 0
160 181 0
156 175 0
157 177 0
161 180 0
158 178 0
157 175 0
154 173 0
154 175 0
158 178 0
152 171 0
155 175 0
156 174 0
155 175 0
150 169 0
152 171 0
153 172 0
152 172 0
152 172 0
153 174 0
148 166 0
155 174 0
151 171 0
149 168 0
148 166 0
149 168 0
77 97 56
43 67 63
48 75 79
47 73 77
50 78 85
51 80 96
51 79 86
52 81 101
49 77 93
51 81 91
52 82 92
50 79 88
52 81 94
51 80 94
51 81 95
49 78 83
52 82 90
54 84 101
53 83 96
53 82 98
52 82 98
51 81 94
53 83 95
53 84 103
51 81 93
54 85 105
52 81 95
53 83 97
52 82 98
53 84 106
55 85 105
55 86 101
54 84 100
54 84 102
53 82 94
54 84 102
54 84 104
53 83 101
53 84 95
53 84 100
53 82 107
52 81 97
54 84 103
54 84 103
54 84 102
53 82 97
53 83 98
54 84 101
53 83 90
52 82 106
53 83 98
53 82 96
53 82 93
51 80 91
55 86 108
51 80 91
52 81 96
52 82 95
51 78 92
55 85 101
52 81 92
52 82 93
51 78 95
51 80 94
51 78 89
51 79 88
52 80 93
49 76 78
50 78 85
49 76 85
50 78 87
49 74 87
49 76 83
47 72 68
47 73 84
77 96 59
143 159 5
145 163 0
144 160 0
157 176 0
148 165 0
151 169 0
155 173 0
151 169 0
150 165 0
150 167 0
153 169 0
153 169 0
159 177 0
150 169 0
152 169 0
150 167 0
152 168 0
156 175 0
156 170 0
155 172 0
150 168 0
160 177 0
152 166 0
154 170 0
155 171 0
154 171 0
156 174 0
158 175 0
121 126 25
87 81 26
81 75 13
91 85 17
85 80 13
91 84 18
81 76 11
80 76 13
89 84 14
83 78 12
91 85 11
96 92 14
94 87 9
93 86 14
93 86 15
99 94 8
86 79 10
104 99 14
95 92 13
99 93 13
96 92 18
101 95 19
102 95 20
98 94 14
106 101 11
106 101 17
103 98 21
112 107 16
114 107 14
124 116 27
111 104 16
116 108 17
116 110 25
122 115 25
117 110 22
116 110 23
117 112 21
119 114 31
124 118 27
122 115 24
122 116 26
130 124 28
124 117 32
133 126 34
127 118 32
123 117 29
124 118 30
128 122 31
123 115 29
131 125 34
135 127 40
131 124 34
130 125 30
135 129 35
129 122 33
136 128 35
142 135 43
135 129 30
134 128 34
134 126 35
138 132 36
138 132 39
140 133 39
137 129 35
135 129 39
140 131 46
141 133 39
140 132 44
132 125 41
140 132 43
138 132 34
140 132 49
142 135 45
134 128 43
138 130 45
135 128 39
140 132 40
136 130 43
141 135 42
138 131 48
141 133 46
137 130 40
138 129 45
142 133 44
142 134 44
145 137 47
138 131 44
139 132 46
144 137 44
142 133 48
139 132 45
142 135 52
135 129 40
136 130 43
138 132 44
141 135 45
145 137 48
144 137 50
139 132 44
139 131 46
140 131 49
143 135 47
146 138 52
144 137 49
145 136 53
142 134 50
141 133 54
140 132 52
144 136 54
142 135 51
142 134 49
136 129 44
139 131 52
142 136 54
139 133 52
138 130 50
145 137 53
138 130 53
141 134 54
142 135 51
144 136 52
134 128 50
142 135 55
139 131 50
141 133 51
134 128 48
143 135 55
142 135 56
139 130 52
136 129 48
139 130 50
143 136 57
140 133 53
140 132 51
143 156 32
144 157 31
143 159 16
139 150 35
138 152 28
139 150 32
134 149 18
139 151 32
145 158 26
140 151 35
135 145 31
137 151 18
137 149 30
144 158 27
137 150 25
135 146 31
137 149 29
137 151 28
139 149 35
138 151 29
140 153 28
139 150 32
140 156 20
136 150 22
142 156 28
145 159 30
145 160 22
142 154 29
142 156 29
143 157 25
142 156 24
142 157 23
142 158 18
138 156 12
143 160 17
141 156 22
141 154 27
145 162 14
139 154 21
146 159 25
141 157 18
145 162 19
143 160 18
145 162 15
145 161 20
143 161 11
143 159 11
143 160 8
143 160 1
146 164 0
145 162 8
146 166 0
145 163 0
142 159 0
143 162 0
145 163 0
145 164 0
144 162 0
143 159 0
140 156 0
142 159 0
143 160 0
141 157 0
138 154 0
142 161 0
143 160 0
142 160 0
138 155 0
141 158 0
135 152 0
141 158 0
140 158 0
138 155 0
141 159 0
137 153 0
140 158 0
138 156 0
136 151 0
135 151 0
137 155 0
134 149 0
136 152 0
140 156 0
138 154 0
136 152 0
132 147 0
137 154 0
135 152 0
134 149 0
127 143 0
130 146 0
130 146 0
134 150 0
130 145 0
129 144 0
129 143 0
127 142 0
129 144 0
130 145 0
135 151 0
129 144 0
125 142 0
126 141 0
122 137 0
121 135 0
125 140 0
122 136 0
126 140 0
121 136 0
122 134 0
118 132 0
119 133 0
109 123 0
114 127 0
122 135 0
109 124 0
112 125 0
117 130 0
117 130 0
112 125 0
112 125 0
115 130 0
112 124 0
109 121 0
114 127 0
111 123 0
111 123 0
110 123 0
117 132 0
118 131 0
106 120 0
107 119 0
131 146 0
153 173 0
161 180 0
159 179 0
159 179 0
157 177 0
156 176 0
154 173 0
157 176 0
150 170 0
158 177 0
154 173 0
153 173 0
150 170 0
151 169 0
157 176 0
154 173 0
149 171 0
152 171 0
157 176 0
146 165 0
151 170 0
153 173 0
154 172 0
148 168 0
149 169 0
147 166 0
141 161 0
158 179 0
142 161 0
143 162 0
72 94 60
49 76 77
47 74 75
48 76 78
52 81 95
50 78 77
49 78 77
51 81 95
51 79 87
51 80 85
51 80 87
51 80 92
52 81 95
50 79 91
51 81 99
52 81 97
51 81 95
51 80 87
56 86 107
52 82 97
52 81 95
55 85 100
53 82 101
52 81 91
51 81 97
51 80 99
53 83 91
53 84 100
52 82 90
54 86 98
53 83 95
52 82 90
52 81 92
53 83 101
52 82 101
54 84 97
54 85 102
52 82 97
52 82 99
51 80 89
52 81 99
53 84 104
52 82 95
54 84 99
54 84 104
54 84 105
53 83 96
51 80 88
51 80 87
52 81 91
51 80 95
51 80 93
52 82 97
53 82 103
52 82 94
51 80 90
51 80 90
52 82 96
53 83 102
52 81 92
51 79 96
51 80 91
52 81 94
50 78 86
49 77 83
49 75 78
51 79 85
49 77 89
48 75 76
51 79 86
47 72 67
48 74 73
45 68 68
70 90 68
136 151 22
147 165 0
148 165 0
151 166 0
152 168 0
142 157 0
151 170 0
149 166 0
149 165 0
148 164 0
153 169 0
147 163 0
148 162 0
148 164 0
150 165 0
149 165 0
152 167 0
153 170 0
153 169 0
147 163 0
155 171 0
154 169 0
154 170 0
151 164 0
155 170 0
152 167 0
155 169 0
155 170 0
159 174 0
155 171 0
124 132 20
87 81 23
94 87 24
81 77 21
93 87 21
80 75 8
80 75 16
90 83 13
95 88 13
85 80 12
89 86 5
89 84 8
87 81 12
93 87 9
99 94 14
83 79 8
89 83 12
100 93 10
99 93 16
96 89 10
98 94 5
104 99 15
109 103 14
103 97 17
104 99 12
110 103 16
110 104 19
115 107 21
108 103 19
108 103 11
108 101 19
113 109 24
110 103 21
119 111 26
115 108 18
125 118 24
126 118 28
122 116 26
117 110 21
121 115 23
119 111 19
122 116 26
128 120 30
120 114 24
125 117 26
131 124 33
132 124 31
130 120 34
126 121 29
133 125 30
127 122 30
138 131 40
130 123 35
127 121 33
137 129 34
132 124 37
135 127 32
137 130 33
132 124 30
135 126 39
135 130 30
133 126 32
137 130 33
136 129 34
139 131 39
138 131 38
135 128 37
137 130 37
136 130 40
138 131 41
141 132 41
135 128 40
138 131 37
135 128 36
141 134 42
141 133 43
132 125 30
133 126 38
139 131 39
130 123 36
137 129 39
140 132 44
141 133 45
138 131 39
144 137 47
138 130 39
137 131 42
135 127 38
141 134 47
140 131 47
136 128 41
140 132 50
137 130 47
141 133 49
137 129 38
137 129 45
142 136 44
136 130 44
141 133 42
140 133 44
137 129 51
141 134 46
142 133 49
141 134 45
146 139 57
138 130 44
137 129 50
144 136 52
140 133 49
141 133 48
142 135 50
142 134 49
141 134 51
138 130 46
136 128 46
139 131 48
139 132 48
142 135 54
144 136 52
143 136 53
139 131 51
133 124 46
135 128 50
139 131 47
139 132 52
143 134 52
145 137 55
140 131 50
129 123 40
135 127 50
136 129 50
136 128 53
133 126 46
142 155 28
141 154 31
137 151 23
139 151 36
140 153 25
144 155 30
138 149 28
141 152 33
138 149 30
141 152 32
136 149 31
139 151 29
138 150 28
136 148 28
138 149 32
143 156 27
139 150 39
135 146 30
138 149 34
132 143 29
139 151 31
141 155 23
138 151 24
139 150 31
136 149 28
134 145 32
139 151 24
139 153 24
140 153 31
140 153 28
140 155 19
141 153 36
138 152 24
143 158 19
139 153 20
143 156 25
140 155 21
142 155 26
140 155 13
140 155 20
144 159 26
139 153 24
138 151 21
144 160 21
141 158 16
145 161 16
140 157 8
144 162 16
141 157 12
140 157 19
145 163 11
143 161 7
141 158 7
141 159 0
142 159 0
145 162 0
140 158 8
143 162 0
142 162 0
140 158 0
140 157 0
141 159 0
140 157 0
142 160 0
139 157 0
142 160 0
141 160 0
139 156 0
142 159 0
141 158 0
141 158 0
138 155 0
138 156 0
139 156 0
140 156 0
139 155 0
133 149 0
135 153 0
139 157 0
137 153 0
137 153 0
138 155 0
133 150 0
131 149 0
135 150 0
131 147 0
136 152 0
128 144 0
132 147 0
129 145 0
130 144 0
129 145 0
128 143 0
132 149 0
131 147 0
126 141 0
126 140 0
133 149 0
128 143 0
117 132 0
124 139 0
130 145 0
125 140 0
125 138 0
126 141 0
124 138 0
115 129 0
122 136 0
114 127 0
120 133 0
121 135 0
117 131 0
115 127 0
115 128 0
119 131 0
115 127 0
114 127 0
111 124 0
113 126 0
108 120 0
109 122 0
106 119 0
118 130 0
114 128 0
111 122 0
116 130 0
113 126 0
110 124 0
115 128 0
112 125 0
102 115 0
128 144 0
154 173 0
157 176 0
159 178 0
155 173 0
156 176 0
151 171 0
150 170 0
155 174 0
155 174 0
157 175 0
150 170 0
155 174 0
150 169 0
153 174 0
152 171 0
150 168 0
149 167 0
143 161 0
151 170 0
152 169 0
147 165 0
153 172 0
148 168 0
149 169 0
147 165 0
148 168 0
151 171 0
146 163 0
143 162 0
140 159 0
146 165 0
137 156 0
69 90 59
47 73 72
47 75 72
47 74 81
49 77 83
50 79 89
50 78 92
49 77 86
51 80 86
50 79 90
50 79 84
50 78 88
52 82 88
50 79 86
52 81 97
50 77 92
53 83 91
54 83 98
50 78 83
52 81 97
54 85 101
51 81 95
54 84 99
51 80 95
52 82 95
53 82 98
53 82 100
54 84 97
51 80 87
53 82 98
53 83 95
52 83 90
52 82 94
53 83 86
53 83 93
52 82 93
52 81 89
54 84 100
53 83 100
52 82 92
52 81 97
53 82 100
50 78 93
52 82 98
52 83 92
52 81 99
50 78 93
54 84 104
51 81 85
52 81 92
50 79 92
53 82 100
54 84 98
53 82 88
51 79 94
52 81 96
50 79 95
50 77 92
50 78 86
52 81 93
51 80 90
48 75 83
50 77 89
52 80 93
49 77 86
49 76 85
48 74 76
47 73 76
47 72 74
47 73 70
46 70 77
74 91 55
132 149 14
141 158 0
140 154 0
143 158 0
149 166 0
146 163 0
149 167 0
147 162 0
148 161 0
139 156 0
148 163 0
153 169 0
147 162 0
149 162 0
146 160 0
149 164 0
147 163 0
152 169 0
147 160 0
143 157 0
146 160 0
149 164 0
153 168 0
151 165 0
146 161 0
150 165 0
156 170 0
151 167 0
151 166 0
151 164 0
152 167 0
153 170 0
126 133 24
90 82 27
88 82 22
92 86 21
87 80 23
96 90 17
79 75 8
88 83 9
84 79 12
88 82 11
86 81 6
95 88 14
93 88 11
90 82 11
84 76 8
98 92 12
100 93 8
104 98 9
104 97 17
101 95 6
110 104 12
102 97 11
110 102 16
102 97 17
99 94 16
109 103 23
108 99 20
112 106 14
105 100 18
111 106 14
117 110 23
111 105 10
112 104 18
117 110 28
117 110 22
117 112 21
121 115 25
120 113 24
121 115 24
117 111 24
116 109 24
118 111 22
120 114 19
123 118 21
133 125 30
128 121 27
124 117 28
127 119 32
128 121 26
132 123 30
130 122 33
134 127 36
130 123 23
128 121 32
135 127 33
134 128 34
134 126 40
135 128 35
136 129 37
133 127 31
137 128 35
132 123 37
134 125 39
137 128 28
130 123 39
135 128 35
139 132 36
137 129 39
137 129 41
135 128 39
137 130 42
135 128 38
137 129 37
143 135 48
137 130 43
144 138 42
136 129 34
140 132 44
137 130 41
145 136 45
138 131 37
142 134 45
138 131 39
137 131 45
146 138 50
138 130 45
137 129 45
138 130 41
139 132 40
142 134 42
139 131 45
137 131 39
136 128 43
140 133 46
142 135 40
144 136 52
147 141 48
146 138 49
135 128 47
135 127 43
145 139 48
145 137 53
138 128 46
139 132 45
140 132 49
144 137 54
139 131 50
141 134 51
139 132 46
133 126 47
143 135 51
142 134 51
143 136 50
138 129 51
139 130 53
137 129 49
135 128 45
135 127 47
146 138 54
139 132 52
130 123 45
132 126 42
133 125 47
139 131 49
132 125 44
136 129 46
140 133 55
131 123 52
133 126 48
134 127 52
132 125 45
136 129 50
141 155 33
141 152 27
142 156 29
141 155 30
137 150 30
136 148 31
138 148 31
138 150 31
134 147 25
140 149 34
139 150 28
136 148 31
136 147 31
137 150 28
140 151 35
139 151 33
141 150 42
133 144 31
136 147 32
136 149 25
137 146 38
136 148 33
135 147 27
141 152 35
135 145 33
139 151 25
135 145 29
135 144 39
132 144 30
139 150 29
141 155 26
137 152 20
137 149 27
135 147 25
142 156 23
138 151 26
138 150 28
139 153 14
141 155 26
135 148 28
140 153 30
136 148 26
142 156 21
139 154 20
137 151 20
143 158 26
139 156 14
139 154 22
140 156 18
144 160 14
140 154 22
143 159 8
142 157 19
140 157 17
137 153 14
144 161 16
141 159 10
143 161 10
143 160 0
140 158 7
140 158 0
143 161 0
143 160 0
143 161 0
141 158 0
139 157 0
140 158 0
143 161 0
141 158 0
138 154 0
139 156 0
140 156 0
139 156 0
137 154 0
138 154 0
136 154 0
136 153 0
138 155 0
138 154 0
138 156 0
134 151 0
138 155 0
136 152 0
135 152 0
132 147 0
136 152 0
130 145 0
133 149 0
134 149 0
130 145 0
133 148 0
134 150 0
128 143 0
132 147 0
126 142 0
130 145 0
131 147 0
131 146 0
128 145 0
125 139 0
128 143 0
126 141 0
125 139 0
126 140 0
121 135 0
126 140 0
122 136 0
117 132 0
115 129 0
119 133 0
116 129 0
118 131 0
121 135 0
112 123 0
115 128 0
120 134 0
112 123 0
109 123 0
116 129 0
113 125 0
112 125 0
109 120 0
114 127 0
113 126 0
108 121 0
113 126 0
112 126 0
111 123 0
107 118 0
104 115 0
130 146 0
151 170 0
157 177 0
151 169 0
155 173 0
151 170 0
151 170 0
148 165 0
151 170 0
148 165 0
152 171 0
145 164 0
152 170 0
146 164 0
152 172 0
151 170 0
150 169 0
148 167 0
148 165 0
146 163 0
145 165 0
149 168 0
145 164 0
143 162 0
147 165 0
143 161 0
139 156 0
146 165 0
141 160 0
142 161 0
141 161 0
138 156 0
140 159 0
141 159 0
135 152 12
72 90 54
47 73 78
46 73 72
47 74 76
50 77 83
47 74 71
50 78 83
50 78 88
50 79 86
49 78 87
49 78 77
49 76 85
51 80 88
51 79 86
50 78 86
51 81 87
51 79 94
53 83 100
52 82 90
52 82 98
52 82 91
51 80 92
52 83 84
51 80 95
52 83 86
53 84 103
52 81 94
50 80 84
52 81 94
53 82 98
52 82 88
52 81 92
53 84 100
52 82 94
53 83 97
53 84 95
51 81 92
51 81 90
52 83 95
50 78 92
51 81 87
52 82 96
52 82 98
55 86 108
52 82 94
51 81 91
50 78 80
52 80 91
50 79 87
51 81 89
51 79 96
53 83 102
50 78 89
52 81 89
51 79 81
53 82 94
50 78 83
51 80 93
48 74 84
50 78 93
48 75 84
48 75 83
50 78 83
49 76 86
50 77 97
48 76 81
48 73 77
48 73 77
48 73 76
73 91 51
132 147 19
139 154 0
140 156 0
133 147 0
137 151 0
145 164 0
137 153 0
142 155 0
147 163 0
144 160 0
141 156 0
142 157 0
146 159 0
144 160 0
142 157 0
148 162 0
137 152 0
144 158 0
147 163 0
145 159 0
149 164 0
142 154 0
145 159 0
148 163 0
150 164 0
151 165 0
149 164 0
145 160 0
151 163 0
150 164 0
148 161 0
144 155 0
146 159 0
148 161 0
120 128 18
94 87 29
97 88 24
87 80 20
87 81 20
85 80 15
93 86 14
79 74 7
85 82 13
92 85 13
98 93 10
94 87 7
88 83 3
94 87 6
91 83 13
93 89 15
102 95 10
101 96 16
102 97 11
107 100 16
101 95 1
97 92 9
103 96 19
107 100 10
104 98 15
106 100 12
114 107 19
111 105 16
115 109 16
117 111 20
111 106 18
120 113 24
114 108 17
112 107 10
117 111 17
116 108 22
111 105 18
117 109 21
119 112 19
120 113 23
120 113 21
118 111 20
123 115 24
123 116 21
122 115 27
124 118 23
129 121 28
125 118 26
131 123 30
129 120 29
128 120 28
134 128 34
129 123 32
132 124 30
125 117 20
135 128 31
130 123 24
134 126 33
136 127 30
131 123 31
135 127 33
134 127 35
134 127 37
135 127 39
137 129 37
138 132 38
136 127 37
133 126 32
133 127 31
140 133 39
137 129 36
137 129 37
138 130 45
136 129 28
134 128 37
135 129 42
136 128 41
137 130 35
138 128 43
143 136 48
132 124 40
134 127 42
132 124 36
138 131 43
137 129 39
140 131 42
144 136 44
135 128 43
139 132 43
140 132 40
142 136 48
138 130 43
137 130 42
137 131 39
137 130 46
135 129 40
141 133 48
135 127 42
136 130 38
132 126 36
138 129 44
135 128 43
141 133 48
143 135 50
137 131 47
139 132 43
139 131 49
140 132 47
137 129 51
137 129 43
137 129 48
141 134 48
132 125 41
138 130 49
134 126 47
134 127 53
134 125 50
142 135 52
138 131 43
140 132 52
133 125 44
141 133 56
139 130 47
137 131 58
133 125 48
129 123 49
136 128 44
137 127 55
135 126 51
134 127 50
133 126 46
142 153 36
137 149 28
139 151 31
136 147 31
140 153 28
140 150 31
136 146 33
134 146 30
135 146 36
136 147 30
132 141 31
138 150 28
139 147 32
142 153 34
138 149 32
136 145 32
133 144 29
138 149 35
132 143 30
140 150 35
134 144 35
138 148 35
132 138 35
136 148 30
135 146 31
138 149 34
137 147 30
136 148 32
133 145 29
134 145 32
138 150 32
136 149 25
134 146 29
139 152 30
140 152 32
137 149 30
137 150 28
136 149 20
139 151 31
140 153 24
139 152 23
136 150 23
135 148 22
146 159 28
134 148 21
138 151 25
140 155 21
136 150 25
140 155 21
137 152 23
139 151 32
140 155 19
140 156 18
138 154 17
141 156 19
140 157 16
143 157 17
140 156 12
140 156 11
141 157 14
141 158 8
143 160 13
138 156 7
142 159 5
139 155 8
140 156 0
135 152 0
141 158 8
138 154 8
142 158 4
140 156 0
135 152 0
138 154 0
137 153 0
140 157 0
135 151 0
139 157 0
139 155 0
139 154 0
137 154 0
134 151 0
134 149 0
134 149 0
132 148 0
132 148 0
131 147 0
125 139 0
130 144 0
133 149 0
132 148 0
131 145 0
132 147 0
128 143 0
131 147 0
129 143 0
133 148 0
124 138 0
129 144 0
131 146 0
126 140 0
129 144 0
124 137 0
127 140 0
118 133 0
127 143 0
121 134 0
124 139 0
125 139 0
119 134 0
118 132 0
114 129 0
121 133 0
121 134 0
119 133 0
116 130 0
117 129 0
114 127 0
109 121 0
116 127 0
108 119 0
112 125 0
108 120 0
111 123 0
118 132 0
114 127 0
114 127 0
104 116 0
102 114 0
95 107 0
132 148 0
152 169 0
152 170 0
150 168 0
149 166 0
157 175 0
146 164 0
154 172 0
148 165 0
147 164 0
148 166 0
150 168 0
150 169 0
154 173 0
149 167 0
144 160 0
146 163 0
146 164 0
144 161 0
145 162 0
148 166 0
148 167 0
144 161 0
145 163 0
145 164 0
149 167 0
137 155 0
139 159 0
142 160 0
141 158 0
140 157 0
138 156 0
138 156 0
138 157 0
139 157 0
135 154 0
127 143 11
85 105 55
46 73 72
47 75 75
47 73 79
50 78 83
50 79 75
49 77 81
49 77 76
51 81 90
50 78 87
51 80 91
48 77 86
52 82 95
51 80 87
51 80 88
50 78 86
52 81 92
51 81 85
50 79 89
50 78 92
52 81 104
52 81 88
51 79 84
52 81 91
53 82 95
51 80 92
52 80 101
52 81 94
52 82 86
52 82 95
50 79 79
54 84 100
53 83 99
52 81 85
52 82 86
53 82 90
50 78 91
52 81 98
51 80 88
52 81 94
53 83 96
51 80 88
52 81 93
51 80 93
52 81 94
52 82 101
50 79 89
50 79 84
52 81 95
51 80 92
50 79 90
49 77 88
52 81 94
50 79 88
52 81 93
49 75 78
50 78 94
50 78 91
49 76 80
48 75 82
50 77 85
47 73 81
47 72 80
48 75 75
43 67 67
46 69 69
43 67 56
76 95 56
131 145 0
137 154 0
139 154 0
139 154 0
132 148 0
137 152 0
137 149 0
133 146 0
138 153 0
140 154 0
136 151 0
144 159 0
142 156 0
135 147 0
141 156 0
141 156 0
134 148 0
144 159 0
142 157 0
143 156 0
145 160 0
140 153 0
145 158 0
141 156 0
138 149 0
141 156 0
146 160 0
142 154 0
137 149 0
152 165 0
147 159 0
142 155 0
146 158 0
145 158 0
147 161 0
145 158 0
130 138 9
88 81 20
92 85 18
89 82 12
78 73 11
86 79 10
87 82 15
85 80 16
80 74 9
90 84 12
89 82 2
87 81 13
94 87 6
101 96 9
99 91 8
98 92 11
92 87 7
104 97 4
99 94 7
98 93 8
101 95 9
102 95 7
101 93 11
104 95 13
101 94 11
111 103 18
107 101 16
115 108 12
111 104 16
107 102 14
113 107 12
116 109 16
122 115 22
122 115 22
119 113 20
115 106 19
114 106 10
114 107 19
115 108 18
129 121 22
119 113 22
123 116 17
122 115 23
128 122 29
123 115 19
127 119 26
121 114 26
122 114 19
124 116 27
123 116 20
127 121 22
120 113 26
125 119 22
131 123 27
134 126 28
127 121 22
133 127 32
128 121 28
137 129 31
137 130 31
129 121 33
135 127 35
130 123 19
138 128 45
131 123 32
130 124 30
129 122 36
132 125 32
132 125 35
132 126 37
137 129 36
135 128 39
136 127 39
136 130 39
133 125 37
136 129 40
136 129 41
137 129 36
133 125 33
134 126 40
138 130 45
139 130 41
136 126 41
138 129 39
129 122 35
137 129 45
134 126 39
135 127 43
142 134 48
137 129 48
134 128 39
141 132 44
132 125 39
135 129 37
136 127 46
134 127 44
134 126 41
136 129 39
142 135 50
142 133 45
138 131 43
137 129 48
142 134 51
141 133 48
136 129 39
136 128 41
139 131 48
138 129 47
138 130 48
139 131 47
130 123 37
142 137 47
133 124 48
137 129 44
142 134 49
141 134 50
143 135 52
142 135 52
136 130 44
143 135 52
136 129 43
133 127 46
140 133 53
142 135 50
139 131 47
131 124 38
133 126 43
132 125 50
127 121 47
136 128 52
136 146 35
141 156 24
135 145 36
136 147 32
140 152 34
139 152 29
136 146 36
138 147 34
136 146 33
136 147 34
134 145 33
136 146 29
137 150 29
137 148 36
137 147 34
135 144 33
136 147 25
139 147 39
134 142 33
136 146 33
136 145 38
139 145 45
138 149 33
132 143 32
133 143 29
132 138 39
134 145 35
134 144 32
132 145 25
136 146 34
132 143 29
141 154 24
137 149 29
134 145 26
136 148 29
138 150 32
135 147 26
134 145 28
135 146 27
135 147 25
135 146 24
135 148 20
138 150 26
134 146 26
139 153 28
137 149 26
133 148 18
136 152 23
139 153 25
140 152 31
137 149 25
140 153 25
139 154 16
140 155 20
137 150 25
138 153 21
141 155 20
136 153 0
136 152 10
138 154 12
137 151 19
140 155 21
136 152 16
141 155 17
134 150 14
137 153 12
136 153 9
136 153 7
135 151 0
139 156 8
139 156 4
136 153 0
138 154 0
136 153 0
136 152 2
140 156 3
139 157 0
132 148 0
135 152 0
139 155 0
134 151 0
132 145 0
135 150 0
136 150 0
133 148 0
134 149 0
129 142 0
132 147 0
131 147 0
129 144 0
129 145 0
123 137 0
131 146 0
127 142 0
126 141 0
131 147 0
127 141 0
124 138 0
126 140 0
128 141 0
125 140 0
123 137 0
124 137 0
118 131 0
125 139 0
120 135 0
121 134 0
117 131 0
123 137 0
118 132 0
117 131 0
113 127 0
116 128 0
119 132 0
114 127 0
114 128 0
116 129 0
110 122 0
107 120 0
116 128 0
108 121 0
105 117 0
108 120 0
105 116 0
107 119 0
115 128 0
104 116 0
104 115 0
130 145 0
149 165 0
151 168 0
150 167 0
149 167 0
153 170 0
149 167 0
145 161 0
146 164 0
145 162 0
143 160 0
148 165 0
141 157 0
150 168 0
142 159 0
144 160 0
142 160 0
148 166 0
144 162 0
144 161 0
139 156 0
142 160 0
150 170 0
141 159 0
140 160 0
141 159 0
147 164 0
143 160 0
141 159 0
137 154 0
138 158 0
140 159 0
143 159 0
132 150 0
142 160 0
132 149 0
129 144 0
129 146 0
123 140 0
99 117 41
46 72 79
46 72 68
48 76 78
48 75 71
49 78 84
48 76 75
49 77 81
50 78 79
47 75 69
50 78 84
49 78 81
50 79 75
49 77 80
50 78 85
49 77 76
53 82 94
50 78 87
50 79 84
49 79 87
50 78 91
50 78 93
49 77 82
51 81 93
52 82 91
52 82 94
52 82 96
54 85 105
54 84 94
52 81 89
52 81 96
53 83 95
52 82 89
52 81 96
50 78 86
53 82 95
52 81 94
53 82 95
53 83 98
52 81 94
51 80 85
52 82 87
52 81 93
52 81 95
50 78 84
53 84 99
52 80 97
50 79 79
51 79 86
50 78 89
50 78 75
48 76 82
49 76 83
49 76 76
51 80 91
50 79 87
50 77 90
48 74 83
49 77 86
48 74 85
48 74 85
43 68 66
47 73 81
45 69 67
43 66 57
92 108 60
129 141 18
132 145 0
135 149 0
132 145 0
133 146 0
134 148 0
134 146 0
131 144 0
137 151 0
137 151 0
134 148 0
135 151 0
137 149 0
138 154 0
136 147 0
137 152 0
137 149 0
136 150 0
140 153 0
144 158 0
143 156 0
142 154 0
141 151 0
141 155 0
140 151 0
141 153 0
140 153 0
141 152 0
140 153 0
138 147 0
138 150 0
141 151 0
145 158 0
147 161 0
146 157 0
144 154 0
146 157 0
143 153 0
130 138 8
84 80 20
86 80 16
88 81 24
87 80 18
86 81 13
86 80 11
87 80 16
93 86 12
90 86 10
90 85 10
95 89 9
95 88 4
92 86 4
94 89 14
86 80 9
95 89 7
104 98 8
93 87 8
100 94 11
101 94 8
103 98 15
101 96 8
95 90 13
106 100 13
105 99 18
109 102 11
107 100 14
106 100 14
110 104 14
113 108 17
114 106 15
112 105 16
115 108 22
118 111 17
110 103 19
120 114 22
119 110 24
116 108 20
119 111 20
116 109 17
120 115 20
128 120 26
119 111 24
121 113 22
122 113 25
126 118 21
121 115 26
129 123 16
117 111 19
130 122 21
125 117 25
132 123 26
133 125 33
125 118 24
132 126 28
131 124 30
133 124 31
130 124 33
130 123 18
127 119 26
130 122 34
131 125 35
130 122 30
133 125 37
131 123 33
135 127 33
134 126 42
133 125 39
135 128 40
138 129 40
133 123 32
138 131 34
135 126 35
141 133 41
141 132 45
135 129 40
136 127 30
132 125 32
136 129 38
131 123 38
141 134 41
135 127 43
143 135 49
133 126 40
136 129 43
135 128 41
142 135 44
135 128 38
134 128 43
135 128 40
136 129 44
134 127 36
141 133 44
140 132 46
129 121 36
136 129 48
139 131 44
138 131 43
139 133 40
132 124 45
140 130 45
136 126 52
136 129 41
142 133 49
137 130 45
136 128 48
138 131 39
132 125 35
133 125 46
133 127 41
135 128 48
132 124 43
132 124 47
139 130 52
147 140 51
134 126 44
132 124 46
138 130 49
134 125 43
139 129 49
133 127 51
132 127 47
137 129 49
133 125 50
130 123 41
132 123 48
127 120 46
130 123 45
139 150 35
141 153 34
136 148 25
139 151 33
134 142 38
139 149 31
135 149 26
133 141 33
140 150 37
135 147 24
138 148 32
137 148 30
133 145 30
137 144 37
133 140 39
133 144 28
133 143 34
137 146 37
132 141 34
134 145 34
131 138 35
138 149 31
134 143 31
131 138 41
130 136 39
133 143 34
127 135 33
130 138 33
138 148 36
129 138 33
135 146 32
131 142 31
135 147 25
134 144 30
136 148 28
130 141 30
129 138 34
134 146 23
131 143 26
136 144 36
131 140 32
135 147 29
136 147 30
131 139 35
136 147 31
131 142 26
139 153 25
137 151 26
140 153 23
132 144 25
132 144 25
130 143 22
137 150 30
140 154 27
133 146 17
136 149 21
135 151 14
137 151 23
138 153 22
134 149 17
136 151 11
140 154 21
140 154 20
135 152 16
136 150 14
137 154 8
136 151 16
140 156 16
140 157 16
135 152 7
135 151 12
128 143 13
137 153 10
135 152 0
133 148 8
133 148 14
139 156 0
131 146 12
134 151 0
133 147 0
134 150 0
136 151 0
133 149 0
136 150 0
131 146 0
130 145 0
130 146 0
128 143 0
129 144 0
130 145 0
132 147 0
135 149 0
128 142 0
127 144 0
128 143 0
129 144 0
128 143 0
124 137 0
127 142 0
126 141 0
126 140 0
122 136 0
120 134 0
116 129 0
123 135 0
118 132 0
125 139 0
117 130 0
117 130 0
112 125 0
118 131 0
118 131 0
113 126 0
119 134 0
116 128 0
116 130 0
121 134 0
114 123 0
110 123 0
115 126 0
110 122 0
109 121 0
105 117 0
107 120 0
102 113 0
101 112 0
107 120 0
145 161 0
149 167 0
144 161 0
151 168 0
148 165 0
148 165 0
146 163 0
143 159 0
143 160 0
142 158 0
147 163 0
144 162 0
146 162 0
145 164 0
146 164 0
139 154 0
145 161 0
142 159 0
143 162 0
146 164 0
147 164 0
143 162 0
136 154 0
140 158 0
138 156 0
131 149 0
139 156 0
135 154 0
132 150 0
136 155 0
138 153 0
135 152 0
139 157 0
133 149 0
128 143 0
136 153 0
126 143 0
125 141 0
130 147 0
127 143 0
128 143 0
102 119 26
53 76 64
48 75 81
46 72 66
48 75 84
46 72 68
48 75 75
47 75 72
46 72 74
50 79 84
51 80 87
50 79 85
49 76 82
50 77 87
50 78 84
50 79 87
51 80 93
49 77 83
50 78 82
49 77 86
50 78 81
51 80 91
49 77 83
51 79 92
52 81 83
53 83 96
51 79 93
54 84 101
52 81 103
49 77 79
50 79 84
51 79 89
53 83 95
53 83 100
51 81 91
50 79 93
49 78 75
53 83 85
51 80 94
51 80 90
49 77 89
50 78 88
50 78 87
50 79 85
48 75 72
50 78 87
53 83 91
51 79 95
49 77 90
49 77 80
50 77 90
49 77 87
51 80 83
47 74 80
47 73 72
46 72 65
48 74 75
48 73 79
49 76 83
46 72 67
48 75 77
43 67 66
48 70 54
104 118 31
117 128 0
128 142 0
130 143 0
123 136 0
132 144 0
129 143 0
135 148 0
136 151 0
129 140 0
131 145 0
133 145 0
135 148 0
135 148 0
131 144 0
143 159 0
138 150 0
136 148 0
137 149 0
135 148 0
138 150 0
140 151 0
136 148 0
135 149 0
139 153 0
141 151 0
140 153 0
140 153 0
144 157 0
139 151 0
134 146 0
139 151 0
148 159 0
142 154 0
138 147 0
134 144 0
138 144 0
135 143 0
143 155 0
141 147 0
139 149 0
137 143 8
97 95 19
82 74 19
80 74 10
92 85 21
81 73 13
87 81 12
90 85 4
89 81 11
93 85 12
93 86 9
90 82 10
90 80 3
89 83 5
91 84 9
98 91 3
90 83 5
96 89 4
98 91 10
105 97 11
102 93 13
104 95 13
104 99 12
99 91 10
110 103 5
99 93 13
110 104 16
109 102 14
112 105 13
107 97 15
117 110 15
109 102 11
106 101 14
112 106 14
113 107 12
109 102 12
117 108 26
115 108 18
118 111 14
120 113 12
118 111 24
120 113 19
121 116 19
123 117 23
120 114 21
120 113 14
127 119 24
127 121 29
124 118 23
128 120 30
127 121 14
126 119 35
128 121 29
131 123 31
132 125 29
126 120 25
133 125 29
130 124 27
134 126 34
130 123 34
127 120 32
127 119 29
134 127 27
130 124 32
128 121 32
128 121 29
138 128 46
134 126 29
131 123 29
136 129 36
135 126 32
138 129 37
132 125 30
130 121 34
134 125 36
135 128 37
131 124 34
139 131 42
137 129 44
134 127 36
129 121 36
132 125 44
135 127 38
130 123 36
135 128 35
133 128 35
132 125 34
137 129 46
137 129 45
136 128 42
138 130 43
134 127 35
139 130 47
136 128 39
138 131 42
135 129 41
137 130 34
137 128 42
138 129 46
141 134 47
138 129 46
140 131 44
134 127 41
133 126 44
131 124 44
139 132 45
139 131 49
133 126 43
130 122 39
137 129 46
137 130 47
140 131 49
128 121 45
133 125 45
139 132 48
131 124 44
131 123 49
136 129 45
136 129 45
125 119 42
133 127 46
132 124 43
133 125 54
132 125 45
133 126 38
133 125 43
129 121 46
135 127 49
143 156 28
139 149 32
130 139 32
140 152 32
137 146 37
138 149 34
131 140 30
134 144 30
135 147 29
132 138 43
131 140 26
136 145 38
137 148 30
130 139 30
136 148 31
137 148 27
134 142 37
129 136 31
135 142 42
129 138 27
132 138 38
134 142 39
130 138 37
132 141 30
131 141 34
135 146 29
134 146 22
129 137 29
127 136 30
132 141 31
134 142 35
139 147 37
129 135 38
136 147 26
134 143 32
131 140 26
131 140 36
134 141 39
128 136 36
135 145 32
132 141 34
134 143 34
135 145 38
136 146 34
133 146 30
133 143 28
135 146 26
136 147 32
130 142 30
131 142 26
135 147 16
131 143 25
139 154 20
136 148 22
135 148 28
132 145 20
140 153 22
133 144 26
139 152 17
134 148 20
135 148 28
135 148 24
135 148 21
134 147 21
138 152 17
134 149 11
138 154 9
136 152 13
131 146 10
137 152 17
137 152 12
137 152 11
133 148 12
134 148 16
134 149 14
136 152 10
135 151 0
135 150 0
135 151 0
135 152 0
135 150 7
132 147 7
134 150 0
135 150 0
133 150 0
126 142 0
133 149 0
129 144 0
133 150 0
128 143 0
132 148 0
128 143 0
124 137 0
131 146 0
125 139 0
130 143 0
126 140 0
127 141 0
128 143 0
126 142 0
124 137 0
121 134 0
121 135 0
124 137 0
113 126 0
117 130 0
120 132 0
119 131 0
119 132 0
119 132 0
117 129 0
117 130 0
112 124 0
120 133 0
111 123 0
110 123 0
109 122 0
109 120 0
111 123 0
117 128 0
107 119 0
107 120 0
112 124 0
106 119 0
104 115 0
122 136 0
140 156 0
145 161 0
149 166 0
147 163 0
147 162 0
146 161 0
142 158 0
144 161 0
144 158 0
137 155 0
143 160 0
137 153 0
139 154 0
140 156 0
141 158 0
141 157 0
143 159 0
139 157 0
142 157 0
137 155 0
140 158 0
134 151 0
144 160 0
135 152 0
136 153 0
138 153 0
139 157 0
137 154 0
135 153 0
130 146 0
129 147 0
128 144 0
127 141 0
125 141 0
127 143 0
128 144 0
121 137 0
124 139 0
135 149 0
129 147 0
126 143 0
117 133 0
120 135 0
110 125 18
77 95 46
46 73 62
47 75 69
47 75 72
47 74 75
49 76 85
49 77 82
49 76 73
48 76 74
49 78 84
49 76 86
49 76 77
49 76 88
48 76 74
51 80 92
51 81 82
49 77 84
48 75 78
49 77 79
52 81 92
51 79 86
52 81 87
50 78 85
50 78 84
50 78 87
52 81 85
52 81 96
52 81 95
52 80 94
50 79 90
52 81 95
51 79 85
51 80 90
51 79 91
51 80 88
49 78 86
49 76 78
51 79 86
50 79 88
51 79 85
49 76 80
50 79 85
51 80 94
50 79 82
49 76 84
48 75 73
49 76 75
48 75 77
50 78 89
50 77 86
49 77 84
45 71 73
46 72 73
46 72 74
48 75 82
49 76 86
47 73 75
45 69 66
45 70 62
66 84 53
109 122 38
115 128 0
121 135 0
121 134 0
110 123 0
127 139 0
121 134 0
122 135 0
128 142 0
129 141 0
130 144 0
129 142 0
132 146 0
130 144 0
134 147 0
131 145 0
125 136 0
136 149 0
138 153 0
134 144 0
136 147 0
139 151 0
134 144 0
140 152 0
141 154 0
138 150 0
125 134 0
136 147 0
130 140 0
137 147 0
143 153 0
137 148 0
134 144 0
138 148 0
134 143 0
130 137 0
133 141 0
130 141 0
134 141 0
140 150 0
144 152 0
137 146 0
139 148 0
142 151 8
107 108 21
82 74 14
80 74 19
78 73 18
87 79 10
87 81 11
83 75 9
87 80 6
85 80 9
89 82 12
92 85 2
92 85 9
98 91 10
88 81 8
100 95 8
98 90 10
98 90 13
95 88 0
101 92 7
102 96 7
105 98 5
107 102 7
105 99 8
104 95 11
107 102 7
114 107 11
103 95 14
107 99 5
115 107 15
112 105 16
105 100 13
105 99 19
108 100 14
116 108 19
121 114 15
119 111 17
121 114 12
115 110 16
117 111 15
119 111 24
122 117 16
124 115 20
123 116 23
124 116 13
121 114 26
122 114 9
116 108 21
126 120 19
124 118 22
125 118 28
126 116 25
126 117 22
127 120 24
128 122 22
127 119 28
128 120 22
130 122 28
125 118 20
127 121 28
133 125 30
133 125 34
130 122 30
127 120 31
132 125 27
130 123 33
129 121 28
126 119 36
134 127 29
132 124 37
136 129 35
130 122 34
134 128 32
132 125 27
132 123 34
135 128 34
136 127 40
134 127 33
132 124 35
141 131 44
139 132 43
140 132 39
136 128 41
136 128 39
127 120 29
138 131 32
135 129 40
142 134 46
133 124 34
135 127 37
134 127 38
135 129 37
140 132 43
139 131 39
129 122 40
136 129 41
133 123 44
139 131 38
135 128 38
133 125 37
126 118 42
134 127 41
132 124 41
131 123 37
134 127 41
139 132 48
134 126 45
136 129 47
134 127 43
136 128 46
138 130 47
133 125 47
132 125 41
134 127 45
132 125 40
130 123 43
133 125 45
134 127 44
140 133 51
134 127 46
127 120 43
129 121 47
135 128 48
131 124 49
137 130 47
138 131 48
133 126 45
142 155 25
141 156 28
138 150 32
137 149 30
135 147 27
137 147 33
140 153 28
137 146 35
132 143 30
132 140 38
136 146 30
132 140 35
135 146 31
137 149 32
134 141 39
133 141 32
129 138 31
133 140 35
130 138 35
126 135 29
128 134 31
133 142 34
134 142 38
132 139 34
130 136 38
132 141 37
126 132 35
130 136 35
135 140 34
128 138 27
130 137 39
130 136 38
131 140 31
127 135 28
134 144 36
131 140 36
139 147 38
133 143 35
132 139 37
131 137 40
130 140 29
133 142 33
131 141 36
129 136 37
125 134 30
129 140 24
135 147 27
133 142 29
132 143 28
134 144 29
125 133 31
136 148 25
132 143 32
133 143 28
133 145 21
138 151 25
137 150 19
132 143 18
130 142 27
134 146 16
130 142 20
136 150 23
133 145 16
135 146 19
136 150 20
129 143 12
137 152 19
136 153 8
136 151 16
134 149 16
136 151 20
134 148 20
133 149 8
137 152 19
134 148 14
136 152 18
137 152 12
136 151 14
134 149 16
132 147 0
130 147 0
131 146 7
134 148 11
129 144 0
130 146 0
131 146 8
130 145 8
131 144 0
132 146 0
127 142 0
128 142 0
129 143 0
128 142 0
127 142 0
125 140 0
127 140 0
128 142 0
126 140 0
124 139 0
124 137 0
123 136 0
122 136 0
127 141 0
124 136 0
119 133 0
120 133 0
122 136 0
115 130 0
119 132 0
119 131 0
112 125 0
114 126 0
112 125 0
112 123 0
111 122 0
117 129 0
110 120 0
106 118 0
110 121 0
101 114 0
111 123 0
98 109 0
99 110 0
95 105 0
120 132 0
141 156 0
143 159 0
140 156 0
139 155 0
141 157 0
143 157 0
146 161 0
141 157 0
140 155 0
141 158 0
138 154 0
143 159 0
137 154 0
137 154 0
139 154 0
136 151 0
139 154 0
136 152 0
138 153 0
138 152 0
136 152 0
139 157 0
129 144 0
133 149 0
129 146 0
135 151 0
130 146 0
131 147 0
125 141 0
129 146 0
130 145 0
137 155 0
129 144 0
132 148 0
126 143 0
124 140 0
128 145 0
123 138 0
128 143 0
121 136 0
128 144 0
120 135 0
116 130 0
110 124 0
114 129 0
113 127 0
94 111 31
46 70 55
44 68 67
45 71 61
47 74 71
48 75 80
49 78 80
46 72 59
50 78 83
48 76 74
49 78 79
48 75 81
51 80 92
50 79 88
46 73 72
51 80 79
49 78 74
49 77 83
48 75 83
49 77 82
50 78 85
50 78 80
51 80 84
50 79 87
50 79 78
51 79 90
48 76 78
52 82 94
51 80 95
51 80 89
51 80 90
51 80 85
50 78 77
49 77 84
49 78 87
50 78 84
50 78 83
50 77 91
50 78 93
51 80 74
48 76 75
50 78 80
49 76 80
48 75 84
48 74 80
48 76 79
49 76 84
50 79 82
48 75 81
47 73 78
46 72 74
47 73 78
46 72 68
47 73 75
45 70 62
46 71 68
51 73 62
95 110 41
104 113 12
116 128 0
115 127 0
115 128 0
120 134 0
129 141 0
114 127 0
124 137 0
123 135 0
121 133 0
132 144 0
125 139 0
121 134 0
132 145 0
128 140 0
123 134 0
127 140 0
131 143 0
133 145 0
125 136 0
129 141 0
128 140 0
130 141 0
131 145 0
133 146 0
128 139 0
129 137 0
135 148 0
134 144 0
129 139 0
135 144 0
133 144 0
134 144 0
133 143 0
126 136 0
130 140 0
134 142 0
130 138 0
133 142 0
134 142 0
130 138 0
138 145 0
136 142 0
138 147 0
135 141 0
131 138 0
124 129 11
92 84 18
86 80 18
89 82 14
81 74 11
84 78 14
94 85 15
87 81 8
93 86 8
84 76 8
95 87 8
84 78 3
92 85 6
93 87 2
101 92 8
101 93 7
101 93 4
98 92 8
99 93 0
100 91 7
101 93 12
98 93 3
101 93 9
110 103 8
105 97 3
109 103 7
111 103 11
108 99 7
109 100 4
110 104 9
116 109 16
115 106 12
114 108 14
116 109 15
118 112 6
114 105 18
119 112 14
119 112 16
113 106 16
111 106 13
117 110 17
121 114 19
119 113 25
120 111 18
120 113 17
126 117 16
127 121 16
121 115 18
119 113 23
127 119 27
121 114 21
126 119 26
124 115 20
120 113 22
125 119 22
121 115 26
126 119 27
123 117 20
135 125 33
125 117 30
128 120 29
128 121 23
126 118 28
128 121 30
132 125 27
130 121 34
130 122 38
130 123 29
131 122 28
131 123 34
133 126 29
133 125 34
137 130 38
129 120 28
134 126 36
124 116 27
131 124 35
126 118 32
139 130 43
139 131 44
130 123 32
129 119 38
136 129 42
133 125 39
137 127 42
129 121 37
140 131 45
134 127 43
136 128 40
126 119 34
130 123 35
131 123 38
134 126 41
132 124 36
138 131 41
135 127 40
127 121 33
135 127 37
132 125 40
131 123 41
132 124 39
133 124 46
135 127 34
122 115 38
135 127 43
129 121 41
133 125 47
128 122 43
137 128 47
137 130 46
132 125 42
130 123 39
135 127 44
130 120 42
136 128 51
129 122 43
137 129 43
131 123 39
127 121 38
137 128 50
128 121 47
128 120 45
134 128 45
132 124 47
126 119 47
137 151 24
145 157 33
139 151 25
139 151 24
139 151 30
139 150 33
138 149 33
133 142 36
136 147 26
135 147 27
134 144 32
133 144 29
133 141 35
133 140 36
132 140 33
133 143 29
131 139 35
128 135 37
130 135 37
131 142 28
129 134 39
134 142 34
131 137 41
130 135 38
127 132 41
129 133 38
124 131 31
126 132 34
130 138 36
132 139 37
131 134 44
129 137 35
129 136 35
126 132 36
132 140 37
123 129 39
129 139 30
128 135 35
130 140 27
130 137 37
128 137 24
130 139 34
128 137 27
133 141 36
128 137 29
132 141 28
124 133 25
131 142 30
133 143 29
128 136 31
134 143 29
133 144 29
128 141 21
132 142 29
132 143 23
135 145 30
130 142 25
132 143 25
130 141 31
130 140 25
132 145 19
138 153 15
134 145 28
127 140 11
130 143 16
134 148 20
133 146 19
131 144 17
133 146 16
134 147 22
135 147 18
134 149 13
131 144 14
131 144 24
133 147 17
134 147 16
133 146 17
131 144 21
134 148 9
134 149 0
134 148 9
128 142 8
135 150 0
132 146 12
133 146 6
133 148 6
127 142 7
123 138 6
133 147 0
129 144 5
132 146 0
129 143 0
128 141 0
127 142 0
123 137 0
130 144 0
124 136 0
129 144 0
123 137 0
121 134 0
118 132 0
122 136 0
121 134 0
124 137 0
122 136 0
122 134 0
121 135 0
115 128 0
116 129 0
114 126 0
113 126 0
115 126 0
107 117 0
110 123 0
110 121 0
110 122 0
109 119 0
102 113 0
109 119 0
100 111 0
100 111 0
99 109 0
105 116 0
132 147 0
141 157 0
141 158 0
139 153 0
140 153 0
138 153 0
139 153 0
140 156 0
140 157 0
135 150 0
137 152 0
134 149 0
136 151 0
136 151 0
133 148 0
137 153 0
131 148 0
128 144 0
137 153 0
135 151 0
133 148 0
132 148 0
131 147 0
126 140 0
139 155 0
133 149 0
136 153 0
133 150 0
128 144 0
131 148 0
134 151 0
129 144 0
120 136 0
132 148 0
134 150 0
133 148 0
122 139 0
131 146 0
122 137 0
121 135 0
118 132 0
123 139 0
111 124 0
111 128 0
129 145 0
118 133 0
115 129 0
110 125 0
111 126 0
108 124 31
67 87 61
44 69 54
46 72 72
46 72 70
45 71 68
45 70 65
46 72 68
48 75 71
48 75 75
48 76 85
47 73 74
49 77 89
49 78 78
49 77 83
48 75 83
50 77 84
47 75 79
49 77 79
49 77 83
51 81 88
50 78 87
50 78 90
48 75 77
50 78 90
50 78 88
49 77 80
50 78 86
51 79 94
50 79 87
50 77 90
49 77 82
51 79 88
48 75 87
49 77 82
49 77 82
47 73 67
48 76 81
49 77 78
49 76 78
49 77 80
47 75 77
48 75 78
49 76 83
45 70 71
48 75 73
46 72 70
45 70 70
45 70 71
48 73 84
46 71 77
44 68 62
45 70 60
42 65 59
59 75 48
99 109 26
104 113 0
105 118 0
118 128 0
109 123 0
106 117 0
108 119 0
116 129 0
120 132 0
115 128 0
121 134 0
117 129 0
124 137 0
124 136 0
129 139 0
124 136 0
126 138 0
125 137 0
122 133 0
133 146 0
123 132 0
129 138 0
126 136 0
131 143 0
132 141 0
124 132 0
128 138 0
133 143 0
125 136 0
131 141 0
135 144 0
131 141 0
133 143 0
134 143 0
120 128 0
133 142 0
126 134 0
132 140 0
131 138 0
130 138 0
132 138 0
130 137 0
128 132 0
130 138 0
128 135 0
131 138 0
135 140 0
131 136 0
134 138 0
125 125 16
94 90 19
84 77 14
92 84 14
92 83 14
84 76 8
90 82 16
88 81 12
82 74 10
88 81 11
96 88 10
94 87 5
101 93 4
93 83 3
99 90 8
90 83 3
89 82 5
101 93 0
102 95 0
99 93 1
103 93 6
108 100 10
109 100 10
105 98 8
106 98 6
108 98 2
105 97 5
107 100 3
113 103 7
116 108 11
102 97 6
111 103 10
115 107 15
117 108 6
108 104 5
120 111 15
115 109 13
118 111 14
115 107 15
120 113 14
119 111 16
114 107 8
119 110 19
122 114 14
120 114 16
121 114 18
125 119 20
119 112 12
116 105 18
126 119 25
126 117 23
125 118 19
127 118 22
120 114 23
126 118 19
127 120 28
127 117 21
127 120 24
124 115 25
126 118 28
130 121 29
127 120 32
128 120 29
136 127 28
126 118 32
131 124 26
129 122 34
132 124 25
128 121 23
138 129 38
136 127 39
137 129 33
130 124 30
126 117 21
135 127 36
132 123 33
134 125 37
132 123 24
131 124 33
131 123 33
130 122 37
133 125 40
132 123 35
136 127 35
136 129 37
133 126 43
129 121 32
138 130 44
134 126 40
128 120 37
130 123 36
133 125 36
132 124 36
134 126 38
132 123 37
133 126 44
133 124 43
134 126 37
133 126 36
129 121 42
135 127 47
141 133 48
125 118 33
126 118 37
136 129 42
132 124 43
133 126 38
129 122 38
129 121 37
137 130 49
135 126 41
137 129 55
132 122 46
132 124 42
130 123 39
135 127 44
132 125 44
131 123 42
124 117 41
130 123 48
127 118 42
131 123 45
137 129 52
137 129 46
140 154 19
136 149 22
140 155 22
141 155 22
138 151 32
137 147 35
137 145 38
137 147 33
131 141 32
131 137 37
137 147 30
133 141 36
133 139 44
129 138 35
128 133 41
126 133 31
130 138 31
128 134 32
127 133 39
131 139 35
127 135 32
127 136 30
126 133 36
129 133 40
132 140 38
125 130 31
132 138 41
123 129 34
126 133 39
121 127 35
127 133 41
128 134 38
124 129 36
130 135 42
133 138 39
128 134 36
127 133 38
127 134 32
132 140 36
129 137 35
121 127 28
129 134 39
128 133 37
129 137 32
130 139 29
129 137 38
130 138 27
127 136 33
131 139 32
126 136 30
124 133 30
133 142 32
128 135 34
129 138 26
131 142 29
133 143 30
129 139 31
128 139 24
131 140 24
132 144 24
129 140 22
135 147 19
131 142 21
135 148 21
127 139 24
132 144 21
132 144 17
130 142 20
133 149 15
131 145 21
130 143 20
133 143 26
130 141 26
133 146 21
128 138 25
134 147 14
131 144 12
132 145 18
134 149 10
132 145 16
136 149 19
129 142 17
133 148 11
132 148 5
134 148 11
124 135 8
129 145 7
124 137 14
130 143 8
128 143 0
127 141 0
126 141 0
128 143 0
126 139 0
125 140 0
125 139 0
123 134 0
116 129 0
117 130 0
128 141 0
121 133 0
124 138 0
116 129 0
120 132 0
113 125 0
112 125 0
116 129 0
120 132 0
111 124 0
109 120 0
115 128 0
115 127 0
114 126 0
116 126 0
112 123 0
113 124 0
109 121 0
105 114 0
106 116 0
96 106 0
93 103 0
117 128 0
137 151 0
131 146 0
137 152 0
130 145 0
133 147 0
136 151 0
131 145 0
133 146 0
136 149 0
134 148 0
132 145 0
138 153 0
131 146 0
133 148 0
129 144 0
129 145 0
128 142 0
130 146 0
130 144 0
128 143 0
131 147 0
136 151 0
127 144 0
133 148 0
136 152 0
131 148 0
128 144 0
126 142 0
129 146 0
130 147 0
122 138 0
124 140 0
132 148 0
116 131 0
128 147 0
122 138 0
128 143 0
127 143 0
124 138 0
116 131 0
120 135 0
121 134 0
114 129 0
119 134 0
120 133 0
100 115 0
117 132 0
111 126 0
108 119 0
111 123 0
107 120 0
103 118 0
89 101 40
53 75 55
45 71 63
45 70 62
43 68 65
43 68 75
47 73 66
48 76 77
47 74 73
48 75 78
46 74 66
47 74 75
49 77 79
50 79 83
50 78 84
49 77 74
48 76 83
48 75 83
48 74 79
49 76 75
50 79 81
48 76 83
49 78 75
50 78 79
47 75 80
50 79 83
48 74 77
49 76 80
51 80 85
50 78 82
48 75 83
50 78 78
49 76 85
49 76 77
47 74 80
46 72 80
46 72 72
47 73 64
47 74 81
49 76 83
46 72 71
45 71 66
48 76 83
48 75 78
47 74 74
47 73 73
46 71 71
44 67 68
46 72 60
46 71 58
50 72 59
85 95 18
93 103 0
104 116 0
99 107 0
110 121 0
109 120 0
111 124 0
106 116 0
111 122 0
116 124 0
109 120 0
113 124 0
116 126 0
113 123 0
116 127 0
125 136 0
115 126 0
121 132 0
122 136 0
126 137 0
124 136 0
125 138 0
125 135 0
129 139 0
132 142 0
127 138 0
122 131 0
126 138 0
122 133 0
125 134 0
129 139 0
129 140 0
127 135 0
134 144 0
121 129 0
131 140 0
131 140 0
134 142 0
127 136 0
126 133 0
123 128 0
126 132 0
127 134 0
126 131 0
127 135 0
122 126 0
132 138 0
129 135 0
127 130 0
126 132 0
131 133 0
124 129 0
125 128 0
107 105 14
73 65 14
82 73 11
88 81 12
89 80 15
91 81 7
94 86 14
94 85 0
88 77 4
87 79 4
87 79 5
92 85 8
86 78 8
93 86 7
102 92 9
96 89 6
99 91 0
87 79 0
99 92 4
101 91 8
101 92 8
110 101 4
102 94 7
105 95 6
105 96 8
105 97 8
109 100 0
106 98 8
106 100 10
118 110 6
111 104 7
109 101 9
110 103 3
111 102 9
115 108 13
115 108 12
114 106 13
119 112 17
115 106 13
119 109 14
122 115 11
112 102 11
121 112 15
121 112 15
122 115 21
126 118 21
122 112 13
121 113 22
117 110 20
124 115 26
124 115 23
124 115 26
121 111 13
126 117 28
127 119 21
129 122 23
128 118 21
122 116 23
121 115 24
124 117 26
128 121 19
127 119 22
127 120 22
126 117 26
130 122 31
128 119 30
125 118 32
129 123 22
133 125 29
132 123 35
133 124 39
131 122 39
129 122 31
124 115 26
139 131 43
124 118 34
131 122 34
127 121 29
133 125 35
129 121 23
131 123 39
132 125 29
136 128 35
127 118 31
130 124 29
128 121 35
133 125 36
128 121 37
133 125 38
138 130 44
132 124 35
131 124 37
131 122 33
132 124 35
136 128 41
134 126 43
127 118 37
130 122 40
133 126 34
132 122 37
134 126 44
129 123 38
128 120 39
131 124 36
134 127 40
127 120 43
134 127 43
126 119 40
132 122 44
128 121 43
134 127 47
127 120 37
132 124 41
130 122 44
132 125 47
133 125 44
129 120 45
130 122 44
133 125 46
130 122 44
126 119 37
123 114 40
136 149 24
142 156 24
144 157 32
140 155 22
137 147 25
141 153 26
138 149 30
135 144 32
130 140 30
133 146 25
133 139 37
132 142 30
129 139 34
128 136 30
133 142 33
130 140 31
135 145 33
130 137 30
128 134 38
132 139 37
126 133 39
126 134 35
126 133 37
133 141 32
125 126 39
121 124 41
126 133 35
126 129 40
122 127 35
126 133 31
125 130 29
123 130 32
124 126 37
126 132 27
127 129 42
130 133 42
126 133 35
130 135 39
128 133 34
128 133 40
123 130 34
124 129 38
126 128 40
127 133 35
129 137 34
130 137 31
125 133 35
131 138 35
125 131 36
130 137 34
132 139 41
126 133 30
125 132 32
130 141 26
135 144 32
126 136 24
129 142 18
131 141 25
129 140 25
127 138 24
130 140 25
128 140 22
130 142 26
131 143 18
134 146 25
123 135 17
131 144 23
133 144 15
129 141 21
134 148 19
134 147 12
127 142 17
131 143 17
134 147 11
124 138 16
130 144 13
125 137 21
129 142 15
128 141 12
133 148 15
127 139 20
130 143 12
128 142 14
130 144 9
131 145 10
130 141 15
125 139 9
126 139 1
124 137 12
127 141 0
126 139 0
128 142 0
120 133 0
124 139 0
124 137 0
120 134 0
125 138 0
125 138 0
117 130 0
117 129 0
115 128 0
118 130 0
118 131 0
117 129 0
114 125 0
112 122 0
117 128 0
117 127 0
110 121 0
113 124 0
112 122 0
113 124 0
103 113 0
113 125 0
114 125 0
98 109 0
102 113 0
97 107 0
98 108 0
95 106 0
127 139 0
130 143 0
131 145 0
132 146 0
131 144 0
125 138 0
122 134 0
129 144 0
129 143 0
131 144 0
124 138 0
129 143 0
137 151 0
135 149 0
126 140 0
128 141 0
134 147 0
134 149 0
127 143 0
132 147 0
136 151 0
130 147 0
127 143 0
129 144 0
134 150 0
127 141 0
132 148 0
120 136 0
126 140 0
123 137 0
124 139 0
135 150 0
131 147 0
120 136 0
118 131 0
128 144 0
125 141 0
117 131 0
117 133 0
126 140 0
119 134 0
117 132 0
112 125 0
115 130 0
114 126 0
113 127 0
110 126 0
115 130 0
104 119 0
106 119 0
103 117 0
102 116 0
111 125 0
101 114 0
99 111 0
96 108 0
77 92 36
55 76 60
45 71 66
43 68 60
44 69 64
46 73 66
49 77 74
45 72 64
46 73 66
48 76 78
47 74 75
45 72 66
48 75 78
46 72 71
47 74 75
48 75 77
46 72 75
47 73 79
49 78 77
49 76 75
48 75 78
50 79 87
48 75 75
50 77 79
51 79 88
47 74 74
49 76 84
47 74 86
51 79 88
47 74 72
46 73 77
50 78 84
48 75 79
47 74 73
49 76 75
46 72 68
48 75 80
49 77 72
46 72 68
46 71 71
46 71 72
43 68 64
46 71 64
43 68 72
44 69 60
41 64 52
48 67 51
74 84 29
93 101 0
99 110 0
98 109 0
109 122 0
106 115 0
103 113 0
103 111 0
102 109 0
107 114 0
112 122 0
109 119 0
114 126 0
114 128 0
116 124 0
111 122 0
113 124 0
118 130 0
117 129 0
122 133 0
118 128 0
129 140 0
122 133 0
124 134 0
125 135 0
122 131 0
128 138 0
116 127 0
123 131 0
128 140 0
126 138 0
127 138 0
130 138 0
123 131 0
122 129 0
126 134 0
123 133 0
124 131 0
122 128 0
122 130 0
124 130 0
128 133 0
127 133 0
134 142 0
130 136 0
119 125 0
120 125 0
123 129 0
125 129 0
115 116 0
124 127 0
116 119 0
126 130 0
125 128 0
126 128 0
122 127 0
119 120 11
91 85 14
88 80 19
85 76 16
91 84 16
87 79 14
82 74 8
83 74 1
91 81 1
91 82 4
83 74 10
88 81 5
96 87 0
97 87 7
97 87 11
90 83 7
94 86 3
90 84 0
97 89 5
102 95 0
105 96 6
103 94 4
100 92 8
103 95 3
99 91 0
108 101 8
106 99 0
109 102 4
102 95 0
112 105 9
105 95 9
112 105 4
117 109 14
115 108 0
116 110 9
113 104 19
113 104 13
117 110 12
117 107 9
119 110 14
118 108 8
117 110 9
115 107 17
122 115 14
116 107 8
118 111 21
119 112 21
122 112 22
124 117 22
118 110 15
119 111 21
123 116 18
129 121 21
123 116 23
123 115 21
120 110 20
126 117 27
122 116 20
124 115 24
129 121 29
125 118 28
124 115 27
127 121 29
133 124 34
129 122 27
129 122 30
125 117 23
128 117 26
129 122 22
128 121 29
123 116 25
129 120 33
126 118 25
124 116 26
129 120 31
130 123 32
132 124 37
132 124 35
128 120 38
124 117 32
131 122 38
129 121 37
130 122 41
125 118 32
134 126 31
135 127 40
130 123 36
133 124 41
135 127 36
132 124 39
132 123 35
134 125 37
127 120 35
139 133 43
131 123 39
132 125 38
131 124 39
131 123 35
129 122 36
128 120 34
134 125 47
132 125 36
124 117 32
133 123 43
125 118 41
129 121 41
130 123 40
124 115 42
138 129 46
131 123 39
132 125 40
133 126 38
124 117 39
124 116 39
130 122 43
132 124 45
130 122 47
130 122 41
137 129 46
134 126 42
128 120 45
144 159 16
142 156 21
140 152 29
134 146 26
137 148 31
138 149 29
138 151 31
137 149 27
136 148 25
132 143 25
138 150 31
128 136 24
134 143 33
131 139 33
130 139 31
131 138 33
129 137 31
128 132 34
127 136 28
126 134 34
124 129 32
123 129 35
130 136 35
123 129 36
128 134 37
127 135 32
126 130 37
118 125 29
124 128 32
121 128 28
122 127 33
125 129 37
123 129 35
120 125 34
124 130 36
123 129 34
124 131 30
122 126 36
124 130 31
125 129 41
126 132 35
123 128 35
127 135 31
127 133 37
123 130 36
124 130 32
123 131 31
122 130 34
121 129 28
124 130 37
121 128 28
126 137 28
126 135 31
125 131 34
129 138 30
124 134 29
126 137 19
128 134 36
128 138 26
131 141 29
124 134 24
124 134 28
130 141 24
127 135 30
127 138 24
135 145 30
133 146 22
127 137 28
132 145 21
132 145 22
126 135 28
127 139 21
135 146 19
126 136 24
126 138 15
129 141 13
129 143 22
132 146 14
133 144 22
128 139 17
132 144 20
131 145 11
127 140 18
123 138 13
128 143 8
129 141 16
126 139 6
128 141 12
124 138 8
124 137 1
123 136 0
126 140 0
124 139 0
123 138 0
123 137 0
129 142 0
124 138 0
125 135 0
120 134 0
119 133 0
113 125 0
119 132 0
119 133 0
120 132 0
111 122 0
116 127 0
117 129 0
105 118 0
109 121 0
116 128 0
110 120 0
111 124 0
112 122 0
100 112 0
102 113 0
100 110 0
96 107 0
86 94 0
107 116 0
125 138 0
129 141 0
124 137 0
125 135 0
133 146 0
135 149 0
130 143 0
130 142 0
123 134 0
135 149 0
124 138 0
135 149 0
131 146 0
128 141 0
128 141 0
126 141 0
128 144 0
127 142 0
130 143 0
128 142 0
126 140 0
132 147 0
128 144 0
124 139 0
132 147 0
128 144 0
133 149 0
130 146 0
126 142 0
130 145 0
129 144 0
125 141 0
120 135 0
126 141 0
125 138 0
121 135 0
122 135 0
119 132 0
117 130 0
123 137 0
114 129 0
126 139 0
115 129 0
122 136 0
113 127 0
112 126 0
114 128 0
104 117 0
107 121 0
106 119 0
113 126 0
101 114 0
106 120 0
95 109 0
103 114 0
97 109 0
100 113 0
101 111 0
82 93 0
69 83 26
53 75 54
40 64 49
45 70 73
43 69 64
43 68 70
44 70 61
45 70 66
43 67 59
47 74 70
47 73 66
47 73 65
48 74 72
49 78 72
48 74 78
45 72 68
47 75 83
46 73 77
48 75 72
48 74 83
45 71 65
48 75 84
47 74 73
46 73 76
47 73 72
46 72 72
47 74 77
46 71 61
47 74 76
48 75 72
46 73 64
47 74 81
46 73 74
47 72 73
45 70 76
44 70 73
45 70 64
43 67 59
45 71 70
43 67 60
42 65 63
43 67 59
41 61 53
71 84 26
80 87 12
81 92 0
98 105 0
94 105 0
99 111 0
90 101 0
99 110 0
101 110 0
95 106 0
109 120 0
105 115 0
109 120 0
106 116 0
106 115 0
112 125 0
107 118 0
110 118 0
125 135 0
120 131 0
116 129 0
118 131 0
121 130 0
116 128 0
124 136 0
120 130 0
118 127 0
128 139 0
117 125 0
123 133 0
123 134 0
118 128 0
120 128 0
123 135 0
122 130 0
122 130 0
122 131 0
119 126 0
128 134 0
125 132 0
115 124 0
125 132 0
115 121 0
129 136 0
122 128 0
119 123 0
127 132 0
114 118 0
112 119 0
123 128 0
123 127 0
120 121 0
121 125 0
121 126 0
124 127 0
114 118 0
115 118 0
118 117 0
109 109 0
115 115 0
105 103 18
80 72 16
79 70 14
82 71 9
79 73 11
93 85 13
89 80 0
95 88 4
88 78 8
94 88 3
92 83 4
90 81 4
93 85 6
84 77 7
95 87 6
87 79 4
101 93 4
104 95 4
91 83 4
99 91 2
101 93 0
106 99 7
98 89 8
104 94 8
100 90 9
99 91 5
102 95 7
110 104 1
105 97 0
109 104 6
112 102 10
107 100 4
111 104 4
112 106 1
111 103 11
113 105 14
116 108 14
112 103 9
114 106 15
117 109 13
115 108 18
124 115 14
117 109 10
119 110 14
115 108 12
123 115 21
119 111 11
118 109 15
123 115 14
122 114 16
119 111 21
120 113 16
124 118 23
123 116 18
122 114 14
124 115 28
121 114 18
126 119 24
130 120 17
129 122 29
120 110 28
124 115 26
126 118 24
119 111 27
133 125 28
124 117 25
126 117 26
120 112 25
133 125 33
127 120 23
130 122 37
133 126 27
123 116 28
127 120 29
124 116 23
124 117 29
129 121 30
131 121 32
127 118 30
133 124 35
137 129 35
131 123 38
131 124 30
130 124 34
131 124 32
132 125 42
134 125 39
125 116 34
126 116 26
126 119 35
127 120 31
130 122 39
132 125 41
137 129 41
130 121 39
133 126 36
130 122 41
129 121 41
130 121 37
130 121 38
130 123 44
133 125 47
128 120 39
123 117 37
136 128 46
126 119 40
124 116 39
130 122 41
137 128 45
130 122 39
128 122 35
129 122 41
130 122 49
132 125 45
130 121 48
130 122 48
128 120 43
119 112 37
131 123 48
143 158 20
144 159 16
134 147 22
141 155 22
142 155 24
138 149 30
131 142 32
136 149 20
133 144 32
132 139 37
133 144 29
134 144 34
135 145 32
131 139 28
131 142 27
125 132 36
129 132 42
129 138 31
125 131 34
122 127 30
126 132 38
121 127 38
125 129 39
126 127 44
127 131 42
127 131 40
126 132 36
129 132 40
124 127 41
129 133 39
128 135 29
121 127 36
126 133 31
126 131 38
127 130 38
126 132 35
123 127 30
123 123 43
123 128 36
121 127 34
125 130 36
121 124 35
130 133 43
126 131 33
121 127 30
120 123 35
121 126 35
128 136 30
130 137 32
128 136 33
123 126 33
125 134 32
119 123 34
123 130 28
124 130 37
126 131 38
127 137 30
128 140 19
120 130 25
125 135 26
125 133 33
126 136 18
128 137 29
127 137 26
124 134 32
124 132 29
127 138 23
127 138 21
130 139 28
128 139 29
127 137 28
127 138 22
128 138 26
124 137 17
132 142 20
131 142 19
128 140 26
130 140 20
126 137 23
123 135 19
125 138 13
129 141 12
121 132 14
128 141 0
131 143 11
125 137 11
127 139 13
129 143 13
127 139 11
125 138 14
124 136 7
121 135 0
122 135 0
122 134 0
124 136 0
124 136 0
128 141 0
117 129 0
125 138 0
115 128 0
111 123 0
117 128 0
118 131 0
119 132 0
121 134 0
115 128 0
108 118 0
109 121 0
105 116 0
111 122 0
103 114 0
107 118 0
105 115 0
101 111 0
91 100 0
90 100 0
91 100 0
116 127 0
122 134 0
121 134 0
127 138 0
122 133 0
121 133 0
131 144 0
124 138 0
124 137 0
130 144 0
124 137 0
124 137 0
126 138 0
129 142 0
128 141 0
130 143 0
122 136 0
123 136 0
123 136 0
127 142 0
129 142 0
127 142 0
125 139 0
126 140 0
129 143 0
129 143 0
123 139 0
122 136 0
127 142 0
121 136 0
123 138 0
127 143 0
119 134 0
129 144 0
113 128 0
115 129 0
126 141 0
116 129 0
122 138 0
115 130 0
119 135 0
121 138 0
112 128 0
117 133 0
107 119 0
117 130 0
111 126 0
109 123 0
115 130 0
110 124 0
109 122 0
108 122 0
102 116 0
101 114 0
94 106 0
98 111 0
90 101 0
103 115 0
90 102 0
92 104 0
93 103 0
88 97 0
78 89 0
83 95 12
51 67 38
43 65 65
43 67 66
44 69 69
45 71 75
45 70 69
44 70 62
42 67 55
44 70 65
44 70 71
45 70 71
46 73 70
43 68 65
46 73 64
45 71 71
45 72 70
47 73 72
47 74 70
45 70 61
46 73 72
44 69 62
45 71 63
46 72 79
43 68 63
45 70 72
48 75 85
45 70 67
45 71 60
44 68 67
47 73 65
41 65 62
46 72 74
44 68 72
44 68 65
40 63 54
42 66 50
43 66 54
56 71 40
69 80 25
73 82 0
72 80 0
76 83 0
86 96 0
94 103 0
79 88 0
97 107 0
88 94 0
103 112 0
100 111 0
101 109 0
101 113 0
104 113 0
96 104 0
90 98 0
104 112 0
114 124 0
113 126 0
110 120 0
114 123 0
115 126 0
110 120 0
113 121 0
115 124 0
120 130 0
119 129 0
116 126 0
116 126 0
118 126 0
126 134 0
119 130 0
121 132 0
120 129 0
120 129 0
116 122 0
123 132 0
123 130 0
126 136 0
120 127 0
125 134 0
120 129 0
115 124 0
121 128 0
127 136 0
125 133 0
116 123 0
122 130 0
121 127 0
119 125 0
116 121 0
111 113 0
121 126 0
120 122 0
117 121 0
121 125 0
111 114 0
114 116 0
113 115 0
115 116 0
117 120 0
119 119 0
114 111 0
114 113 8
86 78 11
75 66 12
82 75 0
74 67 14
80 71 11
91 84 15
90 82 13
95 87 13
95 84 5
91 83 9
84 76 0
88 82 0
97 86 4
99 91 0
93 85 7
97 90 0
97 90 3
97 88 5
105 95 7
90 83 4
91 84 4
100 93 5
102 96 1
105 97 4
107 99 6
105 98 7
108 99 4
108 98 6
112 102 6
107 97 9
109 102 6
119 110 8
113 106 4
114 105 9
113 103 15
116 108 9
110 102 1
121 113 14
121 113 11
113 104 10
116 108 12
110 103 8
123 114 20
121 111 19
118 108 17
120 112 22
121 114 14
115 108 10
122 114 17
120 112 15
121 112 16
122 113 20
127 117 22
129 121 26
125 117 24
128 118 31
126 117 27
128 119 24
122 114 24
126 118 21
130 122 32
121 114 24
123 115 30
129 121 26
121 113 16
131 123 29
128 119 24
121 111 33
132 123 34
130 122 26
127 118 27
120 112 28
120 112 20
127 120 29
128 121 38
125 116 34
123 116 24
128 121 35
128 121 34
130 122 32
123 116 25
129 122 31
129 119 34
126 119 28
127 120 30
125 119 36
133 124 40
129 121 40
129 122 42
128 122 36
128 122 34
129 119 33
121 114 38
130 122 36
123 117 32
130 123 44
125 119 37
129 122 37
123 116 36
128 120 37
133 126 39
127 120 31
124 117 37
120 112 36
129 121 41
133 125 47
123 117 43
123 115 39
125 117 39
130 121 40
130 123 43
128 120 39
124 117 39
123 116 39
126 118 45
133 125 46
124 117 44
143 159 16
143 155 30
142 159 17
141 157 21
140 154 21
137 149 25
136 145 30
135 146 23
135 147 21
138 151 31
127 136 28
137 144 39
133 141 34
134 142 35
131 141 28
134 143 34
126 131 38
129 137 30
127 134 38
129 131 42
122 129 33
130 136 38
128 134 40
127 131 38
130 134 38
121 125 38
123 128 35
124 124 43
127 131 39
123 128 33
123 130 34
126 133 34
123 128 35
124 125 39
123 126 41
119 122 35
125 129 38
125 133 30
122 128 32
126 133 35
122 126 37
117 123 33
117 121 34
120 125 33
124 126 37
121 127 32
120 126 31
121 125 34
124 127 40
126 132 32
128 134 39
122 125 37
123 128 35
125 134 32
120 124 33
125 130 36
127 132 35
128 134 36
131 138 32
121 129 29
127 134 32
125 131 37
129 136 30
119 125 31
127 136 19
122 130 27
124 131 27
127 137 27
123 131 27
129 138 29
124 134 23
125 134 27
127 137 28
125 136 19
125 137 19
126 137 13
126 137 25
125 136 14
127 139 14
127 138 16
122 135 3
125 138 19
125 137 15
126 136 22
120 133 10
123 133 16
121 132 17
126 137 11
120 133 12
119 132 10
124 138 6
128 142 0
118 131 0
121 133 0
123 136 0
118 129 0
125 137 0
115 128 0
121 134 0
118 130 0
114 126 0
114 126 0
115 126 0
113 125 0
112 124 0
112 124 0
111 122 0
106 117 0
108 119 0
101 111 0
101 112 0
98 107 0
97 106 0
92 100 0
95 103 0
101 111 0
123 133 0
120 131 0
122 133 0
120 131 0
121 132 0
122 135 0
119 130 0
124 136 0
121 134 0
122 133 0
127 138 0
125 137 0
129 143 0
128 141 0
125 139 0
126 140 0
124 138 0
122 135 0
122 136 0
125 139 0
130 143 0
129 145 0
129 144 0
129 143 0
119 133 0
123 138 0
124 137 0
126 141 0
133 147 0
129 143 0
129 145 0
124 139 0
122 135 0
132 148 0
125 140 0
125 139 0
127 142 0
116 131 0
126 141 0
130 146 0
118 133 0
125 138 0
119 134 0
119 134 0
118 132 0
115 129 0
114 129 0
118 132 0
115 129 0
113 127 0
108 122 0
113 126 0
109 123 0
105 118 0
101 114 0
96 109 0
88 98 0
99 109 0
90 102 0
93 103 0
91 104 0
88 97 0
95 105 0
75 84 0
82 92 0
82 92 0
72 82 12
63 77 33
48 66 40
41 61 55
43 68 61
43 68 64
43 67 49
41 65 51
44 69 74
44 69 69
43 68 60
44 70 66
41 63 62
43 68 58
43 68 71
47 74 75
45 71 62
44 70 64
45 72 67
43 69 61
45 69 64
45 71 70
43 66 64
44 69 61
42 66 51
44 68 61
44 70 69
43 68 59
43 68 71
39 61 60
42 65 65
40 62 60
42 63 52
47 62 26
66 78 36
75 82 18
73 79 0
80 83 0
98 105 0
76 84 0
86 94 0
93 101 0
87 98 0
86 95 0
93 101 0
97 102 0
98 108 0
103 113 0
90 99 0
103 109 0
97 106 0
103 114 0
112 121 0
113 122 0
113 123 0
115 127 0
114 119 0
106 115 0
111 120 0
111 120 0
109 119 0
116 127 0
116 126 0
117 128 0
116 125 0
114 121 0
125 133 0
126 136 0
116 127 0
120 129 0
128 142 0
121 130 0
114 123 0
120 127 0
121 129 0
120 129 0
120 129 0
127 135 0
115 121 0
120 128 0
124 131 0
117 123 0
122 129 0
127 133 0
126 130 0
121 128 0
125 132 0
113 114 0
117 125 0
114 117 0
115 118 0
115 119 0
118 120 0
115 118 0
115 115 0
114 118 0
110 112 0
115 118 0
104 104 0
111 111 0
108 108 0
110 111 0
107 106 8
84 77 9
80 70 10
64 55 8
77 72 8
88 78 10
83 75 7
90 81 8
82 74 8
86 75 4
88 80 4
99 89 3
93 82 4
95 89 4
94 84 7
95 88 0
94 85 6
96 88 3
99 91 0
98 88 0
95 87 4
96 85 4
108 100 0
104 95 2
101 93 2
102 92 4
106 97 2
107 99 4
110 100 8
112 102 7
109 99 12
110 102 4
110 100 7
114 104 8
113 106 8
108 99 10
119 109 12
116 110 4
112 102 12
118 110 7
120 111 14
108 98 14
118 110 17
119 110 13
111 104 13
120 113 15
115 108 18
119 112 18
119 110 15
118 109 19
119 111 19
121 113 21
120 112 21
116 107 18
115 107 23
119 111 22
128 120 26
122 114 27
119 113 21
123 114 21
122 114 25
121 114 19
126 116 28
125 115 28
122 111 23
130 122 23
123 116 22
130 121 31
127 119 26
122 115 32
125 116 29
128 120 29
132 121 28
123 113 28
127 118 29
128 120 26
131 122 31
125 119 29
129 120 33
127 120 32
131 123 39
124 115 33
125 117 30
127 121 28
127 119 34
127 118 34
123 117 30
131 123 41
127 120 32
122 114 37
129 120 39
127 118 37
124 117 29
132 124 39
129 122 35
127 120 32
126 117 35
132 124 43
122 117 36
130 123 33
126 118 39
127 120 43
129 119 40
124 116 38
117 109 28
127 118 41
128 119 42
128 119 43
131 123 41
132 123 39
129 121 42
135 126 48
120 114 42
128 121 45
128 118 44
125 119 43
147 163 14
145 161 17
142 157 20
143 157 23
140 154 24
142 157 22
141 155 21
138 152 23
134 146 28
137 149 27
134 144 27
130 138 31
129 139 29
126 136 28
129 138 32
130 138 33
133 143 28
134 140 35
120 124 33
121 126 31
130 135 36
128 134 38
126 131 35
125 129 40
124 128 37
122 128 30
122 128 32
130 132 45
128 134 39
130 136 36
126 131 39
124 128 34
123 124 38
122 125 35
128 134 30
117 122 25
123 129 32
123 128 35
124 130 33
124 130 30
126 132 27
119 122 28
122 128 35
115 114 37
115 118 37
118 123 33
121 125 36
126 126 44
116 118 36
119 119 39
117 119 37
119 127 26
119 120 37
124 132 36
127 130 41
122 129 29
125 132 31
128 133 35
124 130 36
114 121 29
124 131 30
119 123 31
124 132 31
120 126 29
123 131 23
121 129 29
124 134 24
124 133 20
125 133 29
122 132 22
120 129 26
117 127 19
125 135 17
122 131 28
125 132 24
124 133 24
126 137 23
122 133 23
127 138 19
122 131 26
120 131 20
126 137 15
126 137 19
122 131 14
124 134 21
122 134 13
121 134 11
116 126 10
124 134 19
126 139 8
115 126 10
125 138 0
120 133 0
116 128 0
117 130 0
121 134 0
120 132 0
123 135 0
119 132 0
117 130 0
119 131 0
111 123 0
114 127 0
116 127 0
111 123 0
105 115 0
106 117 0
110 119 0
104 113 0
99 108 0
91 100 0
97 107 0
82 91 0
96 104 0
113 123 0
113 124 0
108 120 0
117 129 0
119 130 0
119 131 0
112 124 0
115 127 0
123 135 0
120 131 0
123 137 0
114 125 0
121 133 0
124 136 0
122 133 0
132 145 0
119 132 0
127 138 0
121 134 0
124 138 0
129 142 0
117 130 0
122 136 0
128 143 0
131 145 0
121 136 0
122 134 0
126 139 0
121 136 0
124 139 0
128 143 0
124 139 0
124 139 0
126 141 0
122 136 0
124 139 0
124 140 0
122 138 0
116 131 0
124 140 0
126 142 0
115 130 0
124 136 0
116 128 0
116 130 0
117 130 0
108 120 0
111 124 0
117 130 0
115 129 0
107 120 0
114 127 0
110 123 0
104 117 0
100 114 0
102 116 0
108 120 0
96 108 0
100 111 0
98 109 0
97 109 0
91 103 0
93 100 0
79 90 0
87 98 0
85 95 0
91 101 0
82 90 0
75 85 0
72 80 0
71 81 0
73 82 4
55 67 29
58 72 25
42 57 31
44 66 58
42 66 61
40 62 55
39 62 56
43 68 67
43 68 55
43 67 63
43 67 67
42 66 57
40 62 46
45 70 69
42 66 56
43 67 57
44 69 62
41 65 54
43 67 65
40 64 56
40 63 47
42 66 67
41 64 56
41 65 57
40 62 51
50 67 53
52 65 36
60 70 33
64 70 12
73 80 0
69 76 0
69 76 0
78 84 0
79 86 0
81 89 0
79 87 0
79 85 0
92 100 0
85 95 0
87 96 0
96 105 0
96 103 0
93 102 0
97 106 0
96 105 0
92 100 0
106 115 0
106 118 0
96 106 0
113 124 0
119 130 0
107 117 0
111 122 0
111 121 0
120 130 0
120 132 0
108 120 0
110 121 0
119 129 0
117 127 0
121 132 0
119 130 0
121 130 0
116 125 0
117 125 0
120 130 0
117 125 0
126 134 0
122 130 0
117 124 0
117 124 0
118 127 0
117 123 0
118 125 0
112 118 0
114 123 0
121 127 0
116 120 0
118 123 0
121 128 0
113 117 0
115 119 0
118 126 0
121 127 0
123 127 0
111 116 0
118 120 0
105 106 0
118 122 0
112 113 0
114 117 0
115 117 0
108 106 0
105 104 0
113 115 0
102 104 0
114 116 0
112 111 0
114 112 0
108 105 0
95 90 8
79 69 14
83 72 16
75 67 11
86 77 8
88 80 6
84 75 4
86 76 8
88 79 8
88 78 2
96 85 11
91 82 4
90 81 6
99 90 4
105 95 7
101 92 4
93 85 3
103 92 9
100 91 7
94 85 1
108 96 7
109 100 5
98 89 5
106 99 6
107 97 4
104 96 1
111 102 4
109 100 4
113 104 6
110 101 6
110 101 4
113 104 0
110 100 8
111 102 10
114 107 1
115 106 16
112 104 9
113 105 8
112 102 10
117 107 6
108 100 13
120 113 14
113 103 18
117 109 16
111 100 8
121 113 18
118 109 19
115 105 16
118 110 12
125 117 14
115 107 17
119 109 22
120 111 20
123 115 22
119 109 17
130 122 29
123 114 13
125 116 18
119 111 19
120 111 17
126 115 18
126 116 20
121 112 23
126 118 20
127 115 25
124 116 28
126 117 27
124 115 29
123 114 18
127 121 34
129 122 32
125 118 35
125 118 28
120 111 27
123 115 24
121 112 30
122 114 27
129 122 21
120 111 25
128 120 31
131 123 28
127 121 28
120 111 32
130 123 41
127 120 26
129 122 31
123 115 29
127 120 37
129 120 31
127 119 29
122 113 39
128 120 33
125 116 32
125 118 37
125 116 33
128 121 39
127 120 36
125 118 33
128 120 38
121 114 36
130 122 40
127 119 42
126 119 38
126 118 41
127 119 39
121 113 36
118 110 31
127 119 39
124 117 40
126 118 39
124 116 39
118 112 37
122 114 37
119 112 36
146 163 7
144 161 14
144 161 17
143 159 17
146 161 14
138 152 23
137 152 24
136 149 23
140 153 24
130 141 23
136 147 26
135 147 28
136 149 20
134 144 30
131 139 29
132 142 27
126 133 33
130 138 32
136 142 39
128 136 32
124 133 25
123 129 30
125 130 35
129 137 29
125 128 34
124 129 35
121 125 36
125 132 33
129 135 33
128 132 37
128 133 32
119 121 38
129 134 38
129 135 34
126 134 30
127 132 32
131 136 35
122 127 29
123 125 40
117 122 25
126 130 38
116 123 26
128 131 40
114 119 31
114 118 31
119 120 36
118 120 34
124 127 46
120 123 34
123 126 39
118 121 38
122 121 45
113 116 36
119 124 36
111 113 34
124 130 34
120 124 38
126 133 35
119 122 33
114 119 31
125 133 32
122 128 26
121 127 31
125 130 34
120 126 34
119 124 32
119 125 34
128 137 23
122 131 27
125 133 26
120 124 31
121 130 21
121 128 29
129 141 20
124 135 23
122 131 26
118 127 16
124 133 25
126 136 24
119 128 14
122 132 20
117 126 19
119 127 27
126 137 15
119 127 18
122 134 14
117 126 20
125 137 9
119 130 9
122 133 8
119 131 9
121 132 8
121 132 0
121 133 0
115 127 0
118 131 0
118 128 0
118 129 0
116 128 0
117 130 0
107 118 0
107 118 0
105 117 0
110 121 0
103 114 0
108 118 0
102 112 0
103 113 0
88 96 0
89 98 0
91 100 0
95 104 0
110 119 0
113 124 0
106 114 0
116 127 0
113 123 0
111 121 0
117 128 0
118 129 0
116 127 0
117 129 0
121 133 0
119 130 0
120 134 0
123 136 0
119 131 0
123 136 0
117 131 0
124 137 0
122 137 0
123 135 0
120 134 0
131 143 0
127 139 0
126 139 0
126 139 0
119 132 0
127 141 0
130 142 0
126 139 0
126 141 0
121 134 0
122 138 0
125 140 0
128 142 0
128 143 0
120 135 0
124 138 0
126 142 0
124 140 0
112 127 0
115 130 0
121 135 0
128 141 0
115 128 0
112 125 0
116 130 0
122 138 0
129 144 0
113 126 0
106 120 0
117 131 0
107 120 0
108 123 0
110 124 0
101 115 0
107 118 0
109 122 0
98 112 0
111 122 0
106 118 0
103 115 0
93 105 0
93 105 0
93 104 0
94 105 0
92 103 0
85 94 0
75 87 0
82 91 0
86 97 0
77 86 0
71 80 0
86 95 0
77 86 0
69 79 0
67 77 0
62 70 0
70 77 0
52 63 18
50 61 38
49 63 33
47 62 38
37 57 53
36 56 54
39 61 56
40 61 48
37 58 52
40 62 51
41 64 52
39 60 47
40 63 54
36 57 58
41 61 44
45 61 57
44 58 34
47 62 38
50 61 18
57 66 22
57 65 0
61 68 0
68 75 0
60 67 0
65 69 0
64 72 0
68 75 0
74 80 0
69 76 0
81 90 0
81 89 0
84 92 0
86 95 0
89 97 0
103 113 0
93 101 0
88 98 0
89 96 0
106 115 0
100 108 0
95 104 0
110 119 0
105 114 0
111 119 0
103 110 0
107 116 0
101 111 0
111 120 0
114 123 0
112 123 0
112 121 0
115 125 0
115 124 0
121 130 0
117 127 0
120 132 0
120 134 0
119 130 0
122 131 0
116 127 0
114 124 0
119 129 0
128 138 0
113 122 0
115 124 0
113 120 0
123 133 0
120 128 0
115 122 0
121 129 0
119 126 0
115 123 0
117 123 0
118 125 0
119 125 0
116 122 0
113 118 0
119 123 0
117 122 0
114 120 0
110 113 0
118 121 0
120 124 0
111 116 0
111 113 0
109 111 0
110 111 0
112 116 0
108 112 0
108 109 0
111 111 0
108 107 0
107 106 0
111 110 0
104 103 0
103 101 0
109 107 0
99 93 0
93 89 0
74 64 8
78 69 12
85 74 10
85 74 8
88 78 5
78 69 4
96 86 1
83 74 0
97 86 11
92 80 5
96 85 7
85 78 3
96 86 4
95 86 5
101 91 4
108 98 4
104 94 4
98 88 6
100 89 0
108 100 0
104 94 3
101 94 6
98 87 6
102 91 6
98 88 4
103 95 6
109 98 7
107 98 9
111 102 9
108 99 4
105 97 5
115 106 7
117 107 10
116 107 1
106 98 12
118 110 12
114 106 9
123 113 9
113 103 12
117 109 14
115 106 19
115 108 11
120 111 18
112 103 14
114 104 17
117 109 20
109 102 9
118 109 18
118 110 20
121 112 11
118 109 16
125 119 24
121 113 20
119 112 22
121 112 22
124 116 24
122 113 24
124 117 23
115 107 26
122 113 22
123 115 22
126 116 19
120 112 29
127 120 25
122 114 26
119 111 28
127 118 35
115 108 25
120 113 29
120 113 23
122 113 23
119 111 28
132 123 33
126 117 31
125 117 30
128 119 24
118 111 24
120 112 33
120 113 29
127 117 32
121 112 28
125 116 35
121 113 32
129 119 37
127 118 32
120 111 25
122 114 32
125 115 32
125 118 37
129 121 40
127 118 40
125 117 28
129 123 38
128 118 39
124 117 37
124 115 39
122 113 36
117 111 34
125 116 36
124 115 39
127 119 37
126 119 37
125 118 34
123 115 39
123 115 38
120 114 28
126 116 39
119 112 38
126 118 38
120 113 34
129 121 44
142 160 0
143 162 0
139 154 7
142 159 8
145 161 16
141 157 20
143 158 21
137 150 24
137 149 25
140 153 25
136 149 25
135 144 32
133 144 22
134 145 23
133 141 34
133 142 29
131 139 30
130 139 32
131 139 30
128 135 28
130 139 25
126 134 31
125 131 36
124 130 32
122 126 31
129 133 40
126 131 34
128 132 40
128 131 36
128 135 32
124 127 36
126 130 36
129 135 38
127 133 34
127 129 36
122 127 34
124 129 35
126 133 31
127 135 29
126 129 36
120 123 29
130 134 40
127 131 32
127 132 32
118 119 32
122 127 30
120 122 36
120 123 31
116 118 39
116 117 39
117 119 38
115 118 34
112 115 32
118 122 32
117 122 33
120 123 37
120 123 37
118 121 34
122 130 30
123 129 29
118 123 31
125 133 29
122 127 27
123 131 28
120 126 28
119 127 32
117 125 30
117 123 30
125 133 26
119 124 31
120 129 29
120 127 22
121 130 27
123 130 28
120 128 26
123 129 27
115 119 33
119 128 21
116 123 25
117 124 28
122 131 14
116 127 15
123 134 18
120 129 21
121 130 23
117 126 20
118 128 20
119 130 7
114 126 14
110 119 15
119 129 0
117 128 0
118 131 0
121 132 8
115 127 0
117 129 0
113 125 0
115 125 0
109 120 0
114 125 0
101 112 0
111 122 0
103 112 0
106 116 0
102 112 0
96 104 0
92 102 0
89 98 0
80 87 0
87 93 0
105 115 0
112 122 0
108 118 0
114 125 0
114 123 0
114 124 0
107 118 0
113 124 0
125 137 0
114 125 0
117 129 0
113 124 0
111 121 0
122 134 0
115 127 0
117 129 0
119 132 0
116 128 0
123 136 0
118 132 0
121 131 0
125 137 0
116 129 0
122 135 0
117 132 0
129 144 0
119 132 0
129 142 0
125 139 0
125 138 0
126 140 0
120 135 0
128 142 0
126 141 0
120 134 0
114 127 0
121 134 0
113 128 0
131 147 0
122 137 0
121 136 0
118 132 0
118 133 0
121 137 0
123 135 0
112 126 0
121 136 0
117 132 0
109 123 0
113 127 0
110 122 0
99 111 0
117 132 0
106 118 0
111 123 0
103 115 0
104 116 0
105 120 0
108 122 0
99 110 0
114 125 0
100 112 0
97 108 0
98 108 0
92 104 0
87 99 0
88 101 0
97 108 0
85 94 0
79 91 0
84 95 0
84 94 0
85 92 0
73 83 0
74 82 0
82 91 0
71 79 0
67 77 0
71 80 0
68 77 0
71 80 0
59 69 0
44 52 0
66 73 0
51 57 0
51 54 0
55 62 0
54 61 0
52 59 22
52 60 12
49 57 0
46 54 18
47 53 0
52 59 0
56 63 0
67 72 0
60 67 0
61 67 0
54 62 0
56 64 0
59 68 0
63 70 0
59 68 0
63 70 0
77 86 0
80 86 0
75 82 0
78 86 0
84 91 0
81 88 0
81 91 0
91 101 0
94 101 0
89 98 0
92 103 0
94 104 0
96 106 0
103 112 0
107 114 0
94 103 0
94 104 0
97 107 0
97 107 0
117 126 0
106 119 0
103 113 0
111 121 0
114 127 0
117 127 0
114 123 0
110 119 0
116 127 0
117 127 0
116 125 0
118 130 0
116 125 0
128 138 0
118 127 0
112 120 0
120 130 0
124 130 0
115 124 0
122 133 0
118 129 0
127 137 0
122 131 0
115 124 0
127 137 0
116 126 0
116 125 0
128 137 0
118 126 0
119 125 0
120 125 0
119 125 0
126 132 0
115 122 0
126 133 0
112 118 0
113 117 0
115 120 0
116 118 0
108 111 0
115 118 0
117 122 0
116 119 0
115 116 0
113 116 0
114 117 0
107 109 0
110 110 0
106 106 0
97 91 0
107 108 0
105 102 0
101 97 0
102 98 0
97 93 0
96 92 0
100 96 0
89 83 12
77 69 14
68 58 4
76 68 11
87 77 4
91 80 8
85 75 6
91 82 0
82 71 1
91 83 3
88 79 0
85 75 5
95 85 1
94 82 2
96 86 0
97 87 3
98 88 5
98 89 0
98 89 2
107 96 0
104 95 4
104 94 1
95 85 1
104 94 9
105 97 1
109 99 7
114 105 1
99 92 8
102 94 4
108 101 4
109 101 6
110 101 9
111 101 8
113 103 10
115 108 13
111 102 8
109 98 6
113 104 10
110 100 16
117 108 10
118 108 10
115 107 15
118 109 18
108 102 9
118 109 11
124 114 20
118 110 22
112 103 17
121 112 14
118 108 21
120 113 21
121 113 21
116 108 15
119 110 19
116 108 22
129 120 30
119 111 17
122 114 16
121 112 26
117 107 23
126 118 25
119 113 16
111 103 20
123 115 29
122 114 25
119 111 25
123 115 24
124 115 23
122 113 25
121 112 17
122 113 27
129 119 34
122 114 29
120 111 30
126 116 34
124 116 30
126 116 36
124 114 29
127 119 33
131 123 32
124 116 30
127 120 36
120 112 34
123 116 25
126 117 34
128 119 39
126 117 31
128 120 38
127 118 38
128 119 34
126 119 39
122 113 34
124 116 39
129 120 41
122 114 32
125 118 30
121 112 39
125 118 35
120 112 39
111 104 30
117 109 35
120 112 40
122 115 37
120 112 43
123 116 34
122 115 39
120 113 35
115 110 34
115 107 41
113 106 37
140 156 0
138 155 0
139 157 0
143 160 2
144 161 7
141 157 19
143 157 24
142 159 1
141 157 18
139 153 22
143 157 25
140 153 19
136 150 20
135 145 30
133 143 26
133 144 26
137 148 28
133 144 25
137 147 25
133 142 33
130 139 26
124 128 35
124 131 34
127 134 36
126 135 30
125 130 36
123 130 30
128 131 36
123 131 33
126 128 39
124 127 36
124 130 28
122 126 32
125 127 36
124 129 33
121 125 32
127 132 38
123 129 28
127 132 35
124 130 33
119 123 33
124 130 33
125 127 33
123 128 28
119 122 36
112 112 36
116 117 37
118 120 37
123 126 36
125 128 41
122 126 37
119 122 30
126 129 38
114 118 31
119 125 34
120 124 36
115 120 25
121 123 35
122 127 29
120 122 35
112 115 35
117 120 32
118 123 29
116 122 27
120 122 39
117 122 28
122 126 29
121 126 32
121 127 32
118 126 27
122 126 31
118 122 34
117 125 27
112 119 20
123 131 30
124 132 22
118 123 31
122 129 24
120 126 25
121 128 25
123 132 21
115 123 22
113 121 16
115 125 16
122 133 18
119 126 17
120 130 16
122 132 14
113 124 16
119 129 17
114 126 0
113 124 12
117 129 6
116 126 0
116 126 8
117 128 0
117 128 0
110 121 0
107 118 0
105 115 0
104 114 0
103 112 0
94 103 0
86 95 0
91 99 0
92 99 0
78 85 0
94 101 0
101 109 0
103 110 0
110 119 0
112 120 0
101 109 0
120 129 0
113 122 0
116 126 0
114 124 0
116 127 0
110 121 0
117 128 0
109 120 0
110 121 0
116 128 0
124 136 0
129 141 0
118 130 0
117 129 0
115 127 0
123 136 0
124 135 0
116 130 0
116 128 0
127 143 0
117 131 0
122 136 0
122 136 0
116 130 0
122 136 0
128 140 0
120 134 0
125 140 0
123 136 0
123 135 0
123 137 0
124 138 0
122 136 0
132 148 0
126 140 0
122 136 0
127 143 0
121 138 0
120 134 0
116 131 0
123 138 0
115 128 0
123 138 0
112 126 0
124 137 0
110 123 0
115 130 0
121 135 0
102 115 0
119 135 0
124 137 0
116 130 0
103 116 0
117 130 0
104 118 0
104 117 0
101 114 0
108 121 0
95 106 0
109 122 0
86 98 0
91 102 0
92 104 0
93 106 0
93 105 0
85 96 0
87 98 0
86 98 0
97 108 0
81 93 0
85 96 0
88 99 0
75 84 0
84 94 0
75 83 0
64 71 0
72 81 0
79 89 0
75 83 0
74 82 0
64 72 0
70 77 0
58 68 0
50 58 0
53 59 0
53 60 0
55 63 0
55 64 0
60 66 0
52 60 0
60 68 0
65 74 0
65 73 0
67 77 0
57 64 0
77 85 0
68 75 0
73 79 0
66 73 0
79 88 0
70 76 0
76 86 0
79 88 0
77 88 0
97 107 0
95 105 0
77 85 0
81 87 0
97 107 0
81 86 0
87 93 0
97 105 0
84 92 0
103 113 0
93 103 0
103 113 0
95 107 0
106 117 0
104 114 0
95 104 0
102 113 0
108 119 0
112 122 0
104 114 0
105 115 0
110 121 0
113 122 0
116 125 0
120 128 0
116 124 0
112 123 0
116 127 0
110 121 0
124 136 0
119 128 0
114 125 0
120 131 0
110 121 0
122 131 0
120 130 0
119 129 0
115 124 0
117 125 0
113 122 0
120 127 0
110 119 0
127 137 0
120 126 0
122 130 0
116 122 0
118 124 0
115 123 0
119 125 0
114 120 0
116 121 0
123 128 0
105 108 0
108 111 0
118 125 0
110 114 0
110 114 0
118 120 0
109 112 0
108 110 0
108 109 0
112 114 0
100 102 0
109 109 0
109 108 0
110 110 0
104 105 0
103 100 0
102 100 0
96 93 0
100 98 0
99 99 0
95 91 0
89 82 0
93 88 0
85 79 0
78 68 13
81 71 8
82 72 1
82 72 9
80 73 0
74 66 0
81 70 4
85 73 3
87 79 0
89 81 0
94 84 0
86 75 1
89 80 0
90 81 4
92 84 0
95 84 1
97 88 1
98 88 4
96 88 5
94 85 5
101 91 6
94 87 6
106 96 5
105 98 1
104 95 3
101 91 7
107 99 0
107 98 4
104 97 4
98 89 4
106 96 12
111 103 8
108 98 6
116 109 8
110 101 15
109 100 4
109 101 9
112 103 12
116 108 9
109 100 16
114 104 15
117 109 12
114 107 13
112 103 11
119 108 17
118 109 11
118 109 14
116 108 12
118 110 8
120 111 22
113 103 12
119 112 20
118 110 17
113 105 12
116 106 18
117 109 19
118 109 19
120 110 21
119 111 27
114 104 21
114 106 23
120 111 28
121 114 25
120 112 27
116 107 22
117 107 23
117 110 16
116 111 25
117 109 33
123 114 24
119 110 30
120 112 21
124 118 26
127 119 34
124 115 27
121 112 28
124 116 32
129 122 37
123 114 34
127 118 31
123 116 25
119 111 28
118 110 29
126 117 36
114 106 31
127 119 36
128 120 30
112 104 24
125 117 32
124 117 38
123 113 31
124 116 36
122 114 34
125 118 38
122 114 36
114 106 31
119 111 34
119 112 35
128 120 40
122 115 38
123 115 39
120 114 38
117 110 36
127 119 39
120 112 36
121 114 37
119 110 36
139 155 0
135 152 0
135 152 0
137 155 0
137 154 0
143 159 8
143 160 7
143 159 2
142 160 7
141 158 0
143 159 18
141 156 17
140 153 28
137 149 22
137 149 23
134 146 18
136 148 16
134 144 30
131 138 31
136 148 27
131 140 32
129 135 34
131 138 32
131 138 32
129 137 28
130 139 27
127 132 38
126 133 27
129 135 35
132 137 36
126 133 27
129 135 33
124 128 28
121 126 31
128 132 36
128 128 45
125 129 36
122 127 36
132 136 42
116 117 33
122 122 38
119 119 41
120 125 27
121 126 29
128 132 38
119 124 31
120 123 34
120 122 39
122 123 39
119 120 32
115 115 33
115 118 34
119 124 28
124 126 40
112 116 28
120 125 35
119 122 31
121 124 31
117 120 29
115 117 31
118 123 33
118 119 35
122 126 34
119 122 35
118 124 26
116 125 24
118 124 25
121 129 31
112 116 33
121 125 36
119 127 24
119 128 25
116 126 21
117 123 29
119 126 30
122 129 24
117 124 23
117 125 16
117 126 20
118 125 20
113 125 16
116 124 20
115 124 19
116 123 20
122 132 16
122 131 20
120 130 17
118 130 0
118 126 17
116 127 11
117 128 7
112 121 5
109 119 13
103 112 8
111 121 0
114 125 0
104 114 0
108 117 0
110 121 0
103 112 0
98 108 0
93 100 0
84 91 0
87 94 0
87 94 0
100 106 0
97 105 0
102 110 0
100 108 0
104 114 0
107 116 0
114 123 0
115 124 0
112 121 0
103 112 0
107 117 0
117 129 0
114 124 0
113 125 0
117 129 0
124 138 0
123 135 0
121 132 0
122 133 0
122 134 0
116 127 0
121 132 0
128 142 0
121 134 0
117 130 0
117 130 0
122 136 0
134 148 0
122 136 0
124 138 0
117 129 0
128 143 0
120 133 0
119 134 0
127 142 0
122 137 0
121 135 0
124 140 0
122 135 0
114 129 0
129 146 0
125 140 0
125 139 0
121 135 0
122 137 0
122 134 0
119 132 0
127 142 0
120 135 0
119 134 0
116 131 0
117 131 0
118 133 0
118 132 0
114 127 0
115 128 0
111 125 0
118 133 0
109 123 0
108 121 0
115 128 0
111 124 0
109 119 0
108 122 0
105 118 0
100 114 0
107 121 0
103 116 0
100 113 0
99 111 0
94 106 0
91 103 0
96 108 0
91 103 0
104 113 0
92 104 0
81 94 0
79 90 0
78 88 0
83 94 0
75 83 0
85 95 0
84 96 0
82 93 0
79 88 0
83 93 0
68 78 0
60 68 0
69 78 0
69 79 0
72 83 0
63 70 0
61 69 0
74 85 0
70 79 0
70 78 0
77 85 0
72 80 0
73 83 0
73 81 0
68 76 0
71 77 0
64 74 0
76 86 0
83 93 0
74 81 0
74 83 0
82 92 0
80 88 0
73 82 0
84 94 0
86 95 0
90 101 0
92 100 0
82 91 0
83 92 0
87 96 0
95 104 0
94 104 0
90 101 0
108 116 0
95 105 0
95 103 0
95 103 0
110 120 0
112 121 0
103 113 0
101 112 0
105 113 0
105 113 0
109 120 0
110 119 0
114 126 0
112 123 0
114 125 0
107 119 0
119 130 0
114 126 0
121 131 0
105 114 0
115 127 0
123 136 0
113 123 0
113 122 0
116 128 0
107 116 0
121 131 0
113 124 0
119 130 0
125 134 0
116 124 0
126 136 0
123 131 0
116 125 0
114 123 0
121 130 0
123 132 0
122 130 0
115 124 0
114 120 0
121 127 0
117 122 0
120 126 0
113 120 0
116 122 0
124 130 0
105 110 0
117 122 0
115 120 0
118 124 0
114 118 0
109 111 0
103 104 0
112 111 0
113 116 0
110 111 0
108 107 0
112 113 0
107 106 0
115 115 0
98 97 0
102 99 0
108 105 0
95 92 0
97 89 0
93 90 0
93 87 0
92 86 0
90 83 0
73 64 0
76 66 8
77 65 10
84 71 9
82 72 0
78 67 6
83 74 5
86 78 8
85 76 0
85 76 0
98 86 6
90 79 1
89 79 7
86 76 5
89 78 5
95 86 0
96 84 4
103 94 0
101 92 2
99 90 4
105 96 6
102 94 1
104 95 0
98 89 8
109 99 4
106 97 4
102 91 8
108 99 6
111 102 4
112 101 9
105 96 2
112 103 1
106 98 1
109 101 5
108 99 11
111 102 16
113 103 12
119 110 4
109 101 14
106 96 9
111 102 13
110 99 20
113 104 18
114 106 9
116 106 18
115 108 11
116 106 9
118 108 15
114 103 15
122 114 26
113 106 12
119 108 26
115 107 14
115 105 22
115 107 16
121 111 26
118 109 22
118 111 21
123 114 24
116 109 20
116 109 24
123 115 28
120 109 27
121 112 28
123 114 27
120 111 27
123 115 21
123 115 27
119 109 25
116 108 28
128 120 27
122 114 22
117 109 32
123 115 24
118 110 31
118 110 34
125 117 36
118 107 30
120 110 29
126 117 40
118 108 26
125 115 34
122 114 31
123 113 30
122 114 34
116 109 30
122 114 36
130 122 41
126 118 34
122 115 36
119 110 35
120 111 37
124 116 35
124 114 35
122 114 29
122 114 41
113 105 28
123 116 40
129 123 33
118 111 35
116 108 33
112 104 39
116 109 33
126 118 44
120 111 40
110 103 28
124 139 0
130 145 0
130 147 0
133 150 0
131 147 0
137 154 0
140 157 0
139 156 0
138 153 0
140 157 8
142 157 15
140 154 0
139 155 1
135 148 16
141 154 25
139 151 23
142 154 22
135 148 19
137 148 25
135 145 31
129 139 16
134 145 22
131 143 18
132 142 25
134 144 29
127 134 27
131 139 30
124 132 26
131 137 35
129 133 29
130 139 27
130 138 30
126 134 29
127 131 35
127 129 40
122 126 29
124 131 29
123 128 32
124 129 33
122 123 36
126 129 39
121 125 36
116 119 29
119 121 40
119 118 41
120 124 36
120 123 30
119 121 36
113 115 32
114 119 25
116 117 34
120 123 30
121 122 35
113 117 33
122 124 39
118 121 32
117 121 25
119 121 30
117 121 33
113 121 16
118 125 25
112 116 29
117 122 22
116 120 25
119 125 30
117 122 20
117 122 29
121 126 31
119 124 27
117 119 32
118 124 25
123 130 23
114 122 23
115 122 26
113 120 24
118 126 23
120 126 24
119 128 15
112 121 21
120 130 18
120 130 14
118 126 22
110 119 12
120 128 18
118 127 14
114 122 17
116 128 11
110 120 17
118 130 7
119 129 0
113 123 0
115 124 8
112 123 0
109 118 0
101 109 0
105 114 0
105 115 0
99 109 0
94 102 0
89 96 0
86 94 0
83 88 0
83 91 0
93 99 0
92 97 0
103 111 0
93 100 0
96 103 0
101 110 0
105 114 0
108 117 0
103 113 0
112 122 0
114 124 0
116 125 0
116 126 0
111 121 0
121 131 0
109 121 0
119 132 0
115 126 0
118 129 0
121 133 0
120 134 0
119 132 0
122 135 0
121 133 0
127 139 0
117 129 0
123 136 0
124 138 0
122 135 0
124 138 0
130 144 0
123 138 0
123 139 0
126 140 0
125 139 0
120 134 0
121 134 0
129 144 0
122 135 0
130 145 0
120 133 0
128 143 0
124 137 0
123 138 0
130 144 0
122 136 0
130 145 0
122 136 0
124 138 0
118 132 0
122 137 0
121 135 0
119 133 0
126 141 0
123 136 0
116 130 0
118 134 0
114 129 0
118 132 0
120 135 0
112 127 0
101 115 0
109 124 0
109 123 0
107 122 0
109 122 0
113 124 0
105 119 0
103 116 0
108 121 0
108 123 0
105 118 0
97 108 0
99 112 0
97 108 0
94 107 0
90 103 0
85 98 0
99 112 0
82 91 0
91 101 0
91 100 0
74 86 0
87 98 0
89 99 0
81 91 0
75 85 0
82 89 0
84 93 0
73 84 0
77 86 0
79 91 0
75 84 0
79 88 0
75 85 0
74 83 0
75 85 0
72 81 0
77 87 0
76 86 0
85 94 0
80 88 0
83 93 0
65 75 0
78 89 0
64 72 0
80 88 0
82 91 0
80 90 0
76 84 0
78 84 0
81 91 0
91 100 0
94 102 0
95 104 0
94 103 0
86 94 0
89 100 0
93 104 0
94 104 0
90 100 0
101 113 0
100 110 0
111 121 0
102 113 0
100 110 0
101 112 0
104 115 0
107 117 0
106 115 0
105 115 0
111 120 0
115 127 0
101 111 0
107 119 0
105 115 0
113 124 0
113 123 0
117 126 0
115 126 0
125 135 0
109 120 0
122 132 0
122 134 0
121 132 0
117 127 0
113 122 0
112 122 0
117 128 0
119 128 0
115 126 0
124 134 0
125 134 0
122 132 0
116 123 0
125 134 0
123 132 0
126 134 0
117 125 0
121 129 0
122 129 0
120 128 0
118 124 0
120 127 0
122 129 0
117 123 0
117 122 0
117 123 0
115 120 0
117 119 0
110 113 0
114 117 0
117 122 0
115 118 0
118 121 0
110 113 0
113 114 0
107 109 0
110 113 0
103 104 0
107 106 0
99 100 0
102 98 0
107 105 0
101 101 0
93 93 0
104 101 0
100 97 0
93 88 0
85 81 0
90 84 0
88 81 0
88 84 0
74 69 0
73 63 4
68 59 9
76 65 4
84 74 0
80 70 0
80 68 2
84 73 0
86 75 7
86 76 6
88 78 4
86 75 4
89 79 4
89 79 0
89 81 0
95 86 5
96 86 2
100 90 0
101 90 4
99 88 6
102 94 2
106 94 2
104 93 5
99 89 5
105 96 9
100 92 0
100 90 10
99 90 11
110 100 8
106 96 9
104 94 10
106 97 12
106 98 8
111 101 12
111 101 1
115 104 15
110 99 7
112 103 16
112 102 11
115 105 20
108 99 14
111 102 15
107 96 12
115 104 17
111 105 11
108 99 12
117 108 15
110 100 13
114 104 16
113 103 12
117 109 20
115 108 20
109 100 14
116 106 20
125 115 25
121 112 28
116 109 21
118 109 23
115 106 23
116 109 25
114 106 20
113 104 23
110 102 18
124 115 31
120 112 24
114 106 23
119 110 34
119 110 32
110 102 18
111 104 24
120 111 27
127 117 30
127 117 36
116 104 26
123 115 26
116 109 24
118 110 30
116 108 32
121 112 31
117 109 25
122 114 41
119 110 32
114 105 30
118 111 29
122 116 36
123 115 32
124 117 31
126 119 37
120 111 36
114 106 30
115 107 28
112 105 32
122 115 42
119 110 35
118 110 37
114 107 33
119 112 35
112 105 35
115 107 32
112 104 30
113 106 40
123 116 37
122 114 42
112 103 34
131 148 22
119 134 0
125 140 0
126 142 0
129 145 0
131 147 0
130 147 0
140 157 0
143 160 0
138 154 0
142 158 0
140 157 0
136 152 7
141 157 0
139 154 7
136 150 17
134 148 11
136 149 12
139 153 18
135 146 19
136 148 25
135 144 31
129 142 14
132 143 20
134 145 21
134 146 25
130 137 30
133 140 32
130 143 20
127 137 24
123 131 31
122 127 32
131 138 29
128 135 30
123 129 30
123 128 30
126 131 32
123 130 33
126 130 36
130 136 33
121 124 24
126 132 35
121 124 35
123 128 32
118 121 29
122 128 33
111 115 29
119 125 30
118 120 29
117 123 26
119 125 28
116 117 35
116 118 31
121 127 30
117 124 30
116 120 29
117 119 34
124 130 29
121 124 38
122 126 28
122 125 34
119 125 30
121 127 26
115 120 30
120 123 27
112 116 28
120 125 25
117 124 25
122 129 21
121 128 22
122 128 26
122 128 28
119 126 18
117 125 23
113 121 25
118 126 21
117 123 28
115 124 12
121 129 23
117 127 17
118 126 20
121 129 19
114 124 7
113 123 12
116 125 14
114 124 8
117 127 11
118 128 8
114 123 7
110 120 0
111 119 0
115 126 0
105 114 0
110 120 0
101 110 0
98 107 0
92 101 0
81 88 0
84 91 0
81 88 0
73 77 0
93 100 0
94 101 0
100 108 0
101 111 0
101 108 0
105 114 0
105 114 0
101 110 0
107 117 0
113 124 0
108 118 0
114 125 0
113 123 0
120 131 0
110 120 0
115 126 0
118 129 0
116 129 0
119 129 0
120 133 0
115 126 0
121 134 0
116 130 0
128 141 0
125 140 0
127 139 0
124 134 0
124 138 0
124 137 0
123 136 0
131 144 0
120 136 0
124 136 0
127 142 0
127 140 0
129 144 0
122 138 0
124 138 0
120 133 0
126 140 0
131 149 0
130 143 0
121 134 0
124 138 0
121 137 0
127 141 0
130 144 0
125 142 0
118 133 0
123 138 0
127 141 0
121 135 0
129 145 0
117 131 0
124 139 0
117 132 0
123 136 0
121 136 0
113 128 0
128 142 0
122 135 0
119 133 0
113 127 0
110 124 0
121 134 0
106 120 0
102 116 0
110 122 0
103 118 0
105 120 0
111 126 0
105 118 0
105 118 0
98 109 0
104 116 0
99 113 0
98 111 0
100 114 0
99 111 0
99 113 0
84 95 0
87 99 0
90 102 0
92 105 0
86 98 0
87 100 0
90 104 0
91 102 0
86 98 0
79 91 0
85 94 0
82 91 0
89 101 0
88 99 0
85 96 0
79 89 0
81 89 0
87 98 0
88 97 0
88 98 0
81 91 0
89 101 0
83 93 0
75 84 0
85 94 0
80 91 0
82 90 0
77 86 0
88 99 0
81 92 0
90 98 0
87 98 0
87 98 0
88 97 0
89 98 0
91 101 0
93 103 0
95 107 0
93 102 0
97 106 0
93 104 0
103 113 0
96 107 0
103 114 0
98 108 0
106 119 0
99 111 0
106 119 0
102 114 0
103 113 0
102 113 0
109 121 0
105 114 0
107 118 0
108 119 0
113 121 0
111 120 0
113 123 0
111 122 0
117 130 0
112 121 0
113 123 0
116 127 0
120 133 0
112 124 0
123 134 0
124 134 0
114 125 0
121 130 0
119 130 0
126 136 0
117 127 0
114 123 0
117 126 0
119 129 0
123 133 0
125 133 0
123 132 0
119 128 0
118 129 0
126 137 0
122 129 0
119 126 0
125 132 0
125 133 0
124 132 0
115 121 0
118 125 0
119 129 0
113 119 0
121 128 0
117 124 0
115 119 0
115 119 0
113 116 0
117 121 0
112 115 0
117 120 0
110 111 0
106 108 0
109 109 0
114 116 0
102 101 0
105 104 0
109 109 0
106 104 0
103 101 0
105 101 0
95 93 0
90 86 0
87 85 0
92 89 0
91 87 0
89 82 0
89 85 0
87 81 0
83 76 0
78 70 0
74 63 0
70 63 0
81 71 8
80 70 1
84 73 3
90 80 1
86 76 4
92 81 5
87 75 1
84 74 5
84 75 0
89 78 4
96 85 6
100 89 3
97 87 4
98 87 1
91 82 4
103 91 6
99 89 0
100 89 9
99 87 4
104 93 8
103 93 10
103 92 1
105 96 8
102 93 4
97 89 4
105 95 4
91 83 4
105 94 12
104 96 9
109 100 1
101 91 13
102 93 8
106 97 19
114 105 14
107 99 9
110 101 17
114 103 10
108 100 10
103 94 12
109 98 9
112 103 8
116 106 11
112 102 14
120 109 14
115 106 26
118 108 17
118 108 21
113 103 19
119 110 16
118 109 18
120 110 19
115 106 20
114 104 24
116 108 14
118 110 22
119 110 21
117 108 22
121 112 19
116 108 28
117 106 24
119 112 27
118 111 25
119 109 28
112 104 22
115 106 16
117 109 25
115 106 18
115 108 28
109 100 22
113 104 30
112 103 28
115 108 26
122 113 25
115 107 30
116 109 31
119 112 27
118 110 27
123 114 34
120 109 34
117 108 27
120 112 34
112 106 26
124 116 43
116 109 32
118 110 34
116 108 35
117 109 34
123 115 40
121 112 33
119 113 35
115 108 30
119 111 38
122 114 41
122 113 34
116 109 34
116 110 37
111 104 37
114 108 37
127 128 30
172 194 0
160 182 0
144 163 0
126 142 0
120 135 0
131 147 0
127 142 0
126 143 0
130 144 0
136 154 0
134 150 0
136 152 0
136 152 0
137 153 4
136 152 7
138 153 17
137 152 14
140 156 8
137 151 16
139 153 18
137 150 19
136 149 20
134 145 20
139 151 16
135 147 24
134 145 20
136 147 22
134 144 25
129 138 29
129 139 22
126 136 24
127 136 23
134 143 28
129 136 28
119 127 20
134 140 28
130 139 26
123 127 32
130 138 28
125 129 34
123 129 28
127 134 33
123 129 30
120 125 31
123 127 32
122 123 38
122 127 27
121 124 34
125 130 31
121 122 37
122 127 32
122 127 28
118 126 26
123 129 23
119 122 34
113 118 28
116 119 31
117 121 27
118 121 33
122 127 27
118 125 24
116 121 27
114 120 26
121 123 38
120 127 22
124 130 28
122 128 25
118 124 23
120 127 24
115 123 22
120 128 15
115 120 16
119 126 21
119 124 28
121 129 24
118 127 16
117 123 20
119 126 19
115 126 12
115 124 22
120 131 13
112 120 13
110 119 17
112 120 10
111 120 8
117 128 7
111 120 6
104 114 0
107 116 7
108 117 6
106 115 0
92 99 0
94 101 0
93 101 0
95 102 0
77 83 0
80 85 0
85 91 0
87 92 0
92 98 0
89 94 0
85 93 0
96 103 0
100 107 0
103 110 0
108 115 0
99 110 0
110 120 0
113 122 0
115 126 0
116 127 0
113 123 0
114 125 0
111 121 0
113 122 0
115 124 0
117 130 0
119 130 0
123 137 0
118 130 0
122 134 0
118 131 0
119 130 0
127 138 0
121 134 0
120 135 0
128 142 0
129 143 0
124 136 0
123 136 0
126 139 0
122 135 0
117 130 0
124 138 0
124 138 0
125 139 0
126 141 0
125 140 0
125 138 0
123 138 0
127 142 0
126 141 0
123 139 0
127 143 0
131 147 0
125 139 0
122 137 0
125 141 0
127 142 0
126 143 0
120 135 0
126 142 0
120 135 0
121 137 0
125 141 0
123 137 0
114 127 0
117 131 0
113 126 0
120 134 0
121 135 0
117 131 0
115 130 0
121 134 0
121 136 0
109 123 0
116 132 0
107 119 0
117 132 0
112 126 0
111 124 0
106 121 0
105 119 0
103 115 0
113 127 0
100 113 0
97 111 0
101 115 0
100 114 0
95 106 0
96 109 0
95 109 0
98 110 0
99 113 0
101 113 0
96 108 0
94 105 0
93 105 0
100 113 0
83 93 0
88 100 0
89 99 0
91 102 0
88 98 0
86 97 0
79 91 0
88 98 0
87 98 0
89 100 0
83 93 0
92 102 0
86 96 0
90 102 0
84 93 0
83 94 0
86 95 0
91 100 0
82 92 0
79 88 0
90 102 0
83 91 0
90 101 0
81 88 0
95 104 0
85 94 0
100 111 0
99 110 0
108 119 0
93 103 0
90 102 0
106 117 0
92 101 0
98 109 0
103 116 0
109 121 0
101 111 0
107 119 0
102 112 0
112 123 0
109 121 0
109 120 0
107 119 0
103 115 0
106 117 0
112 124 0
113 124 0
106 116 0
117 127 0
118 128 0
123 133 0
112 124 0
124 136 0
115 127 0
120 132 0
115 127 0
122 133 0
110 121 0
119 130 0
120 132 0
121 134 0
116 127 0
122 133 0
117 128 0
125 136 0
128 138 0
113 124 0
122 131 0
123 132 0
115 122 0
118 128 0
111 119 0
123 133 0
118 128 0
117 125 0
128 136 0
118 126 0
120 127 0
120 129 0
119 126 0
122 128 0
116 122 0
122 128 0
113 119 0
114 115 0
113 118 0
121 127 0
119 123 0
106 110 0
124 128 0
109 109 0
118 120 0
115 119 0
110 110 0
108 109 0
109 111 0
114 114 0
106 105 0
113 115 0
99 95 0
108 107 0
98 98 0
101 97 0
92 87 0
95 93 0
86 83 0
85 81 0
91 88 0
87 82 0
80 75 0
85 78 0
86 80 0
68 60 0
68 59 0
74 64 1
75 64 0
84 73 3
72 60 1
85 73 3
80 67 4
83 73 4
92 80 0
89 78 1
87 75 3
90 79 2
97 86 0
98 88 0
90 80 4
95 83 1
96 85 8
96 86 8
100 90 1
104 93 4
98 89 4
100 90 4
104 95 4
106 97 1
100 89 8
105 93 8
106 97 8
100 91 7
108 97 9
109 98 4
102 90 9
105 93 10
106 97 11
109 101 14
110 100 12
103 96 1
108 100 8
109 98 14
110 100 15
116 107 18
109 100 15
115 105 18
111 101 17
117 109 14
106 99 11
116 107 12
118 106 21
108 99 17
112 104 25
113 104 18
120 110 24
114 106 22
117 105 19
110 101 18
114 103 19
106 97 21
122 112 24
115 107 23
112 104 24
113 103 25
110 100 20
118 108 28
121 112 27
109 101 24
120 111 30
117 108 12
119 110 30
117 109 33
117 109 30
116 108 26
114 107 25
118 109 26
109 101 30
117 109 24
114 103 28
116 109 29
118 110 33
114 107 34
112 104 25
114 106 33
114 106 33
116 107 34
107 100 25
113 105 32
121 112 39
109 101 28
117 110 35
119 112 35
116 108 39
115 106 30
111 104 34
110 102 31
116 110 38
112 105 37
126 126 36
138 145 24
156 173 11
170 190 0
169 191 0
171 192 0
171 192 0
170 191 0
161 182 0
146 164 16
126 142 0
122 137 0
121 136 0
128 144 0
129 144 0
125 140 0
128 143 0
136 152 0
130 146 0
135 150 0
134 148 0
136 150 0
142 157 11
134 148 16
138 151 17
135 147 20
138 152 14
136 150 15
135 149 17
134 147 14
138 152 24
136 148 16
136 148 26
131 139 26
136 145 31
132 143 26
128 137 23
132 140 29
131 140 26
132 140 25
128 138 21
130 139 22
121 127 20
126 132 24
118 127 20
122 132 22
121 128 26
124 132 26
124 130 33
125 132 24
128 136 26
119 123 28
125 130 29
125 133 26
122 123 37
122 129 26
127 136 22
121 128 28
125 133 29
121 127 23
120 126 21
117 124 27
127 135 25
122 129 27
117 126 17
120 126 18
119 126 25
123 130 26
117 124 25
116 126 16
117 126 23
119 128 17
121 128 17
122 130 15
123 131 16
117 123 17
123 131 22
124 134 9
118 128 19
121 130 20
110 118 3
115 125 11
119 128 12
114 122 11
114 126 0
117 128 6
116 125 9
115 126 0
118 129 1
115 124 0
111 121 0
109 118 0
102 111 0
100 108 0
89 96 0
88 95 0
83 90 0
73 79 0
88 94 0
92 98 0
92 99 0
93 99 0
96 103 0
89 96 0
97 103 0
104 111 0
98 106 0
94 103 0
105 113 0
108 115 0
107 116 0
114 124 0
116 126 0
111 119 0
113 123 0
116 127 0
109 118 0
120 132 0
117 128 0
121 133 0
118 129 0
119 132 0
126 137 0
123 136 0
130 143 0
123 136 0
117 131 0
123 133 0
124 138 0
123 136 0
121 135 0
123 137 0
125 138 0
124 138 0
128 142 0
125 139 0
116 128 0
130 144 0
126 140 0
124 137 0
124 139 0
129 144 0
128 143 0
130 147 0
128 143 0
131 145 0
124 138 0
123 136 0
124 139 0
124 138 0
124 138 0
125 140 0
128 144 0
120 134 0
125 141 0
116 129 0
132 147 0
122 139 0
122 137 0
121 135 0
122 138 0
125 140 0
122 137 0
115 129 0
121 135 0
121 135 0
122 137 0
115 131 0
118 131 0
119 134 0
109 123 0
113 127 0
110 123 0
106 120 0
110 123 0
102 115 0
112 125 0
107 120 0
114 127 0
109 123 0
100 115 0
104 119 0
114 127 0
97 110 0
99 110 0
106 119 0
99 112 0
102 113 0
100 111 0
101 113 0
87 99 0
94 104 0
99 110 0
93 106 0
99 111 0
89 98 0
95 107 0
90 103 0
96 104 0
102 113 0
97 109 0
93 101 0
84 96 0
94 106 0
92 103 0
86 97 0
93 105 0
90 98 0
91 102 0
84 96 0
95 106 0
96 106 0
92 102 0
92 103 0
89 97 0
98 110 0
91 102 0
95 103 0
91 103 0
98 109 0
97 109 0
109 120 0
106 118 0
100 112 0
99 110 0
111 122 0
99 110 0
100 111 0
98 109 0
104 118 0
102 113 0
103 115 0
104 114 0
101 112 0
115 126 0
105 114 0
110 122 0
113 125 0
114 125 0
109 117 0
113 124 0
112 123 0
115 125 0
111 122 0
118 128 0
121 133 0
114 125 0
117 128 0
121 133 0
108 118 0
115 126 0
126 138 0
124 136 0
131 143 0
118 130 0
126 137 0
126 137 0
124 134 0
119 130 0
123 130 0
130 141 0
127 137 0
127 136 0
124 134 0
129 140 0
123 132 0
121 129 0
126 133 0
121 127 0
125 134 0
117 124 0
123 129 0
120 128 0
111 118 0
121 129 0
123 129 0
123 129 0
115 120 0
111 114 0
113 119 0
119 124 0
119 124 0
112 114 0
117 121 0
111 114 0
116 120 0
117 120 0
116 119 0
115 119 0
111 113 0
118 120 0
108 109 0
108 106 0
111 110 0
100 100 0
110 109 0
99 96 0
94 93 0
98 94 0
97 93 0
99 97 0
93 88 0
91 86 0
93 90 0
85 81 0
75 68 0
80 74 0
86 79 0
73 62 0
72 62 8
70 60 2
75 65 0
85 73 2
80 68 1
79 68 0
84 73 0
76 65 0
86 75 1
94 81 4
91 80 4
93 82 4
90 80 4
97 87 0
88 78 8
98 85 7
97 88 0
96 85 8
93 84 0
97 89 4
97 86 0
98 85 10
108 98 12
93 83 12
106 96 6
100 91 8
101 91 4
107 98 9
105 96 10
102 93 8
112 104 12
109 102 14
102 91 9
110 99 4
110 101 9
107 99 16
108 98 11
108 98 17
109 99 22
107 98 12
111 101 18
109 99 20
114 105 17
112 102 19
116 108 24
110 98 17
110 100 20
104 95 18
117 107 21
117 108 21
114 104 27
118 109 26
115 106 29
116 107 23
113 103 21
117 109 29
117 106 24
119 111 26
118 109 30
114 106 26
110 100 26
111 102 21
119 109 23
116 107 29
115 107 28
116 107 24
111 102 26
115 105 25
114 106 21
114 104 23
118 110 32
117 109 32
113 106 33
114 105 26
110 100 25
118 110 32
118 109 34
118 111 29
110 102 26
118 109 32
116 109 34
108 103 28
114 107 37
117 109 33
118 109 35
113 104 32
111 103 38
111 104 32
116 113 32
134 140 26
158 172 14
167 186 0
167 187 0
170 190 0
169 188 0
172 193 0
170 192 0
170 192 0
171 193 0
170 191 0
170 192 0
168 190 0
162 183 0
141 159 0
132 149 0
125 140 0
127 142 0
120 134 0
127 141 0
128 143 0
132 148 0
132 147 0
129 144 0
133 148 0
137 153 7
137 153 0
138 153 8
133 145 16
138 153 7
132 145 16
135 150 8
135 147 18
138 152 17
132 144 21
133 147 14
135 148 12
134 144 19
132 141 24
131 142 23
126 138 16
130 141 23
132 143 27
132 143 21
131 140 17
126 135 22
125 133 26
122 130 24
122 131 16
125 133 21
128 136 28
127 135 20
123 129 28
122 128 27
126 134 20
125 134 20
122 127 24
126 132 22
124 132 21
127 135 16
127 134 21
121 130 17
128 137 23
115 124 21
130 138 26
121 129 23
122 128 18
125 135 16
123 130 24
122 132 19
118 126 19
120 129 8
116 125 14
122 130 20
120 127 25
116 127 13
118 128 14
122 131 14
119 130 16
119 128 13
120 130 13
119 130 0
111 121 7
109 118 0
119 130 0
114 123 0
110 119 8
115 124 8
112 123 0
95 104 0
100 109 0
97 106 0
96 104 0
92 101 0
95 102 0
83 90 0
80 86 0
87 92 0
76 82 0
89 95 0
88 92 0
93 100 0
100 108 0
93 100 0
103 111 0
100 107 0
105 115 0
108 117 0
107 115 0
103 112 0
109 119 0
116 128 0
112 122 0
113 124 0
113 125 0
114 124 0
120 131 0
119 130 0
117 126 0
127 140 0
118 130 0
114 124 0
121 134 0
120 132 0
123 136 0
118 130 0
132 146 0
126 138 0
128 141 0
126 140 0
119 132 0
126 140 0
127 141 0
126 141 0
128 142 0
125 140 0
125 139 0
124 139 0
125 139 0
127 142 0
121 135 0
123 137 0
120 134 0
127 140 0
131 146 0
135 153 0
129 144 0
127 142 0
125 140 0
132 149 0
129 145 0
129 144 0
128 144 0
126 141 0
124 136 0
125 139 0
122 137 0
120 134 0
126 141 0
123 138 0
119 133 0
129 146 0
121 133 0
122 135 0
121 134 0
119 132 0
123 139 0
117 134 0
121 136 0
120 132 0
112 127 0
110 123 0
115 129 0
120 134 0
118 132 0
119 133 0
113 126 0
114 127 0
112 126 0
110 125 0
110 124 0
107 123 0
114 130 0
101 114 0
99 113 0
103 118 0
112 125 0
110 124 0
105 119 0
96 108 0
101 114 0
101 114 0
101 114 0
99 112 0
101 114 0
104 117 0
95 108 0
95 108 0
105 117 0
96 106 0
100 113 0
103 116 0
90 101 0
100 113 0
99 108 0
91 104 0
101 111 0
102 113 0
105 115 0
97 110 0
91 102 0
93 105 0
88 100 0
106 116 0
94 106 0
95 105 0
94 104 0
100 112 0
99 111 0
97 109 0
99 110 0
101 112 0
102 113 0
106 117 0
108 119 0
105 116 0
100 111 0
100 112 0
110 122 0
101 112 0
107 118 0
107 117 0
99 110 0
113 125 0
105 114 0
114 127 0
107 119 0
100 110 0
116 127 0
122 134 0
116 127 0
115 128 0
116 129 0
122 133 0
112 124 0
119 133 0
112 123 0
118 129 0
126 138 0
120 132 0
123 134 0
127 138 0
120 131 0
123 131 0
132 145 0
111 121 0
128 139 0
123 135 0
116 126 0
130 140 0
116 127 0
120 132 0
125 135 0
127 138 0
115 124 0
126 138 0
121 130 0
124 135 0
125 135 0
120 129 0
122 129 0
124 134 0
116 123 0
122 132 0
130 136 0
121 129 0
113 120 0
121 128 0
120 125 0
127 133 0
117 123 0
128 133 0
121 126 0
120 122 0
110 115 0
112 115 0
111 114 0
116 119 0
115 118 0
111 112 0
115 116 0
112 114 0
107 104 0
110 112 0
110 114 0
111 111 0
115 116 0
104 103 0
107 107 0
103 102 0
107 106 0
101 98 0
104 103 0
94 92 0
96 93 0
99 94 0
99 95 0
98 92 0
87 77 0
88 84 0
80 73 0
84 78 0
82 73 0
77 70 1
75 65 0
75 63 4
80 68 0
82 69 4
86 74 4
85 76 4
74 64 4
80 68 4
83 73 0
86 78 0
96 86 1
98 87 6
87 76 3
79 65 4
84 75 4
98 86 9
100 89 9
91 81 4
104 92 8
99 90 0
96 87 1
102 92 4
104 92 1
94 84 11
107 95 9
101 93 9
107 96 10
101 91 11
102 91 10
106 96 9
105 96 14
110 102 8
105 94 1
109 100 14
115 104 23
103 93 4
106 98 18
108 97 18
112 101 25
115 106 20
109 100 23
111 101 14
112 103 16
105 96 17
107 98 20
108 99 18
108 101 19
113 103 16
112 102 20
112 103 16
112 102 19
111 100 27
110 100 18
115 104 22
109 99 24
111 102 22
112 103 30
114 106 26
110 100 19
107 99 29
107 98 23
117 107 25
115 106 28
116 108 36
110 102 21
114 105 32
108 99 26
117 107 22
118 109 29
105 96 22
121 112 35
115 107 26
120 111 37
118 108 31
113 105 35
112 103 24
117 108 30
113 106 27
114 106 32
112 103 32
107 100 28
103 97 25
121 122 26
140 150 25
159 174 0
166 183 0
166 185 0
166 184 0
168 187 0
168 188 0
167 186 0
166 184 0
170 192 0
168 190 0
169 191 0
170 191 0
167 189 0
169 190 0
169 191 0
166 188 0
170 191 0
169 190 0
162 182 0
151 170 0
137 154 0
120 135 0
114 128 0
122 135 0
128 143 0
129 145 0
130 145 0
127 142 0
127 143 0
135 151 0
134 148 7
133 147 0
135 151 0
132 146 2
132 146 11
132 146 7
137 153 8
138 151 14
130 143 18
134 147 0
131 142 16
136 146 19
132 143 20
127 137 20
133 144 21
133 145 14
130 141 18
128 136 24
127 135 22
128 138 16
135 143 29
128 136 23
130 139 24
135 144 24
136 145 24
129 138 22
127 137 16
124 135 15
121 130 15
125 136 13
130 138 23
128 135 23
123 131 20
125 134 16
118 124 20
125 134 17
121 130 17
121 132 9
122 130 19
121 131 12
120 130 18
127 136 17
123 132 14
124 134 14
118 128 2
123 133 9
121 131 12
121 129 16
119 129 8
123 132 15
115 124 14
119 129 12
114 124 0
115 123 0
110 119 0
118 128 0
111 122 0
110 119 0
106 117 0
103 112 0
98 106 0
99 106 0
94 102 0
86 93 0
81 87 0
79 84 0
84 88 0
89 96 0
94 97 0
85 91 0
93 97 0
91 97 0
88 94 0
101 108 0
97 105 0
109 116 0
108 116 0
107 115 0
109 118 0
109 119 0
110 119 0
121 132 0
108 118 0
117 127 0
109 119 0
112 120 0
119 130 0
118 130 0
121 134 0
122 135 0
127 139 0
123 134 0
122 134 0
130 143 0
120 132 0
128 139 0
118 129 0
128 143 0
126 140 0
121 135 0
121 132 0
127 140 0
119 134 0
126 140 0
122 135 0
127 143 0
127 144 0
132 147 0
126 139 0
127 140 0
121 137 0
128 144 0
130 146 0
130 146 0
141 157 0
130 145 0
129 144 0
128 143 0
130 144 0
123 138 0
127 142 0
126 142 0
126 141 0
131 147 0
131 146 0
129 143 0
134 149 0
126 142 0
119 133 0
124 138 0
127 143 0
128 144 0
125 140 0
122 137 0
110 126 0
119 134 0
122 136 0
117 132 0
114 130 0
120 135 0
122 137 0
119 132 0
121 133 0
117 134 0
117 131 0
114 129 0
118 133 0
118 134 0
112 127 0
113 126 0
119 134 0
114 129 0
112 127 0
108 123 0
112 126 0
115 131 0
111 125 0
107 121 0
109 124 0
106 119 0
91 105 0
96 109 0
108 120 0
98 113 0
105 120 0
107 119 0
95 108 0
106 120 0
104 117 0
106 120 0
102 117 0
98 111 0
100 113 0
108 120 0
97 110 0
105 119 0
116 129 0
107 119 0
97 109 0
106 119 0
102 115 0
96 110 0
107 116 0
104 113 0
98 108 0
97 111 0
100 111 0
100 112 0
94 108 0
105 117 0
100 113 0
101 113 0
102 114 0
106 118 0
106 118 0
109 122 0
105 115 0
110 123 0
102 114 0
115 127 0
108 120 0
104 116 0
113 124 0
115 127 0
112 123 0
116 128 0
108 120 0
112 125 0
115 129 0
115 126 0
109 120 0
106 116 0
110 123 0
119 131 0
116 126 0
109 122 0
116 126 0
120 133 0
125 137 0
120 133 0
122 133 0
131 143 0
122 133 0
113 126 0
122 132 0
123 135 0
117 128 0
120 130 0
123 137 0
119 127 0
119 130 0
124 137 0
125 135 0
124 134 0
125 136 0
122 134 0
132 144 0
120 131 0
123 133 0
131 139 0
126 135 0
122 132 0
120 128 0
124 131 0
120 129 0
129 137 0
124 128 0
121 131 0
124 131 0
126 132 0
126 133 0
120 126 0
118 124 0
114 121 0
120 128 0
122 129 0
123 126 0
116 121 0
122 127 0
116 120 0
112 115 0
115 120 0
122 125 0
112 114 0
116 120 0
112 114 0
111 113 0
121 122 0
122 125 0
115 116 0
105 104 0
106 107 0
112 111 0
109 109 0
102 99 0
98 96 0
102 99 0
99 95 0
100 97 0
99 95 0
97 90 0
79 73 0
92 87 0
89 83 0
89 84 0
86 80 0
89 80 0
84 78 0
77 68 0
77 68 0
69 59 0
71 61 0
81 69 0
80 68 0
86 74 6
84 74 1
86 74 2
87 75 5
90 78 2
90 81 8
97 84 9
92 81 7
95 84 14
93 82 4
91 79 1
90 82 4
101 90 4
89 77 1
105 93 10
105 95 14
101 92 4
101 91 5
98 86 8
101 90 14
105 96 8
99 89 8
100 89 11
110 97 16
98 88 10
95 84 16
99 90 11
108 98 16
110 101 14
98 87 12
107 97 8
111 101 23
111 100 18
101 94 8
112 103 22
106 96 16
104 94 16
102 91 22
107 96 19
116 104 20
113 104 18
118 108 14
112 103 21
113 104 27
117 108 24
110 102 25
108 99 16
112 103 23
108 98 21
122 112 27
107 98 24
102 94 18
110 101 22
113 105 24
118 109 32
116 105 29
113 105 31
121 111 33
109 101 27
112 103 27
110 101 26
108 100 25
106 99 25
105 97 27
121 112 39
112 103 35
111 103 34
109 100 28
108 100 25
113 104 26
114 112 20
136 142 24
150 161 16
158 174 0
167 185 0
164 182 0
168 187 0
165 183 0
165 182 0
168 187 0
168 185 0
168 189 0
168 187 0
167 187 0
169 191 0
170 192 0
169 190 0
172 193 0
168 190 0
171 192 0
169 191 0
169 190 0
167 187 0
168 188 0
168 188 0
170 191 0
167 188 0
167 188 0
156 175 0
147 166 0
134 150 0
121 136 0
120 134 0
124 137 0
120 134 0
117 130 0
123 137 0
129 144 0
127 142 0
124 139 0
124 137 0
135 150 0
137 152 1
130 144 0
133 147 0
127 140 0
132 145 0
136 148 14
130 143 14
125 136 13
129 143 7
132 143 14
127 138 13
129 141 11
131 144 14
131 142 14
133 146 14
132 144 14
126 135 19
129 140 7
130 139 24
127 138 9
132 143 15
131 140 23
125 135 14
127 138 17
126 138 9
128 138 21
125 135 12
129 140 14
125 135 15
125 136 12
127 135 12
128 137 16
124 134 14
121 131 0
119 128 12
122 132 9
117 127 0
116 125 14
118 128 8
116 124 11
116 126 11
118 128 0
115 124 6
114 121 7
118 128 8
112 120 0
107 116 8
111 121 0
107 115 0
103 111 0
103 113 0
98 106 0
94 102 0
87 93 0
82 89 0
85 92 0
87 94 0
88 94 0
92 99 0
89 94 0
92 97 0
96 104 0
95 101 0
103 110 0
106 115 0
99 107 0
107 114 0
108 116 0
105 113 0
115 126 0
107 115 0
113 121 0
112 122 0
114 125 0
115 125 0
111 122 0
118 130 0
121 133 0
119 131 0
118 130 0
114 125 0
119 130 0
125 137 0
129 140 0
121 134 0
127 141 0
128 141 0
121 133 0
127 140 0
121 134 0
124 136 0
121 134 0
131 146 0
124 137 0
122 136 0
126 139 0
125 139 0
124 137 0
127 140 0
130 145 0
127 140 0
135 151 0
123 136 0
127 141 0
131 147 0
127 143 0
124 139 0
130 144 0
126 141 0
133 148 0
129 144 0
122 137 0
132 149 0
127 142 0
136 151 0
128 144 0
125 142 0
126 143 0
130 144 0
126 141 0
122 136 0
121 136 0
121 136 0
132 149 0
133 149 0
118 131 0
126 142 0
123 139 0
133 149 0
126 143 0
127 141 0
120 136 0
125 138 0
119 135 0
123 139 0
124 138 0
113 126 0
117 132 0
123 139 0
117 131 0
115 130 0
114 126 0
120 135 0
112 126 0
112 124 0
113 125 0
119 134 0
109 124 0
117 132 0
109 123 0
115 128 0
113 125 0
114 128 0
119 132 0
113 127 0
108 121 0
104 118 0
104 119 0
102 114 0
103 116 0
104 117 0
110 123 0
113 127 0
104 116 0
103 117 0
102 114 0
114 128 0
102 115 0
95 106 0
101 112 0
105 117 0
104 118 0
101 114 0
103 116 0
103 115 0
109 120 0
108 120 0
105 119 0
116 130 0
108 121 0
107 120 0
102 114 0
109 123 0
103 115 0
104 117 0
108 118 0
109 120 0
111 123 0
100 113 0
104 116 0
108 120 0
101 113 0
102 114 0
110 121 0
115 128 0
113 127 0
104 115 0
112 127 0
103 116 0
108 121 0
115 127 0
112 125 0
106 117 0
109 120 0
132 143 0
108 119 0
115 127 0
120 132 0
120 133 0
120 130 0
114 127 0
116 128 0
115 127 0
123 135 0
126 139 0
127 138 0
122 133 0
125 138 0
125 137 0
127 139 0
115 127 0
128 140 0
118 130 0
123 136 0
124 136 0
131 140 0
125 138 0
127 140 0
128 138 0
129 140 0
124 135 0
123 136 0
130 141 0
127 136 0
126 137 0
127 137 0
124 131 0
124 134 0
128 138 0
124 133 0
134 142 0
121 127 0
126 135 0
123 132 0
122 127 0
121 128 0
117 124 0
121 127 0
125 131 0
115 121 0
126 133 0
118 119 0
130 136 0
120 123 0
118 120 0
119 126 0
116 120 0
120 122 0
117 119 0
112 117 0
121 123 0
114 118 0
117 120 0
118 120 0
102 103 0
102 101 0
107 105 0
116 118 0
108 105 0
100 100 0
111 111 0
108 109 0
105 101 0
101 96 0
104 103 0
104 98 0
99 95 0
94 87 0
97 94 0
93 85 0
94 90 0
86 82 0
86 82 0
83 76 0
86 78 0
79 72 0
79 71 0
74 62 0
90 79 0
71 61 4
78 65 5
80 68 1
92 79 1
85 72 1
87 76 0
96 84 8
90 78 4
88 78 0
97 85 11
94 82 4
101 91 1
88 76 11
99 89 13
105 93 12
101 90 8
95 82 14
96 86 12
93 83 10
98 88 14
99 89 11
101 91 0
102 92 8
95 87 11
100 91 14
105 95 6
105 95 14
99 90 7
105 96 8
100 90 19
102 93 17
105 94 14
104 95 9
97 88 14
104 94 21
105 94 19
112 102 14
111 102 20
108 97 18
109 100 23
111 101 26
110 101 16
109 101 24
110 102 20
106 97 22
101 91 15
110 100 23
113 103 21
105 95 19
112 104 26
110 103 29
107 99 22
108 97 28
106 98 28
107 98 22
107 99 21
112 104 25
111 103 32
114 104 33
107 99 23
106 97 21
108 99 29
107 99 32
113 105 31
100 92 25
119 116 25
134 136 26
140 150 21
152 164 8
161 177 0
160 176 0
165 181 0
164 181 0
163 181 0
165 182 0
168 187 0
165 183 0
166 184 0
167 186 0
169 187 0
169 187 0
171 188 0
164 184 0
168 189 0
169 190 0
169 191 0
168 190 0
168 189 0
171 193 0
167 188 0
168 189 0
167 188 0
168 188 0
170 190 0
167 188 0
167 187 0
169 189 0
165 186 0
166 186 0
167 187 0
164 183 0
160 180 0
155 173 0
142 158 0
128 143 0
120 135 0
115 128 0
119 132 0
121 136 0
121 134 0
119 132 0
124 138 0
126 140 0
128 142 0
127 141 0
129 142 0
126 139 0
129 141 8
129 143 0
124 137 8
128 140 7
129 141 12
128 140 7
130 144 0
132 145 9
127 139 7
127 139 0
123 135 0
132 145 7
128 139 7
122 134 8
125 136 0
125 135 7
125 136 14
131 141 11
123 134 8
126 136 12
131 143 14
119 128 7
126 138 11
123 134 11
119 129 15
113 122 11
123 134 0
119 130 0
119 129 7
116 127 0
113 123 0
114 124 0
108 118 0
117 127 0
111 121 3
117 128 0
106 114 0
103 112 0
97 105 0
99 109 0
103 111 0
102 109 0
86 91 0
87 93 0
82 86 0
90 95 0
87 92 0
88 92 0
88 93 0
90 97 0
103 110 0
96 102 0
97 103 0
109 116 0
104 112 0
109 117 0
109 117 0
111 118 0
103 111 0
104 113 0
113 122 0
114 124 0
119 130 0
112 121 0
118 128 0
111 119 0
117 128 0
117 128 0
117 129 0
114 125 0
124 136 0
124 137 0
122 136 0
124 137 0
126 139 0
124 138 0
127 140 0
121 133 0
121 136 0
125 137 0
127 138 0
128 142 0
129 141 0
126 139 0
126 139 0
124 137 0
131 144 0
130 146 0
125 139 0
125 138 0
128 142 0
131 144 0
135 149 0
137 151 0
134 148 0
131 145 0
136 152 0
127 141 0
125 140 0
123 137 0
126 141 0
135 150 0
127 142 0
132 147 0
134 149 0
132 147 0
131 147 0
129 145 0
127 144 0
127 140 0
140 155 0
131 145 0
130 145 0
128 145 0
138 153 0
126 141 0
122 137 0
123 138 0
129 146 0
131 145 0
126 141 0
134 151 0
124 141 0
129 146 0
129 144 0
121 135 0
123 139 0
125 140 0
120 135 0
123 139 0
119 135 0
120 136 0
119 135 0
120 136 0
118 133 0
120 136 0
115 128 0
120 136 0
122 137 0
115 132 0
117 131 0
116 129 0
119 134 0
118 132 0
105 119 0
118 133 0
117 131 0
113 127 0
98 112 0
109 122 0
109 123 0
114 129 0
111 125 0
113 129 0
103 116 0
111 126 0
110 125 0
102 116 0
110 123 0
113 128 0
107 122 0
109 121 0
97 109 0
105 120 0
104 116 0
98 111 0
114 129 0
112 124 0
112 126 0
106 120 0
112 126 0
103 115 0
108 121 0
105 118 0
107 119 0
111 121 0
111 124 0
107 120 0
108 121 0
111 124 0
106 120 0
100 111 0
106 117 0
112 124 0
116 127 0
105 117 0
116 130 0
114 126 0
112 122 0
108 120 0
101 111 0
116 128 0
118 130 0
116 129 0
102 114 0
117 131 0
118 132 0
123 135 0
128 141 0
123 135 0
107 120 0
117 128 0
111 121 0
119 131 0
115 127 0
120 131 0
127 140 0
123 136 0
121 133 0
117 129 0
115 128 0
122 134 0
127 139 0
128 139 0
119 131 0
119 129 0
128 141 0
130 141 0
129 141 0
128 139 0
123 135 0
125 136 0
124 135 0
129 141 0
123 131 0
129 139 0
130 142 0
134 143 0
125 135 0
116 121 0
130 141 0
128 137 0
125 135 0
123 132 0
131 139 0
127 137 0
126 136 0
126 133 0
123 129 0
126 133 0
129 135 0
122 129 0
122 130 0
121 129 0
121 126 0
123 127 0
120 125 0
123 128 0
126 131 0
122 125 0
119 124 0
122 127 0
127 131 0
118 120 0
112 114 0
116 116 0
115 120 0
118 121 0
121 123 0
115 117 0
114 114 0
112 113 0
113 113 0
113 114 0
111 111 0
105 101 0
106 104 0
99 98 0
106 101 0
109 106 0
105 102 0
95 91 0
105 101 0
98 93 0
100 94 0
92 86 0
98 94 0
92 87 0
95 86 0
90 83 0
90 80 0
87 77 0
82 75 0
84 75 0
92 86 0
85 74 4
81 70 0
75 64 0
87 77 11
85 72 0
80 67 8
82 69 3
84 70 7
85 71 11
92 80 9
93 81 8
93 80 2
97 86 11
91 80 9
96 86 11
99 87 11
91 82 8
95 85 5
103 93 8
98 87 8
100 90 8
103 91 14
97 87 4
98 89 9
100 90 14
97 87 16
103 92 9
101 92 15
103 94 21
99 89 20
101 88 19
97 88 14
100 90 14
101 92 14
107 98 18
105 96 18
94 86 16
108 97 16
103 95 18
107 97 18
111 101 23
108 101 26
110 100 19
111 101 22
109 100 21
111 102 28
102 92 20
107 99 20
110 101 28
110 101 30
107 98 26
109 100 26
116 107 25
110 103 25
101 92 21
108 99 28
99 91 20
104 94 29
113 108 24
123 122 24
139 145 19
145 154 16
159 172 8
162 177 0
162 178 0
164 179 0
158 173 0
161 178 0
158 172 0
165 181 0
165 181 0
162 178 0
164 180 0
166 184 0
167 184 0
165 182 0
169 187 0
161 179 0
167 185 0
169 188 0
166 183 0
170 191 0
168 189 0
167 187 0
167 188 0
168 190 0
167 188 0
166 186 0
165 185 0
167 187 0
170 191 0
165 185 0
168 188 0
165 184 0
167 188 0
167 186 0
169 188 0
167 186 0
167 188 0
164 184 0
166 186 0
165 184 0
164 183 0
165 185 0
162 180 0
152 171 0
141 156 0
127 141 0
124 139 0
116 130 0
116 128 0
118 130 0
117 129 0
123 135 0
122 134 0
124 137 0
119 132 0
126 140 0
123 136 0
126 139 0
121 134 0
124 137 0
115 127 0
121 133 0
126 140 0
122 134 0
126 138 0
121 133 0
118 128 4
121 134 8
119 130 0
119 130 2
112 123 0
123 134 7
116 127 0
123 135 0
114 123 0
116 127 0
116 127 3
119 130 0
120 129 0
115 125 0
111 119 0
113 124 0
106 117 0
110 120 0
106 114 0
106 115 0
102 110 0
96 104 0
93 101 0
96 105 0
93 101 0
92 99 0
91 97 0
93 97 0
94 100 0
99 105 0
104 111 0
104 111 0
103 110 0
97 105 0
98 104 0
98 106 0
106 115 0
99 105 0
110 117 0
110 117 0
114 123 0
110 119 0
102 110 0
111 120 0
108 116 0
114 123 0
113 122 0
117 126 0
122 133 0
115 126 0
113 123 0
119 130 0
122 133 0
116 129 0
121 133 0
129 143 0
122 135 0
123 134 0
126 138 0
123 135 0
127 139 0
122 136 0
129 141 0
120 132 0
130 143 0
123 136 0
127 141 0
130 143 0
130 144 0
134 148 0
127 140 0
129 143 0
131 145 0
130 144 0
135 150 0
127 143 0
124 139 0
127 142 0
130 144 0
138 153 0
141 156 0
135 150 0
131 145 0
132 146 0
133 149 0
128 141 0
138 153 0
131 146 0
132 146 0
128 143 0
132 146 0
130 144 0
132 147 0
123 137 0
136 151 0
126 142 0
131 146 0
130 145 0
120 136 0
128 144 0
132 148 0
132 148 0
132 148 0
134 150 0
138 152 0
125 141 0
128 145 0
133 149 0
124 141 0
125 142 0
130 144 0
125 141 0
122 139 0
132 147 0
127 144 0
114 127 0
128 142 0
124 140 0
121 138 0
128 145 0
131 146 0
118 132 0
124 138 0
125 141 0
119 134 0
123 137 0
120 136 0
116 131 0
116 130 0
112 128 0
121 136 0
113 127 0
113 129 0
118 133 0
116 130 0
113 128 0
113 129 0
118 133 0
115 130 0
114 127 0
107 120 0
108 122 0
102 117 0
117 133 0
113 127 0
114 129 0
102 114 0
105 118 0
106 120 0
109 122 0
112 126 0
114 127 0
109 124 0
105 117 0
107 120 0
113 124 0
112 126 0
119 132 0
104 116 0
107 119 0
109 123 0
105 120 0
109 121 0
109 121 0
112 127 0
119 130 0
109 121 0
114 127 0
109 123 0
112 126 0
113 124 0
111 125 0
116 131 0
119 133 0
121 135 0
113 126 0
119 132 0
113 129 0
115 127 0
120 133 0
122 136 0
118 130 0
117 128 0
121 134 0
111 124 0
119 132 0
125 140 0
124 138 0
119 131 0
125 135 0
112 125 0
129 142 0
125 139 0
122 135 0
123 137 0
126 141 0
124 136 0
125 136 0
128 141 0
121 132 0
121 132 0
131 143 0
131 144 0
120 132 0
127 140 0
124 136 0
132 145 0
129 139 0
126 137 0
122 132 0
125 137 0
121 133 0
128 140 0
126 137 0
127 136 0
125 134 0
136 148 0
130 141 0
120 130 0
127 136 0
132 143 0
127 138 0
128 136 0
124 134 0
127 136 0
127 135 0
123 132 0
125 134 0
120 126 0
128 136 0
120 128 0
123 131 0
125 132 0
123 126 0
121 128 0
129 136 0
120 126 0
118 123 0
117 121 0
119 124 0
121 125 0
119 121 0
123 126 0
122 126 0
116 118 0
116 119 0
125 127 0
114 116 0
122 125 0
120 122 0
115 118 0
115 116 0
116 117 0
107 106 0
103 101 0
111 109 0
100 96 0
106 102 0
105 102 0
102 99 0
113 109 0
103 98 0
100 95 0
101 99 0
95 90 0
93 87 0
89 82 0
96 89 0
102 95 0
96 91 0
93 86 0
90 84 0
90 83 0
95 88 0
92 82 0
90 83 0
92 84 0
88 80 8
80 69 0
85 73 4
84 75 0
83 72 0
80 68 0
89 78 8
88 76 4
91 80 8
93 82 18
90 79 9
86 74 11
94 82 12
95 83 0
96 86 14
94 83 8
91 80 9
104 93 17
93 82 14
98 87 8
102 92 16
106 94 18
95 83 14
100 89 11
95 84 18
99 88 16
99 88 14
103 92 16
103 93 22
104 94 16
109 97 21
107 98 21
104 95 18
101 93 16
108 98 18
99 90 18
112 102 24
105 95 21
108 98 21
115 105 29
100 93 19
104 95 20
100 91 20
107 96 21
100 89 27
105 97 23
101 93 18
108 100 26
115 111 12
131 132 22
135 141 11
144 153 18
156 170 14
157 171 0
158 172 0
161 175 0
164 178 0
160 171 0
162 176 0
162 177 0
160 175 0
163 179 0
161 176 0
165 181 0
164 182 0
164 180 0
164 178 0
166 183 0
162 179 0
165 182 0
161 178 0
164 179 0
163 179 0
164 179 0
166 182 0
162 180 0
169 189 0
168 190 0
169 190 0
169 190 0
166 187 0
168 189 0
166 185 0
168 189 0
167 188 0
169 190 0
166 186 0
165 186 0
163 182 0
168 188 0
166 186 0
167 187 0
165 185 0
165 184 0
163 181 0
162 182 0
165 184 0
167 187 0
164 183 0
164 183 0
159 175 0
162 180 0
160 178 0
162 180 0
160 178 0
156 172 0
152 169 0
146 162 0
137 151 0
131 144 0
127 140 0
124 136 0
121 133 0
114 126 0
107 118 0
109 119 0
113 125 0
113 124 0
113 124 0
113 125 0
110 120 0
116 126 0
107 117 0
115 126 0
113 123 0
110 119 0
115 126 0
106 116 0
116 126 0
112 122 0
103 114 0
109 118 0
104 113 0
105 115 0
103 113 0
97 106 0
104 114 0
100 109 0
97 106 0
97 105 0
105 114 0
103 110 0
107 116 0
105 113 0
106 113 0
103 109 0
111 119 0
102 110 0
108 115 0
113 121 0
109 116 0
107 112 0
102 109 0
105 114 0
109 117 0
107 114 0
102 109 0
114 123 0
109 117 0
102 111 0
113 121 0
111 119 0
119 129 0
109 117 0
118 127 0
115 126 0
111 120 0
121 129 0
120 131 0
122 131 0
124 134 0
119 130 0
123 133 0
119 131 0
124 134 0
131 142 0
125 138 0
117 126 0
120 132 0
125 138 0
128 139 0
130 143 0
124 136 0
117 128 0
132 145 0
123 135 0
128 142 0
126 140 0
140 155 0
131 145 0
132 147 0
128 140 0
120 134 0
128 142 0
128 142 0
130 145 0
130 144 0
125 138 0
134 148 0
125 141 0
138 153 0
129 143 0
135 150 0
131 146 0
131 147 0
131 147 0
132 146 0
133 148 0
136 152 0
126 142 0
124 139 0
126 141 0
128 143 0
131 146 0
125 140 0
128 143 0
131 146 0
140 154 0
131 146 0
128 143 0
134 150 0
130 147 0
131 148 0
130 146 0
135 150 0
138 152 0
123 139 0
127 144 0
127 143 0
124 138 0
131 148 0
127 142 0
121 137 0
122 137 0
124 137 0
129 146 0
124 139 0
125 141 0
119 132 0
127 141 0
120 135 0
132 149 0
122 137 0
117 133 0
119 135 0
115 131 0
127 144 0
116 133 0
125 139 0
118 133 0
118 131 0
112 127 0
121 136 0
113 126 0
118 134 0
116 133 0
121 136 0
118 134 0
117 132 0
113 128 0
114 128 0
116 130 0
111 126 0
114 128 0
116 128 0
113 126 0
108 121 0
116 131 0
107 120 0
128 144 0
112 126 0
110 124 0
118 132 0
111 124 0
110 123 0
102 117 0
117 131 0
112 126 0
114 128 0
117 130 0
111 125 0
112 128 0
107 120 0
112 126 0
117 130 0
116 129 0
105 117 0
110 120 0
119 133 0
114 125 0
114 128 0
112 125 0
108 123 0
112 124 0
112 124 0
117 131 0
120 133 0
114 126 0
117 130 0
118 132 0
127 142 0
121 134 0
125 140 0
119 132 0
122 135 0
121 135 0
123 137 0
120 136 0
116 131 0
115 130 0
122 134 0
120 133 0
125 139 0
116 130 0
124 138 0
125 136 0
126 140 0
135 148 0
129 142 0
124 139 0
126 139 0
119 134 0
122 136 0
130 143 0
123 135 0
124 136 0
126 138 0
128 140 0
131 144 0
122 135 0
119 129 0
131 144 0
124 134 0
127 137 0
132 145 0
130 143 0
134 148 0
130 140 0
131 141 0
125 137 0
130 140 0
127 139 0
124 134 0
132 143 0
128 137 0
121 129 0
131 138 0
127 134 0
130 138 0
129 139 0
128 136 0
125 132 0
124 133 0
125 134 0
127 137 0
124 133 0
126 135 0
112 119 0
124 128 0
124 130 0
127 132 0
129 136 0
121 126 0
123 129 0
124 129 0
118 118 0
125 129 0
122 127 0
111 112 0
110 112 0
126 127 0
116 119 0
124 127 0
118 119 0
111 113 0
113 111 0
114 113 0
114 114 0
113 112 0
116 114 0
115 111 0
108 105 0
111 107 0
112 109 0
103 101 0
101 97 0
97 93 0
111 107 0
106 100 0
101 96 0
102 99 0
102 101 0
99 93 0
99 97 0
95 88 0
98 91 0
93 86 0
99 94 0
96 89 0
102 95 0
96 87 0
98 91 0
98 90 0
98 91 0
95 89 0
97 91 0
96 88 0
99 91 11
89 81 0
83 74 0
88 79 0
87 76 8
86 76 11
89 78 11
90 77 0
88 76 18
85 72 9
91 79 14
93 84 11
88 77 8
83 72 8
103 93 11
95 87 11
98 88 14
97 87 14
102 92 19
108 99 19
97 87 22
107 95 19
100 91 14
93 83 18
100 89 20
97 86 17
97 87 8
101 91 21
96 86 21
101 90 21
96 88 18
99 91 21
101 95 21
112 109 24
116 114 14
129 130 19
127 129 18
140 143 14
144 151 11
154 163 8
156 164 0
157 167 0
156 167 0
157 169 0
157 169 0
154 163 0
156 167 0
156 167 0
159 170 0
155 167 0
160 174 0
156 169 0
163 178 0
163 178 0
164 179 0
164 177 0
164 179 0
162 176 0
163 180 0
161 177 0
162 177 0
162 177 0
167 181 0
162 178 0
165 182 0
163 178 0
162 178 0
164 181 0
163 180 0
167 187 0
168 189 0
167 188 0
166 186 0
167 188 0
168 189 0
167 188 0
165 186 0
167 187 0
164 185 0
165 184 0
164 183 0
166 187 0
166 185 0
166 186 0
164 183 0
164 184 0
164 183 0
167 186 0
165 185 0
166 184 0
161 179 0
162 181 0
160 178 0
161 178 0
162 179 0
160 177 0
160 176 0
158 176 0
157 174 0
160 178 0
157 173 0
159 174 0
153 169 0
156 173 0
151 167 0
158 173 0
156 171 0
151 167 0
152 168 0
146 159 0
137 151 0
138 151 0
132 145 0
133 145 0
133 145 0
123 135 0
124 136 0
126 138 0
127 139 0
115 124 0
126 137 0
127 139 0
119 130 0
119 128 0
116 125 0
122 132 0
122 132 0
122 132 0
120 129 0
122 130 0
131 141 0
125 135 0
121 132 0
121 131 0
116 124 0
117 124 0
116 124 0
117 127 0
117 125 0
118 126 0
111 118 0
108 117 0
112 119 0
103 110 0
113 122 0
109 118 0
109 116 0
115 124 0
120 129 0
113 121 0
110 118 0
119 126 0
113 122 0
119 128 0
114 124 0
120 130 0
117 127 0
114 122 0
115 125 0
118 128 0
122 133 0
120 132 0
129 141 0
124 136 0
121 133 0
127 140 0
124 136 0
124 135 0
121 132 0
126 137 0
123 136 0
125 136 0
129 142 0
133 147 0
125 138 0
126 139 0
128 141 0
128 142 0
126 140 0
136 149 0
128 141 0
131 143 0
127 140 0
136 152 0
127 143 0
127 140 0
125 138 0
126 140 0
129 143 0
134 147 0
128 142 0
132 146 0
135 150 0
127 142 0
137 152 0
127 142 0
132 147 0
134 148 0
130 145 0
135 150 0
131 145 0
125 141 0
130 142 0
133 150 0
130 146 0
129 143 0
126 142 0
138 153 0
133 148 0
127 142 0
139 155 0
133 148 0
128 144 0
133 150 0
131 147 0
131 146 0
135 152 0
134 152 0
139 155 0
133 149 0
129 144 0
131 147 0
133 149 0
132 147 0
128 143 0
131 146 0
132 147 0
127 141 0
122 138 0
126 141 0
123 139 0
124 140 0
132 148 0
127 143 0
117 135 0
121 137 0
127 144 0
124 140 0
120 134 0
123 138 0
128 142 0
133 149 0
124 141 0
124 140 0
116 131 0
115 130 0
124 140 0
113 128 0
117 131 0
123 140 0
123 135 0
115 129 0
120 134 0
117 133 0
119 134 0
111 126 0
117 132 0
119 133 0
112 127 0
116 130 0
114 127 0
112 127 0
104 118 0
117 131 0
120 135 0
114 129 0
118 130 0
118 134 0
113 128 0
119 135 0
114 127 0
118 134 0
112 125 0
114 128 0
114 128 0
116 129 0
111 124 0
115 128 0
106 118 0
107 120 0
118 132 0
115 128 0
114 129 0
110 121 0
114 126 0
125 137 0
117 129 0
108 122 0
112 127 0
122 136 0
119 132 0
120 133 0
117 131 0
121 135 0
122 136 0
113 125 0
125 139 0
117 131 0
126 139 0
121 135 0
120 134 0
121 135 0
117 131 0
121 134 0
121 133 0
124 134 0
128 140 0
126 140 0
121 132 0
130 142 0
123 136 0
126 142 0
134 149 0
128 141 0
129 145 0
128 141 0
126 138 0
124 136 0
128 141 0
122 133 0
133 146 0
123 136 0
127 137 0
127 139 0
119 131 0
129 139 0
122 132 0
127 139 0
128 139 0
127 139 0
132 140 0
129 139 0
134 145 0
136 147 0
129 140 0
128 138 0
133 143 0
128 139 0
127 138 0
129 139 0
126 133 0
133 144 0
121 131 0
129 138 0
130 139 0
130 139 0
126 135 0
127 133 0
128 137 0
132 140 0
128 132 0
123 128 0
128 135 0
123 128 0
122 130 0
125 132 0
123 130 0
127 134 0
130 135 0
117 124 0
128 133 0
126 130 0
125 128 0
125 131 0
125 128 0
109 112 0
121 123 0
122 125 0
115 119 0
121 124 0
120 120 0
117 118 0
113 112 0
122 124 0
117 115 0
118 116 0
115 114 0
106 103 0
103 102 0
107 106 0
113 110 0
102 98 0
105 102 0
114 113 0
107 101 0
104 101 0
102 96 0
112 108 0
108 101 0
102 94 0
101 94 0
106 100 0
103 97 0
100 93 0
108 101 0
108 101 0
109 103 0
102 96 0
102 98 0
101 95 0
106 103 0
102 94 0
110 102 0
112 106 0
100 92 0
115 110 0
113 111 0
103 95 0
110 105 0
114 106 1
111 107 0
113 109 8
114 110 0
111 107 0
114 108 8
108 102 0
115 109 12
114 109 0
111 106 8
113 110 8
119 115 8
117 114 14
115 113 8
127 125 6
125 125 1
126 126 11
128 129 14
134 135 8
132 133 0
144 149 0
142 147 0
151 158 0
149 156 0
150 157 0
141 145 0
152 161 0
147 152 0
151 160 0
154 160 0
154 162 0
151 159 0
154 163 0
151 160 0
152 162 0
153 163 0
159 171 0
156 164 0
158 169 0
154 164 0
157 168 0
158 171 0
157 169 0
158 170 0
160 172 0
159 172 0
161 176 0
160 175 0
162 177 0
161 174 0
156 169 0
164 177 0
164 178 0
162 176 0
160 176 0
165 182 0
163 179 0
162 179 0
166 182 0
162 179 0
168 190 0
166 187 0
166 185 0
166 186 0
166 187 0
168 187 0
167 186 0
166 186 0
164 184 0
166 185 0
164 183 0
166 186 0
163 182 0
166 186 0
163 183 0
165 184 0
164 182 0
158 175 0
163 181 0
161 180 0
163 180 0
163 182 0
162 180 0
161 178 0
157 174 0
162 180 0
158 174 0
160 177 0
162 180 0
157 175 0
158 175 0
156 172 0
151 166 0
153 168 0
158 173 0
149 164 0
151 167 0
153 169 0
151 165 0
152 166 0
146 160 0
149 163 0
149 162 0
145 159 0
145 158 0
146 161 0
143 155 0
137 149 0
141 154 0
138 151 0
137 150 0
141 153 0
135 146 0
135 147 0
135 146 0
135 146 0
131 141 0
128 139 0
123 133 0
130 140 0
126 135 0
123 133 0
118 127 0
126 137 0
122 131 0
121 130 0
119 128 0
113 120 0
121 130 0
117 126 0
118 127 0
118 126 0
116 125 0
120 130 0
121 130 0
119 127 0
119 128 0
113 122 0
118 126 0
110 118 0
119 128 0
122 134 0
118 127 0
120 130 0
120 130 0
121 131 0
124 135 0
123 133 0
124 135 0
120 129 0
125 137 0
125 135 0
121 133 0
132 145 0
128 141 0
124 133 0
136 149 0
126 138 0
127 139 0
130 144 0
128 140 0
131 145 0
130 142 0
130 145 0
129 143 0
135 149 0
122 135 0
124 136 0
133 146 0
136 151 0
130 145 0
134 148 0
129 144 0
135 149 0
133 147 0
140 154 0
127 140 0
135 150 0
138 153 0
134 149 0
129 142 0
132 147 0
135 150 0
128 142 0
136 151 0
134 148 0
134 150 0
131 145 0
131 148 0
134 150 0
137 152 0
132 147 0
128 142 0
131 147 0
131 144 0
129 142 0
129 145 0
128 143 0
136 152 0
129 145 0
135 151 0
143 158 0
128 145 0
133 150 0
133 150 0
122 137 0
139 157 0
133 150 0
134 150 0
132 149 0
133 149 0
129 147 0
134 150 0
134 150 0
127 144 0
135 152 0
125 142 0
124 139 0
133 149 0
129 145 0
133 149 0
129 146 0
122 138 0
119 135 0
126 143 0
129 145 0
122 136 0
129 145 0
129 143 0
128 142 0
117 133 0
122 137 0
126 142 0
120 137 0
125 141 0
121 137 0
121 136 0
129 144 0
122 137 0
114 128 0
123 138 0
121 137 0
125 140 0
123 140 0
122 140 0
119 134 0
119 136 0
119 136 0
122 138 0
121 135 0
119 134 0
121 137 0
121 136 0
118 134 0
116 129 0
115 131 0
109 124 0
116 130 0
121 135 0
121 136 0
119 134 0
118 130 0
116 130 0
111 125 0
127 142 0
118 131 0
118 131 0
121 134 0
121 134 0
119 131 0
121 133 0
116 131 0
115 131 0
126 141 0
120 134 0
120 135 0
118 132 0
128 143 0
115 129 0
116 132 0
114 127 0
121 135 0
120 134 0
126 141 0
123 136 0
117 130 0
119 133 0
124 138 0
120 132 0
117 132 0
116 128 0
128 141 0
128 144 0
128 141 0
120 133 0
123 136 0
115 128 0
122 136 0
125 139 0
120 134 0
127 140 0
124 136 0
123 137 0
130 144 0
120 133 0
128 140 0
131 144 0
130 142 0
132 143 0
126 140 0
127 139 0
126 139 0
134 146 0
137 148 0
133 146 0
132 145 0
130 143 0
128 140 0
131 143 0
134 145 0
135 148 0
128 140 0
122 131 0
134 146 0
134 145 0
132 143 0
136 149 0
131 142 0
134 147 0
126 137 0
118 126 0
133 144 0
130 139 0
128 137 0
128 138 0
133 141 0
128 133 0
130 140 0
129 137 0
123 130 0
121 129 0
131 137 0
126 132 0
130 135 0
121 129 0
129 137 0
125 129 0
123 129 0
118 122 0
122 128 0
126 131 0
125 131 0
123 129 0
126 132 0
121 124 0
124 126 0
123 129 0
122 124 0
122 123 0
122 124 0
122 123 0
113 116 0
121 124 0
117 118 0
113 113 0
120 125 0
110 111 0
116 114 0
108 106 0
121 121 0
122 120 0
112 112 0
115 113 0
120 119 0
118 114 0
110 106 0
105 100 0
109 105 0
105 101 0
109 103 0
98 93 0
102 96 0
108 103 0
107 100 0
103 97 0
112 108 0
114 110 0
107 104 0
110 103 0
110 105 0
104 102 0
107 101 0
106 98 0
104 97 0
108 103 0
109 104 0
117 109 0
116 112 0
115 111 0
113 109 0
113 106 0
121 117 0
124 122 0
122 119 0
123 121 0
124 121 0
125 122 0
130 127 0
126 123 0
130 127 0
137 138 0
134 136 0
130 129 0
137 137 0
138 141 0
134 134 0
139 140 0
136 138 0
140 143 0
146 147 0
146 150 0
146 149 0
144 147 0
148 154 0
146 153 0
146 152 0
148 157 0
149 156 0
153 161 0
147 153 0
149 158 0
152 159 0
155 165 0
155 164 0
155 165 0
159 168 0
154 164 0
157 166 0
157 168 0
160 169 0
160 172 0
158 171 0
159 171 0
154 165 0
162 175 0
157 171 0
160 173 0
160 171 0
160 174 0
162 178 0
161 174 0
157 171 0
161 175 0
158 172 0
167 182 0
161 177 0
162 178 0
161 176 0
162 179 0
167 183 0
170 191 0
165 186 0
166 185 0
164 185 0
164 183 0
165 185 0
167 188 0
164 184 0
165 183 0
163 183 0
166 186 0
164 183 0
163 182 0
166 185 0
161 179 0
165 184 0
164 182 0
164 183 0
164 183 0
163 181 0
161 179 0
158 175 0
157 174 0
158 175 0
159 176 0
160 177 0
161 178 0
157 174 0
158 175 0
158 173 0
157 173 0
157 174 0
153 169 0
146 163 0
153 170 0
156 171 0
153 169 0
154 170 0
154 168 0
150 165 0
148 162 0
150 164 0
146 159 0
147 161 0
152 166 0
152 165 0
142 155 0
141 155 0
141 153 0
138 150 0
143 156 0
133 144 0
137 150 0
139 150 0
132 142 0
129 140 0
130 142 0
132 143 0
127 136 0
128 137 0
126 136 0
131 141 0
128 137 0
131 143 0
119 127 0
129 140 0
119 128 0
119 127 0
122 131 0
118 127 0
126 136 0
122 131 0
124 135 0
124 134 0
122 131 0
122 130 0
124 134 0
128 138 0
126 136 0
125 134 0
121 132 0
118 128 0
127 137 0
126 137 0
126 138 0
129 141 0
124 134 0
129 140 0
124 134 0
124 135 0
130 144 0
120 131 0
131 142 0
132 144 0
127 139 0
123 135 0
128 139 0
127 140 0
127 140 0
123 135 0
131 146 0
133 147 0
130 143 0
135 149 0
130 144 0
130 143 0
137 153 0
127 139 0
140 156 0
131 146 0
129 141 0
133 147 0
128 142 0
132 146 0
130 143 0
134 148 0
135 151 0
136 152 0
137 153 0
132 147 0
132 146 0
133 149 0
137 151 0
134 149 0
131 145 0
133 148 0
125 142 0
129 144 0
135 149 0
132 150 0
134 149 0
134 150 0
132 148 0
135 150 0
131 147 0
142 159 0
137 154 0
138 154 0
137 153 0
131 148 0
131 147 0
129 143 0
129 146 0
129 144 0
128 145 0
130 148 0
136 153 0
135 150 0
133 148 0
131 148 0
132 148 0
138 154 0
140 157 0
131 147 0
122 138 0
128 143 0
131 146 0
133 147 0
126 143 0
132 149 0
124 140 0
129 145 0
130 147 0
127 144 0
130 145 0
129 145 0
129 145 0
121 136 0
128 145 0
123 139 0
113 129 0
129 144 0
120 134 0
126 142 0
129 146 0
123 138 0
131 145 0
127 143 0
123 138 0
122 137 0
125 141 0
121 136 0
126 142 0
124 139 0
122 136 0
124 140 0
117 132 0
120 135 0
123 138 0
111 129 0
114 129 0
117 131 0
121 137 0
117 133 0
125 141 0
114 128 0
114 127 0
120 136 0
116 130 0
113 128 0
116 129 0
124 137 0
122 136 0
120 135 0
113 129 0
120 136 0
116 131 0
123 138 0
122 137 0
118 131 0
117 130 0
122 136 0
119 134 0
118 131 0
128 141 0
125 138 0
120 137 0
119 133 0
119 132 0
119 134 0
124 138 0
129 144 0
126 139 0
123 135 0
122 137 0
129 143 0
122 134 0
121 134 0
118 130 0
131 147 0
125 140 0
125 138 0
129 143 0
128 141 0
123 137 0
127 142 0
125 138 0
123 137 0
129 144 0
125 139 0
130 144 0
132 146 0
125 139 0
125 138 0
133 149 0
132 144 0
129 141 0
135 149 0
129 144 0
128 141 0
131 143 0
123 133 0
133 145 0
138 155 0
130 141 0
129 141 0
129 141 0
126 139 0
134 149 0
130 141 0
126 138 0
130 144 0
129 141 0
128 138 0
130 142 0
132 143 0
132 143 0
131 141 0
133 142 0
125 135 0
125 137 0
132 144 0
133 144 0
130 137 0
130 142 0
126 135 0
119 128 0
125 135 0
121 130 0
128 138 0
128 138 0
130 137 0
125 134 0
123 129 0
124 133 0
128 136 0
128 133 0
131 137 0
129 137 0
121 126 0
125 132 0
126 133 0
126 129 0
119 122 0
130 136 0
125 129 0
126 130 0
125 131 0
119 122 0
121 124 0
123 127 0
124 132 0
121 123 0
125 126 0
123 124 0
125 126 0
120 121 0
115 115 0
120 120 0
121 124 0
118 118 0
123 125 0
121 123 0
124 126 0
122 118 0
116 115 0
112 113 0
114 112 0
115 112 0
109 104 0
114 112 0
107 104 0
111 109 0
112 109 0
101 97 0
113 108 0
104 97 0
111 105 0
112 107 0
115 108 0
113 109 0
103 96 0
117 113 0
112 110 0
109 104 0
106 104 0
110 106 0
116 110 0
118 116 0
122 120 0
119 116 0
119 114 0
123 120 0
108 104 0
120 116 0
121 117 0
127 125 0
131 129 0
127 126 0
130 131 0
126 125 0
134 132 0
132 131 0
136 137 0
142 145 0
134 134 0
132 135 0
138 140 0
141 144 0
141 145 0
135 138 0
143 147 0
144 146 0
146 149 0
151 156 0
148 155 0
144 147 0
144 148 0
148 155 0
150 155 0
153 161 0
152 160 0
149 155 0
153 160 0
155 165 0
151 160 0
155 164 0
159 170 0
155 160 0
159 171 0
155 166 0
153 163 0
156 168 0
156 167 0
157 170 0
159 171 0
159 168 0
162 176 0
161 173 0
160 173 0
160 174 0
162 176 0
160 173 0
165 182 0
161 176 0
165 180 0
163 178 0
162 177 0
163 179 0
161 176 0
163 182 0
165 186 0
166 187 0
164 185 0
166 186 0
166 186 0
164 184 0
164 184 0
165 185 0
166 185 0
166 186 0
165 184 0
163 181 0
162 181 0
162 178 0
161 180 0
161 179 0
163 181 0
163 181 0
163 180 0
163 180 0
160 178 0
158 176 0
157 174 0
156 173 0
156 173 0
156 173 0
156 172 0
153 168 0
158 174 0
152 166 0
155 171 0
153 169 0
151 165 0
152 167 0
155 172 0
153 168 0
151 166 0
145 161 0
149 163 0
148 163 0
148 162 0
144 157 0
145 159 0
146 159 0
142 155 0
139 152 0
143 156 0
140 154 0
141 154 0
136 148 0
137 149 0
136 148 0
135 147 0
128 140 0
137 148 0
129 139 0
123 132 0
126 137 0
130 141 0
129 139 0
125 135 0
125 136 0
126 137 0
125 135 0
123 132 0
128 139 0
128 139 0
122 132 0
122 132 0
126 137 0
122 132 0
125 135 0
126 136 0
118 129 0
126 137 0
128 139 0
127 138 0
129 141 0
123 134 0
124 135 0
127 137 0
127 138 0
129 141 0
132 143 0
126 137 0
127 139 0
130 140 0
129 141 0
130 143 0
127 138 0
128 142 0
132 145 0
132 146 0
133 146 0
128 141 0
135 149 0
130 142 0
127 142 0
135 149 0
139 151 0
136 148 0
131 146 0
128 139 0
131 145 0
129 142 0
136 152 0
133 148 0
137 152 0
137 152 0
131 145 0
138 151 0
132 147 0
132 148 0
134 150 0
137 152 0
140 156 0
139 155 0
132 148 0
136 151 0
135 150 0
134 149 0
133 148 0
134 152 0
134 150 0
133 149 0
136 151 0
130 145 0
135 150 0
139 154 0
135 149 0
134 152 0
137 152 0
137 153 0
136 152 0
136 152 0
130 145 0
135 150 0
141 157 0
131 146 0
133 151 0
135 152 0
135 151 0
132 148 0
134 148 0
138 155 0
136 152 0
136 153 0
135 152 0
135 153 0
134 151 0
122 139 0
136 152 0
128 144 0
134 151 0
129 146 0
135 152 0
136 152 0
126 142 0
128 144 0
128 144 0
135 153 0
129 143 0
135 151 0
138 154 0
128 144 0
124 141 0
131 148 0
131 146 0
125 142 0
129 146 0
131 146 0
123 139 0
127 144 0
125 141 0
123 140 0
128 144 0
127 142 0
124 140 0
126 139 0
128 144 0
116 129 0
132 148 0
130 148 0
125 140 0
121 137 0
120 135 0
116 131 0
123 138 0
119 134 0
124 141 0
117 133 0
125 140 0
118 134 0
127 143 0
114 128 0
120 135 0
119 133 0
119 134 0
121 139 0
122 138 0
121 136 0
112 124 0
124 139 0
120 134 0
124 137 0
119 135 0
121 135 0
119 135 0
117 134 0
123 136 0
122 136 0
119 132 0
115 131 0
120 131 0
124 139 0
127 142 0
124 138 0
121 136 0
121 134 0
120 133 0
126 141 0
125 140 0
131 145 0
122 135 0
116 132 0
119 133 0
118 131 0
123 138 0
122 137 0
132 147 0
126 138 0
129 145 0
131 145 0
125 139 0
129 142 0
132 145 0
127 141 0
129 143 0
131 145 0
121 135 0
133 148 0
126 141 0
132 147 0
129 143 0
134 148 0
126 139 0
131 145 0
133 145 0
138 153 0
131 142 0
133 147 0
128 142 0
129 144 0
125 137 0
134 145 0
137 151 0
133 148 0
137 149 0
131 142 0
135 150 0
130 142 0
133 143 0
126 134 0
131 142 0
137 147 0
131 142 0
138 150 0
133 144 0
131 142 0
129 141 0
128 139 0
130 142 0
121 128 0
131 140 0
126 136 0
128 138 0
130 137 0
141 151 0
129 139 0
123 130 0
124 133 0
129 140 0
126 133 0
127 134 0
126 133 0
125 132 0
131 139 0
131 140 0
124 131 0
126 133 0
128 135 0
127 131 0
127 132 0
130 136 0
122 126 0
117 121 0
126 132 0
127 134 0
123 128 0
123 128 0
126 130 0
123 129 0
123 126 0
132 137 0
118 117 0
129 128 0
122 124 0
118 118 0
119 120 0
122 123 0
119 121 0
126 130 0
118 119 0
118 118 0
114 114 0
124 125 0
123 124 0
120 120 0
116 118 0
123 122 0
113 111 0
112 110 0
115 110 0
110 107 0
110 107 0
117 116 0
113 108 0
117 113 0
115 109 0
112 106 0
120 119 0
122 119 0
116 114 0
126 124 0
110 105 0
108 103 0
112 110 0
119 113 0
126 124 0
115 112 0
118 112 0
124 119 0
120 118 0
118 114 0
129 125 0
121 118 0
129 126 0
129 128 0
131 130 0
131 131 0
126 127 0
129 129 0
126 126 0
131 131 0
131 132 0
135 137 0
137 137 0
138 141 0
142 144 0
142 148 0
136 139 0
144 146 0
141 146 0
140 141 0
144 147 0
150 155 0
143 147 0
145 150 0
151 158 0
150 156 0
152 159 0
150 157 0
154 161 0
149 156 0
153 161 0
147 154 0
155 164 0
154 164 0
151 159 0
155 165 0
153 164 0
154 162 0
156 166 0
157 169 0
159 170 0
155 166 0
159 169 0
161 175 0
158 170 0
158 169 0
159 171 0
162 177 0
165 180 0
164 177 0
161 176 0
160 174 0
162 177 0
165 182 0
161 175 0
166 185 0
167 187 0
163 182 0
165 184 0
162 181 0
167 187 0
166 185 0
166 185 0
162 181 0
164 184 0
164 183 0
167 186 0
161 179 0
161 180 0
163 182 0
161 178 0
160 177 0
160 179 0
159 177 0
159 177 0
159 176 0
159 176 0
161 179 0
160 176 0
155 171 0
157 174 0
159 176 0
160 177 0
153 169 0
155 171 0
156 173 0
154 168 0
150 165 0
156 171 0
153 169 0
150 166 0
150 164 0
148 161 0
146 159 0
142 155 0
148 162 0
146 159 0
149 162 0
141 155 0
144 158 0
143 157 0
143 156 0
138 149 0
139 151 0
140 152 0
139 150 0
144 157 0
134 146 0
137 149 0
132 143 0
138 148 0
139 149 0
129 140 0
134 146 0
121 131 0
136 148 0
132 143 0
127 137 0
132 143 0
134 144 0
127 136 0
133 143 0
124 134 0
127 137 0
128 139 0
124 136 0
131 143 0
125 135 0
131 140 0
132 144 0
125 136 0
127 139 0
129 140 0
129 141 0
134 146 0
129 141 0
130 142 0
131 143 0
130 142 0
128 140 0
133 145 0
126 139 0
126 138 0
130 144 0
128 141 0
133 146 0
126 139 0
136 150 0
132 146 0
132 146 0
131 145 0
135 149 0
136 149 0
130 143 0
131 145 0
139 152 0
137 150 0
129 143 0
135 150 0
133 147 0
130 144 0
128 142 0
136 152 0
132 147 0
131 145 0
134 148 0
139 154 0
134 149 0
139 155 0
132 148 0
137 151 0
134 149 0
127 141 0
133 148 0
138 154 0
139 154 0
141 158 0
130 146 0
139 155 0
136 150 0
129 143 0
135 152 0
141 156 0
132 147 0
134 151 0
134 149 0
134 149 0
134 149 0
131 146 0
137 152 0
132 147 0
131 148 0
132 147 0
139 157 0
131 149 0
137 151 0
139 157 0
132 147 0
138 155 0
136 152 0
133 151 0
134 151 0
137 155 0
135 151 0
132 148 0
128 145 0
136 155 0
133 150 0
135 152 0
139 155 0
125 139 0
131 147 0
132 151 0
129 144 0
131 147 0
127 142 0
132 149 0
128 145 0
135 153 0
132 149 0
125 143 0
132 149 0
134 150 0
128 143 0
123 139 0
131 147 0
134 151 0
126 142 0
123 140 0
123 140 0
128 145 0
123 140 0
126 142 0
124 138 0
128 142 0
133 150 0
129 147 0
116 133 0
119 132 0
129 146 0
131 147 0
123 140 0
129 146 0
125 141 0
124 141 0
129 146 0
116 132 0
127 141 0
126 140 0
123 138 0
124 139 0
121 136 0
128 145 0
116 132 0
121 135 0
123 139 0
130 147 0
115 129 0
127 142 0
122 138 0
121 139 0
133 149 0
125 142 0
119 134 0
117 132 0
125 141 0
125 140 0
123 139 0
128 145 0
120 134 0
119 132 0
126 141 0
120 134 0
126 141 0
125 140 0
126 140 0
124 138 0
127 143 0
119 133 0
124 136 0
125 137 0
127 141 0
124 139 0
129 146 0
122 136 0
125 141 0
127 141 0
120 133 0
127 144 0
124 137 0
123 136 0
128 143 0
130 144 0
124 135 0
130 143 0
127 141 0
132 145 0
128 141 0
133 146 0
135 150 0
134 148 0
134 149 0
131 143 0
137 150 0
131 145 0
137 151 0
133 146 0
133 147 0
132 145 0
137 148 0
135 148 0
132 144 0
137 148 0
130 142 0
131 144 0
131 143 0
132 141 0
138 152 0
132 142 0
136 148 0
128 139 0
134 145 0
135 146 0
128 140 0
126 136 0
128 138 0
133 141 0
133 142 0
128 140 0
131 140 0
130 141 0
131 143 0
132 142 0
133 141 0
129 138 0
141 151 0
129 140 0
131 140 0
123 131 0
130 141 0
134 142 0
127 135 0
127 135 0
132 140 0
129 137 0
131 140 0
128 135 0
128 135 0
133 140 0
135 143 0
131 139 0
126 133 0
129 133 0
132 139 0
133 138 0
125 131 0
126 129 0
124 127 0
128 131 0
133 138 0
126 129 0
121 124 0
126 129 0
121 125 0
117 118 0
117 119 0
121 122 0
120 123 0
122 125 0
119 121 0
124 126 0
126 128 0
123 126 0
120 119 0
118 116 0
127 128 0
117 117 0
111 107 0
117 114 0
116 115 0
116 111 0
119 118 0
122 120 0
113 112 0
115 113 0
118 114 0
117 113 0
123 119 0
121 118 0
119 114 0
125 122 0
123 120 0
122 119 0
119 118 0
120 117 0
122 118 0
121 118 0
121 118 0
119 115 0
126 121 0
129 128 0
118 114 0
121 118 0
129 127 0
130 132 0
132 130 0
130 128 0
131 130 0
135 136 0
138 139 0
127 126 0
138 138 0
137 137 0
140 144 0
141 144 0
136 138 0
140 142 0
140 141 0
141 146 0
145 148 0
145 151 0
139 144 0
144 151 0
146 151 0
147 152 0
148 152 0
146 151 0
148 154 0
152 161 0
153 162 0
153 162 0
151 160 0
154 163 0
150 159 0
151 161 0
153 164 0
153 162 0
158 168 0
148 156 0
155 167 0
152 161 0
156 168 0
160 174 0
155 167 0
158 168 0
162 175 0
158 169 0
156 167 0
159 173 0
160 172 0
159 171 0
158 171 0
160 174 0
162 178 0
163 177 0
166 185 0
166 186 0
165 184 0
163 181 0
163 183 0
163 183 0
167 185 0
163 182 0
161 180 0
165 183 0
161 179 0
161 178 0
162 179 0
165 183 0
160 179 0
160 178 0
163 181 0
162 179 0
161 179 0
158 174 0
156 173 0
157 174 0
160 178 0
157 175 0
155 171 0
159 175 0
159 175 0
156 172 0
151 167 0
151 166 0
157 172 0
152 166 0
152 168 0
150 164 0
150 165 0
146 160 0
148 161 0
150 165 0
143 157 0
148 162 0
149 162 0
150 163 0
141 154 0
142 155 0
141 155 0
141 155 0
142 154 0
142 155 0
138 149 0
137 150 0
143 155 0
137 149 0
143 154 0
141 152 0
133 146 0
132 143 0
128 140 0
132 144 0
134 145 0
132 143 0
132 143 0
136 146 0
138 150 0
134 145 0
133 143 0
131 143 0
126 137 0
135 148 0
133 145 0
137 149 0
129 140 0
128 138 0
129 141 0
137 149 0
134 147 0
136 148 0
133 145 0
131 143 0
128 140 0
137 150 0
128 141 0
127 138 0
129 140 0
134 146 0
133 146 0
136 148 0
137 151 0
138 150 0
132 145 0
132 144 0
135 148 0
127 141 0
131 144 0
132 146 0
134 148 0
132 146 0
134 148 0
137 150 0
140 156 0
131 145 0
133 146 0
135 149 0
138 151 0
133 147 0
137 152 0
141 157 0
133 148 0
129 144 0
136 151 0
136 151 0
133 148 0
138 154 0
139 154 0
132 147 0
133 147 0
136 151 0
137 153 0
141 157 0
137 152 0
142 159 0
133 148 0
134 147 0
143 158 0
135 152 0
134 150 0
136 152 0
137 154 0
131 146 0
137 152 0
138 154 0
136 153 0
133 151 0
132 149 0
135 153 0
138 153 0
141 155 0
130 146 0
141 157 0
135 151 0
135 152 0
134 152 0
140 158 0
137 155 0
127 143 0
131 147 0
137 154 0
137 153 0
135 151 0
134 152 0
135 151 0
135 153 0
133 150 0
138 154 0
135 153 0
131 149 0
140 157 0
132 146 0
126 142 0
130 148 0
129 145 0
136 153 0
123 140 0
128 144 0
126 142 0
135 153 0
132 150 0
132 149 0
135 151 0
129 144 0
126 143 0
130 147 0
131 148 0
123 139 0
128 145 0
131 147 0
139 154 0
124 140 0
133 151 0
124 143 0
133 148 0
133 149 0
136 151 0
129 146 0
128 144 0
128 145 0
129 145 0
132 146 0
122 137 0
135 151 0
124 140 0
123 139 0
121 135 0
122 137 0
123 138 0
118 135 0
127 143 0
123 139 0
123 139 0
122 135 0
132 149 0
118 131 0
124 140 0
124 139 0
126 143 0
122 138 0
127 144 0
127 142 0
117 131 0
121 135 0
125 140 0
126 140 0
119 135 0
126 143 0
133 149 0
125 141 0
127 142 0
125 142 0
128 142 0
121 135 0
130 144 0
125 142 0
134 148 0
130 144 0
130 146 0
134 145 0
126 140 0
132 147 0
130 144 0
119 134 0
125 139 0
130 146 0
122 135 0
131 145 0
123 138 0
116 129 0
127 141 0
126 141 0
126 139 0
128 142 0
127 141 0
130 144 0
131 146 0
124 138 0
134 147 0
127 142 0
134 147 0
138 152 0
128 142 0
127 140 0
131 145 0
127 139 0
128 142 0
129 141 0
131 144 0
141 156 0
136 150 0
130 141 0
136 149 0
135 150 0
136 148 0
130 144 0
127 139 0
129 141 0
137 147 0
138 146 0
127 136 0
133 146 0
129 139 0
134 146 0
131 141 0
128 137 0
137 148 0
135 144 0
136 146 0
134 145 0
132 141 0
135 144 0
138 148 0
132 141 0
136 146 0
129 136 0
137 147 0
132 141 0
132 141 0
135 146 0
132 140 0
134 144 0
137 145 0
130 136 0
133 141 0
127 137 0
129 139 0
132 139 0
128 135 0
136 144 0
134 143 0
134 138 0
135 142 0
129 135 0
131 138 0
131 138 0
125 130 0
127 131 0
124 128 0
135 141 0
125 130 0
123 129 0
118 122 0
130 130 0
119 120 0
121 123 0
126 128 0
133 137 0
127 129 0
127 130 0
125 127 0
125 129 0
119 120 0
123 124 0
131 131 0
121 121 0
121 120 0
123 123 0
117 117 0
117 116 0
125 123 0
125 126 0
123 121 0
123 121 0
116 114 0
124 122 0
121 119 0
130 131 0
119 115 0
117 114 0
112 108 0
124 120 0
124 122 0
124 122 0
124 122 0
120 119 0
121 118 0
129 129 0
125 121 0
124 124 0
125 124 0
129 128 0
129 129 0
131 130 0
129 127 0
127 127 0
131 130 0
124 124 0
125 123 0
135 136 0
133 132 0
135 135 0
131 131 0
136 138 0
134 135 0
143 147 0
137 138 0
142 144 0
145 147 0
135 138 0
134 137 0
145 149 0
141 146 0
145 150 0
144 149 0
149 154 0
149 156 0
152 158 0
147 155 0
146 152 0
146 153 0
150 156 0
153 159 0
150 158 0
152 160 0
158 166 0
150 158 0
153 161 0
155 166 0
151 162 0
157 168 0
158 168 0
157 168 0
155 168 0
160 172 0
158 169 0
157 168 0
158 171 0
157 170 0
161 174 0
159 171 0
164 179 0
157 170 0
162 175 0
158 171 0
166 185 0
165 185 0
167 186 0
166 185 0
164 184 0
163 182 0
164 182 0
163 182 0
164 184 0
163 181 0
161 178 0
162 178 0
162 181 0
160 178 0
161 177 0
162 179 0
161 178 0
158 175 0
160 177 0
162 179 0
162 180 0
159 175 0
156 172 0
158 175 0
158 175 0
148 164 0
153 170 0
152 167 0
156 172 0
155 170 0
153 168 0
150 165 0
154 168 0
151 165 0
153 168 0
147 161 0
150 164 0
146 160 0
149 164 0
147 161 0
145 157 0
142 155 0
145 159 0
138 150 0
141 154 0
144 157 0
143 157 0
140 152 0
140 152 0
139 150 0
139 152 0
134 146 0
133 146 0
135 146 0
132 143 0
132 143 0
136 148 0
134 146 0
136 149 0
138 150 0
130 143 0
136 147 0
135 146 0
139 151 0
125 137 0
136 148 0
129 142 0
136 147 0
132 143 0
134 146 0
132 143 0
133 145 0
133 145 0
135 148 0
133 145 0
129 142 0
138 151 0
130 143 0
135 148 0
134 146 0
134 147 0
135 147 0
142 156 0
129 144 0
135 148 0
138 153 0
138 153 0
135 149 0
125 138 0
139 154 0
133 147 0
134 148 0
131 144 0
132 146 0
137 152 0
135 150 0
135 148 0
134 148 0
137 151 0
137 154 0
139 152 0
140 154 0
137 151 0
134 150 0
138 153 0
131 147 0
135 151 0
135 149 0
142 158 0
133 148 0
132 147 0
139 154 0
136 152 0
134 147 0
133 148 0
136 151 0
132 149 0
137 153 0
131 146 0
142 158 0
140 155 0
133 148 0
143 159 0
139 155 0
130 146 0
137 152 0
134 150 0
136 152 0
139 156 0
141 158 0
132 147 0
135 151 0
139 155 0
133 148 0
136 154 0
140 157 0
138 156 0
141 155 0
138 156 0
139 156 0
132 149 0
138 156 0
137 152 0
134 152 0
135 150 0
138 153 0
136 153 0
136 153 0
142 160 0
135 151 0
137 154 0
136 152 0
134 152 0
143 159 0
130 147 0
127 144 0
131 146 0
134 151 0
125 141 0
136 154 0
132 149 0
135 153 0
131 149 0
139 156 0
129 146 0
134 152 0
132 150 0
134 151 0
128 145 0
135 152 0
133 150 0
125 141 0
128 146 0
132 149 0
125 141 0
132 146 0
128 144 0
129 146 0
134 150 0
128 144 0
127 142 0
130 147 0
128 145 0
130 146 0
131 147 0
132 149 0
130 145 0
126 141 0
127 142 0
130 145 0
126 142 0
125 142 0
130 145 0
126 141 0
138 155 0
128 144 0
130 146 0
129 145 0
125 141 0
127 143 0
121 136 0
133 149 0
135 151 0
130 146 0
126 142 0
128 143 0
126 143 0
122 138 0
126 142 0
129 145 0
126 142 0
124 136 0
124 139 0
124 138 0
131 148 0
127 143 0
131 146 0
136 152 0
132 148 0
137 153 0
133 148 0
132 144 0
131 148 0
134 146 0
129 146 0
129 144 0
136 150 0
122 136 0
130 146 0
132 148 0
129 144 0
129 144 0
133 149 0
129 145 0
127 141 0
125 139 0
135 151 0
132 146 0
130 144 0
132 147 0
134 149 0
126 141 0
137 151 0
125 139 0
140 153 0
137 153 0
126 138 0
126 139 0
132 147 0
135 149 0
135 147 0
134 148 0
136 150 0
140 154 0
136 151 0
140 152 0
130 142 0
136 149 0
141 155 0
135 148 0
130 142 0
137 150 0
130 142 0
135 148 0
134 147 0
137 149 0
130 141 0
135 147 0
140 153 0
136 150 0
132 145 0
126 137 0
135 147 0
140 153 0
130 140 0
137 145 0
137 148 0
135 144 0
135 147 0
136 145 0
121 130 0
133 142 0
137 147 0
139 150 0
135 142 0
131 138 0
131 140 0
132 141 0
129 138 0
137 145 0
135 143 0
136 145 0
126 135 0
131 139 0
129 137 0
133 139 0
133 140 0
131 137 0
120 126 0
136 143 0
134 142 0
133 138 0
126 130 0
129 133 0
125 130 0
133 140 0
126 131 0
127 134 0
128 130 0
128 132 0
134 138 0
123 127 0
125 129 0
132 135 0
131 134 0
128 130 0
123 125 0
132 134 0
130 134 0
131 132 0
122 122 0
123 124 0
123 123 0
121 123 0
132 135 0
127 126 0
128 130 0
129 128 0
126 126 0
118 117 0
126 126 0
124 123 0
128 127 0
122 122 0
121 117 0
126 123 0
122 119 0
129 128 0
129 127 0
127 127 0
126 126 0
126 125 0
133 133 0
119 115 0
121 119 0
131 129 0
124 121 0
132 130 0
139 139 0
126 123 0
120 120 0
131 130 0
124 124 0
130 131 0
131 132 0
137 135 0
140 142 0
132 133 0
137 140 0
141 145 0
141 142 0
139 141 0
138 141 0
136 138 0
149 154 0
142 143 0
136 138 0
136 139 0
145 150 0
143 146 0
141 145 0
146 154 0
152 159 0
143 148 0
155 164 0
147 153 0
149 154 0
143 150 0
154 163 0
151 160 0
154 162 0
153 161 0
149 157 0
151 159 0
151 159 0
154 165 0
153 162 0
155 165 0
160 172 0
157 167 0
156 168 0
158 168 0
156 168 0
159 170 0
161 171 0
156 170 0
159 171 0
160 175 0
159 172 0
160 175 0
166 185 0
163 182 0
164 185 0
163 181 0
164 183 0
163 182 0
161 179 0
166 184 0
165 182 0
163 182 0
161 178 0
161 179 0
164 182 0
160 177 0
160 177 0
161 180 0
160 178 0
159 175 0
153 169 0
160 177 0
156 173 0
155 172 0
158 175 0
156 173 0
156 171 0
155 170 0
153 169 0
151 165 0
158 174 0
154 169 0
155 169 0
152 169 0
155 170 0
153 168 0
147 162 0
149 164 0
145 158 0
150 164 0
147 162 0
144 157 0
142 155 0
143 155 0
149 163 0
142 155 0
144 157 0
140 153 0
138 151 0
143 156 0
140 153 0
141 154 0
139 152 0
139 152 0
139 151 0
142 155 0
138 151 0
135 146 0
142 153 0
139 152 0
135 146 0
132 144 0
139 152 0
138 151 0
134 145 0
141 154 0
138 151 0
135 146 0
137 149 0
132 143 0
133 146 0
134 145 0
136 149 0
133 144 0
136 148 0
131 143 0
136 149 0
133 146 0
137 150 0
126 139 0
136 149 0
133 146 0
136 151 0
138 151 0
135 148 0
130 143 0
137 151 0
132 147 0
135 149 0
143 158 0
135 147 0
131 146 0
135 150 0
140 155 0
133 147 0
134 149 0
138 152 0
136 151 0
136 151 0
139 153 0
135 151 0
140 156 0
136 150 0
136 151 0
137 152 0
139 154 0
128 143 0
134 150 0
133 148 0
139 154 0
133 148 0
132 147 0
138 153 0
141 157 0
137 152 0
133 148 0
136 151 0
138 151 0
140 155 0
135 151 0
142 158 0
144 161 0
135 150 0
137 153 0
138 153 0
138 155 0
141 159 0
141 159 0
137 154 0
132 149 0
140 157 0
136 153 0
138 153 0
138 155 0
136 152 0
139 156 0
136 154 0
136 154 0
134 149 0
139 156 0
136 154 0
136 153 0
141 158 0
134 151 0
136 153 0
140 156 0
135 153 0
138 155 0
136 154 0
137 154 0
135 152 0
145 162 0
139 157 0
134 152 0
135 152 0
131 150 0
127 142 0
140 159 0
134 151 0
135 152 0
134 152 0
139 156 0
139 157 0
133 150 0
134 152 0
133 148 0
135 150 0
129 146 0
128 144 0
133 152 0
129 145 0
129 145 0
132 148 0
131 147 0
132 149 0
129 146 0
128 144 0
132 149 0
126 140 0
127 142 0
126 142 0
127 141 0
132 145 0
131 148 0
132 150 0
128 145 0
134 151 0
125 142 0
131 148 0
128 145 0
132 149 0
127 143 0
123 140 0
127 142 0
130 147 0
131 148 0
127 144 0
119 135 0
130 146 0
127 143 0
128 144 0
131 148 0
134 149 0
135 151 0
130 146 0
126 141 0
139 155 0
133 150 0
128 144 0
128 145 0
123 138 0
132 147 0
133 148 0
124 138 0
128 144 0
130 147 0
126 140 0
129 144 0
130 145 0
127 143 0
129 147 0
130 145 0
128 145 0
125 139 0
129 145 0
131 146 0
132 148 0
133 149 0
127 141 0
133 148 0
132 148 0
125 139 0
130 145 0
130 146 0
136 150 0
125 141 0
129 144 0
132 147 0
138 155 0
131 146 0
132 147 0
135 149 0
133 149 0
134 147 0
141 157 0
131 146 0
137 152 0
129 143 0
136 152 0
138 151 0
135 150 0
137 151 0
127 140 0
133 147 0
133 147 0
134 149 0
135 150 0
138 149 0
135 147 0
132 145 0
130 143 0
139 153 0
134 147 0
135 148 0
141 157 0
130 144 0
128 140 0
136 148 0
131 145 0
136 149 0
137 149 0
134 148 0
133 145 0
131 143 0
132 143 0
136 149 0
135 146 0
127 138 0
135 146 0
131 141 0
131 139 0
133 143 0
138 148 0
137 148 0
129 138 0
138 149 0
133 143 0
136 145 0
133 143 0
134 144 0
136 146 0
139 147 0
136 143 0
133 142 0
135 143 0
133 143 0
124 131 0
138 145 0
131 138 0
132 140 0
133 140 0
138 145 0
134 139 0
134 141 0
128 133 0
132 137 0
129 134 0
136 142 0
129 132 0
135 140 0
128 133 0
131 134 0
129 132 0
130 133 0
124 127 0
129 131 0
134 138 0
124 129 0
122 124 0
123 127 0
126 129 0
129 132 0
122 124 0
127 128 0
129 132 0
132 135 0
124 127 0
127 129 0
125 123 0
127 129 0
128 131 0
124 123 0
127 127 0
132 132 0
126 126 0
127 126 0
127 126 0
126 123 0
128 129 0
125 123 0
125 123 0
120 118 0
128 129 0
124 123 0
124 122 0
128 127 0
128 125 0
133 132 0
139 141 0
136 139 0
135 134 0
122 121 0
131 130 0
133 133 0
134 135 0
131 130 0
136 137 0
137 139 0
135 135 0
134 134 0
137 140 0
141 142 0
134 136 0
131 134 0
140 141 0
143 147 0
144 147 0
140 143 0
145 149 0
139 141 0
146 151 0
142 143 0
144 149 0
140 143 0
146 151 0
144 147 0
151 157 0
145 150 0
150 156 0
150 155 0
146 153 0
146 151 0
152 158 0
151 160 0
155 163 0
155 165 0
158 169 0
152 161 0
155 165 0
157 169 0
157 167 0
156 165 0
159 171 0
157 168 0
151 162 0
156 166 0
159 170 0
155 166 0
158 170 0
157 169 0
158 170 0
157 169 0
161 180 0
166 185 0
165 184 0
164 182 0
161 180 0
163 181 0
165 183 0
161 178 0
161 179 0
160 178 0
161 179 0
163 181 0
160 176 0
162 181 0
158 176 0
159 176 0
158 175 0
159 175 0
156 172 0
160 177 0
156 173 0
154 170 0
160 177 0
152 167 0
153 169 0
154 170 0
155 171 0
157 174 0
153 168 0
151 165 0
151 166 0
149 165 0
154 170 0
145 161 0
145 158 0
150 166 0
147 161 0
149 163 0
151 165 0
147 161 0
144 158 0
141 155 0
143 157 0
138 150 0
143 157 0
147 159 0
140 154 0
145 159 0
139 151 0
142 155 0
142 155 0
137 149 0
139 151 0
139 152 0
143 155 0
137 150 0
140 154 0
135 148 0
141 154 0
134 145 0
141 152 0
139 151 0
136 149 0
140 155 0
137 150 0
139 152 0
137 150 0
136 149 0
139 152 0
137 148 0
142 155 0
142 155 0
142 156 0
133 146 0
139 151 0
136 151 0
140 154 0
139 152 0
134 147 0
136 149 0
138 151 0
135 149 0
137 150 0
137 151 0
138 153 0
134 148 0
134 149 0
138 152 0
134 149 0
136 150 0
137 152 0
138 153 0
139 153 0
139 154 0
135 151 0
137 150 0
137 151 0
139 153 0
131 144 0
140 154 0
139 156 0
138 153 0
140 154 0
140 156 0
139 153 0
141 156 0
138 153 0
137 153 0
144 158 0
135 149 0
142 159 0
132 148 0
139 156 0
136 153 0
137 153 0
145 162 0
142 159 0
142 157 0
141 157 0
139 156 0
138 155 0
141 157 0
144 161 0
141 156 0
142 157 0
138 154 0
140 156 0
138 154 0
138 155 0
137 153 0
141 156 0
140 156 0
139 155 0
133 151 0
136 152 0
139 155 0
134 151 0
139 156 0
138 156 0
138 155 0
137 155 0
136 154 0
131 148 0
144 163 0
136 152 0
137 155 0
138 155 0
133 149 0
135 150 0
139 157 0
137 155 0
137 155 0
136 152 0
134 150 0
139 156 0
132 148 0
130 147 0
131 145 0
134 151 0
134 151 0
139 156 0
137 154 0
129 145 0
138 155 0
134 151 0
132 149 0
133 150 0
130 148 0
135 151 0
137 154 0
127 144 0
130 146 0
131 148 0
129 143 0
136 154 0
132 150 0
134 151 0
132 149 0
133 151 0
130 145 0
133 150 0
126 142 0
129 144 0
136 153 0
131 146 0
132 149 0
137 153 0
127 142 0
132 149 0
130 148 0
130 146 0
131 148 0
131 148 0
131 149 0
128 146 0
134 150 0
131 148 0
128 145 0
127 144 0
125 142 0
126 141 0
133 152 0
126 143 0
137 150 0
131 149 0
136 153 0
132 149 0
128 144 0
131 148 0
127 143 0
130 144 0
134 150 0
125 141 0
129 147 0
131 146 0
124 139 0
126 140 0
133 148 0
131 146 0
135 150 0
131 146 0
129 144 0
130 147 0
140 157 0
132 146 0
129 144 0
133 147 0
126 142 0
128 143 0
126 139 0
133 148 0
134 149 0
129 145 0
131 148 0
131 145 0
134 150 0
133 147 0
134 148 0
135 151 0
133 148 0
140 156 0
133 147 0
137 152 0
141 155 0
129 144 0
130 142 0
133 147 0
133 147 0
132 146 0
133 146 0
130 143 0
137 151 0
137 150 0
137 150 0
134 148 0
131 147 0
129 144 0
133 147 0
138 152 0
138 150 0
143 157 0
138 153 0
132 146 0
136 149 0
135 148 0
134 147 0
137 150 0
139 152 0
136 150 0
137 149 0
142 154 0
138 150 0
146 160 0
139 152 0
140 151 0
138 150 0
136 147 0
126 138 0
138 149 0
138 149 0
129 138 0
136 144 0
133 143 0
137 146 0
133 144 0
142 154 0
127 137 0
135 143 0
139 149 0
138 147 0
141 151 0
134 145 0
133 142 0
136 144 0
127 135 0
130 135 0
132 137 0
130 138 0
134 140 0
135 144 0
134 143 0
134 140 0
137 145 0
129 135 0
131 138 0
138 145 0
134 140 0
133 138 0
132 139 0
132 139 0
127 132 0
130 135 0
133 138 0
131 135 0
136 144 0
128 130 0
122 125 0
130 135 0
124 125 0
133 136 0
126 127 0
131 135 0
134 135 0
128 130 0
131 134 0
127 129 0
132 135 0
131 132 0
123 124 0
125 126 0
129 128 0
131 131 0
129 131 0
126 126 0
131 133 0
133 134 0
130 130 0
125 126 0
121 119 0
127 127 0
125 123 0
126 127 0
129 130 0
136 135 0
130 130 0
126 127 0
137 135 0
135 133 0
136 135 0
132 132 0
131 131 0
131 131 0
132 133 0
129 129 0
133 135 0
136 139 0
135 134 0
141 144 0
134 134 0
144 146 0
139 141 0
144 148 0
137 139 0
138 139 0
139 142 0
139 142 0
140 142 0
142 145 0
141 144 0
144 149 0
143 147 0
147 152 0
145 149 0
147 153 0
144 148 0
146 149 0
149 153 0
150 154 0
148 154 0
148 155 0
148 155 0
151 160 0
156 164 0
148 158 0
148 156 0
149 157 0
158 167 0
149 156 0
154 163 0
156 166 0
157 166 0
156 168 0
155 165 0
159 170 0
151 162 0
159 172 0
159 171 0
159 170 0
153 166 0
163 176 0
166 185 0
161 180 0
162 181 0
161 179 0
161 178 0
164 182 0
163 182 0
160 178 0
160 177 0
163 181 0
158 174 0
162 180 0
160 177 0
158 175 0
158 174 0
160 178 0
159 177 0
155 172 0
157 173 0
158 173 0
158 175 0
155 171 0
154 169 0
150 166 0
151 167 0
160 176 0
153 168 0
156 171 0
154 169 0
150 166 0
148 163 0
153 168 0
149 165 0
148 163 0
148 162 0
146 161 0
149 164 0
149 163 0
145 158 0
151 165 0
144 159 0
144 157 0
145 159 0
141 154 0
139 151 0
142 153 0
146 160 0
142 156 0
138 151 0
146 160 0
140 152 0
138 150 0
141 154 0
141 153 0
140 152 0
139 150 0
142 155 0
138 149 0
141 151 0
139 153 0
142 155 0
136 148 0
134 145 0
141 154 0
132 145 0
138 152 0
138 151 0
138 151 0
133 147 0
137 152 0
140 154 0
146 160 0
135 148 0
139 153 0
135 149 0
139 152 0
137 150 0
131 144 0
140 153 0
140 153 0
135 148 0
134 148 0
136 151 0
140 153 0
138 153 0
140 152 0
137 153 0
143 158 0
136 152 0
135 150 0
139 153 0
141 157 0
140 156 0
145 162 0
136 150 0
139 155 0
139 153 0
140 156 0
141 157 0
138 154 0
141 157 0
143 158 0
136 152 0
137 153 0
139 156 0
137 152 0
140 155 0
134 150 0
137 152 0
141 157 0
142 159 0
140 155 0
140 156 0
137 155 0
136 149 0
141 157 0
135 151 0
138 153 0
144 159 0
143 158 0
132 147 0
144 161 0
142 157 0
142 159 0
141 156 0
139 155 0
136 152 0
144 161 0
141 158 0
138 153 0
139 156 0
138 154 0
140 155 0
135 152 0
137 154 0
140 156 0
137 153 0
142 158 0
144 161 0
138 154 0
136 152 0
148 165 0
139 156 0
136 152 0
137 155 0
143 159 0
136 154 0
137 153 0
140 156 0
140 157 0
136 151 0
140 156 0
138 155 0
141 159 0
141 157 0
133 150 0
136 150 0
129 146 0
132 150 0
136 152 0
138 155 0
133 150 0
143 159 0
126 143 0
133 151 0
134 149 0
138 154 0
129 146 0
133 150 0
134 151 0
133 149 0
129 147 0
129 146 0
134 150 0
130 148 0
138 157 0
130 146 0
131 149 0
130 147 0
137 152 0
132 147 0
136 153 0
129 146 0
126 142 0
129 147 0
129 144 0
140 157 0
134 150 0
128 144 0
127 142 0
131 147 0
128 144 0
131 147 0
129 145 0
130 147 0
134 151 0
125 142 0
130 144 0
133 151 0
126 142 0
133 151 0
134 150 0
132 151 0
132 149 0
142 160 0
133 150 0
132 149 0
136 152 0
134 151 0
130 145 0
130 146 0
133 148 0
124 140 0
125 140 0
128 144 0
136 149 0
132 148 0
127 145 0
133 149 0
130 146 0
136 152 0
130 144 0
136 152 0
132 146 0
130 145 0
130 145 0
132 146 0
134 149 0
139 154 0
133 150 0
127 141 0
133 149 0
131 148 0
137 154 0
141 159 0
134 147 0
134 150 0
131 145 0
134 151 0
139 155 0
132 149 0
133 147 0
139 153 0
138 152 0
135 150 0
131 145 0
131 146 0
135 151 0
130 143 0
133 148 0
137 152 0
133 148 0
136 152 0
145 158 0
134 151 0
137 151 0
135 148 0
134 151 0
132 146 0
137 151 0
136 149 0
141 156 0
143 158 0
136 149 0
139 154 0
130 143 0
143 157 0
136 150 0
137 150 0
133 147 0
128 140 0
142 155 0
131 141 0
132 145 0
133 144 0
137 152 0
139 150 0
137 151 0
137 149 0
135 146 0
137 150 0
130 140 0
136 146 0
139 150 0
141 152 0
137 149 0
138 149 0
132 139 0
132 144 0
131 141 0
132 142 0
141 151 0
133 142 0
135 142 0
130 138 0
134 141 0
137 148 0
134 143 0
138 147 0
139 148 0
141 149 0
129 136 0
132 140 0
135 140 0
132 137 0
135 141 0
134 141 0
136 143 0
137 144 0
133 140 0
134 143 0
139 146 0
135 140 0
132 138 0
136 143 0
130 135 0
134 138 0
137 143 0
134 138 0
124 127 0
132 135 0
131 134 0
139 143 0
126 130 0
136 139 0
130 134 0
133 135 0
130 133 0
129 130 0
134 136 0
128 130 0
129 130 0
130 132 0
132 135 0
132 131 0
131 134 0
131 130 0
139 143 0
136 137 0
126 127 0
128 128 0
130 130 0
127 128 0
134 135 0
127 125 0
130 130 0
134 137 0
134 135 0
136 137 0
136 137 0
131 131 0
132 134 0
137 136 0
133 134 0
138 139 0
128 125 0
137 137 0
133 134 0
136 135 0
131 131 0
141 143 0
139 140 0
139 141 0
145 149 0
145 148 0
140 144 0
136 138 0
145 148 0
143 149 0
149 153 0
140 144 0
143 145 0
141 144 0
149 156 0
148 154 0
144 148 0
153 161 0
152 159 0
146 150 0
148 158 0
144 152 0
148 155 0
154 162 0
156 165 0
154 161 0
152 161 0
152 161 0
156 166 0
156 166 0
152 161 0
155 165 0
149 158 0
154 165 0
160 172 0
159 170 0
155 167 0
156 168 0
157 170 0
159 172 0
161 173 0
164 183 0
160 177 0
167 186 0
161 179 0
158 177 0
161 179 0
161 179 0
161 179 0
158 175 0
161 179 0
161 178 0
157 174 0
159 175 0
159 176 0
156 172 0
158 175 0
161 179 0
157 173 0
159 174 0
155 172 0
157 173 0
158 174 0
156 172 0
151 166 0
154 169 0
156 173 0
154 171 0
154 170 0
150 164 0
149 163 0
153 168 0
150 165 0
156 171 0
151 165 0
151 167 0
151 165 0
146 160 0
146 160 0
145 160 0
145 159 0
146 160 0
147 161 0
150 163 0
144 159 0
145 158 0
144 158 0
147 161 0
148 161 0
144 158 0
142 155 0
143 155 0
137 150 0
140 154 0
135 147 0
141 154 0
144 157 0
143 156 0
139 152 0
143 155 0
142 156 0
145 159 0
138 152 0
136 148 0
141 155 0
145 158 0
143 156 0
138 151 0
141 155 0
139 152 0
135 150 0
143 156 0
138 151 0
143 158 0
134 148 0
144 158 0
140 154 0
138 152 0
145 160 0
136 150 0
141 155 0
144 159 0
141 157 0
135 149 0
141 156 0
143 159 0
140 155 0
134 150 0
139 152 0
141 157 0
141 155 0
138 154 0
143 158 0
142 155 0
144 159 0
144 161 0
146 162 0
139 154 0
144 160 0
146 162 0
143 160 0
134 150 0
141 158 0
144 160 0
137 152 0
138 155 0
141 157 0
144 160 0
142 158 0
140 155 0
139 155 0
141 159 0
137 154 0
141 158 0
136 153 0
140 156 0
137 152 0
141 157 0
136 153 0
133 146 0
139 155 0
144 161 0
132 148 0
135 153 0
140 157 0
146 163 0
143 159 0
142 159 0
138 155 0
142 158 0
140 156 0
144 159 0
140 157 0
137 152 0
138 156 0
141 158 0
143 160 0
141 158 0
142 160 0
136 151 0
140 158 0
143 161 0
143 161 0
144 162 0
139 157 0
137 153 0
136 153 0
133 149 0
147 163 0
133 150 0
133 144 0
139 154 0
133 150 0
139 156 0
129 146 0
136 152 0
132 148 0
137 153 0
135 152 0
132 147 0
129 146 0
134 151 0
134 150 0
141 159 0
136 152 0
137 154 0
133 149 0
133 150 0
135 154 0
130 146 0
137 154 0
134 151 0
131 148 0
131 147 0
129 148 0
133 148 0
133 149 0
140 156 0
134 151 0
142 158 0
135 151 0
130 145 0
138 154 0
136 152 0
140 157 0
142 159 0
129 145 0
143 159 0
133 149 0
121 137 0
132 149 0
130 145 0
139 157 0
133 150 0
133 150 0
132 148 0
136 151 0
136 154 0
130 147 0
134 149 0
132 149 0
129 145 0
128 144 0
132 149 0
133 147 0
132 150 0
132 148 0
129 146 0
134 150 0
128 143 0
130 147 0
123 140 0
135 151 0
136 152 0
137 153 0
127 141 0
130 146 0
139 155 0
136 152 0
134 151 0
124 140 0
134 149 0
126 140 0
132 149 0
133 150 0
133 150 0
134 150 0
131 146 0
134 150 0
136 151 0
132 148 0
143 159 0
137 152 0
124 140 0
135 150 0
135 151 0
140 155 0
140 157 0
133 148 0
127 142 0
135 151 0
139 153 0
144 161 0
137 152 0
135 151 0
131 143 0
140 156 0
133 147 0
140 153 0
141 155 0
131 146 0
136 150 0
137 152 0
133 149 0
136 149 0
136 150 0
132 147 0
136 149 0
137 152 0
133 146 0
139 154 0
133 146 0
132 146 0
130 144 0
130 144 0
145 159 0
135 146 0
132 144 0
132 144 0
139 153 0
129 141 0
135 149 0
129 140 0
140 153 0
136 149 0
138 150 0
132 143 0
136 149 0
136 148 0
135 147 0
134 145 0
141 152 0
130 141 0
139 150 0
137 147 0
140 151 0
126 136 0
133 143 0
136 147 0
135 144 0
141 152 0
131 140 0
138 146 0
137 148 0
137 147 0
135 143 0
137 148 0
134 144 0
130 140 0
137 146 0
138 149 0
131 138 0
130 138 0
140 150 0
134 142 0
139 146 0
136 143 0
132 139 0
138 145 0
133 141 0
134 142 0
132 138 0
132 138 0
141 146 0
140 147 0
133 138 0
132 138 0
128 134 0
128 132 0
131 137 0
142 148 0
137 143 0
136 141 0
134 139 0
128 133 0
133 139 0
133 137 0
138 143 0
132 135 0
133 137 0
134 135 0
130 133 0
131 135 0
137 141 0
127 128 0
136 139 0
134 136 0
138 140 0
141 144 0
133 136 0
136 139 0
132 135 0
130 132 0
133 136 0
131 134 0
131 131 0
134 135 0
133 134 0
134 137 0
141 141 0
129 130 0
138 138 0
138 141 0
131 133 0
133 132 0
134 135 0
134 136 0
140 141 0
137 139 0
145 147 0
141 142 0
131 133 0
135 137 0
135 136 0
147 152 0
134 136 0
144 149 0
146 149 0
146 150 0
145 150 0
146 150 0
142 144 0
143 148 0
145 148 0
147 151 0
145 151 0
146 151 0
145 151 0
148 155 0
146 151 0
145 151 0
154 163 0
148 155 0
150 155 0
148 155 0
151 160 0
153 161 0
150 158 0
149 158 0
151 161 0
155 163 0
154 165 0
158 170 0
152 163 0
159 168 0
154 165 0
155 167 0
157 168 0
153 164 0
156 167 0
154 163 0
163 181 0
160 179 0
163 182 0
164 182 0
162 180 0
160 179 0
160 177 0
158 176 0
161 179 0
161 179 0
159 176 0
155 171 0
160 176 0
157 174 0
158 175 0
158 176 0
157 174 0
154 169 0
158 173 0
156 173 0
156 172 0
155 170 0
155 171 0
154 170 0
151 167 0
152 167 0
154 169 0
152 168 0
156 172 0
148 162 0
151 167 0
148 163 0
148 162 0
149 162 0
148 162 0
149 163 0
149 164 0
147 162 0
144 158 0
147 162 0
150 164 0
149 162 0
145 157 0
147 162 0
148 162 0
147 161 0
146 159 0
147 161 0
144 159 0
141 153 0
141 154 0
139 153 0
144 157 0
144 157 0
146 160 0
142 156 0
143 157 0
146 159 0
141 154 0
140 153 0
144 156 0
145 159 0
143 157 0
141 155 0
143 156 0
144 157 0
139 154 0
139 153 0
141 154 0
143 157 0
143 157 0
138 152 0
145 160 0
143 158 0
143 158 0
142 157 0
141 157 0
139 153 0
142 158 0
140 155 0
140 154 0
140 156 0
137 152 0
142 156 0
136 151 0
138 151 0
137 151 0
141 156 0
139 154 0
141 155 0
143 159 0
138 153 0
143 158 0
137 154 0
142 158 0
142 158 0
141 156 0
147 163 0
142 158 0
137 151 0
144 159 0
142 156 0
143 159 0
138 153 0
141 156 0
140 157 0
146 162 0
140 156 0
138 155 0
141 157 0
138 153 0
139 156 0
138 156 0
136 150 0
138 155 0
136 152 0
140 158 0
144 161 0
139 155 0
139 155 0
141 158 0
141 157 0
132 149 0
137 154 0
139 156 0
142 159 0
137 155 0
137 152 0
142 157 0
142 158 0
138 153 0
138 156 0
145 163 0
144 160 0
136 151 0
143 159 0
140 158 0
136 153 0
144 162 0
132 148 0
137 151 0
140 158 0
141 157 0
139 155 0
142 161 0
140 158 0
141 159 0
138 157 0
139 155 0
132 150 0
132 149 0
140 157 0
136 153 0
134 151 0
138 153 0
142 159 0
134 152 0
140 157 0
141 159 0
137 154 0
139 156 0
140 158 0
139 157 0
138 156 0
137 153 0
138 156 0
144 160 0
137 154 0
135 154 0
137 154 0
134 151 0
134 149 0
138 156 0
136 153 0
138 154 0
135 151 0
137 156 0
135 151 0
132 149 0
138 155 0
139 156 0
136 152 0
137 154 0
134 151 0
132 149 0
135 154 0
132 149 0
140 157 0
139 156 0
138 156 0
132 150 0
130 146 0
124 138 0
137 155 0
138 156 0
130 146 0
137 154 0
137 153 0
134 151 0
133 151 0
122 138 0
132 146 0
129 144 0
137 152 0
134 151 0
135 151 0
133 149 0
131 148 0
129 146 0
129 144 0
138 156 0
137 155 0
140 156 0
130 147 0
132 147 0
138 153 0
133 149 0
128 144 0
133 148 0
137 153 0
135 149 0
130 146 0
136 150 0
140 156 0
137 153 0
132 146 0
126 142 0
139 155 0
143 157 0
138 154 0
139 155 0
129 145 0
139 154 0
136 153 0
140 157 0
138 152 0
136 150 0
133 146 0
140 155 0
138 153 0
145 160 0
136 154 0
133 147 0
134 149 0
139 154 0
130 146 0
134 148 0
134 148 0
132 145 0
138 152 0
141 155 0
131 145 0
133 145 0
129 144 0
134 146 0
138 150 0
137 151 0
135 147 0
136 150 0
141 157 0
136 148 0
140 153 0
144 159 0
140 153 0
139 150 0
138 149 0
138 152 0
140 154 0
128 143 0
133 147 0
136 151 0
135 147 0
139 152 0
142 156 0
138 150 0
139 152 0
147 157 0
137 149 0
133 143 0
136 148 0
139 150 0
138 149 0
134 145 0
140 151 0
140 153 0
137 149 0
140 149 0
130 140 0
129 140 0
137 148 0
133 144 0
136 145 0
134 142 0
140 148 0
139 150 0
137 145 0
137 147 0
132 140 0
135 142 0
138 147 0
139 149 0
133 142 0
142 151 0
135 143 0
134 140 0
133 142 0
134 140 0
138 147 0
136 142 0
137 145 0
141 149 0
133 139 0
131 138 0
128 134 0
136 142 0
137 145 0
134 140 0
135 140 0
140 146 0
134 141 0
136 141 0
129 137 0
134 138 0
137 142 0
137 144 0
134 138 0
126 130 0
132 133 0
138 142 0
128 129 0
139 144 0
136 140 0
136 139 0
139 143 0
133 135 0
132 134 0
133 137 0
131 133 0
134 138 0
133 137 0
137 141 0
134 139 0
135 136 0
135 135 0
134 136 0
139 142 0
136 138 0
132 134 0
136 134 0
132 133 0
135 138 0
134 135 0
136 138 0
138 141 0
138 142 0
131 134 0
138 140 0
133 134 0
137 141 0
139 141 0
139 142 0
144 147 0
134 136 0
145 151 0
141 145 0
133 135 0
141 145 0
141 147 0
147 154 0
144 147 0
143 148 0
147 150 0
144 149 0
140 146 0
145 148 0
146 152 0
140 143 0
145 149 0
143 149 0
141 145 0
151 156 0
147 151 0
151 157 0
152 160 0
154 162 0
154 163 0
153 163 0
150 158 0
150 160 0
150 158 0
149 156 0
156 166 0
152 161 0
155 163 0
159 170 0
155 164 0
155 165 0
157 167 0
155 164 0
152 163 0
163 180 0
158 176 0
160 179 0
160 178 0
159 176 0
160 179 0
164 183 0
164 182 0
155 172 0
157 174 0
159 177 0
158 174 0
158 176 0
159 176 0
159 176 0
158 174 0
157 172 0
153 168 0
155 171 0
156 172 0
155 171 0
157 174 0
161 177 0
154 170 0
154 170 0
151 166 0
149 164 0
154 170 0
153 168 0
154 169 0
148 163 0
156 172 0
154 169 0
150 166 0
153 167 0
146 161 0
150 165 0
146 160 0
150 163 0
148 163 0
148 164 0
152 166 0
141 155 0
147 161 0
142 154 0
147 161 0
140 152 0
143 158 0
146 161 0
147 161 0
143 156 0
146 160 0
141 154 0
142 156 0
144 158 0
139 152 0
148 163 0
146 159 0
143 158 0
142 155 0
139 155 0
145 158 0
142 155 0
139 153 0
141 156 0
143 158 0
141 157 0
137 150 0
140 153 0
141 155 0
140 155 0
142 158 0
146 162 0
146 161 0
138 151 0
140 153 0
145 160 0
138 153 0
146 162 0
141 156 0
139 154 0
142 158 0
142 158 0
141 156 0
138 154 0
139 154 0
142 157 0
141 156 0
147 162 0
147 162 0
143 158 0
142 157 0
144 161 0
141 156 0
143 158 0
141 158 0
141 158 0
136 150 0
145 159 0
140 155 0
144 160 0
142 158 0
136 152 0
138 155 0
145 161 0
143 161 0
135 150 0
141 159 0
144 161 0
145 161 0
137 153 0
143 159 0
142 158 0
139 155 0
150 167 0
142 158 0
138 155 0
139 156 0
142 158 0
134 150 0
143 160 0
141 158 0
143 160 0
148 165 0
141 157 0
137 153 0
136 152 0
144 161 0
137 154 0
137 153 0
137 153 0
149 168 0
148 166 0
137 153 0
137 154 0
139 156 0
138 153 0
142 159 0
137 152 0
140 157 0
145 163 0
143 161 0
139 157 0
139 155 0
144 161 0
141 159 0
132 149 0
132 146 0
145 161 0
141 158 0
134 152 0
137 152 0
140 156 0
142 158 0
140 158 0
137 155 0
138 157 0
134 152 0
137 155 0
138 155 0
139 156 0
129 145 0
136 153 0
135 153 0
139 158 0
140 157 0
139 156 0
138 153 0
136 153 0
129 147 0
136 154 0
138 156 0
136 155 0
139 157 0
132 149 0
136 153 0
133 150 0
128 144 0
135 152 0
131 146 0
132 148 0
140 157 0
136 153 0
137 156 0
133 150 0
138 154 0
136 153 0
140 159 0
135 153 0
138 156 0
135 151 0
133 151 0
136 153 0
140 158 0
130 144 0
128 144 0
127 143 0
134 152 0
129 145 0
131 148 0
134 150 0
135 152 0
128 144 0
134 152 0
136 151 0
137 153 0
132 148 0
136 153 0
133 152 0
134 151 0
133 150 0
132 148 0
134 148 0
134 152 0
129 145 0
142 161 0
132 149 0
136 150 0
135 150 0
136 152 0
130 147 0
134 150 0
136 151 0
136 152 0
136 155 0
136 153 0
142 158 0
140 157 0
136 152 0
134 149 0
142 157 0
137 153 0
140 156 0
139 155 0
131 146 0
131 147 0
136 150 0
139 153 0
139 154 0
137 151 0
139 157 0
136 149 0
138 154 0
132 147 0
140 156 0
137 153 0
136 151 0
143 157 0
137 151 0
137 151 0
138 153 0
143 159 0
143 157 0
135 149 0
144 160 0
143 159 0
133 148 0
136 150 0
140 155 0
134 146 0
139 152 0
138 151 0
138 152 0
138 151 0
140 152 0
140 155 0
145 158 0
132 148 0
140 153 0
136 147 0
138 152 0
139 153 0
139 151 0
139 151 0
131 144 0
135 148 0
139 152 0
139 152 0
141 154 0
140 152 0
144 157 0
140 153 0
141 152 0
136 148 0
142 156 0
144 155 0
131 140 0
135 146 0
133 143 0
140 151 0
138 147 0
139 149 0
131 141 0
139 149 0
133 142 0
140 151 0
137 147 0
144 153 0
134 144 0
128 137 0
136 143 0
137 146 0
140 150 0
131 139 0
144 151 0
138 146 0
139 150 0
135 141 0
142 151 0
136 145 0
143 152 0
140 149 0
138 146 0
128 136 0
135 143 0
130 137 0
129 135 0
140 147 0
140 148 0
133 141 0
140 145 0
141 146 0
135 141 0
135 139 0
142 149 0
134 137 0
133 138 0
143 149 0
142 149 0
141 145 0
136 142 0
137 142 0
140 146 0
132 136 0
137 141 0
140 144 0
133 136 0
134 139 0
139 145 0
131 134 0
135 138 0
141 146 0
131 130 0
134 136 0
126 128 0
132 135 0
134 138 0
129 131 0
139 142 0
131 132 0
139 143 0
134 138 0
135 137 0
136 136 0
135 138 0
139 142 0
141 144 0
136 139 0
137 140 0
143 146 0
136 139 0
141 143 0
137 140 0
141 145 0
140 144 0
146 149 0
142 148 0
140 145 0
142 146 0
144 148 0
143 146 0
145 149 0
146 149 0
146 150 0
142 148 0
145 150 0
153 160 0
151 159 0
147 152 0
150 155 0
148 156 0
148 156 0
151 157 0
154 162 0
149 158 0
150 160 0
150 158 0
156 165 0
156 164 0
152 160 0
149 159 0
151 160 0
153 162 0
151 161 0
153 160 0
156 165 0
157 166 0
161 172 0
158 168 0
157 167 0
159 177 0
158 176 0
160 180 0
162 179 0
159 177 0
162 180 0
159 176 0
164 182 0
157 174 0
159 175 0
159 176 0
156 173 0
158 175 0
160 177 0
158 174 0
157 174 0
156 172 0
152 168 0
154 169 0
153 170 0
154 171 0
155 170 0
154 169 0
155 169 0
154 170 0
148 163 0
154 170 0
148 163 0
150 167 0
151 165 0
152 168 0
155 169 0
149 165 0
152 167 0
151 165 0
150 165 0
146 160 0
152 168 0
150 166 0
148 162 0
145 159 0
147 161 0
147 162 0
148 161 0
149 163 0
146 161 0
146 161 0
149 163 0
149 164 0
151 166 0
149 164 0
147 162 0
142 157 0
144 159 0
143 157 0
146 161 0
149 164 0
148 163 0
147 160 0
148 162 0
144 159 0
145 161 0
149 164 0
144 158 0
145 161 0
138 151 0
145 160 0
147 162 0
146 160 0
144 158 0
140 155 0
142 157 0
146 161 0
141 156 0
143 157 0
141 156 0
140 155 0
144 160 0
145 162 0
143 159 0
140 155 0
142 157 0
143 158 0
140 154 0
146 162 0
138 154 0
143 160 0
144 160 0
142 156 0
146 162 0
147 161 0
143 160 0
140 156 0
144 159 0
147 164 0
138 152 0
146 162 0
140 156 0
144 161 0
140 156 0
140 156 0
141 155 0
147 164 0
146 163 0
137 153 0
144 161 0
142 159 0
142 158 0
139 154 0
141 156 0
146 163 0
142 158 0
138 155 0
144 160 0
137 154 0
138 153 0
142 160 0
143 159 0
140 156 0
147 166 0
145 161 0
143 159 0
143 160 0
145 163 0
139 157 0
141 158 0
143 161 0
146 162 0
140 156 0
146 163 0
138 154 0
140 159 0
147 166 0
135 151 0
138 153 0
145 161 0
142 158 0
137 154 0
143 161 0
142 160 0
141 158 0
137 154 0
140 158 0
140 159 0
142 160 0
139 156 0
135 155 0
138 156 0
133 148 0
142 159 0
137 154 0
134 153 0
143 160 0
142 159 0
138 155 0
138 156 0
136 153 0
136 152 0
143 160 0
141 158 0
140 158 0
135 153 0
137 155 0
143 163 0
135 152 0
137 154 0
143 160 0
139 158 0
131 147 0
139 156 0
135 151 0
134 150 0
136 153 0
136 153 0
140 157 0
135 153 0
137 153 0
133 148 0
131 146 0
134 150 0
142 160 0
136 153 0
134 151 0
138 155 0
129 145 0
135 151 0
140 159 0
137 153 0
130 145 0
130 146 0
138 154 0
136 153 0
134 152 0
134 151 0
133 150 0
137 153 0
137 156 0
118 131 0
133 149 0
131 148 0
135 151 0
137 153 0
139 157 0
132 148 0
133 150 0
130 146 0
130 143 0
129 145 0
139 156 0
135 151 0
135 152 0
135 150 0
139 157 0
137 151 0
138 156 0
133 150 0
137 153 0
138 154 0
136 154 0
135 150 0
135 153 0
136 151 0
134 149 0
139 155 0
139 155 0
135 150 0
141 156 0
139 154 0
135 151 0
132 146 0
137 153 0
139 155 0
136 151 0
140 157 0
135 153 0
132 147 0
141 158 0
136 152 0
139 157 0
139 154 0
134 150 0
141 157 0
139 153 0
140 156 0
131 146 0
133 150 0
136 150 0
141 156 0
134 149 0
138 153 0
142 158 0
139 154 0
140 155 0
135 149 0
136 148 0
141 156 0
143 153 0
133 147 0
141 155 0
139 152 0
136 152 0
128 143 0
140 156 0
138 154 0
142 154 0
141 156 0
139 154 0
137 152 0
141 155 0
140 153 0
142 154 0
141 155 0
139 151 0
139 149 0
136 151 0
140 153 0
139 152 0
145 158 0
140 152 0
134 147 0
142 155 0
138 149 0
145 159 0
134 146 0
142 155 0
137 151 0
136 146 0
140 152 0
136 148 0
139 148 0
137 148 0
135 144 0
136 146 0
136 147 0
138 150 0
133 141 0
136 145 0
140 151 0
134 143 0
137 148 0
135 144 0
133 141 0
134 144 0
137 145 0
142 153 0
137 146 0
138 145 0
132 140 0
136 144 0
138 148 0
137 145 0
129 137 0
138 146 0
140 147 0
138 146 0
138 146 0
137 145 0
136 142 0
134 140 0
137 145 0
138 144 0
133 140 0
133 137 0
132 136 0
136 143 0
135 140 0
137 141 0
136 139 0
135 141 0
138 147 0
139 143 0
137 142 0
132 137 0
137 141 0
137 140 0
137 141 0
136 141 0
131 135 0
137 141 0
134 137 0
134 139 0
133 139 0
137 141 0
136 137 0
140 144 0
133 133 0
135 137 0
140 145 0
138 140 0
139 143 0
147 151 0
139 141 0
133 136 0
137 141 0
136 139 0
144 148 0
140 141 0
141 143 0
135 137 0
145 150 0
140 144 0
138 143 0
137 140 0
139 143 0
140 144 0
143 151 0
140 142 0
142 144 0
139 141 0
140 143 0
139 144 0
148 153 0
138 143 0
148 153 0
147 153 0
145 152 0
143 148 0
150 156 0
150 156 0
152 159 0
152 160 0
146 151 0
148 154 0
150 156 0
148 156 0
149 156 0
149 156 0
148 153 0
152 159 0
152 161 0
151 160 0
147 152 0
153 160 0
157 169 0
154 164 0
158 168 0
157 167 0
158 168 0
154 166 0
154 166 0
160 179 0
160 178 0
161 178 0
162 181 0
162 180 0
161 178 0
157 173 0
157 173 0
158 174 0
158 174 0
155 172 0
160 177 0
155 172 0
157 175 0
157 173 0
157 174 0
155 171 0
154 170 0
157 173 0
159 176 0
155 171 0
153 170 0
154 169 0
157 174 0
154 169 0
156 173 0
152 167 0
152 168 0
153 168 0
154 170 0
149 164 0
150 166 0
149 164 0
151 167 0
147 162 0
148 163 0
149 164 0
153 168 0
148 163 0
149 163 0
153 168 0
148 161 0
145 159 0
149 163 0
149 163 0
151 166 0
145 158 0
146 160 0
148 163 0
153 167 0
147 160 0
141 155 0
144 157 0
147 160 0
148 162 0
152 167 0
143 158 0
141 156 0
147 163 0
145 160 0
148 163 0
142 156 0
149 163 0
142 156 0
142 157 0
146 161 0
143 158 0
146 161 0
146 162 0
146 162 0
140 155 0
141 155 0
145 160 0
142 158 0
147 163 0
145 161 0
140 154 0
151 166 0
139 156 0
144 159 0
146 161 0
142 160 0
144 160 0
147 162 0
142 157 0
140 153 0
139 154 0
144 158 0
144 162 0
138 151 0
142 158 0
147 165 0
141 155 0
144 159 0
148 164 0
141 156 0
142 160 0
145 160 0
135 150 0
145 162 0
145 162 0
145 162 0
144 161 0
144 159 0
144 161 0
145 160 0
137 152 0
139 157 0
145 161 0
139 156 0
139 156 0
147 162 0
138 155 0
148 165 0
139 157 0
146 164 0
140 158 0
138 156 0
143 161 0
149 167 0
149 164 0
143 161 0
141 157 0
147 166 0
144 161 0
135 152 0
135 152 0
144 163 0
142 159 0
135 153 0
138 154 0
141 157 0
140 156 0
146 163 0
139 155 0
146 163 0
141 159 0
144 160 0
139 156 0
141 159 0
144 161 0
142 159 0
139 156 0
144 160 0
145 161 0
141 157 0
138 157 0
135 154 0
135 151 0
144 161 0
138 157 0
141 158 0
141 159 0
139 157 0
139 155 0
139 156 0
139 156 0
134 150 0
132 149 0
137 154 0
139 155 0
140 157 0
142 159 0
135 152 0
137 155 0
144 160 0
135 152 0
133 149 0
135 154 0
140 157 0
135 152 0
133 150 0
133 149 0
140 157 0
134 152 0
141 158 0
142 160 0
133 149 0
139 157 0
140 159 0
128 144 0
128 147 0
133 151 0
141 157 0
136 153 0
138 155 0
138 156 0
139 155 0
138 155 0
133 149 0
139 155 0
139 157 0
141 157 0
136 154 0
137 156 0
136 152 0
134 148 0
140 155 0
132 149 0
132 149 0
138 154 0
135 151 0
138 154 0
136 152 0
130 146 0
136 153 0
142 159 0
139 157 0
138 154 0
136 154 0
140 158 0
137 154 0
143 161 0
136 152 0
137 155 0
125 143 0
140 155 0
135 150 0
133 149 0
137 152 0
132 147 0
142 157 0
134 151 0
137 155 0
139 153 0
139 154 0
140 156 0
139 156 0
141 159 0
139 153 0
140 155 0
138 154 0
139 156 0
132 146 0
135 151 0
140 156 0
142 160 0
135 150 0
142 158 0
140 157 0
142 159 0
144 159 0
142 156 0
141 154 0
133 148 0
137 154 0
135 150 0
138 156 0
140 156 0
142 157 0
133 144 0
140 155 0
139 156 0
138 152 0
136 152 0
138 152 0
140 153 0
142 158 0
141 155 0
136 150 0
141 153 0
134 149 0
138 153 0
148 162 0
142 158 0
132 145 0
143 158 0
143 155 0
143 155 0
137 150 0
145 158 0
140 156 0
139 152 0
141 158 0
145 157 0
139 151 0
143 157 0
141 154 0
141 155 0
139 151 0
133 146 0
141 152 0
135 146 0
136 149 0
142 155 0
140 153 0
141 153 0
138 148 0
139 150 0
145 156 0
139 149 0
140 152 0
138 149 0
135 145 0
137 149 0
141 151 0
138 146 0
140 149 0
142 152 0
142 153 0
136 146 0
139 148 0
136 149 0
139 148 0
143 154 0
136 142 0
141 150 0
137 146 0
136 145 0
138 148 0
138 144 0
140 150 0
136 143 0
143 152 0
144 152 0
142 150 0
136 141 0
136 145 0
136 144 0
135 144 0
136 144 0
141 147 0
137 144 0
135 142 0
136 141 0
138 142 0
137 145 0
139 145 0
139 145 0
136 143 0
136 143 0
142 149 0
138 145 0
129 134 0
135 142 0
136 139 0
138 145 0
140 147 0
140 145 0
134 139 0
137 143 0
136 140 0
141 146 0
140 145 0
134 139 0
142 146 0
135 140 0
140 144 0
138 141 0
139 144 0
138 142 0
138 141 0
138 140 0
142 146 0
137 142 0
137 139 0
137 138 0
146 149 0
139 141 0
141 144 0
140 144 0
140 143 0
136 139 0
145 148 0
141 146 0
143 147 0
140 143 0
138 141 0
144 150 0
151 158 0
145 150 0
138 141 0
141 147 0
147 153 0
147 153 0
147 153 0
150 153 0
140 144 0
146 153 0
153 160 0
149 157 0
145 152 0
151 159 0
151 160 0
148 155 0
148 153 0
153 160 0
149 156 0
151 160 0
148 155 0
155 163 0
149 155 0
154 162 0
150 158 0
152 161 0
156 163 0
153 165 0
156 166 0
153 161 0
158 170 0
160 177 0
158 176 0
163 182 0
160 178 0
160 177 0
161 178 0
159 176 0
155 171 0
157 175 0
159 175 0
156 173 0
157 175 0
156 172 0
156 173 0
158 173 0
155 172 0
156 171 0
156 173 0
153 170 0
153 168 0
157 172 0
156 172 0
152 168 0
152 168 0
157 172 0
154 170 0
154 169 0
151 166 0
150 165 0
154 169 0
156 172 0
153 168 0
150 165 0
151 166 0
155 170 0
145 160 0
153 169 0
149 162 0
148 161 0
147 162 0
148 162 0
147 162 0
149 164 0
145 159 0
143 156 0
145 158 0
146 161 0
149 164 0
147 162 0
148 163 0
147 162 0
151 166 0
144 160 0
144 158 0
145 158 0
144 160 0
143 158 0
144 159 0
144 159 0
147 163 0
150 166 0
147 161 0
147 162 0
143 158 0
145 160 0
144 159 0
147 161 0
146 161 0
145 161 0
146 161 0
145 162 0
147 162 0
148 163 0
142 157 0
147 163 0
147 162 0
141 156 0
142 157 0
142 157 0
137 152 0
144 159 0
146 160 0
145 161 0
145 160 0
144 159 0
143 159 0
145 161 0
148 164 0
147 161 0
148 166 0
145 162 0
140 155 0
139 155 0
141 157 0
142 156 0
140 155 0
139 155 0
145 163 0
141 157 0
146 163 0
141 158 0
146 163 0
148 164 0
144 160 0
148 166 0
137 151 0
148 165 0
145 161 0
138 155 0
144 162 0
139 157 0
146 163 0
145 163 0
142 158 0
137 153 0
140 158 0
149 165 0
143 160 0
143 159 0
145 161 0
143 160 0
145 161 0
145 162 0
142 159 0
143 159 0
138 154 0
146 163 0
142 159 0
143 160 0
144 161 0
144 159 0
143 160 0
140 156 0
140 156 0
139 156 0
143 161 0
146 164 0
140 156 0
144 163 0
138 156 0
140 158 0
140 158 0
144 163 0
144 163 0
147 165 0
142 160 0
148 168 0
136 152 0
147 164 0
146 164 0
142 160 0
145 165 0
139 156 0
140 157 0
141 160 0
143 160 0
142 160 0
141 160 0
144 162 0
147 165 0
142 161 0
142 160 0
133 149 0
143 162 0
133 149 0
141 160 0
137 153 0
136 153 0
138 157 0
136 153 0
141 158 0
137 155 0
144 161 0
141 156 0
137 153 0
138 156 0
142 159 0
136 154 0
141 159 0
141 158 0
139 158 0
131 148 0
139 159 0
132 148 0
139 158 0
135 151 0
139 157 0
135 153 0
140 158 0
136 154 0
140 158 0
144 161 0
141 160 0
139 156 0
137 153 0
134 153 0
131 149 0
139 155 0
132 150 0
141 156 0
129 146 0
139 156 0
133 150 0
144 161 0
140 157 0
137 153 0
133 150 0
143 160 0
140 159 0
137 153 0
131 148 0
133 149 0
141 157 0
142 159 0
135 150 0
142 158 0
140 156 0
134 149 0
139 155 0
138 153 0
136 153 0
136 153 0
138 156 0
137 153 0
137 153 0
130 145 0
137 152 0
130 146 0
136 151 0
139 155 0
141 158 0
139 153 0
139 156 0
141 157 0
136 150 0
134 149 0
141 157 0
140 157 0
139 156 0
135 149 0
134 149 0
140 155 0
142 158 0
142 159 0
136 151 0
140 156 0
133 149 0
144 161 0
138 153 0
136 150 0
137 151 0
135 149 0
144 161 0
147 162 0
142 157 0
137 150 0
141 156 0
145 159 0
145 160 0
132 149 0
140 155 0
136 149 0
141 154 0
140 153 0
134 149 0
135 148 0
140 156 0
141 154 0
141 156 0
137 151 0
137 149 0
130 141 0
140 155 0
138 149 0
144 159 0
139 152 0
142 157 0
142 155 0
135 149 0
141 155 0
138 149 0
140 151 0
143 155 0
136 150 0
136 149 0
137 149 0
136 149 0
133 143 0
139 152 0
138 151 0
134 143 0
141 153 0
140 151 0
144 154 0
134 147 0
143 154 0
139 151 0
138 149 0
141 153 0
142 153 0
137 147 0
138 146 0
147 157 0
138 146 0
132 141 0
139 147 0
144 154 0
137 146 0
141 149 0
131 140 0
138 147 0
140 149 0
140 148 0
136 145 0
139 148 0
137 147 0
132 138 0
140 147 0
135 142 0
142 150 0
134 141 0
133 140 0
137 146 0
143 150 0
136 145 0
140 148 0
143 152 0
142 149 0
140 146 0
136 143 0
134 139 0
140 148 0
137 144 0
135 141 0
139 144 0
138 145 0
137 143 0
134 137 0
139 143 0
142 148 0
139 143 0
133 140 0
132 133 0
138 144 0
140 143 0
137 144 0
137 142 0
137 140 0
141 146 0
134 138 0
141 144 0
136 141 0
141 144 0
138 142 0
134 139 0
137 139 0
142 147 0
143 148 0
141 145 0
139 142 0
142 147 0
140 142 0
144 148 0
141 148 0
142 145 0
147 152 0
144 149 0
147 153 0
143 147 0
145 152 0
146 150 0
145 149 0
138 142 0
148 155 0
139 145 0
147 154 0
145 151 0
148 153 0
149 157 0
146 149 0
143 149 0
148 156 0
150 157 0
148 155 0
145 151 0
151 158 0
145 152 0
151 160 0
149 156 0
153 160 0
156 167 0
152 159 0
153 162 0
145 152 0
150 159 0
157 168 0
152 164 0
155 166 0
148 157 0
155 166 0
163 181 0
159 176 0
158 177 0
161 179 0
159 176 0
160 177 0
158 175 0
159 176 0
158 173 0
155 172 0
157 173 0
160 178 0
159 176 0
159 176 0
154 170 0
159 176 0
154 170 0
152 168 0
154 171 0
153 168 0
152 167 0
158 174 0
155 172 0
157 173 0
154 170 0
154 170 0
153 169 0
157 173 0
151 166 0
156 172 0
154 170 0
154 169 0
148 162 0
154 170 0
150 165 0
151 166 0
149 164 0
152 167 0
151 167 0
153 168 0
149 164 0
149 165 0
147 162 0
151 167 0
154 170 0
148 163 0
150 166 0
145 160 0
145 161 0
147 163 0
144 160 0
144 158 0
148 165 0
147 163 0
142 157 0
147 162 0
148 163 0
146 161 0
148 163 0
145 159 0
140 155 0
146 162 0
148 163 0
151 168 0
151 167 0
143 159 0
146 162 0
145 161 0
147 161 0
144 159 0
143 157 0
145 160 0
144 160 0
141 156 0
144 162 0
148 165 0
149 166 0
147 161 0
148 165 0
145 160 0
142 159 0
144 161 0
142 157 0
142 158 0
147 163 0
145 162 0
143 157 0
149 165 0
140 157 0
140 156 0
144 159 0
143 159 0
142 158 0
147 163 0
144 160 0
142 158 0
145 162 0
146 163 0
140 154 0
141 158 0
143 160 0
143 160 0
147 165 0
145 162 0
144 161 0
143 161 0
140 157 0
141 158 0
145 162 0
142 157 0
149 167 0
146 163 0
145 161 0
142 158 0
143 160 0
140 156 0
145 163 0
141 155 0
140 157 0
151 168 0
143 160 0
140 158 0
141 158 0
139 157 0
141 157 0
142 158 0
144 161 0
147 166 0
143 159 0
143 161 0
141 158 0
143 161 0
147 165 0
139 155 0
141 158 0
140 157 0
137 155 0
147 164 0
146 166 0
139 156 0
145 162 0
144 162 0
141 157 0
141 159 0
142 157 0
149 166 0
140 157 0
136 153 0
143 161 0
146 164 0
140 157 0
146 163 0
140 158 0
143 160 0
134 152 0
141 160 0
137 155 0
137 155 0
149 168 0
142 159 0
139 158 0
140 159 0
142 160 0
137 154 0
145 163 0
137 156 0
147 165 0
141 158 0
140 158 0
140 157 0
138 157 0
139 155 0
138 154 0
135 152 0
137 154 0
136 153 0
141 159 0
141 159 0
136 153 0
140 157 0
141 159 0
132 147 0
139 157 0
142 158 0
141 157 0
143 160 0
138 157 0
146 164 0
133 151 0
136 152 0
140 157 0
137 154 0
146 164 0
139 157 0
138 155 0
131 148 0
134 150 0
141 160 0
140 158 0
141 158 0
133 152 0
134 151 0
138 154 0
138 154 0
133 152 0
139 155 0
134 153 0
134 149 0
142 157 0
139 157 0
135 152 0
135 151 0
134 151 0
138 155 0
143 160 0
133 152 0
138 153 0
135 151 0
131 147 0
140 158 0
135 150 0
139 155 0
131 149 0
137 152 0
141 156 0
133 150 0
138 154 0
142 157 0
139 155 0
135 149 0
135 150 0
137 153 0
138 155 0
142 158 0
140 156 0
134 149 0
137 153 0
136 151 0
141 158 0
140 156 0
138 155 0
139 154 0
144 160 0
139 156 0
135 151 0
141 158 0
139 156 0
142 160 0
138 153 0
136 148 0
139 155 0
135 151 0
138 154 0
139 155 0
141 158 0
145 161 0
142 158 0
140 155 0
141 155 0
140 156 0
135 148 0
141 157 0
141 155 0
142 157 0
139 154 0
141 154 0
140 153 0
141 155 0
129 144 0
144 157 0
144 161 0
137 152 0
137 151 0
143 155 0
138 152 0
137 150 0
140 155 0
138 151 0
139 152 0
136 148 0
142 157 0
143 159 0
146 159 0
141 152 0
140 154 0
142 156 0
135 149 0
138 151 0
141 157 0
140 153 0
139 147 0
138 151 0
142 155 0
138 147 0
141 152 0
141 153 0
140 151 0
143 157 0
140 152 0
134 144 0
142 156 0
141 152 0
134 145 0
137 147 0
140 150 0
138 148 0
141 150 0
139 149 0
140 150 0
137 148 0
143 155 0
138 148 0
142 152 0
140 149 0
144 155 0
135 143 0
141 151 0
138 145 0
142 152 0
143 152 0
138 146 0
138 148 0
141 151 0
139 149 0
142 150 0
142 150 0
135 143 0
137 145 0
139 148 0
135 142 0
141 149 0
141 148 0
143 150 0
144 152 0
142 148 0
141 148 0
139 147 0
141 148 0
142 149 0
137 144 0
136 142 0
145 152 0
145 154 0
137 142 0
140 146 0
141 148 0
147 154 0
140 144 0
145 152 0
141 148 0
138 142 0
142 147 0
138 140 0
140 145 0
143 147 0
142 148 0
144 149 0
145 152 0
142 149 0
142 146 0
144 146 0
142 149 0
141 144 0
138 142 0
144 151 0
140 143 0
142 145 0
144 149 0
145 151 0
144 151 0
139 142 0
142 146 0
143 150 0
142 146 0
142 146 0
144 150 0
143 149 0
146 151 0
147 153 0
148 156 0
147 154 0
147 154 0
151 157 0
151 157 0
151 159 0
151 158 0
151 156 0
150 158 0
145 150 0
149 158 0
147 152 0
151 159 0
147 154 0
148 155 0
156 165 0
149 158 0
150 160 0
155 166 0
149 159 0
155 166 0
160 178 0
158 174 0
163 181 0
157 175 0
159 175 0
158 176 0
159 176 0
160 176 0
160 176 0
159 176 0
158 174 0
160 177 0
157 174 0
158 173 0
157 173 0
154 170 0
152 168 0
156 173 0
161 177 0
155 170 0
157 173 0
151 166 0
156 173 0
154 170 0
153 169 0
153 168 0
152 166 0
149 166 0
151 167 0
152 168 0
149 165 0
153 168 0
153 168 0
148 163 0
148 163 0
149 164 0
150 164 0
151 165 0
150 167 0
151 166 0
146 161 0
146 160 0
151 167 0
149 164 0
147 162 0
148 163 0
148 165 0
150 165 0
149 165 0
147 164 0
147 163 0
148 164 0
152 169 0
144 160 0
151 166 0
148 164 0
148 164 0
145 160 0
143 157 0
149 165 0
146 161 0
145 159 0
148 163 0
145 160 0
142 158 0
149 166 0
144 158 0
151 168 0
149 164 0
146 162 0
149 166 0
145 161 0
142 158 0
144 160 0
145 161 0
149 166 0
146 160 0
148 165 0
139 156 0
142 158 0
147 164 0
141 158 0
150 167 0
150 166 0
143 157 0
146 161 0
147 163 0
148 165 0
150 168 0
145 161 0
148 165 0
145 161 0
146 162 0
147 163 0
142 158 0
139 156 0
146 164 0
143 159 0
142 159 0
141 157 0
143 158 0
139 155 0
145 160 0
138 154 0
139 156 0
143 160 0
144 159 0
145 162 0
142 160 0
135 151 0
139 157 0
147 164 0
141 158 0
149 167 0
143 161 0
150 167 0
148 165 0
145 162 0
142 160 0
141 156 0
139 156 0
147 165 0
146 164 0
141 159 0
139 156 0
147 164 0
144 161 0
141 159 0
146 163 0
141 159 0
142 160 0
146 164 0
137 152 0
139 155 0
142 160 0
143 162 0
145 162 0
144 162 0
139 156 0
142 159 0
136 151 0
145 163 0
139 157 0
143 161 0
145 163 0
147 166 0
143 160 0
141 159 0
142 157 0
141 159 0
142 160 0
146 164 0
143 159 0
146 163 0
138 156 0
138 154 0
137 155 0
141 159 0
133 149 0
136 155 0
140 157 0
142 159 0
137 154 0
142 161 0
143 160 0
138 154 0
145 163 0
138 156 0
140 158 0
138 152 0
135 152 0
141 156 0
147 165 0
135 152 0
137 155 0
142 161 0
137 156 0
143 160 0
140 159 0
139 156 0
139 157 0
136 152 0
145 163 0
137 156 0
140 157 0
141 159 0
135 153 0
144 160 0
131 148 0
136 151 0
137 156 0
137 155 0
135 151 0
128 143 0
145 165 0
140 157 0
137 155 0
135 152 0
140 158 0
140 158 0
138 158 0
138 154 0
136 152 0
140 157 0
141 159 0
140 158 0
134 150 0
134 152 0
138 156 0
137 151 0
142 158 0
131 145 0
141 158 0
137 156 0
141 156 0
137 154 0
139 155 0
133 149 0
129 145 0
138 154 0
139 154 0
132 150 0
141 159 0
142 158 0
136 152 0
142 157 0
138 153 0
143 160 0
143 161 0
143 158 0
134 150 0
140 156 0
135 151 0
136 152 0
137 152 0
140 156 0
144 161 0
136 151 0
142 160 0
138 152 0
134 150 0
142 158 0
140 155 0
138 153 0
140 156 0
141 157 0
138 152 0
142 159 0
142 159 0
139 155 0
137 152 0
146 163 0
141 156 0
138 155 0
137 153 0
133 146 0
150 169 0
140 153 0
141 155 0
139 154 0
142 156 0
135 149 0
140 156 0
147 163 0
143 156 0
135 149 0
141 157 0
143 157 0
140 152 0
145 160 0
135 145 0
137 152 0
141 156 0
143 158 0
139 152 0
137 152 0
142 156 0
138 151 0
141 154 0
137 150 0
138 150 0
138 151 0
145 159 0
136 151 0
140 153 0
143 157 0
138 149 0
139 150 0
144 157 0
147 161 0
139 151 0
135 144 0
148 159 0
142 152 0
144 155 0
140 152 0
140 150 0
134 144 0
142 154 0
141 151 0
139 151 0
144 157 0
138 147 0
135 145 0
142 155 0
141 153 0
138 147 0
146 157 0
146 156 0
138 148 0
146 157 0
139 150 0
145 155 0
137 146 0
141 151 0
138 146 0
140 151 0
144 154 0
145 156 0
142 150 0
143 152 0
138 144 0
141 149 0
136 146 0
139 148 0
135 143 0
141 150 0
140 148 0
138 149 0
146 154 0
143 149 0
134 141 0
141 148 0
137 142 0
136 143 0
131 138 0
142 149 0
145 151 0
140 147 0
145 152 0
140 144 0
142 149 0
140 147 0
142 148 0
135 142 0
142 148 0
145 151 0
140 146 0
139 145 0
141 147 0
145 152 0
145 152 0
140 146 0
145 151 0
138 142 0
149 154 0
147 153 0
142 146 0
141 146 0
146 153 0
141 146 0
146 152 0
146 152 0
146 149 0
144 149 0
137 140 0
140 145 0
150 156 0
143 149 0
145 152 0
139 143 0
146 153 0
146 153 0
143 148 0
147 152 0
142 148 0
145 149 0
148 153 0
146 153 0
151 158 0
149 156 0
149 156 0
148 156 0
144 150 0
150 157 0
144 151 0
144 152 0
148 154 0
155 163 0
151 159 0
152 160 0
148 157 0
151 162 0
154 163 0
159 169 0
152 160 0
147 156 0
155 165 0
153 163 0
152 162 0
162 181 0
161 178 0
159 176 0
157 174 0
159 176 0
157 174 0
162 179 0
155 173 0
155 173 0
155 172 0
158 176 0
157 174 0
154 170 0
157 175 0
159 175 0
153 169 0
156 173 0
153 169 0
156 173 0
153 169 0
156 173 0
153 169 0
152 169 0
153 169 0
155 171 0
151 167 0
157 174 0
152 168 0
156 172 0
152 169 0
152 168 0
148 163 0
151 168 0
148 163 0
151 166 0
150 166 0
148 163 0
147 163 0
153 168 0
150 164 0
145 159 0
149 165 0
150 166 0
153 168 0
147 162 0
149 166 0
151 166 0
150 166 0
149 164 0
149 164 0
148 164 0
147 162 0
149 164 0
145 161 0
149 164 0
147 164 0
149 164 0
147 163 0
145 162 0
148 163 0
148 163 0
146 162 0
146 162 0
145 161 0
144 159 0
150 165 0
150 165 0
147 162 0
145 160 0
145 160 0
150 168 0
147 163 0
148 165 0
142 158 0
148 165 0
148 164 0
150 166 0
145 161 0
148 163 0
148 165 0
139 155 0
146 163 0
153 169 0
146 163 0
142 158 0
145 162 0
140 156 0
140 157 0
142 157 0
149 167 0
145 163 0
143 161 0
143 160 0
149 167 0
147 165 0
144 161 0
151 167 0
144 160 0
146 163 0
147 163 0
149 165 0
144 158 0
147 163 0
139 156 0
144 162 0
144 163 0
145 164 0
142 159 0
144 161 0
150 168 0
147 165 0
142 158 0
145 161 0
142 159 0
145 162 0
140 156 0
142 160 0
148 166 0
148 165 0
141 159 0
143 160 0
141 160 0
148 166 0
148 165 0
144 162 0
142 161 0
148 165 0
147 165 0
145 163 0
147 166 0
141 159 0
147 165 0
147 164 0
141 159 0
142 160 0
141 159 0
148 166 0
145 162 0
146 163 0
147 164 0
147 165 0
143 161 0
140 157 0
143 160 0
143 160 0
143 160 0
136 155 0
139 157 0
142 159 0
141 159 0
143 162 0
141 158 0
148 165 0
139 156 0
140 158 0
144 161 0
141 159 0
138 157 0
142 160 0
145 163 0
137 152 0
138 155 0
134 150 0
143 163 0
139 155 0
138 156 0
136 155 0
137 155 0
134 153 0
136 155 0
143 160 0
143 160 0
140 158 0
145 164 0
139 158 0
141 157 0
140 157 0
145 164 0
139 156 0
137 154 0
141 158 0
142 158 0
140 159 0
140 156 0
137 153 0
143 158 0
140 159 0
145 162 0
141 160 0
137 154 0
137 154 0
140 157 0
139 156 0
143 160 0
141 158 0
145 163 0
133 150 0
133 151 0
137 155 0
145 163 0
139 157 0
132 150 0
140 157 0
138 155 0
147 164 0
136 152 0
143 160 0
138 157 0
142 161 0
140 158 0
136 154 0
138 156 0
141 157 0
141 157 0
138 157 0
142 157 0
136 152 0
137 156 0
136 153 0
133 148 0
137 151 0
142 158 0
140 155 0
138 156 0
133 146 0
139 155 0
140 157 0
138 153 0
143 159 0
136 152 0
133 149 0
142 159 0
138 154 0
142 157 0
143 160 0
143 159 0
136 153 0
140 155 0
133 148 0
136 151 0
136 151 0
141 155 0
142 157 0
139 155 0
137 151 0
134 149 0
144 160 0
142 157 0
142 159 0
140 154 0
143 158 0
135 151 0
144 158 0
140 155 0
136 151 0
142 159 0
140 155 0
134 148 0
142 160 0
144 161 0
142 156 0
138 150 0
139 153 0
147 164 0
143 158 0
134 151 0
145 161 0
139 154 0
140 154 0
144 157 0
139 153 0
136 150 0
141 154 0
144 159 0
138 151 0
144 157 0
146 162 0
139 155 0
141 155 0
140 155 0
143 156 0
142 157 0
136 146 0
134 148 0
148 162 0
143 155 0
139 153 0
139 152 0
144 158 0
140 153 0
139 154 0
146 158 0
148 161 0
144 154 0
140 154 0
138 152 0
141 154 0
146 160 0
141 153 0
139 149 0
138 151 0
146 159 0
141 150 0
144 156 0
138 148 0
139 149 0
143 153 0
145 157 0
138 149 0
140 152 0
143 156 0
145 156 0
143 153 0
141 151 0
143 152 0
135 145 0
141 150 0
138 148 0
139 149 0
143 153 0
142 154 0
141 148 0
144 154 0
145 157 0
145 155 0
139 148 0
138 148 0
141 149 0
140 148 0
141 151 0
146 155 0
139 148 0
139 147 0
143 153 0
144 151 0
142 152 0
142 151 0
144 153 0
139 147 0
141 150 0
141 148 0
139 145 0
146 154 0
143 150 0
146 154 0
141 146 0
143 151 0
147 155 0
142 150 0
140 147 0
146 154 0
137 143 0
145 153 0
147 155 0
140 145 0
138 143 0
142 147 0
141 147 0
143 148 0
141 146 0
142 147 0
140 142 0
142 147 0
148 155 0
139 145 0
143 149 0
142 146 0
144 150 0
142 149 0
142 148 0
144 150 0
142 146 0
145 151 0
146 151 0
146 154 0
141 146 0
145 152 0
148 154 0
150 158 0
143 148 0
149 156 0
149 155 0
148 152 0
146 150 0
149 158 0
150 158 0
153 159 0
156 164 0
147 155 0
152 161 0
150 159 0
151 160 0
148 155 0
149 156 0
157 164 0
155 165 0
155 165 0
155 165 0
150 158 0
157 167 0
160 178 0
158 176 0
163 180 0
160 179 0
158 175 0
162 180 0
159 177 0
159 176 0
158 174 0
153 170 0
160 176 0
158 175 0
158 174 0
158 174 0
158 176 0
158 174 0
155 171 0
156 174 0
155 171 0
154 170 0
155 170 0
158 174 0
159 175 0
154 171 0
154 171 0
153 167 0
154 171 0
159 177 0
150 164 0
150 166 0
152 168 0
152 169 0
149 164 0
149 163 0
151 166 0
152 168 0
155 171 0
152 168 0
148 164 0
151 167 0
151 167 0
150 167 0
151 166 0
150 166 0
149 164 0
148 165 0
153 169 0
154 171 0
151 168 0
153 168 0
147 161 0
146 161 0
146 160 0
146 161 0
150 166 0
151 166 0
145 159 0
146 163 0
144 159 0
148 164 0
148 163 0
149 165 0
148 164 0
146 162 0
149 167 0
145 160 0
147 161 0
151 166 0
152 168 0
144 159 0
146 163 0
147 163 0
152 169 0
142 157 0
153 170 0
144 159 0
142 159 0
146 161 0
150 167 0
149 164 0
153 170 0
149 166 0
147 164 0
142 158 0
146 163 0
147 164 0
144 161 0
149 165 0
144 161 0
147 163 0
147 165 0
141 158 0
145 161 0
149 166 0
139 156 0
143 162 0
147 164 0
148 165 0
144 159 0
142 160 0
142 159 0
140 157 0
145 165 0
152 171 0
148 164 0
147 164 0
145 163 0
145 163 0
149 167 0
138 155 0
148 165 0
145 161 0
152 171 0
147 165 0
146 164 0
140 158 0
148 165 0
140 158 0
145 165 0
144 162 0
145 165 0
144 162 0
145 163 0
144 163 0
144 160 0
146 164 0
144 161 0
145 161 0
144 162 0
145 162 0
142 159 0
143 162 0
145 163 0
142 161 0
140 155 0
139 157 0
146 165 0
142 161 0
142 160 0
147 167 0
145 162 0
150 168 0
144 161 0
144 163 0
139 157 0
136 154 0
141 160 0
145 161 0
133 151 0
142 160 0
138 157 0
144 161 0
139 156 0
145 163 0
140 158 0
142 161 0
146 165 0
145 160 0
143 161 0
140 157 0
141 159 0
143 162 0
142 160 0
140 157 0
144 160 0
142 160 0
142 159 0
143 160 0
140 157 0
143 161 0
140 158 0
141 160 0
143 160 0
137 154 0
144 162 0
141 156 0
139 159 0
141 159 0
139 156 0
142 158 0
141 159 0
132 150 0
135 152 0
140 157 0
141 158 0
135 152 0
135 152 0
132 150 0
144 161 0
141 158 0
140 156 0
144 162 0
145 163 0
146 164 0
137 154 0
132 149 0
137 153 0
141 158 0
143 160 0
134 150 0
141 158 0
133 152 0
140 156 0
136 152 0
142 160 0
138 155 0
141 158 0
139 156 0
141 158 0
145 162 0
135 152 0
143 161 0
142 158 0
130 146 0
141 157 0
140 157 0
134 150 0
138 154 0
138 155 0
145 162 0
138 154 0
142 161 0
141 158 0
141 158 0
146 164 0
141 159 0
143 158 0
138 153 0
139 155 0
136 152 0
141 158 0
142 159 0
141 158 0
142 156 0
140 156 0
134 150 0
136 152 0
141 155 0
145 161 0
141 157 0
140 155 0
137 153 0
140 156 0
142 159 0
135 150 0
137 153 0
140 155 0
141 156 0
134 151 0
142 158 0
142 160 0
147 164 0
144 161 0
136 152 0
142 158 0
142 158 0
139 156 0
143 158 0
143 157 0
143 159 0
141 157 0
144 160 0
139 155 0
147 163 0
142 156 0
138 155 0
143 156 0
147 162 0
138 153 0
142 157 0
144 158 0
135 149 0
140 156 0
146 161 0
135 150 0
137 151 0
138 153 0
141 157 0
139 152 0
138 152 0
153 171 0
145 161 0
145 158 0
141 155 0
141 155 0
147 161 0
146 161 0
139 151 0
143 158 0
143 155 0
143 156 0
140 151 0
132 143 0
136 148 0
147 161 0
141 153 0
134 144 0
139 151 0
143 153 0
147 159 0
138 150 0
147 159 0
148 161 0
148 162 0
142 152 0
143 154 0
141 151 0
140 151 0
144 155 0
145 155 0
145 155 0
140 150 0
151 163 0
134 144 0
134 145 0
142 153 0
141 152 0
145 153 0
139 150 0
142 150 0
144 154 0
146 156 0
142 152 0
146 156 0
134 142 0
142 152 0
144 151 0
144 152 0
141 150 0
145 154 0
140 148 0
138 145 0
143 152 0
142 151 0
146 155 0
139 147 0
145 153 0
144 153 0
145 151 0
145 154 0
144 151 0
141 149 0
141 149 0
141 148 0
143 150 0
146 155 0
142 148 0
146 154 0
150 159 0
135 141 0
139 144 0
140 147 0
145 153 0
144 148 0
145 152 0
142 150 0
147 156 0
146 152 0
146 154 0
149 157 0
143 150 0
141 148 0
148 155 0
148 157 0
143 148 0
145 151 0
142 146 0
146 152 0
141 145 0
144 151 0
144 148 0
146 152 0
144 152 0
151 160 0
146 150 0
142 148 0
147 151 0
147 154 0
146 151 0
146 150 0
142 148 0
153 162 0
149 158 0
155 161 0
148 156 0
149 157 0
150 159 0
148 154 0
154 162 0
152 159 0
150 158 0
153 163 0
156 165 0
151 159 0
156 167 0
148 157 0
154 164 0
153 163 0
149 158 0
155 165 0
163 181 0
158 176 0
157 174 0
158 174 0
158 175 0
159 177 0
157 174 0
159 177 0
160 178 0
156 174 0
157 174 0
159 175 0
153 170 0
158 174 0
159 176 0
154 170 0
158 175 0
155 171 0
156 172 0
155 171 0
156 172 0
159 175 0
156 171 0
151 167 0
152 168 0
155 170 0
152 167 0
152 167 0
153 171 0
150 165 0
152 169 0
149 165 0
152 168 0
148 163 0
153 170 0
150 166 0
150 165 0
147 163 0
154 170 0
151 167 0
154 170 0
152 167 0
151 167 0
153 170 0
152 168 0
150 166 0
147 163 0
151 167 0
148 163 0
151 168 0
149 166 0
147 162 0
151 166 0
150 166 0
150 166 0
148 164 0
144 160 0
149 163 0
146 160 0
146 162 0
145 161 0
146 162 0
145 159 0
146 160 0
149 167 0
154 170 0
148 165 0
143 159 0
147 164 0
144 159 0
148 163 0
147 164 0
151 167 0
145 161 0
143 159 0
141 156 0
145 162 0
146 163 0
145 161 0
147 164 0
145 164 0
146 162 0
146 164 0
144 162 0
148 166 0
147 163 0
147 162 0
147 165 0
147 164 0
148 167 0
149 166 0
150 166 0
147 163 0
149 166 0
146 164 0
147 165 0
147 165 0
145 161 0
146 165 0
149 167 0
142 160 0
142 159 0
140 155 0
150 168 0
147 165 0
146 163 0
146 163 0
142 160 0
146 162 0
148 166 0
144 161 0
144 161 0
151 168 0
147 165 0
141 158 0
148 166 0
144 161 0
146 163 0
144 163 0
145 162 0
145 163 0
143 159 0
146 164 0
146 164 0
151 171 0
150 168 0
139 155 0
140 156 0
141 157 0
145 165 0
148 165 0
137 152 0
141 158 0
140 158 0
152 171 0
143 161 0
143 161 0
139 157 0
146 163 0
138 156 0
150 168 0
147 164 0
146 161 0
143 162 0
145 162 0
141 161 0
150 169 0
147 166 0
143 163 0
144 164 0
143 159 0
137 155 0
145 163 0
138 156 0
138 156 0
142 160 0
148 165 0
141 160 0
141 161 0
148 166 0
142 161 0
137 154 0
145 163 0
140 159 0
143 160 0
144 160 0
139 155 0
135 153 0
144 162 0
143 159 0
141 158 0
143 160 0
137 155 0
141 159 0
138 154 0
138 155 0
137 154 0
140 157 0
135 152 0
150 169 0
144 162 0
142 160 0
140 158 0
142 159 0
142 157 0
146 163 0
142 159 0
143 161 0
135 152 0
139 157 0
144 161 0
140 157 0
141 159 0
135 153 0
137 154 0
137 155 0
140 159 0
139 158 0
138 154 0
141 158 0
137 155 0
140 159 0
146 162 0
144 162 0
143 162 0
145 162 0
137 156 0
143 163 0
146 163 0
141 158 0
138 157 0
142 160 0
143 159 0
137 153 0
139 156 0
137 155 0
140 156 0
141 159 0
137 154 0
140 155 0
142 158 0
140 158 0
142 157 0
141 158 0
143 159 0
134 151 0
133 149 0
135 151 0
142 159 0
135 153 0
137 153 0
139 154 0
133 149 0
140 153 0
140 156 0
138 155 0
140 155 0
149 167 0
141 158 0
138 155 0
138 154 0
143 158 0
141 159 0
146 163 0
138 154 0
134 150 0
142 157 0
146 160 0
134 150 0
139 154 0
141 156 0
143 158 0
134 149 0
145 162 0
139 155 0
139 153 0
142 157 0
148 165 0
147 165 0
144 158 0
144 162 0
146 161 0
145 159 0
144 159 0
140 153 0
142 157 0
139 154 0
149 164 0
146 159 0
141 156 0
145 160 0
141 155 0
140 157 0
138 152 0
145 157 0
140 153 0
143 158 0
146 161 0
141 153 0
144 159 0
142 157 0
140 156 0
146 159 0
137 150 0
142 158 0
137 149 0
140 154 0
137 151 0
142 156 0
137 151 0
142 156 0
145 159 0
143 156 0
143 156 0
143 155 0
140 152 0
139 150 0
140 154 0
138 149 0
143 154 0
135 146 0
137 149 0
150 161 0
143 155 0
143 154 0
146 159 0
135 147 0
143 155 0
146 156 0
141 151 0
131 142 0
137 148 0
136 145 0
139 151 0
147 159 0
141 151 0
142 153 0
140 151 0
138 147 0
145 156 0
140 151 0
142 152 0
144 154 0
144 153 0
141 149 0
144 156 0
145 156 0
140 148 0
143 153 0
146 155 0
143 153 0
143 149 0
144 152 0
144 154 0
147 157 0
142 149 0
139 145 0
142 152 0
140 146 0
142 150 0
146 156 0
143 153 0
144 153 0
145 152 0
138 146 0
139 148 0
144 152 0
146 154 0
140 146 0
145 153 0
145 152 0
141 147 0
146 155 0
142 151 0
148 155 0
145 152 0
146 152 0
135 141 0
146 152 0
145 152 0
143 149 0
142 150 0
141 145 0
147 152 0
149 157 0
147 155 0
149 157 0
145 153 0
144 151 0
149 157 0
144 150 0
147 156 0
147 153 0
146 152 0
146 153 0
148 157 0
143 149 0
149 157 0
150 158 0
148 155 0
145 150 0
144 151 0
155 165 0
148 156 0
148 155 0
153 160 0
140 149 0
152 160 0
153 163 0
151 159 0
155 162 0
153 162 0
154 163 0
150 160 0
152 160 0
152 161 0
150 158 0
147 154 0
151 159 0
157 167 0
165 184 0
161 179 0
158 175 0
158 176 0
159 177 0
160 178 0
158 176 0
158 175 0
161 178 0
162 179 0
159 176 0
158 174 0
157 174 0
156 173 0
154 171 0
157 174 0
159 176 0
156 172 0
158 174 0
153 169 0
154 171 0
154 170 0
155 171 0
159 176 0
152 168 0
156 173 0
151 167 0
149 166 0
155 172 0
150 165 0
148 164 0
154 170 0
155 170 0
153 169 0
152 169 0
150 166 0
152 168 0
156 173 0
154 172 0
152 168 0
150 165 0
151 167 0
152 167 0
151 167 0
148 163 0
154 171 0
151 167 0
144 158 0
147 163 0
143 158 0
147 163 0
146 161 0
150 168 0
144 161 0
149 166 0
150 168 0
150 167 0
150 166 0
146 162 0
149 165 0
151 166 0
150 167 0
151 168 0
147 164 0
150 168 0
147 163 0
152 167 0
146 162 0
145 161 0
148 163 0
150 165 0
147 164 0
150 167 0
147 162 0
147 163 0
144 161 0
152 170 0
147 163 0
148 164 0
147 162 0
146 163 0
146 163 0
149 165 0
148 164 0
149 168 0
141 156 0
149 166 0
149 166 0
146 161 0
147 163 0
150 165 0
144 161 0
145 162 0
144 160 0
148 165 0
144 160 0
145 162 0
146 163 0
146 162 0
146 164 0
149 167 0
143 161 0
144 160 0
144 163 0
147 164 0
149 168 0
145 163 0
144 161 0
149 167 0
145 164 0
150 166 0
143 160 0
142 159 0
149 166 0
149 168 0
144 162 0
146 162 0
143 160 0
150 167 0
147 166 0
146 163 0
144 163 0
142 159 0
145 164 0
143 161 0
146 165 0
146 161 0
141 160 0
142 159 0
151 170 0
146 164 0
146 164 0
143 161 0
145 162 0
145 163 0
144 162 0
142 159 0
141 158 0
148 165 0
139 157 0
142 160 0
141 159 0
144 161 0
149 167 0
141 159 0
142 161 0
138 156 0
142 161 0
146 164 0
144 164 0
142 160 0
145 163 0
140 158 0
149 167 0
142 159 0
143 161 0
147 164 0
148 166 0
141 158 0
146 164 0
145 162 0
143 159 0
140 156 0
145 162 0
143 160 0
140 158 0
138 156 0
141 159 0
144 161 0
142 157 0
144 162 0
145 163 0
135 152 0
142 160 0
152 171 0
144 162 0
148 167 0
141 159 0
141 159 0
142 158 0
139 156 0
139 158 0
143 161 0
146 163 0
135 151 0
141 160 0
143 159 0
138 156 0
137 154 0
141 160 0
142 162 0
144 162 0
146 164 0
143 161 0
145 163 0
141 159 0
140 157 0
141 158 0
145 162 0
142 160 0
138 156 0
137 153 0
138 155 0
141 157 0
142 158 0
140 157 0
136 154 0
140 158 0
138 154 0
139 155 0
140 156 0
141 157 0
143 161 0
146 165 0
144 162 0
145 163 0
140 157 0
139 155 0
143 160 0
136 153 0
138 155 0
141 157 0
137 155 0
140 157 0
145 161 0
144 160 0
133 150 0
139 157 0
136 154 0
142 158 0
143 160 0
141 159 0
142 159 0
136 154 0
139 157 0
146 164 0
149 166 0
145 163 0
132 147 0
140 157 0
140 155 0
138 154 0
142 160 0
139 155 0
144 160 0
143 159 0
142 156 0
142 157 0
135 151 0
146 163 0
144 160 0
145 160 0
136 151 0
140 154 0
141 158 0
135 148 0
142 157 0
140 156 0
138 154 0
144 158 0
141 156 0
143 160 0
148 165 0
139 155 0
146 163 0
145 161 0
141 156 0
143 159 0
140 154 0
140 156 0
141 159 0
143 160 0
142 157 0
142 160 0
146 160 0
142 156 0
136 149 0
144 160 0
143 157 0
140 156 0
149 163 0
148 163 0
145 160 0
135 149 0
143 158 0
147 162 0
147 161 0
141 154 0
140 153 0
147 161 0
146 161 0
146 157 0
141 153 0
147 161 0
137 149 0
138 151 0
143 156 0
138 151 0
142 155 0
141 155 0
142 155 0
145 158 0
142 154 0
141 151 0
146 158 0
138 148 0
143 154 0
140 150 0
142 152 0
145 157 0
144 154 0
149 160 0
141 152 0
151 162 0
143 155 0
136 146 0
141 152 0
143 154 0
144 156 0
141 150 0
141 152 0
146 155 0
144 155 0
137 146 0
142 152 0
142 151 0
147 159 0
140 150 0
145 153 0
142 151 0
141 151 0
144 154 0
140 147 0
143 152 0
146 155 0
144 152 0
145 153 0
139 147 0
141 149 0
146 156 0
144 153 0
148 156 0
145 152 0
146 154 0
143 152 0
150 159 0
146 157 0
144 153 0
144 151 0
148 156 0
143 150 0
147 156 0
150 158 0
147 155 0
143 152 0
141 147 0
145 154 0
139 143 0
142 149 0
143 151 0
148 156 0
147 154 0
147 152 0
141 148 0
150 158 0
143 149 0
148 154 0
148 157 0
142 150 0
142 148 0
142 148 0
145 150 0
141 148 0
152 159 0
151 159 0
146 154 0
150 159 0
145 151 0
149 157 0
145 152 0
150 160 0
148 157 0
153 162 0
149 158 0
151 162 0
151 159 0
151 159 0
148 155 0
145 151 0
154 164 0
149 158 0
152 159 0
149 158 0
150 160 0
151 160 0
155 165 0
152 160 0
154 165 0
154 163 0
152 161 0
161 178 0
160 177 0
160 177 0
157 173 0
159 176 0
160 178 0
157 175 0
155 171 0
157 173 0
155 173 0
162 178 0
155 170 0
157 173 0
158 174 0
155 171 0
153 171 0
157 174 0
151 167 0
157 174 0
158 175 0
156 171 0
159 178 0
153 169 0
155 172 0
153 169 0
155 171 0
154 171 0
153 170 0
152 168 0
152 167 0
154 170 0
154 171 0
150 167 0
157 174 0
154 170 0
154 171 0
150 166 0
148 163 0
149 164 0
152 168 0
151 169 0
149 165 0
154 170 0
146 160 0
148 165 0
147 162 0
154 170 0
150 166 0
152 167 0
150 166 0
151 169 0
150 167 0
147 163 0
153 169 0
151 168 0
149 165 0
148 163 0
150 166 0
146 163 0
147 163 0
145 161 0
145 161 0
144 161 0
142 158 0
144 159 0
149 166 0
145 163 0
148 163 0
150 167 0
145 162 0
143 160 0
148 164 0
152 168 0
149 166 0
151 167 0
148 163 0
145 162 0
153 171 0
147 165 0
149 166 0
145 162 0
147 163 0
146 163 0
148 165 0
146 162 0
144 161 0
144 162 0
147 164 0
149 166 0
143 160 0
146 164 0
143 159 0
147 163 0
151 169 0
149 167 0
148 165 0
146 163 0
143 161 0
154 170 0
144 160 0
150 168 0
143 161 0
144 160 0
141 156 0
147 163 0
149 166 0
150 169 0
145 163 0
149 168 0
149 167 0
146 164 0
150 167 0
149 168 0
138 155 0
141 158 0
150 168 0
138 155 0
140 156 0
145 162 0
140 158 0
152 171 0
145 162 0
140 157 0
147 164 0
148 167 0
138 153 0
151 169 0
139 157 0
142 161 0
150 168 0
147 166 0
146 163 0
142 159 0
145 163 0
149 167 0
146 165 0
144 164 0
143 161 0
147 168 0
145 163 0
141 158 0
152 172 0
137 154 0
141 158 0
145 164 0
147 165 0
143 160 0
141 159 0
148 165 0
138 157 0
141 160 0
143 159 0
146 164 0
143 162 0
140 157 0
141 160 0
149 168 0
146 164 0
146 164 0
140 157 0
145 163 0
146 165 0
141 158 0
142 159 0
146 165 0
140 157 0
136 154 0
145 162 0
141 159 0
141 159 0
140 157 0
136 153 0
143 162 0
146 164 0
139 156 0
143 161 0
145 164 0
146 164 0
136 153 0
141 158 0
141 159 0
141 159 0
151 168 0
143 162 0
144 161 0
140 156 0
138 157 0
132 148 0
138 155 0
142 158 0
141 158 0
146 163 0
139 156 0
145 163 0
136 153 0
144 162 0
141 157 0
139 156 0
139 155 0
142 160 0
139 155 0
142 161 0
139 157 0
148 166 0
138 154 0
137 154 0
142 160 0
139 157 0
141 159 0
146 163 0
139 159 0
142 160 0
134 151 0
145 163 0
137 154 0
136 153 0
136 152 0
145 163 0
144 162 0
143 162 0
139 156 0
140 158 0
137 155 0
147 164 0
137 154 0
144 161 0
145 165 0
145 160 0
144 161 0
139 157 0
141 158 0
145 161 0
139 156 0
136 153 0
141 159 0
141 158 0
139 156 0
144 161 0
138 154 0
140 156 0
146 162 0
144 160 0
134 149 0
149 166 0
140 156 0
140 156 0
144 160 0
143 160 0
143 158 0
140 157 0
142 159 0
141 159 0
146 162 0
139 154 0
144 160 0
139 154 0
141 155 0
138 154 0
138 153 0
149 166 0
146 162 0
142 159 0
145 161 0
143 158 0
144 158 0
143 158 0
139 155 0
142 157 0
143 157 0
150 167 0
150 166 0
142 158 0
141 156 0
139 153 0
142 156 0
146 161 0
136 149 0
138 154 0
141 153 0
140 157 0
146 161 0
142 156 0
141 155 0
142 156 0
148 161 0
144 160 0
142 156 0
151 165 0
145 157 0
143 159 0
146 161 0
145 161 0
145 159 0
142 156 0
142 157 0
141 153 0
147 161 0
143 155 0
144 155 0
146 159 0
136 147 0
144 156 0
144 154 0
148 161 0
144 155 0
138 152 0
136 146 0
148 162 0
137 149 0
141 153 0
141 153 0
140 149 0
142 154 0
147 161 0
136 148 0
145 157 0
145 155 0
139 148 0
147 158 0
147 159 0
143 154 0
142 152 0
137 143 0
144 152 0
144 154 0
144 155 0
143 153 0
143 154 0
138 147 0
142 151 0
136 145 0
142 152 0
147 157 0
147 156 0
144 154 0
142 152 0
135 145 0
146 154 0
138 145 0
146 155 0
141 149 0
146 155 0
146 156 0
144 154 0
141 149 0
142 150 0
146 155 0
143 153 0
145 155 0
145 153 0
142 151 0
146 156 0
142 151 0
142 150 0
141 151 0
141 147 0
146 153 0
151 159 0
146 157 0
144 153 0
143 151 0
143 150 0
146 153 0
149 157 0
145 152 0
149 157 0
145 151 0
146 153 0
145 154 0
146 153 0
140 145 0
145 153 0
147 155 0
144 149 0
149 157 0
147 155 0
146 151 0
146 152 0
150 157 0
145 154 0
149 158 0
147 154 0
148 155 0
142 150 0
154 162 0
150 157 0
149 158 0
149 156 0
145 153 0
150 158 0
154 163 0
154 163 0
154 161 0
152 161 0
151 161 0
148 156 0
153 162 0
155 164 0
147 155 0
152 159 0
161 179 0
157 174 0
160 179 0
159 176 0
157 175 0
161 178 0
159 176 0
157 174 0
157 175 0
158 175 0
157 174 0
157 175 0
157 175 0
159 176 0
154 171 0
160 178 0
153 170 0
156 173 0
152 170 0
158 175 0
156 173 0
153 170 0
154 170 0
153 169 0
157 173 0
155 172 0
155 171 0
150 168 0
155 172 0
153 169 0
156 173 0
158 177 0
156 171 0
156 173 0
150 165 0
150 166 0
157 175 0
150 166 0
148 165 0
150 166 0
152 169 0
150 166 0
153 171 0
156 173 0
151 168 0
154 171 0
149 165 0
152 169 0
153 170 0
146 162 0
148 164 0
149 165 0
150 166 0
152 169 0
152 168 0
150 165 0
149 168 0
149 166 0
148 164 0
152 169 0
147 164 0
149 166 0
146 162 0
146 163 0
145 162 0
151 168 0
152 169 0
153 171 0
146 163 0
146 163 0
149 165 0
140 156 0
146 161 0
144 161 0
150 168 0
149 165 0
145 160 0
146 163 0
142 158 0
150 168 0
148 164 0
153 170 0
143 161 0
146 164 0
147 163 0
152 170 0
145 162 0
150 167 0
148 163 0
152 170 0
150 168 0
148 166 0
146 163 0
141 156 0
146 163 0
144 161 0
143 160 0
140 158 0
144 161 0
145 163 0
145 164 0
147 164 0
149 168 0
139 156 0
145 163 0
149 166 0
150 168 0
149 166 0
148 166 0
148 165 0
146 163 0
144 163 0
141 159 0
150 169 0
142 160 0
151 171 0
146 164 0
148 167 0
145 163 0
144 161 0
147 164 0
146 165 0
148 167 0
150 168 0
142 159 0
144 162 0
152 170 0
151 169 0
146 166 0
135 152 0
145 162 0
145 163 0
143 161 0
141 160 0
143 161 0
149 167 0
146 164 0
143 160 0
143 159 0
145 164 0
148 167 0
144 163 0
136 153 0
143 160 0
148 167 0
144 161 0
151 171 0
149 166 0
145 163 0
148 166 0
140 158 0
144 162 0
142 161 0
143 160 0
138 154 0
144 161 0
147 165 0
139 156 0
144 163 0
141 159 0
142 161 0
141 159 0
146 165 0
147 166 0
143 161 0
140 158 0
144 163 0
150 169 0
142 161 0
149 168 0
140 157 0
149 167 0
146 164 0
140 158 0
143 161 0
139 156 0
140 158 0
144 162 0
147 164 0
142 161 0
145 164 0
142 158 0
140 157 0
146 164 0
140 158 0
139 157 0
141 160 0
134 152 0
139 156 0
149 166 0
143 159 0
141 157 0
142 161 0
142 162 0
143 160 0
140 156 0
136 154 0
145 163 0
142 161 0
145 162 0
145 162 0
144 161 0
141 158 0
138 153 0
136 151 0
138 155 0
141 158 0
143 161 0
139 155 0
144 161 0
143 160 0
139 155 0
142 159 0
147 167 0
138 156 0
142 159 0
140 155 0
145 164 0
139 154 0
142 159 0
147 163 0
152 171 0
144 162 0
144 160 0
142 158 0
144 162 0
145 163 0
144 163 0
143 159 0
140 156 0
144 162 0
146 164 0
141 157 0
136 154 0
139 154 0
145 163 0
143 161 0
143 160 0
142 158 0
146 162 0
139 155 0
145 158 0
143 162 0
143 161 0
144 159 0
147 164 0
144 160 0
136 152 0
141 156 0
143 159 0
143 160 0
142 160 0
140 157 0
139 156 0
138 153 0
134 148 0
144 160 0
136 152 0
142 156 0
140 157 0
151 167 0
144 159 0
142 156 0
144 160 0
142 158 0
140 156 0
142 157 0
140 155 0
145 160 0
144 160 0
151 165 0
141 156 0
146 162 0
146 160 0
147 162 0
145 161 0
145 160 0
145 161 0
145 159 0
147 162 0
142 154 0
146 162 0
144 158 0
139 155 0
144 159 0
145 159 0
143 156 0
148 162 0
143 157 0
142 157 0
147 161 0
144 158 0
143 155 0
141 154 0
137 150 0
144 157 0
139 151 0
141 152 0
143 157 0
144 157 0
142 156 0
144 157 0
147 161 0
140 152 0
143 157 0
143 155 0
143 156 0
143 155 0
146 159 0
140 154 0
145 157 0
142 153 0
146 157 0
145 157 0
141 152 0
143 154 0
148 159 0
143 154 0
146 156 0
147 160 0
144 156 0
144 154 0
144 157 0
141 152 0
139 149 0
141 151 0
142 153 0
143 152 0
143 152 0
146 155 0
147 158 0
142 152 0
146 157 0
147 157 0
146 156 0
142 151 0
153 163 0
140 147 0
150 159 0
143 152 0
150 161 0
141 150 0
142 151 0
142 151 0
143 151 0
141 147 0
142 152 0
146 155 0
144 154 0
145 153 0
144 152 0
146 154 0
147 156 0
145 156 0
147 158 0
144 153 0
144 152 0
144 152 0
148 153 0
141 149 0
149 158 0
144 152 0
147 155 0
144 151 0
149 158 0
148 156 0
150 159 0
150 158 0
147 157 0
146 154 0
146 149 0
149 159 0
148 157 0
143 150 0
148 155 0
146 154 0
145 153 0
151 162 0
150 156 0
152 162 0
147 154 0
148 156 0
150 160 0
149 157 0
155 163 0
150 157 0
147 154 0
151 161 0
152 161 0
156 164 0
146 154 0
151 161 0
151 161 0
156 165 0
152 161 0
155 165 0
150 159 0
155 164 0
160 171 0
154 165 0
160 178 0
159 176 0
163 180 0
157 176 0
156 172 0
158 175 0
161 179 0
160 176 0
157 174 0
158 173 0
158 175 0
159 177 0
158 175 0
158 175 0
156 173 0
156 172 0
156 173 0
157 173 0
158 174 0
159 177 0
156 174 0
152 170 0
151 167 0
153 168 0
155 172 0
150 166 0
154 169 0
156 173 0
154 170 0
153 170 0
149 165 0
154 170 0
153 169 0
157 174 0
150 165 0
152 169 0
153 170 0
153 170 0
153 169 0
149 167 0
147 164 0
155 172 0
156 173 0
151 166 0
155 171 0
150 168 0
149 165 0
148 163 0
150 166 0
151 167 0
148 164 0
151 168 0
150 166 0
152 168 0
155 171 0
149 166 0
150 167 0
153 170 0
150 167 0
154 171 0
149 166 0
152 169 0
146 162 0
144 160 0
153 170 0
148 162 0
146 161 0
150 166 0
149 165 0
150 165 0
146 163 0
148 165 0
147 164 0
147 164 0
153 170 0
149 165 0
150 168 0
147 164 0
145 162 0
148 165 0
152 169 0
142 159 0
140 156 0
155 172 0
145 163 0
148 166 0
147 164 0
148 164 0
146 164 0
147 163 0
147 165 0
153 169 0
145 162 0
146 164 0
147 165 0
145 162 0
152 171 0
140 155 0
147 165 0
151 169 0
144 162 0
150 167 0
144 160 0
149 167 0
148 165 0
151 169 0
143 159 0
148 165 0
149 168 0
147 165 0
144 163 0
153 171 0
147 164 0
148 165 0
144 162 0
147 165 0
141 158 0
147 165 0
145 163 0
149 168 0
145 162 0
142 161 0
146 165 0
154 171 0
147 166 0
140 159 0
144 160 0
147 165 0
145 161 0
149 167 0
142 160 0
152 170 0
146 163 0
145 164 0
149 166 0
144 163 0
147 167 0
140 157 0
146 164 0
144 163 0
141 160 0
140 160 0
145 163 0
145 163 0
148 165 0
150 169 0
137 156 0
146 164 0
147 165 0
141 159 0
148 168 0
143 162 0
137 155 0
144 161 0
140 155 0
145 164 0
148 166 0
145 163 0
149 170 0
145 163 0
135 153 0
149 166 0
146 166 0
147 167 0
143 160 0
145 161 0
138 154 0
140 156 0
141 155 0
150 168 0
144 163 0
143 161 0
145 162 0
146 165 0
145 163 0
145 161 0
146 165 0
142 158 0
143 160 0
143 160 0
150 168 0
143 161 0
142 160 0
144 162 0
143 161 0
143 161 0
138 156 0
143 159 0
145 163 0
147 165 0
136 154 0
141 159 0
146 165 0
146 163 0
146 163 0
141 159 0
142 160 0
141 158 0
141 159 0
143 162 0
138 152 0
145 163 0
149 168 0
143 161 0
145 164 0
142 158 0
141 157 0
139 156 0
141 158 0
145 163 0
146 162 0
141 159 0
144 161 0
134 152 0
139 156 0
140 156 0
143 160 0
145 164 0
145 162 0
137 153 0
142 158 0
139 155 0
141 158 0
144 162 0
145 160 0
141 158 0
145 158 0
141 156 0
143 160 0
144 162 0
142 160 0
142 159 0
146 162 0
153 171 0
139 156 0
142 160 0
148 166 0
144 158 0
146 162 0
144 160 0
142 159 0
148 166 0
143 159 0
146 161 0
149 164 0
142 157 0
147 162 0
141 155 0
143 158 0
144 159 0
140 156 0
143 160 0
147 163 0
143 158 0
147 163 0
137 153 0
142 157 0
145 159 0
148 165 0
142 157 0
146 160 0
151 167 0
146 164 0
143 160 0
145 161 0
143 161 0
145 160 0
142 157 0
144 160 0
146 164 0
148 164 0
147 164 0
143 156 0
144 158 0
144 158 0
141 155 0
149 166 0
138 153 0
140 156 0
148 163 0
144 158 0
144 160 0
144 159 0
141 155 0
146 160 0
138 152 0
144 158 0
145 157 0
143 161 0
140 154 0
145 160 0
138 151 0
143 158 0
148 162 0
142 154 0
152 166 0
143 155 0
146 160 0
147 159 0
142 155 0
147 160 0
146 161 0
144 157 0
149 162 0
135 148 0
140 152 0
143 155 0
139 150 0
143 156 0
147 158 0
145 158 0
147 156 0
141 154 0
143 156 0
143 155 0
141 153 0
148 160 0
136 146 0
141 153 0
139 151 0
147 157 0
139 152 0
149 162 0
147 158 0
144 156 0
149 161 0
145 154 0
146 157 0
147 157 0
145 156 0
146 156 0
146 153 0
149 159 0
141 151 0
144 154 0
148 157 0
141 153 0
143 151 0
145 155 0
147 157 0
138 148 0
145 155 0
145 156 0
144 154 0
144 154 0
144 154 0
148 156 0
152 164 0
143 151 0
144 152 0
148 159 0
146 154 0
144 153 0
146 155 0
150 160 0
148 157 0
146 153 0
148 157 0
143 152 0
146 153 0
145 154 0
148 160 0
147 156 0
149 158 0
154 162 0
144 151 0
149 157 0
144 153 0
149 156 0
147 157 0
142 150 0
151 161 0
151 159 0
147 155 0
147 154 0
148 156 0
144 151 0
146 153 0
148 156 0
150 160 0
147 152 0
146 154 0
147 155 0
152 160 0
151 160 0
146 154 0
152 163 0
153 164 0
152 161 0
149 157 0
153 163 0
150 157 0
152 159 0
149 157 0
156 164 0
151 160 0
149 158 0
152 161 0
147 156 0
153 162 0
157 176 0
154 170 0
153 169 0
156 172 0
158 175 0
157 174 0
159 176 0
153 169 0
157 175 0
156 174 0
161 180 0
157 174 0
156 174 0
157 174 0
152 169 0
156 172 0
155 171 0
155 171 0
155 172 0
161 178 0
155 170 0
152 168 0
156 172 0
153 169 0
155 171 0
155 170 0
153 170 0
155 172 0
156 174 0
151 167 0
155 171 0
154 171 0
154 171 0
152 169 0
156 173 0
155 171 0
154 172 0
152 168 0
154 172 0
154 172 0
155 173 0
149 166 0
154 169 0
149 166 0
150 166 0
153 170 0
155 173 0
148 165 0
153 170 0
152 169 0
150 166 0
153 169 0
155 172 0
147 162 0
150 165 0
148 164 0
149 165 0
156 173 0
146 164 0
148 165 0
150 168 0
150 166 0
150 167 0
151 169 0
150 168 0
148 164 0
148 165 0
144 159 0
144 160 0
144 161 0
147 164 0
147 163 0
150 167 0
146 164 0
154 171 0
148 166 0
147 165 0
152 169 0
148 165 0
145 162 0
150 167 0
148 164 0
146 164 0
150 168 0
149 166 0
144 161 0
148 165 0
145 163 0
145 161 0
148 163 0
144 163 0
147 166 0
143 162 0
148 166 0
147 165 0
152 169 0
150 168 0
151 168 0
141 158 0
147 165 0
146 161 0
149 169 0
143 160 0
149 167 0
149 168 0
145 164 0
142 158 0
149 166 0
147 164 0
145 162 0
146 163 0
149 167 0
145 163 0
151 168 0
147 164 0
144 160 0
148 167 0
144 163 0
146 162 0
146 162 0
145 164 0
147 165 0
146 163 0
141 160 0
148 166 0
145 163 0
149 167 0
147 166 0
144 160 0
155 172 0
152 170 0
147 165 0
149 168 0
145 161 0
144 164 0
144 161 0
149 168 0
149 168 0
151 170 0
142 161 0
147 165 0
139 158 0
149 167 0
144 160 0
144 161 0
146 164 0
142 160 0
147 165 0
136 154 0
150 168 0
143 161 0
144 162 0
146 164 0
148 165 0
149 166 0
144 162 0
141 159 0
149 168 0
145 163 0
147 167 0
149 167 0
149 167 0
147 163 0
143 160 0
141 160 0
144 163 0
145 161 0
149 168 0
139 158 0
144 164 0
141 160 0
143 160 0
145 163 0
145 163 0
144 162 0
150 166 0
148 166 0
141 159 0
138 154 0
145 163 0
143 161 0
142 159 0
145 164 0
147 165 0
143 161 0
147 164 0
143 161 0
143 161 0
144 163 0
142 160 0
139 157 0
142 158 0
142 159 0
144 162 0
141 157 0
138 157 0
141 158 0
143 161 0
148 164 0
144 162 0
140 160 0
145 161 0
145 163 0
146 165 0
138 156 0
139 156 0
142 159 0
140 157 0
141 160 0
149 167 0
144 163 0
140 157 0
141 159 0
145 163 0
143 159 0
147 165 0
142 159 0
139 156 0
149 168 0
146 162 0
145 165 0
145 161 0
141 155 0
137 155 0
149 168 0
143 163 0
145 160 0
140 155 0
143 160 0
147 163 0
143 157 0
145 162 0
143 160 0
143 162 0
144 160 0
138 156 0
142 159 0
147 166 0
145 161 0
144 162 0
138 157 0
143 159 0
140 157 0
140 157 0
144 160 0
146 164 0
143 159 0
147 162 0
140 154 0
148 164 0
146 162 0
146 161 0
143 159 0
143 160 0
140 156 0
144 160 0
143 159 0
146 162 0
147 164 0
148 163 0
148 168 0
142 159 0
143 158 0
146 163 0
143 158 0
142 157 0
148 165 0
146 163 0
141 157 0
145 160 0
146 162 0
143 159 0
144 161 0
141 157 0
143 160 0
143 156 0
148 166 0
148 164 0
146 162 0
143 157 0
146 163 0
145 160 0
150 165 0
142 157 0
138 152 0
144 158 0
147 161 0
147 161 0
143 158 0
145 159 0
142 159 0
142 154 0
146 161 0
147 161 0
141 154 0
148 163 0
145 158 0
145 159 0
140 153 0
146 160 0
147 161 0
146 163 0
140 153 0
137 150 0
144 156 0
142 153 0
151 165 0
145 160 0
151 165 0
147 160 0
137 148 0
143 157 0
147 160 0
145 158 0
150 165 0
140 153 0
145 157 0
142 152 0
149 164 0
147 159 0
148 159 0
143 153 0
143 155 0
150 162 0
144 154 0
147 160 0
144 157 0
143 154 0
144 156 0
140 150 0
151 163 0
151 161 0
149 162 0
146 158 0
150 161 0
145 155 0
143 154 0
150 161 0
143 152 0
147 159 0
140 149 0
147 158 0
147 158 0
146 155 0
146 155 0
145 154 0
146 156 0
146 156 0
140 149 0
149 158 0
146 157 0
147 155 0
143 152 0
140 149 0
149 159 0
149 159 0
146 154 0
143 152 0
145 154 0
144 154 0
147 157 0
146 156 0
151 158 0
142 151 0
149 159 0
149 161 0
148 156 0
140 147 0
146 153 0
147 155 0
153 161 0
148 158 0
149 157 0
148 158 0
147 155 0
147 156 0
150 159 0
147 156 0
145 152 0
146 157 0
148 156 0
146 155 0
151 158 0
148 156 0
149 157 0
154 160 0
151 159 0
150 158 0
152 159 0
151 161 0
153 165 0
150 160 0
146 155 0
151 160 0
155 165 0
153 164 0
152 160 0
150 159 0
151 161 0
151 160 0
158 176 0
158 174 0
157 176 0
159 176 0
159 176 0
159 176 0
161 179 0
158 176 0
160 179 0
153 170 0
157 175 0
158 175 0
155 172 0
153 171 0
156 173 0
157 173 0
154 171 0
156 175 0
157 175 0
156 173 0
157 172 0
148 164 0
157 175 0
150 166 0
151 168 0
158 175 0
157 173 0
156 173 0
151 168 0
154 171 0
149 166 0
154 171 0
152 168 0
152 170 0
154 170 0
152 170 0
154 169 0
153 170 0
147 164 0
155 172 0
151 168 0
151 168 0
153 168 0
153 169 0
147 163 0
155 171 0
147 164 0
154 170 0
152 169 0
153 170 0
154 172 0
148 165 0
155 173 0
154 171 0
149 165 0
151 168 0
149 166 0
152 170 0
157 175 0
150 167 0
151 169 0
153 170 0
151 167 0
155 171 0
151 168 0
147 165 0
152 169 0
146 163 0
145 163 0
149 166 0
146 163 0
146 165 0
153 172 0
148 165 0
156 173 0
152 170 0
144 161 0
147 165 0
148 167 0
152 170 0
146 163 0
145 161 0
150 167 0
146 162 0
147 163 0
149 168 0
152 170 0
147 163 0
145 162 0
148 165 0
152 171 0
150 167 0
145 162 0
153 171 0
147 164 0
148 166 0
145 162 0
142 161 0
152 170 0
148 167 0
148 167 0
145 163 0
150 166 0
146 164 0
141 158 0
149 168 0
146 165 0
154 173 0
144 162 0
144 161 0
146 165 0
144 162 0
150 169 0
145 165 0
153 170 0
145 163 0
149 167 0
142 160 0
151 169 0
151 168 0
149 166 0
149 167 0
144 163 0
145 163 0
148 166 0
145 163 0
145 163 0
152 169 0
148 167 0
141 158 0
150 170 0
151 169 0
146 163 0
147 165 0
145 165 0
147 167 0
146 163 0
151 170 0
145 163 0
146 166 0
149 166 0
145 163 0
147 167 0
147 165 0
151 170 0
150 169 0
146 165 0
144 163 0
150 166 0
144 162 0
144 161 0
140 157 0
148 167 0
142 160 0
142 160 0
149 169 0
144 160 0
142 161 0
149 167 0
150 169 0
145 163 0
141 159 0
150 170 0
141 159 0
147 164 0
147 164 0
144 161 0
149 167 0
145 165 0
144 160 0
149 165 0
149 169 0
151 169 0
145 164 0
137 153 0
133 151 0
148 165 0
139 156 0
143 161 0
144 163 0
147 166 0
143 162 0
143 161 0
143 162 0
143 162 0
137 155 0
148 168 0
149 167 0
136 152 0
137 154 0
150 168 0
142 161 0
142 160 0
145 161 0
143 161 0
145 163 0
142 161 0
145 162 0
143 162 0
143 160 0
150 167 0
141 159 0
142 161 0
146 165 0
138 155 0
137 152 0
142 156 0
141 157 0
137 155 0
151 169 0
144 162 0
142 161 0
141 158 0
145 162 0
143 161 0
140 156 0
145 162 0
143 160 0
149 165 0
138 156 0
145 162 0
139 155 0
135 150 0
144 160 0
147 164 0
147 164 0
145 162 0
148 166 0
141 157 0
142 159 0
142 159 0
147 165 0
144 161 0
144 162 0
144 160 0
138 156 0
144 160 0
149 168 0
142 158 0
141 159 0
144 161 0
147 166 0
148 165 0
138 154 0
136 153 0
143 160 0
145 160 0
141 157 0
137 151 0
141 156 0
143 158 0
149 164 0
145 162 0
147 164 0
146 163 0
139 157 0
147 164 0
146 161 0
141 157 0
147 163 0
142 157 0
145 163 0
143 160 0
147 163 0
146 163 0
145 159 0
149 164 0
145 163 0
144 160 0
147 164 0
146 162 0
149 166 0
144 159 0
146 162 0
145 160 0
145 162 0
143 159 0
145 160 0
147 159 0
144 160 0
146 160 0
146 159 0
143 159 0
139 154 0
147 160 0
142 155 0
150 167 0
145 160 0
146 162 0
146 161 0
145 158 0
141 155 0
142 156 0
148 162 0
148 162 0
145 160 0
138 151 0
145 160 0
141 156 0
148 164 0
143 155 0
147 160 0
143 157 0
143 157 0
143 156 0
145 157 0
145 158 0
144 157 0
146 157 0
141 154 0
150 160 0
141 152 0
138 148 0
141 152 0
141 153 0
143 155 0
143 156 0
153 168 0
143 154 0
143 155 0
144 156 0
140 154 0
149 161 0
149 160 0
147 158 0
154 168 0
145 154 0
138 150 0
139 147 0
151 163 0
139 150 0
145 158 0
141 153 0
145 154 0
146 158 0
143 156 0
142 152 0
146 155 0
147 156 0
142 153 0
143 152 0
150 161 0
146 153 0
143 153 0
146 156 0
147 157 0
145 154 0
150 160 0
148 159 0
148 158 0
148 158 0
149 160 0
149 159 0
144 153 0
144 152 0
149 158 0
147 157 0
144 152 0
147 156 0
151 160 0
152 162 0
149 158 0
147 157 0
145 154 0
146 155 0
148 156 0
146 156 0
145 152 0
145 152 0
149 158 0
149 158 0
151 161 0
148 156 0
147 157 0
145 156 0
148 157 0
145 154 0
149 157 0
144 153 0
150 159 0
150 160 0
151 161 0
149 157 0
149 158 0
150 157 0
151 160 0
149 156 0
153 163 0
144 150 0
148 157 0
150 161 0
147 157 0
149 156 0
153 160 0
152 160 0
152 163 0
151 161 0
152 163 0
153 165 0
152 161 0
157 174 0
158 174 0
156 173 0
158 175 0
158 175 0
158 176 0
156 173 0
157 174 0
154 171 0
158 175 0
162 180 0
157 174 0
158 176 0
158 176 0
158 175 0
157 176 0
157 175 0
153 169 0
155 173 0
155 173 0
155 174 0
158 174 0
155 172 0
155 173 0
155 172 0
153 170 0
154 168 0
157 175 0
148 165 0
155 172 0
153 168 0
153 171 0
154 170 0
151 166 0
153 170 0
152 170 0
153 170 0
152 169 0
150 166 0
150 166 0
147 163 0
154 171 0
156 173 0
152 169 0
155 170 0
155 173 0
153 171 0
154 171 0
149 168 0
155 173 0
153 170 0
147 164 0
149 165 0
153 169 0
151 168 0
152 170 0
153 171 0
154 171 0
151 168 0
151 168 0
153 171 0
154 171 0
147 163 0
151 169 0
145 160 0
154 171 0
148 167 0
149 166 0
153 171 0
153 171 0
150 168 0
149 168 0
147 165 0
146 163 0
149 168 0
153 170 0
148 164 0
154 171 0
150 169 0
146 164 0
150 168 0
148 163 0
149 166 0
144 162 0
150 168 0
148 166 0
151 168 0
147 166 0
147 163 0
143 161 0
147 165 0
146 163 0
151 170 0
150 169 0
141 158 0
151 170 0
149 167 0
145 163 0
148 166 0
148 165 0
140 157 0
152 171 0
148 167 0
149 167 0
146 164 0
150 169 0
149 167 0
149 167 0
152 171 0
151 169 0
150 169 0
146 164 0
146 164 0
145 163 0
148 167 0
148 167 0
147 166 0
145 162 0
146 165 0
153 172 0
154 172 0
153 174 0
146 162 0
149 167 0
149 168 0
138 153 0
144 161 0
145 164 0
151 170 0
146 163 0
147 167 0
148 167 0
153 171 0
144 160 0
150 168 0
146 163 0
153 173 0
144 162 0
142 160 0
146 165 0
146 164 0
142 160 0
146 164 0
145 165 0
142 160 0
147 164 0
149 166 0
143 160 0
145 161 0
148 168 0
141 160 0
139 157 0
136 154 0
146 164 0
149 168 0
146 163 0
148 166 0
147 165 0
138 157 0
140 157 0
142 161 0
144 162 0
142 160 0
143 161 0
143 161 0
141 160 0
151 170 0
149 167 0
145 164 0
143 158 0
147 165 0
149 168 0
151 170 0
140 157 0
140 157 0
148 166 0
144 162 0
144 162 0
135 152 0
139 158 0
144 163 0
149 167 0
146 164 0
144 163 0
145 164 0
147 164 0
144 162 0
142 160 0
146 164 0
146 163 0
144 162 0
149 167 0
146 162 0
146 165 0
145 164 0
149 168 0
144 162 0
142 159 0
140 158 0
146 163 0
143 159 0
145 162 0
145 164 0
143 158 0
145 162 0
145 165 0
147 165 0
147 164 0
139 158 0
142 159 0
147 165 0
149 166 0
139 154 0
144 161 0
147 165 0
145 162 0
149 168 0
143 160 0
140 156 0
141 160 0
142 158 0
146 162 0
146 162 0
140 157 0
139 156 0
142 159 0
143 160 0
141 157 0
143 160 0
142 159 0
145 160 0
144 163 0
150 169 0
143 160 0
145 162 0
146 163 0
140 157 0
148 164 0
143 162 0
142 159 0
143 158 0
143 155 0
145 162 0
144 161 0
140 158 0
143 161 0
145 164 0
150 167 0
144 161 0
137 152 0
148 164 0
143 158 0
141 155 0
145 162 0
141 157 0
150 165 0
143 160 0
151 169 0
140 157 0
144 160 0
146 158 0
141 160 0
149 164 0
141 158 0
147 164 0
138 155 0
146 162 0
144 158 0
144 158 0
155 170 0
142 156 0
145 162 0
145 157 0
146 162 0
147 162 0
145 162 0
140 155 0
148 164 0
146 161 0
143 159 0
148 165 0
144 160 0
147 163 0
140 155 0
147 163 0
144 159 0
145 161 0
143 157 0
147 164 0
144 159 0
147 159 0
142 156 0
150 167 0
145 159 0
149 163 0
146 162 0
148 162 0
143 158 0
147 161 0
142 156 0
144 159 0
146 159 0
140 152 0
140 153 0
145 158 0
141 153 0
144 159 0
146 162 0
144 156 0
151 167 0
146 160 0
148 161 0
150 164 0
145 158 0
147 159 0
149 160 0
145 157 0
141 150 0
140 153 0
150 167 0
146 158 0
145 158 0
145 155 0
140 151 0
150 161 0
142 152 0
142 153 0
146 156 0
148 157 0
149 160 0
148 159 0
148 160 0
144 156 0
145 155 0
146 157 0
150 161 0
149 160 0
148 157 0
141 152 0
148 159 0
142 153 0
149 159 0
144 152 0
147 154 0
144 153 0
150 160 0
147 156 0
150 161 0
143 153 0
144 153 0
146 157 0
145 156 0
149 159 0
148 157 0
149 158 0
145 157 0
146 158 0
146 156 0
146 155 0
150 161 0
149 159 0
145 156 0
147 155 0
146 153 0
151 161 0
151 161 0
151 162 0
147 157 0
150 160 0
147 158 0
150 157 0
148 155 0
146 155 0
149 157 0
148 157 0
150 160 0
148 157 0
149 157 0
151 161 0
155 165 0
145 152 0
149 157 0
153 164 0
152 161 0
153 164 0
154 164 0
156 166 0
157 166 0
155 168 0
153 164 0
151 160 0
151 162 0
150 159 0
151 160 0
156 167 0
152 160 0
156 165 0
154 166 0
149 156 0
152 163 0
161 179 0
155 172 0
157 174 0
155 173 0
159 176 0
157 175 0
158 175 0
160 179 0
159 176 0
157 174 0
158 176 0
157 175 0
161 178 0
156 171 0
159 176 0
154 172 0
155 171 0
155 172 0
154 171 0
157 175 0
158 175 0
151 169 0
155 172 0
156 174 0
151 167 0
152 169 0
151 167 0
153 170 0
153 170 0
151 168 0
153 170 0
154 171 0
151 166 0
155 173 0
152 170 0
154 172 0
148 163 0
158 175 0
152 170 0
150 167 0
151 167 0
153 171 0
153 170 0
149 166 0
149 166 0
146 162 0
154 172 0
150 168 0
154 171 0
152 169 0
148 165 0
151 168 0
156 173 0
151 169 0
153 170 0
150 167 0
150 168 0
148 165 0
146 162 0
149 167 0
149 166 0
151 169 0
154 171 0
151 167 0
147 164 0
153 171 0
153 170 0
153 172 0
146 161 0
148 167 0
153 171 0
148 166 0
147 164 0
146 165 0
151 170 0
149 166 0
149 166 0
152 170 0
150 166 0
145 162 0
147 163 0
147 166 0
154 170 0
148 166 0
155 172 0
148 167 0
143 161 0
152 171 0
145 163 0
151 168 0
145 162 0
146 166 0
144 162 0
148 165 0
148 164 0
148 167 0
149 167 0
145 163 0
149 167 0
150 168 0
150 169 0
145 162 0
148 166 0
148 166 0
145 163 0
147 165 0
153 171 0
153 172 0
151 170 0
150 168 0
148 165 0
150 169 0
148 167 0
147 165 0
151 170 0
148 166 0
144 162 0
150 168 0
146 166 0
154 172 0
148 164 0
146 162 0
137 156 0
145 162 0
147 166 0
154 173 0
149 166 0
155 173 0
151 168 0
146 163 0
146 164 0
149 167 0
145 164 0
147 164 0
154 173 0
145 164 0
154 173 0
148 167 0
144 162 0
147 165 0
149 165 0
145 163 0
148 164 0
149 167 0
145 163 0
143 161 0
143 160 0
146 163 0
147 165 0
146 164 0
144 162 0
143 162 0
145 163 0
149 168 0
149 167 0
147 167 0
146 164 0
142 160 0
144 162 0
143 161 0
145 163 0
140 158 0
142 158 0
145 163 0
144 161 0
149 166 0
142 159 0
146 165 0
145 163 0
147 164 0
149 168 0
142 159 0
145 162 0
147 162 0
145 163 0
143 162 0
149 168 0
143 158 0
149 168 0
141 158 0
141 160 0
142 157 0
147 165 0
143 160 0
145 164 0
141 160 0
151 169 0
143 160 0
145 163 0
142 159 0
145 164 0
141 158 0
143 161 0
145 162 0
144 162 0
135 151 0
143 160 0
149 167 0
146 165 0
150 169 0
141 159 0
143 161 0
144 162 0
146 166 0
142 158 0
147 165 0
139 158 0
147 166 0
148 166 0
148 167 0
144 160 0
144 162 0
144 161 0
141 155 0
142 158 0
141 156 0
141 159 0
142 158 0
144 162 0
147 164 0
145 164 0
141 157 0
142 157 0
142 159 0
150 169 0
144 162 0
144 161 0
147 166 0
142 159 0
147 164 0
141 159 0
140 157 0
148 165 0
145 161 0
145 163 0
150 168 0
139 155 0
139 156 0
142 157 0
143 160 0
144 161 0
145 163 0
143 160 0
150 168 0
149 166 0
143 161 0
148 165 0
145 159 0
141 158 0
144 160 0
144 161 0
145 159 0
149 166 0
145 161 0
143 159 0
146 162 0
147 163 0
148 163 0
145 162 0
147 163 0
151 169 0
147 163 0
145 162 0
144 160 0
140 156 0
140 154 0
147 164 0
142 155 0
149 166 0
142 159 0
145 158 0
137 152 0
147 163 0
145 161 0
145 158 0
146 159 0
151 169 0
146 163 0
153 171 0
146 164 0
141 157 0
147 163 0
148 165 0
150 168 0
145 161 0
147 162 0
146 161 0
145 159 0
149 163 0
144 160 0
147 161 0
149 166 0
149 164 0
149 163 0
144 158 0
147 161 0
139 151 0
147 162 0
149 163 0
145 158 0
143 155 0
147 162 0
141 156 0
140 151 0
149 163 0
145 157 0
137 148 0
143 157 0
148 162 0
147 160 0
151 166 0
144 155 0
146 158 0
150 163 0
141 153 0
145 158 0
147 161 0
144 157 0
143 155 0
145 158 0
148 161 0
146 158 0
145 159 0
151 165 0
141 153 0
149 160 0
145 158 0
145 157 0
144 154 0
145 156 0
141 153 0
146 158 0
147 160 0
144 155 0
146 158 0
145 155 0
146 156 0
145 157 0
143 153 0
149 161 0
143 155 0
147 158 0
152 163 0
150 158 0
147 158 0
149 158 0
151 161 0
154 164 0
145 156 0
144 155 0
149 158 0
150 161 0
150 161 0
149 160 0
146 156 0
146 156 0
149 160 0
150 162 0
147 159 0
148 157 0
154 166 0
146 156 0
149 159 0
149 159 0
145 155 0
149 159 0
151 161 0
149 157 0
147 157 0
151 162 0
148 157 0
152 162 0
150 159 0
149 159 0
149 159 0
153 164 0
150 157 0
148 158 0
148 159 0
148 157 0
156 167 0
151 160 0
150 160 0
149 157 0
150 161 0
152 160 0
147 154 0
145 153 0
147 157 0
152 161 0
149 157 0
153 164 0
151 161 0
152 163 0
151 160 0
149 160 0
151 162 0
151 163 0
151 160 0
156 166 0
160 178 0
158 177 0
158 175 0
163 179 0
159 177 0
157 173 0
157 173 0
160 178 0
156 173 0
151 168 0
157 175 0
154 172 0
157 175 0
155 172 0
158 174 0
157 175 0
156 173 0
154 172 0
157 174 0
156 173 0
155 173 0
154 170 0
156 173 0
151 168 0
148 164 0
157 175 0
152 170 0
155 172 0
154 171 0
154 171 0
156 174 0
155 173 0
153 171 0
151 168 0
153 171 0
155 173 0
155 173 0
155 173 0
153 170 0
153 170 0
154 173 0
158 176 0
154 171 0
152 169 0
152 169 0
151 169 0
152 168 0
154 170 0
152 169 0
154 171 0
157 175 0
151 168 0
154 170 0
150 167 0
152 169 0
146 164 0
149 166 0
151 168 0
152 169 0
154 172 0
150 168 0
154 171 0
147 165 0
150 168 0
151 171 0
148 166 0
150 168 0
147 166 0
155 172 0
146 163 0
145 162 0
146 163 0
153 172 0
151 168 0
146 163 0
148 165 0
143 161 0
148 166 0
152 170 0
148 167 0
146 162 0
152 170 0
147 163 0
148 165 0
144 160 0
147 165 0
152 171 0
157 176 0
146 166 0
149 167 0
146 165 0
145 162 0
149 167 0
145 162 0
150 168 0
147 165 0
149 168 0
147 164 0
150 169 0
152 170 0
142 158 0
148 165 0
151 170 0
151 169 0
151 167 0
145 163 0
148 165 0
148 166 0
154 171 0
150 168 0
145 162 0
145 161 0
152 170 0
149 166 0
152 171 0
146 164 0
148 167 0
147 165 0
148 166 0
147 166 0
141 158 0
146 164 0
151 169 0
148 167 0
142 159 0
148 167 0
151 169 0
147 164 0
143 158 0
142 159 0
151 169 0
149 168 0
142 160 0
150 167 0
148 168 0
151 170 0
144 163 0
150 168 0
148 166 0
147 165 0
149 167 0
147 166 0
150 167 0
145 163 0
149 168 0
146 163 0
145 163 0
146 165 0
144 162 0
144 163 0
142 158 0
152 171 0
149 167 0
148 165 0
149 167 0
144 162 0
147 166 0
146 165 0
147 165 0
146 163 0
145 162 0
149 167 0
148 166 0
150 171 0
143 161 0
144 161 0
147 164 0
144 161 0
148 167 0
144 162 0
145 165 0
147 165 0
149 167 0
148 166 0
146 164 0
147 164 0
140 158 0
148 166 0
145 162 0
147 166 0
146 164 0
140 155 0
148 167 0
141 157 0
145 162 0
141 161 0
144 161 0
151 170 0
146 163 0
143 159 0
141 158 0
146 164 0
143 162 0
151 170 0
147 166 0
146 164 0
146 164 0
141 160 0
144 162 0
150 168 0
138 157 0
146 163 0
145 162 0
145 162 0
147 165 0
145 163 0
148 166 0
140 155 0
142 158 0
139 156 0
144 162 0
144 162 0
139 155 0
143 162 0
146 164 0
149 165 0
143 161 0
140 157 0
142 160 0
145 161 0
145 161 0
149 168 0
146 164 0
145 162 0
151 170 0
148 164 0
146 163 0
144 162 0
145 160 0
143 161 0
147 165 0
147 164 0
145 161 0
147 165 0
139 156 0
142 160 0
143 161 0
143 160 0
148 167 0
144 160 0
146 161 0
144 160 0
141 157 0
146 163 0
143 161 0
148 164 0
142 158 0
146 163 0
151 166 0
140 157 0
144 161 0
143 160 0
145 163 0
144 159 0
148 163 0
151 169 0
147 163 0
144 161 0
144 161 0
147 163 0
148 165 0
138 152 0
145 164 0
139 153 0
139 153 0
145 162 0
145 163 0
144 159 0
143 160 0
152 169 0
142 158 0
146 162 0
141 157 0
144 160 0
148 162 0
151 167 0
146 160 0
144 159 0
147 166 0
146 163 0
144 159 0
151 168 0
148 164 0
144 160 0
143 159 0
148 164 0
142 155 0
145 161 0
152 166 0
143 155 0
145 159 0
144 158 0
146 160 0
144 160 0
143 157 0
149 166 0
142 156 0
147 162 0
143 157 0
144 158 0
146 160 0
142 155 0
146 160 0
144 156 0
144 159 0
147 160 0
142 155 0
146 160 0
142 158 0
146 160 0
144 159 0
145 157 0
143 156 0
141 154 0
146 160 0
147 159 0
146 158 0
146 157 0
147 159 0
145 156 0
144 157 0
142 156 0
147 160 0
148 158 0
147 158 0
146 159 0
145 156 0
144 154 0
147 157 0
147 159 0
146 157 0
150 163 0
150 163 0
143 155 0
144 156 0
150 160 0
142 152 0
141 154 0
149 158 0
139 153 0
153 165 0
144 154 0
150 162 0
153 165 0
152 164 0
153 166 0
148 159 0
149 161 0
145 153 0
148 159 0
145 155 0
149 159 0
152 164 0
149 159 0
146 154 0
147 158 0
144 153 0
138 148 0
148 160 0
153 164 0
148 157 0
144 155 0
151 163 0
149 160 0
149 157 0
147 158 0
152 163 0
148 158 0
145 155 0
151 160 0
148 159 0
155 166 0
149 159 0
146 155 0
150 158 0
152 163 0
154 166 0
154 165 0
155 168 0
148 157 0
151 160 0
150 161 0
154 164 0
151 161 0
150 157 0
149 160 0
152 163 0
150 162 0
149 160 0
152 162 0
149 159 0
148 156 0
149 156 0
155 165 0
152 162 0
152 161 0
152 163 0
149 159 0
151 160 0
155 165 0
158 176 0
157 175 0
156 172 0
158 177 0
161 179 0
160 178 0
154 172 0
158 175 0
155 173 0
151 167 0
156 174 0
155 171 0
158 176 0
155 173 0
157 175 0
154 171 0
154 171 0
156 175 0
158 175 0
156 174 0
156 173 0
156 174 0
152 170 0
157 174 0
163 181 0
153 171 0
153 170 0
155 173 0
149 167 0
153 170 0
153 169 0
153 170 0
158 176 0
157 172 0
152 169 0
151 168 0
155 171 0
153 170 0
155 171 0
154 172 0
154 173 0
155 171 0
158 177 0
151 167 0
155 174 0
153 170 0
153 168 0
153 170 0
154 172 0
154 172 0
153 171 0
150 168 0
145 162 0
150 167 0
151 169 0
151 167 0
151 167 0
152 169 0
149 169 0
151 169 0
147 162 0
153 170 0
154 173 0
148 164 0
150 168 0
151 169 0
148 164 0
151 169 0
152 169 0
154 172 0
149 167 0
152 172 0
149 164 0
149 165 0
155 173 0
154 172 0
150 168 0
152 171 0
147 164 0
152 169 0
151 171 0
154 171 0
151 169 0
148 166 0
151 170 0
155 172 0
151 170 0
150 170 0
147 164 0
151 169 0
144 161 0
154 173 0
156 175 0
151 169 0
150 168 0
150 167 0
149 168 0
146 165 0
151 169 0
149 167 0
150 170 0
142 161 0
146 164 0
147 165 0
150 169 0
145 163 0
147 165 0
141 157 0
144 164 0
150 168 0
148 167 0
148 167 0
149 166 0
151 169 0
148 166 0
151 170 0
148 165 0
148 166 0
147 165 0
151 168 0
149 167 0
149 168 0
151 170 0
151 171 0
151 170 0
147 164 0
144 163 0
147 166 0
146 164 0
143 159 0
150 170 0
146 164 0
153 172 0
142 160 0
143 160 0
149 167 0
148 166 0
149 168 0
148 166 0
146 162 0
150 166 0
147 165 0
147 166 0
144 163 0
148 167 0
143 162 0
146 165 0
149 168 0
147 164 0
149 169 0
152 172 0
149 168 0
149 169 0
147 166 0
143 162 0
149 168 0
147 166 0
146 164 0
146 164 0
148 164 0
146 164 0
146 164 0
147 167 0
145 163 0
146 164 0
146 164 0
141 159 0
148 168 0
151 172 0
144 161 0
145 163 0
145 163 0
148 166 0
149 165 0
142 158 0
143 161 0
145 164 0
144 163 0
147 166 0
146 165 0
148 167 0
142 159 0
143 162 0
145 164 0
148 163 0
142 159 0
146 165 0
144 162 0
139 158 0
144 162 0
148 168 0
145 164 0
147 163 0
142 161 0
143 161 0
141 159 0
147 167 0
143 159 0
149 167 0
149 168 0
142 159 0
143 159 0
144 161 0
143 159 0
142 162 0
142 159 0
146 165 0
142 159 0
137 154 0
145 162 0
140 157 0
144 160 0
148 165 0
146 165 0
144 162 0
144 161 0
141 159 0
147 166 0
139 158 0
146 163 0
152 170 0
147 163 0
151 168 0
148 166 0
148 165 0
143 158 0
145 164 0
150 168 0
145 162 0
144 161 0
149 165 0
138 154 0
140 156 0
152 172 0
143 160 0
151 170 0
146 162 0
138 155 0
142 158 0
142 158 0
143 161 0
146 163 0
146 164 0
139 157 0
146 162 0
143 159 0
148 166 0
143 160 0
149 168 0
142 157 0
145 164 0
148 163 0
145 162 0
151 167 0
150 166 0
147 165 0
149 168 0
146 161 0
143 160 0
146 164 0
142 158 0
150 167 0
141 157 0
146 165 0
145 162 0
142 158 0
142 158 0
146 164 0
149 163 0
150 167 0
148 164 0
141 158 0
144 161 0
153 169 0
146 162 0
147 161 0
147 164 0
139 154 0
149 165 0
146 161 0
149 165 0
142 158 0
148 163 0
143 159 0
148 163 0
142 157 0
146 161 0
149 164 0
144 161 0
142 158 0
146 162 0
149 164 0
148 163 0
149 164 0
144 159 0
144 161 0
149 165 0
143 154 0
152 167 0
148 163 0
149 163 0
145 160 0
148 164 0
143 160 0
146 159 0
143 155 0
143 156 0
150 165 0
137 150 0
154 170 0
146 159 0
144 158 0
152 166 0
148 162 0
146 158 0
146 159 0
147 160 0
147 160 0
145 158 0
140 153 0
152 166 0
148 161 0
146 158 0
148 160 0
143 157 0
148 162 0
146 159 0
143 153 0
144 156 0
145 156 0
147 159 0
147 160 0
148 160 0
141 154 0
146 159 0
145 159 0
145 153 0
147 158 0
142 152 0
148 160 0
144 155 0
142 152 0
146 156 0
149 163 0
147 157 0
143 155 0
149 162 0
147 160 0
148 158 0
147 158 0
147 160 0
151 161 0
142 153 0
147 156 0
147 158 0
151 162 0
147 157 0
150 162 0
149 158 0
150 161 0
147 157 0
150 160 0
152 164 0
152 162 0
152 165 0
150 160 0
146 157 0
152 162 0
153 165 0
152 163 0
150 161 0
154 165 0
151 162 0
145 152 0
149 159 0
151 162 0
150 160 0
149 159 0
150 159 0
161 174 0
153 164 0
148 159 0
151 161 0
151 159 0
148 158 0
148 158 0
156 167 0
152 162 0
150 158 0
146 156 0
150 162 0
153 163 0
152 161 0
156 168 0
151 162 0
154 164 0
153 162 0
156 165 0
154 165 0
157 168 0
159 176 0
159 177 0
158 176 0
155 173 0
157 175 0
155 173 0
156 173 0
155 173 0
157 175 0
154 171 0
153 170 0
158 176 0
159 176 0
157 175 0
153 170 0
157 174 0
155 172 0
153 171 0
155 173 0
156 174 0
153 170 0
157 175 0
157 173 0
158 177 0
153 171 0
156 173 0
155 172 0
155 172 0
158 175 0
153 170 0
153 172 0
152 168 0
152 169 0
154 173 0
154 172 0
153 171 0
152 169 0
152 169 0
149 166 0
147 162 0
155 172 0
153 170 0
150 168 0
156 174 0
149 167 0
158 176 0
152 171 0
152 170 0
153 170 0
157 175 0
150 167 0
153 171 0
153 170 0
150 166 0
153 170 0
144 162 0
152 169 0
152 169 0
152 169 0
156 174 0
149 167 0
155 172 0
151 169 0
153 170 0
147 165 0
152 170 0
152 170 0
150 167 0
151 170 0
144 161 0
151 169 0
151 169 0
152 169 0
147 163 0
149 167 0
146 164 0
154 170 0
146 163 0
148 167 0
152 170 0
148 167 0
143 160 0
148 165 0
151 171 0
152 169 0
146 164 0
148 166 0
145 164 0
152 169 0
149 166 0
149 165 0
149 167 0
146 163 0
153 170 0
153 172 0
152 170 0
152 169 0
148 166 0
150 167 0
148 166 0
148 167 0
147 166 0
148 165 0
148 166 0
152 170 0
145 161 0
150 169 0
152 170 0
153 171 0
149 166 0
151 169 0
149 166 0
148 166 0
150 169 0
148 165 0
143 162 0
148 165 0
149 167 0
148 167 0
152 169 0
151 169 0
148 164 0
146 163 0
147 165 0
147 165 0
150 168 0
146 164 0
147 164 0
144 162 0
146 166 0
148 167 0
149 168 0
149 167 0
151 169 0
153 172 0
144 163 0
149 167 0
146 164 0
145 163 0
147 166 0
149 167 0
150 169 0
152 172 0
148 167 0
148 166 0
142 158 0
149 166 0
142 160 0
147 162 0
145 164 0
151 169 0
150 168 0
143 161 0
144 163 0
147 167 0
151 170 0
152 171 0
150 168 0
150 168 0
144 160 0
143 160 0
149 167 0
146 164 0
148 167 0
148 165 0
146 164 0
147 164 0
148 167 0
142 160 0
147 166 0
149 167 0
149 167 0
145 163 0
144 163 0
151 170 0
147 167 0
148 165 0
145 162 0
148 166 0
150 167 0
149 167 0
148 168 0
145 163 0
145 163 0
148 165 0
148 166 0
144 160 0
143 159 0
140 158 0
149 167 0
143 161 0
146 162 0
143 160 0
146 165 0
147 167 0
142 161 0
147 166 0
147 167 0
148 166 0
145 161 0
149 167 0
148 167 0
145 161 0
150 170 0
144 160 0
144 160 0
144 163 0
147 164 0
144 161 0
150 168 0
147 164 0
144 162 0
151 170 0
143 160 0
145 163 0
144 163 0
145 164 0
152 169 0
146 165 0
150 168 0
146 165 0
151 169 0
148 164 0
146 164 0
142 160 0
144 160 0
152 169 0
143 160 0
150 168 0
140 159 0
138 157 0
152 171 0
140 158 0
147 167 0
149 167 0
148 166 0
145 163 0
141 157 0
141 156 0
144 160 0
143 158 0
143 161 0
146 163 0
146 162 0
143 160 0
148 168 0
144 161 0
149 167 0
148 165 0
145 161 0
141 158 0
142 160 0
145 160 0
144 160 0
149 167 0
151 167 0
148 166 0
142 159 0
144 161 0
142 160 0
142 159 0
146 163 0
149 166 0
145 163 0
146 163 0
146 164 0
139 155 0
146 164 0
150 167 0
144 159 0
142 158 0
148 167 0
143 160 0
148 166 0
143 160 0
150 168 0
150 165 0
152 166 0
150 166 0
148 163 0
145 161 0
145 161 0
144 160 0
148 164 0
143 158 0
140 154 0
147 163 0
149 164 0
146 163 0
150 167 0
148 163 0
147 165 0
147 164 0
141 157 0
147 163 0
145 159 0
144 159 0
147 162 0
145 158 0
147 163 0
146 160 0
149 161 0
141 155 0
152 168 0
145 159 0
142 155 0
147 160 0
145 159 0
149 166 0
150 165 0
139 150 0
150 166 0
146 161 0
142 155 0
143 155 0
150 165 0
145 157 0
144 158 0
145 158 0
143 155 0
145 158 0
149 163 0
150 164 0
146 158 0
148 162 0
142 156 0
150 164 0
145 160 0
148 162 0
149 160 0
144 154 0
148 162 0
146 157 0
142 155 0
146 158 0
147 158 0
150 164 0
151 165 0
144 157 0
146 157 0
155 170 0
139 150 0
148 160 0
151 165 0
145 157 0
149 159 0
148 161 0
149 160 0
146 158 0
146 158 0
145 156 0
144 156 0
149 161 0
153 166 0
147 158 0
145 154 0
150 161 0
149 160 0
147 156 0
154 166 0
151 160 0
145 154 0
147 155 0
148 160 0
149 160 0
148 156 0
150 161 0
154 165 0
153 163 0
148 157 0
149 159 0
152 163 0
147 154 0
152 163 0
148 159 0
148 156 0
150 159 0
145 154 0
153 163 0
146 156 0
149 159 0
154 165 0
150 159 0
148 159 0
150 159 0
150 160 0
154 166 0
149 158 0
150 159 0
153 163 0
151 161 0
154 165 0
153 164 0
151 161 0
154 164 0
152 160 0
152 163 0
154 166 0
154 166 0
154 165 0
158 177 0
159 176 0
159 176 0
158 177 0
154 173 0
156 174 0
160 178 0
160 178 0
155 172 0
157 175 0
155 172 0
159 175 0
158 176 0
156 173 0
158 174 0
150 167 0
162 181 0
158 176 0
158 176 0
155 172 0
157 174 0
153 170 0
153 171 0
155 173 0
158 178 0
155 172 0
156 173 0
156 175 0
152 169 0
154 171 0
156 172 0
151 168 0
155 173 0
153 170 0
155 173 0
158 175 0
150 169 0
150 167 0
153 171 0
154 171 0
153 170 0
152 169 0
150 167 0
150 167 0
154 170 0
152 168 0
151 168 0
155 173 0
150 168 0
153 171 0
150 167 0
152 170 0
153 170 0
152 170 0
151 169 0
155 173 0
152 169 0
147 164 0
152 169 0
150 168 0
151 166 0
148 166 0
149 167 0
153 172 0
154 173 0
151 168 0
148 165 0
151 168 0
150 170 0
145 163 0
149 169 0
148 165 0
152 170 0
155 174 0
150 167 0
152 171 0
149 167 0
149 167 0
150 169 0
152 170 0
147 165 0
150 167 0
151 170 0
149 166 0
153 173 0
148 165 0
148 165 0
157 173 0
147 165 0
148 166 0
154 173 0
151 170 0
152 171 0
152 170 0
148 166 0
152 171 0
150 168 0
154 174 0
147 165 0
150 170 0
148 165 0
140 158 0
154 174 0
149 167 0
147 166 0
151 169 0
147 165 0
151 170 0
150 169 0
149 167 0
148 166 0
147 165 0
142 160 0
146 162 0
149 169 0
153 169 0
150 168 0
150 167 0
150 168 0
147 167 0
155 173 0
148 166 0
151 169 0
148 166 0
151 170 0
148 167 0
152 171 0
152 170 0
152 170 0
150 168 0
147 164 0
151 170 0
149 169 0
148 166 0
146 163 0
144 161 0
145 162 0
147 167 0
147 167 0
144 163 0
150 168 0
151 170 0
152 170 0
148 166 0
150 167 0
149 167 0
150 170 0
148 169 0
144 162 0
148 165 0
155 175 0
146 166 0
145 164 0
150 168 0
146 166 0
153 172 0
145 163 0
150 168 0
146 164 0
151 171 0
147 165 0
142 160 0
143 160 0
144 164 0
143 161 0
145 163 0
148 165 0
150 170 0
154 172 0
153 173 0
146 164 0
143 160 0
151 170 0
144 162 0
143 160 0
151 169 0
147 166 0
145 162 0
147 166 0
149 166 0
143 159 0
146 165 0
145 162 0
146 165 0
149 169 0
145 163 0
146 165 0
149 166 0
140 158 0
149 169 0
145 163 0
143 163 0
147 164 0
143 161 0
144 160 0
144 161 0
149 169 0
144 162 0
145 165 0
144 163 0
145 163 0
148 165 0
140 158 0
146 164 0
146 165 0
143 161 0
143 159 0
149 169 0
147 165 0
147 164 0
147 165 0
144 159 0
149 166 0
151 169 0
143 160 0
144 161 0
136 153 0
155 174 0
144 161 0
145 164 0
144 160 0
142 159 0
148 165 0
143 161 0
144 162 0
145 163 0
143 160 0
150 168 0
148 167 0
148 164 0
143 157 0
148 168 0
149 168 0
151 169 0
146 162 0
150 167 0
144 158 0
143 162 0
144 161 0
139 156 0
145 163 0
144 162 0
150 169 0
144 161 0
147 166 0
144 162 0
142 157 0
143 160 0
143 161 0
148 165 0
150 165 0
148 164 0
147 165 0
142 158 0
144 160 0
143 159 0
151 167 0
144 160 0
149 166 0
146 161 0
152 171 0
143 160 0
148 165 0
148 166 0
145 161 0
147 161 0
151 168 0
148 163 0
144 160 0
149 166 0
144 159 0
148 165 0
139 154 0
145 163 0
151 167 0
149 165 0
144 160 0
152 169 0
150 164 0
143 158 0
142 158 0
147 162 0
145 158 0
149 165 0
144 159 0
149 164 0
148 162 0
138 153 0
145 158 0
142 157 0
149 164 0
145 159 0
149 165 0
149 163 0
148 164 0
146 160 0
148 161 0
147 162 0
151 166 0
145 161 0
149 166 0
148 162 0
153 169 0
148 161 0
144 159 0
148 162 0
150 166 0
145 160 0
153 169 0
153 169 0
151 167 0
152 167 0
150 164 0
149 164 0
144 158 0
151 167 0
150 163 0
151 165 0
150 166 0
151 164 0
148 163 0
142 152 0
151 164 0
148 159 0
145 156 0
151 165 0
150 163 0
143 153 0
150 161 0
147 159 0
143 159 0
145 158 0
149 163 0
146 156 0
151 163 0
148 157 0
147 159 0
147 159 0
145 160 0
150 163 0
146 157 0
152 167 0
149 162 0
154 169 0
145 155 0
147 160 0
154 165 0
143 157 0
154 166 0
149 162 0
149 162 0
154 165 0
148 161 0
148 159 0
150 160 0
146 157 0
152 165 0
150 162 0
148 161 0
145 156 0
147 156 0
145 156 0
149 161 0
154 164 0
146 156 0
150 159 0
150 161 0
147 158 0
151 163 0
154 166 0
155 165 0
150 162 0
150 161 0
153 164 0
149 160 0
151 163 0
151 163 0
151 163 0
152 164 0
150 161 0
150 158 0
154 165 0
151 164 0
147 156 0
150 161 0
153 163 0
152 163 0
153 165 0
150 161 0
149 158 0
151 162 0
152 162 0
153 163 0
154 166 0
149 160 0
153 164 0
153 164 0
153 165 0
145 155 0
161 173 0
158 176 0
155 172 0
154 173 0
157 177 0
156 174 0
161 179 0
155 172 0
158 176 0
156 174 0
152 171 0
159 179 0
160 178 0
156 173 0
155 174 0
153 171 0
158 175 0
155 173 0
155 173 0
159 176 0
158 175 0
155 174 0
158 175 0
158 176 0
151 168 0
152 170 0
158 176 0
152 169 0
155 174 0
153 171 0
154 172 0
156 174 0
156 173 0
153 171 0
157 175 0
157 174 0
155 174 0
154 170 0
157 173 0
151 168 0
151 169 0
155 173 0
153 171 0
159 178 0
151 169 0
155 172 0
149 166 0
151 168 0
155 172 0
151 169 0
154 172 0
149 168 0
155 175 0
148 165 0
151 168 0
151 167 0
146 163 0
148 166 0
152 170 0
155 174 0
152 169 0
155 174 0
150 168 0
153 171 0
151 171 0
154 173 0
150 170 0
148 165 0
152 170 0
151 167 0
150 168 0
152 170 0
152 170 0
150 169 0
151 169 0
156 175 0
149 167 0
152 169 0
152 170 0
147 164 0
154 172 0
152 171 0
146 163 0
150 170 0
151 170 0
151 169 0
150 169 0
148 166 0
149 167 0
153 173 0
148 167 0
151 168 0
149 166 0
151 169 0
150 169 0
150 168 0
153 172 0
146 163 0
150 169 0
150 168 0
149 165 0
151 172 0
146 164 0
149 167 0
147 165 0
148 166 0
153 172 0
151 170 0
151 170 0
150 167 0
149 168 0
147 165 0
156 174 0
150 166 0
149 169 0
148 167 0
143 162 0
150 168 0
146 164 0
150 168 0
149 167 0
145 164 0
153 172 0
144 162 0
147 166 0
147 165 0
152 172 0
143 159 0
148 167 0
146 164 0
149 168 0
149 168 0
151 171 0
147 164 0
149 167 0
151 169 0
145 162 0
150 169 0
149 168 0
147 164 0
145 164 0
146 166 0
150 168 0
142 159 0
148 167 0
149 166 0
149 169 0
148 167 0
150 169 0
152 170 0
148 166 0
145 164 0
145 163 0
152 172 0
149 165 0
153 172 0
150 169 0
139 157 0
144 162 0
152 171 0
147 166 0
148 167 0
147 164 0
148 167 0
143 162 0
150 170 0
147 166 0
149 168 0
147 166 0
149 164 0
146 164 0
142 160 0
147 165 0
147 166 0
144 164 0
145 163 0
143 162 0
138 157 0
146 165 0
149 169 0
144 162 0
142 162 0
149 166 0
149 169 0
147 166 0
147 166 0
150 168 0
148 164 0
146 165 0
143 160 0
147 165 0
144 163 0
147 164 0
140 158 0
141 159 0
150 169 0
146 165 0
141 160 0
143 159 0
147 164 0
142 160 0
144 162 0
143 162 0
149 167 0
150 166 0
141 159 0
149 167 0
146 161 0
144 164 0
148 167 0
146 164 0
147 165 0
141 159 0
147 166 0
143 161 0
146 163 0
146 163 0
152 170 0
145 161 0
142 159 0
144 163 0
141 159 0
150 168 0
148 165 0
146 164 0
152 171 0
148 166 0
143 159 0
142 159 0
146 163 0
142 157 0
144 161 0
145 163 0
144 162 0
151 168 0
145 162 0
147 166 0
145 162 0
144 161 0
153 171 0
148 166 0
142 160 0
145 162 0
148 163 0
145 161 0
148 163 0
147 165 0
144 163 0
152 171 0
148 164 0
152 168 0
147 165 0
147 165 0
144 159 0
146 163 0
151 169 0
143 161 0
146 162 0
148 166 0
149 166 0
146 164 0
145 161 0
149 168 0
146 164 0
154 172 0
144 162 0
146 162 0
148 165 0
142 161 0
146 162 0
150 166 0
149 167 0
141 156 0
145 161 0
149 165 0
152 170 0
150 166 0
148 167 0
152 168 0
145 160 0
147 162 0
145 157 0
144 160 0
146 163 0
150 165 0
145 161 0
149 164 0
151 167 0
147 162 0
144 160 0
147 161 0
144 157 0
151 167 0
145 160 0
149 164 0
148 164 0
148 163 0
143 158 0
151 165 0
149 166 0
145 159 0
148 164 0
140 153 0
143 158 0
149 163 0
145 160 0
142 157 0
147 161 0
149 163 0
148 164 0
146 159 0
153 168 0
147 161 0
146 163 0
148 161 0
145 160 0
146 162 0
143 155 0
146 160 0
148 162 0
149 164 0
147 161 0
143 157 0
147 161 0
145 158 0
148 160 0
142 156 0
143 155 0
147 159 0
141 154 0
149 163 0
147 161 0
144 154 0
148 160 0
150 164 0
149 162 0
151 166 0
140 152 0
146 158 0
144 156 0
141 154 0
148 158 0
149 161 0
148 161 0
148 160 0
147 158 0
149 162 0
149 160 0
157 169 0
145 156 0
147 160 0
147 159 0
146 159 0
151 164 0
148 160 0
150 162 0
147 158 0
146 156 0
153 163 0
148 157 0
154 165 0
155 167 0
149 162 0
152 165 0
147 155 0
149 161 0
153 164 0
153 163 0
154 166 0
149 160 0
147 160 0
146 157 0
152 163 0
149 161 0
148 160 0
150 162 0
152 163 0
150 162 0
154 167 0
149 159 0
151 161 0
152 164 0
150 159 0
149 161 0
153 162 0
147 158 0
154 167 0
147 157 0
155 164 0
151 160 0
154 165 0
155 168 0
151 159 0
156 167 0
148 159 0
155 167 0
156 170 0
151 160 0
156 168 0
154 164 0
154 164 0
158 175 0
161 179 0
159 179 0
157 175 0
161 179 0
158 176 0
157 176 0
158 176 0
155 172 0
159 178 0
156 173 0
154 171 0
156 174 0
154 171 0
156 174 0
156 173 0
160 178 0
157 175 0
155 173 0
161 179 0
159 178 0
157 174 0
156 174 0
157 176 0
155 173 0
150 167 0
153 171 0
147 164 0
157 176 0
153 172 0
156 173 0
154 171 0
153 171 0
154 172 0
149 166 0
155 173 0
152 170 0
153 171 0
158 176 0
156 175 0
155 173 0
152 170 0
151 169 0
153 171 0
150 168 0
153 169 0
154 172 0
153 169 0
152 169 0
151 171 0
152 169 0
154 171 0
152 170 0
153 172 0
152 170 0
151 170 0
153 171 0
151 168 0
153 171 0
146 164 0
151 169 0
152 171 0
150 169 0
152 169 0
150 166 0
151 170 0
152 170 0
150 167 0
150 169 0
147 166 0
148 165 0
148 166 0
151 170 0
152 172 0
154 173 0
154 173 0
150 169 0
145 162 0
143 160 0
147 166 0
149 168 0
150 169 0
147 164 0
145 163 0
145 163 0
152 171 0
148 164 0
150 167 0
149 167 0
150 168 0
155 174 0
144 163 0
151 167 0
152 170 0
153 173 0
150 166 0
152 171 0
145 165 0
153 171 0
151 170 0
147 166 0
154 174 0
144 162 0
144 163 0
150 168 0
154 172 0
144 162 0
151 171 0
148 167 0
152 173 0
147 165 0
148 167 0
149 168 0
148 168 0
150 168 0
148 167 0
153 170 0
148 167 0
153 173 0
154 174 0
147 164 0
152 169 0
153 174 0
147 166 0
146 165 0
151 169 0
149 168 0
147 165 0
144 163 0
146 165 0
144 162 0
149 170 0
143 161 0
152 171 0
151 169 0
149 168 0
146 165 0
148 166 0
150 169 0
148 167 0
147 166 0
152 172 0
146 166 0
148 166 0
145 165 0
143 161 0
146 164 0
148 167 0
148 166 0
150 169 0
150 169 0
153 172 0
148 167 0
145 163 0
151 171 0
150 168 0
151 168 0
150 169 0
152 171 0
149 166 0
147 165 0
147 165 0
148 166 0
146 165 0
147 164 0
149 168 0
141 159 0
141 157 0
146 165 0
142 158 0
151 170 0
152 171 0
142 160 0
147 167 0
145 164 0
149 169 0
145 164 0
146 163 0
145 163 0
144 163 0
149 168 0
149 168 0
145 162 0
143 160 0
144 162 0
149 168 0
147 165 0
145 163 0
146 164 0
149 168 0
142 162 0
148 166 0
144 163 0
147 164 0
152 171 0
149 166 0
140 159 0
148 166 0
145 163 0
148 166 0
146 162 0
149 167 0
142 161 0
139 156 0
148 166 0
146 163 0
145 165 0
142 159 0
152 169 0
145 165 0
140 157 0
145 164 0
145 163 0
141 158 0
145 163 0
144 161 0
145 164 0
148 167 0
147 165 0
151 168 0
145 164 0
145 164 0
152 171 0
141 159 0
145 163 0
146 163 0
141 159 0
141 159 0
144 161 0
150 169 0
140 157 0
145 165 0
146 163 0
149 168 0
148 165 0
146 162 0
141 159 0
149 167 0
145 161 0
146 164 0
150 167 0
138 154 0
147 165 0
146 164 0
147 165 0
140 157 0
145 160 0
145 162 0
148 166 0
146 164 0
145 163 0
146 163 0
145 162 0
151 169 0
141 157 0
146 161 0
154 173 0
144 160 0
147 164 0
145 162 0
148 166 0
145 161 0
149 166 0
144 161 0
147 164 0
152 170 0
145 162 0
149 166 0
149 164 0
149 165 0
148 163 0
140 158 0
154 171 0
152 169 0
151 167 0
153 168 0
145 162 0
149 164 0
147 164 0
150 165 0
150 167 0
148 164 0
143 161 0
148 162 0
147 163 0
145 160 0
149 162 0
144 159 0
147 162 0
146 161 0
147 163 0
144 159 0
149 165 0
149 165 0
143 157 0
153 169 0
149 166 0
149 162 0
147 162 0
147 160 0
151 167 0
146 160 0
150 166 0
145 160 0
144 160 0
147 162 0
148 162 0
146 161 0
153 166 0
150 165 0
148 164 0
145 160 0
147 161 0
151 165 0
148 161 0
150 163 0
149 163 0
146 160 0
147 159 0
145 159 0
149 163 0
149 162 0
148 161 0
143 157 0
154 169 0
144 156 0
142 153 0
151 165 0
148 161 0
144 158 0
144 158 0
147 161 0
147 161 0
148 160 0
148 162 0
147 159 0
150 163 0
150 161 0
147 161 0
151 164 0
146 156 0
148 164 0
146 159 0
152 165 0
146 159 0
148 161 0
146 159 0
152 163 0
154 167 0
143 152 0
147 159 0
151 163 0
148 158 0
152 164 0
155 168 0
147 159 0
147 158 0
146 155 0
155 167 0
152 163 0
151 164 0
151 163 0
151 162 0
150 160 0
152 164 0
146 156 0
151 161 0
148 158 0
153 164 0
157 169 0
150 162 0
147 157 0
150 160 0
151 163 0
148 160 0
152 160 0
150 162 0
154 164 0
155 165 0
154 166 0
149 158 0
157 168 0
151 165 0
150 161 0
152 161 0
153 165 0
156 168 0
152 161 0
153 165 0
154 167 0
151 161 0
152 162 0
152 164 0
153 163 0
152 164 0
154 167 0
154 166 0
152 164 0
156 167 0
153 164 0
156 174 0
162 180 0
158 176 0
159 177 0
160 178 0
155 173 0
161 180 0
158 176 0
160 178 0
155 173 0
157 174 0
159 178 0
157 176 0
157 175 0
159 176 0
157 176 0
159 177 0
156 174 0
150 169 0
157 174 0
159 177 0
155 173 0
153 173 0
155 173 0
155 172 0
155 172 0
155 174 0
155 173 0
150 167 0
158 176 0
159 178 0
154 173 0
153 172 0
157 175 0
154 172 0
155 173 0
151 168 0
154 172 0
151 170 0
153 173 0
151 170 0
153 171 0
153 172 0
157 174 0
156 174 0
151 170 0
154 172 0
154 173 0
152 169 0
148 166 0
155 173 0
150 167 0
149 165 0
152 170 0
155 173 0
153 172 0
155 174 0
151 169 0
154 172 0
152 170 0
156 174 0
150 171 0
152 171 0
149 167 0
151 167 0
149 167 0
153 170 0
147 163 0
146 163 0
151 169 0
153 173 0
149 167 0
151 169 0
156 174 0
148 164 0
156 174 0
150 169 0
151 170 0
152 171 0
151 167 0
151 170 0
151 169 0
148 167 0
148 165 0
149 168 0
148 166 0
143 159 0
149 167 0
149 166 0
155 173 0
147 166 0
152 169 0
151 169 0
149 166 0
144 162 0
150 167 0
149 168 0
149 167 0
148 166 0
152 169 0
154 173 0
145 160 0
149 168 0
152 171 0
150 170 0
147 166 0
152 170 0
150 168 0
143 162 0
151 170 0
151 170 0
151 169 0
145 163 0
149 167 0
152 171 0
152 170 0
151 170 0
153 172 0
149 168 0
150 169 0
145 164 0
150 169 0
150 169 0
153 172 0
147 166 0
144 161 0
146 164 0
152 171 0
150 170 0
146 166 0
151 171 0
147 167 0
143 161 0
147 165 0
147 164 0
147 165 0
142 160 0
148 166 0
157 177 0
152 172 0
150 167 0
147 164 0
146 164 0
150 170 0
149 168 0
149 168 0
146 164 0
149 167 0
145 163 0
149 168 0
152 170 0
145 164 0
141 160 0
146 165 0
147 165 0
149 167 0
144 163 0
148 168 0
147 166 0
144 163 0
147 165 0
146 166 0
151 169 0
153 171 0
146 163 0
147 164 0
147 167 0
145 165 0
148 167 0
150 168 0
148 165 0
147 166 0
151 170 0
147 165 0
150 167 0
148 166 0
143 159 0
149 169 0
139 159 0
144 164 0
151 169 0
148 168 0
149 168 0
142 160 0
146 164 0
147 164 0
149 167 0
144 163 0
146 164 0
146 163 0
147 164 0
150 166 0
148 166 0
144 164 0
148 168 0
149 166 0
142 161 0
149 168 0
144 164 0
146 165 0
152 172 0
145 163 0
148 166 0
149 167 0
140 158 0
147 165 0
146 161 0
142 160 0
149 166 0
144 162 0
149 167 0
149 168 0
149 168 0
148 164 0
150 168 0
143 162 0
143 160 0
141 158 0
149 167 0
146 164 0
150 169 0
140 157 0
143 161 0
153 172 0
146 164 0
142 158 0
151 168 0
148 166 0
148 166 0
145 160 0
147 165 0
148 167 0
141 158 0
147 166 0
144 162 0
149 166 0
144 162 0
147 166 0
144 162 0
145 161 0
144 163 0
149 168 0
146 164 0
149 168 0
143 160 0
147 165 0
148 165 0
150 169 0
148 166 0
149 167 0
141 159 0
147 163 0
148 164 0
146 165 0
145 161 0
146 162 0
146 163 0
150 165 0
149 167 0
148 166 0
145 164 0
146 165 0
145 162 0
147 164 0
148 166 0
144 160 0
148 164 0
146 164 0
145 163 0
146 164 0
150 168 0
146 160 0
147 163 0
148 164 0
150 164 0
150 166 0
151 169 0
143 160 0
155 171 0
149 165 0
143 160 0
148 162 0
148 164 0
149 165 0
148 162 0
148 163 0
146 162 0
148 164 0
143 158 0
143 157 0
145 158 0
147 162 0
149 164 0
147 162 0
149 165 0
149 165 0
147 162 0
152 166 0
145 159 0
147 162 0
147 162 0
149 163 0
144 158 0
145 159 0
147 162 0
145 159 0
151 167 0
148 163 0
148 163 0
147 163 0
147 161 0
149 164 0
145 159 0
152 165 0
151 166 0
151 167 0
149 167 0
144 157 0
145 160 0
149 164 0
148 160 0
150 164 0
150 164 0
148 162 0
146 161 0
149 163 0
153 169 0
146 162 0
148 162 0
147 160 0
155 170 0
145 160 0
143 157 0
150 164 0
149 163 0
148 162 0
149 163 0
148 163 0
143 155 0
143 157 0
152 164 0
152 165 0
152 163 0
148 162 0
145 158 0
150 163 0
148 159 0
148 159 0
150 161 0
152 162 0
150 163 0
151 163 0
150 162 0
146 159 0
152 164 0
152 164 0
150 162 0
148 161 0
147 159 0
151 161 0
149 161 0
153 166 0
151 163 0
152 165 0
143 154 0
151 162 0
142 153 0
148 158 0
152 165 0
151 163 0
152 164 0
153 166 0
150 161 0
151 164 0
147 159 0
151 162 0
154 166 0
145 158 0
154 165 0
149 159 0
154 167 0
152 163 0
153 166 0
153 163 0
159 170 0
153 165 0
151 162 0
156 169 0
154 166 0
156 167 0
151 163 0
155 165 0
150 159 0
154 163 0
156 166 0
152 163 0
155 165 0
153 164 0
157 170 0
158 170 0
157 175 0
153 169 0
153 171 0
155 173 0
158 175 0
157 175 0
158 177 0
156 175 0
157 174 0
157 175 0
158 175 0
156 174 0
159 178 0
160 178 0
157 175 0
156 174 0
160 178 0
155 173 0
155 173 0
157 177 0
156 176 0
156 173 0
155 173 0
155 174 0
150 166 0
160 178 0
159 177 0
154 171 0
155 174 0
153 172 0
155 173 0
154 171 0
151 169 0
157 177 0
157 176 0
151 171 0
156 174 0
153 169 0
151 168 0
150 168 0
154 173 0
155 175 0
151 167 0
152 169 0
151 168 0
150 168 0
156 174 0
153 171 0
152 168 0
155 173 0
154 173 0
155 174 0
154 172 0
152 171 0
154 173 0
148 166 0
147 163 0
155 174 0
155 174 0
148 165 0
151 171 0
151 169 0
152 170 0
153 170 0
156 175 0
151 170 0
151 168 0
150 169 0
154 173 0
153 172 0
151 168 0
155 174 0
151 170 0
154 173 0
152 171 0
151 168 0
151 169 0
151 169 0
154 171 0
147 165 0
150 167 0
151 169 0
151 169 0
147 165 0
151 167 0
150 170 0
153 171 0
152 172 0
148 167 0
146 163 0
151 170 0
153 173 0
149 167 0
151 169 0
154 173 0
153 172 0
148 168 0
148 168 0
150 169 0
151 169 0
152 171 0
143 162 0
151 170 0
145 163 0
148 166 0
148 166 0
146 166 0
148 166 0
146 164 0
153 173 0
156 174 0
150 167 0
151 169 0
151 170 0
151 168 0
148 167 0
152 172 0
157 176 0
145 163 0
148 167 0
145 165 0
144 162 0
150 167 0
147 166 0
155 173 0
148 168 0
144 163 0
149 167 0
151 169 0
149 169 0
152 169 0
145 163 0
148 167 0
150 168 0
149 168 0
147 165 0
151 170 0
147 166 0
146 166 0
150 170 0
143 162 0
151 169 0
153 170 0
150 169 0
147 164 0
152 171 0
153 173 0
147 165 0
145 162 0
150 168 0
153 172 0
154 173 0
149 168 0
151 169 0
146 166 0
149 167 0
153 173 0
142 159 0
147 165 0
145 164 0
146 165 0
145 164 0
148 167 0
142 160 0
142 161 0
146 165 0
145 162 0
152 169 0
152 172 0
146 165 0
148 166 0
143 161 0
146 164 0
143 162 0
149 166 0
145 165 0
145 164 0
143 162 0
148 167 0
142 159 0
141 158 0
150 169 0
153 173 0
147 166 0
142 159 0
144 160 0
148 163 0
141 160 0
148 164 0
148 167 0
148 166 0
146 165 0
142 161 0
155 173 0
148 167 0
150 169 0
146 164 0
147 165 0
145 165 0
148 166 0
151 169 0
149 168 0
147 164 0
144 162 0
143 160 0
143 160 0
145 162 0
143 162 0
150 169 0
148 166 0
144 164 0
145 161 0
147 165 0
145 161 0
151 170 0
148 166 0
147 165 0
148 166 0
148 164 0
150 169 0
142 158 0
142 159 0
147 166 0
147 164 0
152 172 0
142 159 0
147 164 0
143 160 0
147 166 0
147 163 0
151 171 0
147 164 0
149 168 0
142 160 0
145 161 0
144 160 0
142 158 0
150 167 0
147 165 0
148 164 0
147 165 0
146 164 0
147 163 0
144 161 0
148 168 0
147 163 0
150 167 0
146 164 0
147 166 0
148 164 0
145 164 0
145 162 0
146 164 0
153 173 0
147 165 0
155 173 0
150 167 0
144 160 0
149 166 0
145 161 0
147 164 0
145 162 0
146 160 0
150 166 0
145 161 0
146 163 0
143 160 0
153 172 0
153 170 0
148 166 0
150 168 0
149 165 0
147 166 0
149 164 0
148 165 0
153 171 0
149 167 0
152 172 0
150 168 0
150 166 0
147 164 0
150 167 0
151 169 0
150 166 0
145 161 0
147 162 0
149 167 0
154 170 0
145 162 0
145 159 0
150 166 0
149 163 0
143 155 0
150 166 0
153 170 0
150 166 0
151 169 0
149 165 0
148 163 0
147 163 0
147 163 0
148 164 0
141 154 0
149 165 0
149 164 0
150 165 0
143 159 0
145 160 0
153 168 0
151 165 0
150 165 0
146 160 0
148 164 0
153 170 0
148 164 0
146 160 0
145 158 0
142 155 0
146 160 0
144 159 0
152 168 0
150 164 0
154 168 0
148 162 0
148 162 0
153 168 0
150 165 0
141 154 0
148 160 0
147 162 0
150 163 0
147 160 0
144 155 0
146 159 0
147 161 0
146 159 0
150 163 0
150 163 0
150 161 0
149 164 0
151 164 0
147 160 0
151 165 0
151 164 0
150 164 0
147 160 0
147 161 0
147 159 0
151 164 0
148 157 0
153 166 0
154 167 0
148 161 0
148 161 0
154 167 0
153 164 0
146 158 0
149 163 0
152 164 0
152 166 0
149 161 0
148 160 0
150 163 0
147 161 0
146 158 0
154 168 0
151 161 0
153 166 0
150 162 0
152 165 0
149 162 0
147 159 0
151 165 0
154 165 0
146 156 0
149 160 0
150 161 0
150 161 0
152 164 0
155 166 0
150 161 0
156 167 0
151 164 0
149 160 0
154 165 0
152 165 0
153 166 0
152 162 0
152 163 0
153 161 0
158 169 0
155 167 0
156 169 0
155 170 0
153 163 0
152 162 0
152 162 0
156 167 0
150 160 0
153 165 0
156 175 0
158 177 0
161 180 0
158 177 0
159 177 0
160 179 0
160 178 0
160 180 0
159 176 0
155 173 0
154 172 0
156 174 0
158 175 0
157 174 0
160 178 0
159 177 0
155 172 0
158 177 0
158 176 0
155 174 0
159 177 0
157 176 0
156 173 0
157 175 0
152 168 0
154 172 0
156 173 0
158 177 0
155 173 0
154 172 0
154 172 0
157 176 0
150 168 0
157 175 0
155 174 0
155 173 0
155 174 0
156 174 0
152 169 0
152 170 0
154 173 0
153 172 0
155 171 0
155 172 0
156 174 0
150 169 0
153 171 0
151 168 0
157 175 0
153 171 0
150 167 0
154 172 0
157 175 0
153 173 0
153 170 0
152 170 0
151 170 0
155 174 0
156 175 0
154 173 0
150 168 0
154 173 0
150 169 0
155 174 0
150 169 0
151 170 0
155 173 0
154 173 0
148 165 0
148 165 0
156 175 0
151 169 0
146 166 0
150 166 0
154 172 0
153 172 0
154 171 0
146 164 0
147 165 0
147 166 0
151 170 0
152 174 0
153 170 0
148 166 0
149 169 0
152 169 0
153 171 0
149 168 0
152 170 0
154 173 0
154 174 0
152 171 0
149 167 0
152 171 0
148 168 0
151 170 0
156 176 0
152 171 0
154 174 0
146 165 0
149 168 0
154 174 0
149 166 0
148 167 0
153 172 0
147 165 0
154 174 0
152 170 0
152 172 0
145 161 0
148 167 0
155 174 0
148 166 0
151 170 0
144 163 0
149 167 0
147 165 0
153 172 0
147 166 0
156 175 0
152 169 0
151 171 0
149 168 0
151 171 0
150 168 0
151 171 0
155 175 0
152 171 0
147 164 0
148 167 0
153 173 0
146 164 0
151 170 0
152 170 0
146 164 0
155 176 0
150 169 0
152 171 0
151 170 0
149 168 0
150 167 0
149 168 0
147 167 0
146 164 0
146 164 0
149 169 0
154 172 0
148 165 0
150 168 0
147 165 0
152 168 0
146 164 0
145 164 0
144 163 0
151 171 0
153 172 0
138 155 0
149 168 0
151 170 0
151 169 0
148 167 0
146 164 0
153 171 0
147 164 0
149 167 0
144 163 0
143 162 0
150 168 0
147 165 0
148 169 0
142 160 0
150 169 0
149 168 0
148 167 0
145 163 0
146 165 0
148 166 0
143 160 0
152 171 0
151 171 0
145 162 0
149 168 0
147 165 0
148 166 0
149 168 0
145 162 0
151 170 0
151 169 0
147 165 0
145 163 0
149 167 0
147 163 0
139 156 0
146 165 0
144 163 0
147 163 0
144 162 0
146 165 0
152 171 0
145 164 0
148 166 0
145 162 0
150 169 0
148 166 0
152 170 0
152 171 0
143 161 0
145 164 0
144 161 0
145 164 0
143 160 0
145 162 0
150 168 0
148 167 0
149 167 0
147 164 0
146 163 0
147 166 0
145 163 0
151 168 0
149 167 0
142 161 0
150 170 0
146 164 0
148 167 0
147 164 0
150 168 0
147 166 0
150 168 0
145 162 0
145 163 0
145 163 0
152 170 0
148 167 0
143 161 0
151 168 0
144 162 0
146 165 0
152 171 0
145 161 0
147 163 0
150 167 0
144 161 0
144 162 0
149 167 0
144 162 0
146 163 0
146 161 0
150 167 0
146 163 0
147 164 0
139 158 0
149 167 0
144 160 0
149 165 0
151 171 0
150 166 0
152 170 0
156 177 0
149 166 0
153 169 0
145 161 0
142 158 0
151 169 0
148 165 0
148 167 0
150 164 0
145 159 0
148 164 0
145 163 0
147 164 0
154 168 0
145 162 0
149 165 0
144 159 0
151 167 0
151 166 0
149 168 0
150 167 0
152 168 0
147 161 0
151 168 0
145 163 0
150 167 0
149 165 0
147 163 0
151 169 0
145 160 0
149 165 0
154 171 0
151 169 0
146 163 0
150 165 0
146 162 0
149 165 0
152 169 0
146 163 0
151 170 0
151 167 0
147 162 0
149 164 0
152 169 0
148 166 0
147 162 0
145 158 0
146 160 0
143 160 0
149 164 0
152 167 0
151 166 0
148 164 0
152 168 0
150 167 0
146 159 0
153 168 0
152 168 0
141 155 0
148 162 0
151 165 0
149 165 0
147 162 0
147 160 0
148 163 0
146 159 0
152 166 0
150 163 0
147 160 0
152 165 0
154 167 0
145 160 0
145 158 0
150 165 0
157 173 0
150 164 0
149 163 0
151 163 0
149 162 0
145 158 0
145 160 0
148 161 0
150 164 0
149 161 0
155 169 0
155 170 0
146 160 0
149 162 0
148 162 0
147 161 0
148 159 0
152 166 0
154 167 0
151 165 0
152 162 0
150 163 0
148 159 0
149 162 0
157 171 0
146 159 0
152 166 0
148 161 0
151 163 0
147 158 0
147 158 0
154 168 0
150 164 0
147 160 0
148 160 0
156 169 0
152 164 0
149 160 0
151 164 0
148 157 0
154 168 0
156 168 0
147 159 0
151 161 0
148 160 0
156 166 0
152 165 0
151 162 0
155 165 0
152 164 0
149 160 0
156 168 0
151 162 0
153 165 0
148 161 0
145 154 0
156 167 0
156 168 0
150 160 0
160 173 0
154 166 0
155 168 0
154 167 0
152 164 0
154 168 0
150 161 0
156 169 0
153 163 0
160 179 0
158 177 0
162 181 0
159 178 0
156 174 0
158 176 0
153 171 0
153 171 0
156 175 0
160 178 0
155 173 0
158 174 0
157 176 0
158 176 0
156 173 0
156 173 0
155 172 0
158 176 0
157 175 0
156 173 0
157 176 0
159 177 0
157 176 0
155 173 0
154 173 0
155 174 0
160 179 0
161 179 0
156 175 0
156 173 0
155 172 0
159 177 0
155 173 0
154 173 0
153 172 0
154 171 0
155 173 0
154 171 0
150 168 0
155 173 0
155 173 0
153 173 0
154 173 0
155 174 0
156 174 0
148 164 0
150 168 0
146 161 0
149 167 0
155 173 0
148 165 0
151 168 0
151 170 0
151 170 0
154 172 0
152 170 0
159 176 0
150 167 0
155 173 0
149 168 0
149 169 0
152 169 0
152 170 0
155 175 0
147 166 0
153 171 0
153 169 0
156 174 0
153 172 0
152 172 0
150 168 0
154 172 0
148 166 0
151 170 0
152 170 0
151 170 0
156 174 0
157 178 0
153 171 0
151 170 0
158 178 0
154 173 0
147 166 0
151 170 0
151 169 0
146 164 0
151 169 0
152 172 0
151 170 0
151 170 0
151 171 0
148 167 0
150 169 0
152 171 0
153 171 0
149 168 0
152 170 0
151 171 0
155 173 0
153 171 0
146 163 0
152 171 0
151 168 0
147 166 0
149 165 0
152 171 0
150 168 0
146 165 0
152 171 0
154 173 0
152 171 0
151 169 0
151 169 0
152 172 0
149 167 0
150 167 0
151 170 0
153 171 0
146 165 0
153 171 0
143 162 0
151 168 0
148 167 0
153 171 0
151 169 0
154 172 0
148 166 0
148 168 0
148 167 0
149 168 0
147 166 0
151 170 0
148 167 0
151 171 0
149 167 0
151 171 0
151 168 0
150 167 0
149 169 0
145 164 0
147 163 0
147 165 0
147 166 0
146 164 0
150 168 0
150 169 0
152 171 0
151 170 0
143 162 0
150 169 0
149 167 0
151 167 0
149 166 0
152 170 0
149 169 0
150 169 0
151 170 0
145 165 0
147 166 0
144 162 0
150 169 0
152 168 0
150 169 0
148 167 0
143 162 0
145 165 0
150 169 0
151 170 0
145 164 0
150 170 0
148 166 0
145 164 0
147 167 0
150 169 0
148 166 0
150 169 0
153 171 0
146 163 0
147 167 0
153 171 0
141 160 0
151 170 0
148 166 0
143 159 0
146 165 0
150 169 0
149 167 0
145 164 0
147 165 0
145 162 0
142 160 0
145 164 0
151 171 0
139 158 0
150 170 0
149 168 0
142 160 0
143 162 0
149 166 0
157 177 0
142 161 0
145 162 0
146 164 0
145 164 0
149 166 0
147 166 0
147 166 0
147 165 0
144 164 0
149 167 0
141 159 0
146 166 0
149 167 0
146 164 0
148 166 0
144 161 0
154 174 0
142 160 0
150 169 0
142 160 0
144 162 0
150 168 0
146 164 0
152 170 0
142 161 0
145 164 0
145 165 0
152 170 0
145 162 0
142 159 0
147 164 0
147 164 0
150 167 0
148 166 0
145 162 0
144 161 0
146 164 0
147 165 0
147 166 0
143 159 0
147 166 0
148 165 0
145 163 0
146 164 0
149 168 0
151 170 0
146 164 0
147 163 0
141 159 0
148 165 0
145 161 0
148 166 0
150 167 0
149 164 0
147 163 0
149 168 0
148 166 0
148 165 0
150 167 0
146 163 0
145 162 0
146 162 0
148 165 0
153 171 0
146 163 0
148 165 0
148 165 0
150 167 0
147 164 0
149 166 0
152 170 0
145 164 0
147 164 0
154 170 0
148 166 0
145 164 0
151 168 0
145 162 0
151 167 0
142 158 0
143 158 0
145 159 0
146 163 0
153 171 0
154 172 0
145 160 0
147 166 0
148 164 0
149 165 0
150 166 0
152 168 0
150 167 0
146 163 0
147 165 0
153 170 0
151 166 0
151 168 0
148 164 0
155 170 0
149 165 0
149 164 0
149 164 0
147 163 0
155 171 0
150 165 0
151 167 0
154 170 0
148 163 0
146 161 0
149 165 0
150 166 0
151 166 0
143 158 0
145 159 0
144 158 0
148 163 0
150 167 0
149 164 0
149 162 0
146 160 0
144 159 0
150 167 0
151 168 0
151 166 0
151 167 0
148 165 0
147 161 0
151 164 0
148 163 0
150 164 0
152 166 0
148 164 0
150 163 0
147 160 0
148 161 0
148 162 0
141 153 0
148 161 0
145 158 0
153 166 0
151 167 0
147 159 0
147 161 0
145 156 0
147 159 0
146 160 0
150 161 0
149 164 0
155 169 0
154 164 0
143 155 0
153 165 0
150 163 0
150 162 0
152 164 0
152 166 0
147 158 0
150 162 0
154 168 0
151 166 0
155 168 0
149 159 0
148 160 0
150 160 0
154 169 0
147 156 0
147 158 0
150 160 0
154 165 0
152 163 0
150 159 0
150 161 0
151 165 0
150 163 0
150 163 0
150 163 0
156 166 0
148 160 0
147 159 0
154 165 0
154 166 0
148 161 0
156 169 0
151 163 0
156 168 0
144 154 0
150 159 0
155 166 0
155 166 0
155 168 0
153 163 0
153 163 0
148 161 0
156 167 0
156 167 0
153 164 0
154 167 0
155 167 0
154 168 0
157 169 0
156 172 0
152 170 0
160 178 0
158 176 0
162 181 0
161 181 0
156 173 0
157 175 0
157 176 0
157 174 0
158 176 0
151 168 0
154 172 0
153 171 0
157 176 0
153 172 0
156 173 0
154 170 0
161 178 0
151 169 0
158 176 0
154 173 0
155 173 0
152 169 0
154 172 0
154 172 0
156 174 0
152 171 0
154 172 0
155 175 0
158 177 0
156 175 0
154 173 0
154 172 0
154 172 0
153 172 0
154 174 0
157 174 0
154 172 0
153 170 0
156 174 0
156 174 0
157 174 0
150 167 0
152 171 0
153 172 0
154 172 0
153 171 0
153 173 0
150 167 0
154 172 0
155 173 0
153 172 0
156 175 0
152 170 0
152 170 0
153 172 0
152 171 0
154 171 0
153 173 0
153 171 0
150 169 0
154 173 0
155 173 0
154 171 0
152 169 0
151 169 0
153 172 0
151 168 0
150 169 0
153 172 0
152 171 0
145 162 0
150 168 0
148 166 0
151 171 0
149 168 0
151 170 0
151 169 0
153 172 0
147 166 0
152 172 0
152 169 0
150 168 0
154 173 0
149 169 0
156 174 0
151 171 0
155 175 0
150 169 0
151 170 0
149 166 0
150 168 0
152 172 0
155 176 0
149 167 0
151 169 0
150 165 0
151 167 0
149 169 0
154 173 0
149 167 0
147 164 0
152 171 0
148 167 0
149 168 0
150 170 0
153 171 0
152 171 0
153 171 0
148 166 0
149 168 0
152 172 0
152 171 0
150 168 0
149 168 0
146 165 0
148 166 0
151 172 0
152 172 0
143 162 0
150 168 0
153 173 0
150 170 0
149 167 0
147 165 0
147 167 0
152 171 0
151 170 0
150 168 0
150 169 0
147 168 0
147 166 0
151 170 0
149 169 0
153 171 0
153 171 0
145 162 0
145 162 0
152 170 0
145 163 0
152 170 0
152 170 0
150 169 0
146 164 0
147 164 0
144 165 0
152 169 0
152 172 0
147 165 0
151 171 0
150 167 0
151 169 0
148 166 0
150 169 0
144 163 0
154 172 0
148 167 0
146 165 0
146 165 0
150 169 0
151 169 0
149 168 0
150 169 0
150 168 0
147 165 0
147 165 0
152 170 0
151 169 0
146 163 0
148 168 0
145 163 0
146 163 0
147 165 0
150 168 0
147 164 0
148 165 0
145 163 0
152 173 0
143 162 0
149 167 0
141 161 0
144 160 0
148 166 0
149 167 0
151 170 0
146 164 0
149 169 0
150 171 0
143 161 0
144 163 0
148 166 0
145 166 0
153 172 0
151 170 0
147 167 0
147 167 0
145 165 0
147 164 0
152 170 0
145 162 0
150 169 0
147 165 0
145 164 0
147 167 0
146 165 0
149 167 0
150 171 0
147 167 0
147 164 0
148 163 0
145 161 0
146 163 0
148 166 0
154 174 0
143 161 0
147 165 0
148 166 0
147 165 0
145 160 0
148 165 0
152 171 0
148 166 0
142 161 0
144 163 0
145 163 0
150 167 0
150 167 0
148 167 0
141 157 0
143 160 0
145 163 0
144 162 0
143 161 0
145 160 0
149 169 0
150 169 0
149 168 0
142 158 0
145 163 0
145 163 0
152 170 0
144 161 0
146 163 0
150 168 0
146 164 0
154 173 0
152 172 0
153 170 0
145 162 0
148 165 0
148 167 0
149 166 0
155 171 0
146 163 0
150 167 0
142 158 0
146 165 0
148 167 0
144 160 0
145 161 0
152 167 0
148 166 0
147 164 0
147 165 0
142 158 0
148 165 0
146 162 0
151 167 0
147 163 0
148 163 0
149 168 0
148 164 0
150 168 0
152 169 0
144 159 0
149 166 0
149 164 0
151 165 0
150 166 0
144 161 0
150 169 0
149 165 0
149 164 0
151 168 0
148 165 0
145 161 0
147 162 0
146 163 0
153 171 0
152 168 0
149 166 0
150 167 0
150 168 0
150 166 0
149 164 0
147 161 0
151 167 0
144 158 0
148 163 0
148 165 0
148 165 0
149 164 0
150 163 0
148 163 0
145 159 0
157 175 0
147 165 0
151 166 0
155 172 0
146 160 0
150 167 0
146 161 0
148 164 0
148 163 0
150 163 0
149 163 0
147 162 0
147 163 0
144 158 0
151 167 0
150 164 0
144 159 0
148 163 0
146 159 0
147 161 0
149 163 0
152 166 0
147 161 0
155 171 0
156 168 0
146 160 0
152 167 0
147 160 0
150 165 0
149 165 0
150 166 0
145 158 0
149 161 0
148 162 0
149 162 0
148 161 0
148 162 0
150 163 0
147 162 0
150 165 0
150 163 0
142 155 0
150 163 0
152 164 0
150 163 0
149 160 0
151 164 0
152 166 0
149 163 0
154 169 0
150 162 0
150 161 0
149 163 0
146 158 0
151 164 0
149 162 0
154 167 0
156 170 0
150 164 0
153 166 0
149 162 0
152 166 0
152 166 0
154 168 0
152 164 0
154 166 0
144 155 0
156 171 0
148 161 0
150 163 0
155 167 0
151 163 0
154 168 0
149 159 0
153 163 0
153 165 0
153 165 0
147 160 0
152 163 0
148 159 0
151 163 0
153 165 0
152 162 0
150 163 0
157 171 0
152 165 0
150 160 0
157 170 0
154 169 0
152 165 0
151 163 0
153 163 0
153 165 0
152 164 0
159 178 0
158 176 0
157 175 0
156 174 0
155 174 0
158 176 0
157 176 0
157 176 0
157 173 0
159 178 0
157 175 0
157 175 0
153 170 0
155 173 0
160 180 0
154 172 0
153 170 0
157 175 0
154 173 0
155 174 0
154 173 0
155 173 0
155 174 0
157 175 0
156 174 0
156 175 0
155 174 0
154 174 0
157 176 0
155 173 0
157 174 0
151 171 0
153 172 0
157 175 0
155 173 0
152 170 0
148 167 0
157 176 0
154 172 0
150 167 0
158 177 0
151 169 0
153 173 0
154 173 0
151 169 0
156 173 0
153 172 0
155 175 0
151 168 0
152 172 0
152 171 0
152 170 0
156 175 0
154 173 0
151 166 0
151 168 0
151 170 0
151 170 0
154 173 0
153 171 0
152 169 0
149 167 0
152 171 0
153 171 0
155 174 0
149 167 0
150 168 0
153 173 0
151 168 0
154 172 0
148 167 0
148 167 0
156 175 0
157 174 0
153 171 0
147 165 0
150 169 0
148 167 0
152 171 0
154 173 0
152 171 0
154 172 0
147 166 0
152 171 0
156 174 0
152 171 0
147 165 0
151 170 0
148 167 0
149 168 0
147 166 0
150 168 0
145 165 0
154 174 0
153 172 0
147 165 0
151 168 0
153 171 0
152 170 0
155 174 0
151 169 0
154 173 0
148 165 0
149 168 0
154 172 0
150 168 0
154 173 0
150 167 0
150 167 0
146 165 0
150 170 0
152 171 0
151 170 0
149 168 0
153 172 0
155 176 0
148 167 0
152 171 0
149 165 0
152 169 0
153 172 0
149 166 0
152 172 0
153 172 0
149 169 0
155 171 0
151 170 0
152 169 0
151 171 0
152 170 0
147 165 0
150 169 0
151 170 0
151 171 0
154 173 0
146 165 0
155 173 0
151 169 0
147 165 0
149 166 0
152 171 0
150 168 0
145 164 0
152 170 0
146 166 0
152 168 0
149 167 0
153 171 0
144 162 0
152 170 0
142 161 0
146 164 0
142 160 0
149 169 0
152 169 0
143 162 0
155 174 0
149 168 0
146 163 0
150 167 0
146 163 0
152 171 0
146 163 0
150 168 0
148 166 0
145 163 0
149 167 0
149 166 0
150 169 0
151 170 0
149 166 0
152 170 0
146 165 0
147 167 0
151 171 0
148 167 0
148 167 0
149 167 0
151 170 0
149 166 0
149 169 0
151 171 0
146 165 0
147 166 0
149 169 0
150 169 0
149 168 0
146 164 0
144 161 0
143 162 0
146 166 0
146 166 0
152 171 0
148 166 0
151 169 0
144 162 0
142 159 0
147 165 0
148 163 0
143 160 0
143 161 0
147 165 0
145 164 0
148 166 0
146 164 0
150 169 0
148 165 0
148 166 0
146 165 0
147 164 0
151 170 0
147 163 0
144 161 0
148 164 0
148 166 0
143 160 0
147 165 0
143 162 0
146 165 0
150 168 0
147 165 0
146 166 0
146 165 0
152 171 0
150 169 0
144 163 0
147 165 0
144 161 0
148 168 0
152 170 0
151 169 0
149 166 0
148 166 0
150 168 0
147 165 0
151 170 0
149 165 0
149 165 0
141 159 0
152 170 0
148 167 0
148 166 0
148 166 0
145 164 0
148 166 0
148 164 0
148 166 0
149 168 0
145 163 0
150 168 0
150 166 0
148 165 0
151 167 0
152 169 0
148 163 0
149 166 0
149 166 0
148 165 0
144 162 0
148 165 0
144 160 0
145 163 0
148 164 0
148 165 0
148 165 0
146 164 0
148 163 0
152 169 0
155 174 0
155 173 0
146 162 0
144 161 0
151 168 0
155 173 0
148 164 0
146 159 0
146 161 0
152 170 0
150 166 0
147 163 0
148 163 0
150 167 0
147 161 0
145 162 0
153 168 0
148 164 0
150 167 0
147 162 0
147 164 0
148 164 0
151 168 0
155 173 0
146 162 0
154 170 0
146 162 0
149 165 0
152 168 0
148 163 0
151 168 0
150 166 0
149 166 0
156 173 0
147 163 0
146 164 0
154 168 0
149 164 0
145 161 0
153 170 0
147 163 0
147 162 0
149 164 0
149 164 0
149 165 0
148 164 0
150 167 0
152 166 0
150 165 0
149 165 0
148 163 0
148 162 0
150 165 0
149 166 0
151 166 0
152 166 0
149 167 0
153 169 0
148 162 0
154 167 0
148 162 0
149 164 0
152 167 0
151 167 0
154 171 0
150 163 0
149 164 0
149 163 0
153 167 0
146 161 0
150 163 0
149 161 0
151 166 0
155 168 0
152 166 0
152 167 0
151 164 0
148 158 0
151 165 0
146 161 0
155 170 0
150 167 0
149 163 0
149 163 0
149 163 0
147 159 0
150 165 0
144 159 0
152 166 0
151 164 0
157 171 0
152 166 0
154 170 0
149 162 0
155 167 0
154 167 0
148 161 0
149 161 0
148 159 0
151 165 0
152 166 0
155 168 0
147 158 0
152 163 0
153 166 0
147 159 0
151 161 0
152 165 0
153 167 0
155 167 0
154 166 0
155 166 0
150 161 0
149 158 0
151 165 0
155 169 0
153 163 0
158 171 0
153 165 0
151 163 0
156 169 0
151 161 0
155 167 0
154 166 0
157 170 0
156 169 0
153 164 0
149 161 0
151 162 0
157 170 0
153 165 0
158 171 0
157 176 0
158 177 0
160 179 0
156 176 0
158 175 0
160 180 0
157 176 0
156 174 0
161 182 0
160 178 0
161 180 0
157 176 0
156 173 0
155 174 0
155 173 0
158 176 0
151 169 0
158 176 0
154 172 0
157 176 0
159 177 0
154 173 0
161 180 0
156 173 0
159 178 0
158 177 0
153 171 0
157 177 0
152 169 0
156 175 0
159 178 0
157 175 0
153 169 0
158 177 0
155 175 0
156 173 0
154 172 0
156 174 0
154 172 0
151 169 0
151 169 0
153 170 0
152 170 0
158 177 0
152 169 0
156 175 0
156 174 0
154 172 0
151 169 0
159 178 0
154 173 0
154 173 0
155 174 0
154 173 0
148 167 0
156 175 0
151 170 0
150 168 0
155 173 0
153 170 0
154 173 0
154 172 0
155 174 0
152 171 0
154 173 0
154 172 0
155 173 0
146 165 0
148 166 0
153 172 0
153 171 0
152 172 0
151 168 0
153 171 0
151 171 0
148 165 0
151 171 0
149 168 0
155 174 0
153 172 0
155 174 0
151 171 0
151 170 0
153 173 0
158 176 0
150 170 0
151 170 0
154 173 0
148 167 0
152 170 0
151 171 0
151 170 0
156 175 0
157 175 0
153 172 0
150 168 0
149 168 0
150 168 0
153 172 0
153 171 0
154 174 0
147 163 0
153 172 0
154 172 0
148 168 0
154 174 0
153 173 0
150 168 0
155 175 0
145 162 0
148 166 0
154 174 0
148 166 0
150 168 0
155 174 0
153 173 0
150 166 0
153 172 0
152 170 0
150 169 0
150 169 0
149 168 0
148 167 0
150 169 0
151 169 0
154 173 0
151 171 0
150 169 0
148 167 0
150 168 0
147 166 0
147 165 0
150 169 0
153 172 0
151 168 0
153 171 0
148 166 0
156 176 0
148 168 0
149 168 0
154 172 0
148 168 0
150 171 0
150 169 0
151 171 0
147 166 0
153 172 0
152 173 0
149 165 0
150 170 0
155 174 0
152 171 0
152 170 0
141 156 0
152 171 0
144 161 0
149 168 0
145 164 0
151 171 0
149 166 0
148 168 0
147 166 0
149 167 0
147 165 0
150 168 0
149 166 0
147 166 0
149 167 0
147 166 0
149 168 0
152 169 0
151 168 0
148 165 0
153 172 0
152 171 0
151 169 0
149 166 0
146 164 0
152 173 0
149 168 0
154 174 0
153 171 0
152 170 0
148 169 0
151 170 0
148 166 0
150 167 0
151 170 0
150 169 0
149 167 0
150 169 0
152 171 0
149 166 0
149 166 0
145 162 0
146 165 0
146 164 0
143 162 0
151 170 0
150 168 0
149 168 0
148 167 0
146 165 0
150 167 0
154 173 0
146 163 0
142 160 0
148 166 0
145 162 0
146 163 0
145 162 0
145 164 0
149 165 0
151 169 0
148 164 0
141 158 0
147 164 0
145 163 0
151 169 0
152 170 0
145 164 0
147 164 0
152 170 0
146 165 0
147 164 0
148 166 0
147 166 0
150 167 0
146 165 0
149 169 0
144 163 0
148 167 0
147 165 0
146 164 0
148 168 0
149 167 0
150 167 0
148 165 0
145 162 0
152 170 0
150 168 0
151 169 0
146 162 0
151 169 0
147 163 0
148 165 0
150 167 0
145 163 0
148 167 0
152 169 0
145 163 0
147 165 0
144 161 0
150 168 0
146 164 0
151 168 0
150 169 0
149 167 0
153 172 0
147 164 0
151 169 0
143 160 0
148 167 0
149 166 0
150 168 0
146 165 0
143 161 0
147 164 0
151 169 0
150 165 0
145 163 0
147 163 0
146 163 0
147 165 0
150 168 0
150 166 0
145 161 0
149 166 0
145 162 0
149 167 0
150 167 0
151 166 0
151 167 0
144 159 0
148 166 0
151 169 0
150 166 0
148 165 0
148 163 0
151 169 0
149 164 0
155 174 0
145 160 0
153 172 0
155 173 0
147 162 0
151 167 0
146 163 0
150 165 0
147 163 0
156 171 0
150 166 0
145 161 0
147 162 0
147 163 0
147 162 0
154 170 0
148 162 0
150 167 0
150 163 0
152 169 0
149 163 0
147 162 0
148 164 0
149 164 0
146 159 0
156 172 0
151 166 0
148 164 0
149 163 0
143 158 0
148 162 0
147 161 0
152 167 0
150 165 0
149 162 0
152 169 0
152 167 0
149 166 0
148 163 0
150 165 0
149 162 0
149 163 0
154 169 0
155 172 0
148 161 0
146 160 0
147 161 0
151 166 0
146 161 0
156 170 0
150 165 0
152 167 0
148 160 0
149 163 0
149 163 0
157 173 0
147 160 0
145 157 0
154 168 0
151 164 0
148 163 0
156 169 0
152 167 0
150 164 0
149 162 0
151 162 0
151 162 0
155 167 0
148 160 0
152 165 0
150 164 0
151 167 0
151 161 0
151 164 0
155 168 0
153 167 0
150 162 0
154 166 0
152 166 0
152 166 0
157 170 0
153 165 0
153 163 0
155 168 0
153 166 0
154 166 0
156 170 0
151 161 0
150 163 0
154 166 0
152 164 0
152 164 0
151 164 0
150 163 0
150 163 0
150 163 0
152 162 0
156 170 0
152 165 0
153 166 0
153 167 0
151 164 0
152 163 0
157 170 0
156 168 0
157 171 0
149 158 0
154 166 0
153 166 0
158 177 0
160 177 0
161 180 0
159 177 0
160 178 0
157 176 0
156 174 0
156 173 0
155 173 0
157 176 0
157 176 0
159 178 0
156 173 0
160 179 0
159 177 0
156 176 0
156 174 0
151 169 0
154 171 0
154 174 0
158 175 0
160 178 0
159 178 0
156 175 0
156 174 0
154 173 0
154 171 0
158 177 0
156 174 0
155 173 0
157 176 0
154 172 0
156 173 0
158 174 0
156 174 0
155 173 0
153 173 0
153 171 0
154 172 0
151 167 0
157 176 0
154 173 0
155 173 0
153 172 0
156 175 0
152 170 0
154 172 0
160 179 0
154 172 0
152 170 0
156 174 0
150 168 0
155 173 0
159 180 0
155 172 0
155 174 0
156 173 0
150 170 0
157 174 0
153 170 0
152 170 0
155 176 0
157 175 0
152 173 0
156 174 0
154 175 0
154 172 0
152 171 0
156 175 0
157 176 0
152 170 0
149 167 0
153 172 0
154 173 0
149 168 0
152 170 0
154 172 0
150 168 0
144 163 0
148 166 0
145 165 0
154 173 0
148 167 0
155 176 0
154 172 0
147 167 0
150 168 0
154 172 0
152 171 0
159 179 0
149 169 0
149 169 0
155 173 0
151 171 0
151 169 0
147 165 0
152 171 0
156 173 0
152 170 0
154 174 0
155 173 0
152 171 0
153 173 0
151 170 0
153 172 0
156 176 0
153 173 0
152 172 0
152 172 0
151 171 0
151 170 0
149 168 0
152 173 0
154 174 0
150 167 0
150 168 0
152 170 0
152 169 0
154 174 0
151 171 0
149 167 0
154 172 0
150 169 0
153 171 0
150 168 0
147 166 0
153 173 0
155 175 0
152 170 0
148 168 0
155 175 0
151 169 0
147 167 0
143 162 0
151 170 0
152 171 0
150 169 0
149 168 0
154 172 0
153 172 0
150 168 0
149 169 0
153 172 0
152 171 0
155 174 0
149 167 0
150 168 0
151 169 0
149 168 0
151 168 0
151 171 0
154 174 0
147 164 0
149 165 0
152 171 0
148 166 0
150 168 0
150 170 0
150 168 0
148 166 0
145 162 0
151 170 0
144 160 0
149 168 0
146 165 0
144 163 0
145 164 0
148 165 0
151 168 0
151 169 0
151 169 0
149 167 0
150 168 0
145 164 0
148 167 0
147 165 0
144 163 0
148 166 0
149 168 0
152 171 0
149 167 0
150 170 0
145 166 0
154 174 0
146 164 0
146 163 0
154 173 0
147 164 0
146 165 0
153 172 0
149 168 0
145 163 0
149 167 0
146 164 0
146 164 0
148 166 0
149 168 0
144 162 0
151 170 0
145 163 0
152 169 0
154 172 0
149 169 0
152 171 0
142 160 0
143 161 0
153 173 0
150 170 0
143 161 0
148 165 0
150 169 0
151 170 0
149 167 0
152 169 0
145 161 0
143 161 0
151 169 0
147 163 0
151 170 0
146 165 0
146 164 0
152 171 0
150 168 0
149 166 0
146 165 0
148 166 0
143 158 0
147 165 0
147 164 0
149 166 0
144 163 0
147 164 0
147 163 0
147 167 0
152 168 0
148 167 0
152 170 0
150 168 0
150 167 0
150 168 0
143 161 0
152 170 0
149 168 0
145 162 0
150 167 0
151 169 0
145 163 0
149 164 0
155 172 0
151 168 0
152 169 0
151 166 0
148 163 0
147 166 0
146 163 0
149 166 0
149 166 0
150 167 0
146 163 0
147 166 0
146 164 0
147 163 0
149 168 0
155 172 0
148 165 0
152 167 0
144 163 0
149 166 0
149 168 0
152 169 0
146 165 0
150 167 0
148 165 0
146 164 0
147 165 0
149 167 0
150 168 0
148 164 0
151 170 0
150 167 0
150 165 0
154 172 0
151 171 0
154 172 0
150 167 0
146 163 0
150 166 0
151 166 0
151 168 0
145 162 0
151 169 0
150 166 0
150 169 0
151 167 0
151 166 0
144 161 0
146 163 0
150 166 0
150 166 0
151 167 0
149 165 0
149 166 0
149 166 0
150 165 0
148 164 0
150 163 0
154 171 0
152 171 0
151 167 0
150 164 0
149 165 0
148 163 0
149 165 0
152 169 0
150 166 0
155 170 0
148 165 0
147 164 0
149 165 0
152 166 0
152 168 0
152 168 0
153 167 0
146 161 0
155 171 0
144 158 0
145 159 0
153 166 0
154 169 0
153 167 0
154 170 0
149 164 0
154 168 0
151 166 0
149 162 0
150 165 0
148 162 0
147 161 0
152 166 0
150 165 0
145 158 0
155 170 0
145 156 0
152 167 0
150 163 0
151 165 0
155 171 0
152 166 0
150 165 0
151 165 0
147 159 0
154 166 0
148 161 0
151 165 0
154 169 0
151 164 0
154 168 0
149 161 0
152 166 0
146 156 0
151 163 0
153 165 0
150 162 0
153 167 0
150 161 0
153 168 0
154 168 0
148 161 0
149 160 0
154 168 0
151 164 0
150 162 0
148 161 0
151 163 0
153 167 0
147 159 0
154 167 0
148 161 0
154 167 0
150 164 0
147 158 0
157 169 0
157 170 0
153 166 0
155 168 0
149 161 0
154 169 0
158 172 0
160 173 0
158 172 0
152 162 0
153 166 0
154 167 0
153 166 0
152 164 0
155 166 0
154 165 0
147 159 0
158 172 0
153 166 0
160 179 0
157 175 0
157 174 0
153 170 0
154 173 0
159 177 0
155 172 0
156 175 0
153 171 0
160 179 0
157 175 0
156 175 0
159 178 0
154 173 0
158 175 0
154 171 0
155 174 0
156 175 0
160 179 0
154 172 0
152 170 0
153 172 0
154 173 0
160 179 0
155 174 0
152 171 0
156 174 0
156 173 0
159 177 0
157 175 0
154 172 0
156 173 0
156 175 0
150 170 0
156 174 0
156 174 0
158 175 0
147 163 0
155 175 0
149 167 0
151 170 0
155 173 0
152 169 0
156 175 0
155 171 0
153 172 0
154 173 0
150 169 0
152 171 0
155 174 0
155 173 0
152 170 0
154 170 0
151 170 0
153 171 0
148 167 0
153 172 0
155 174 0
154 173 0
149 165 0
154 173 0
156 175 0
154 174 0
149 166 0
149 168 0
150 169 0
156 174 0
151 170 0
155 175 0
152 171 0
155 173 0
157 174 0
149 166 0
153 171 0
153 173 0
153 171 0
154 174 0
151 169 0
148 168 0
152 170 0
153 170 0
156 176 0
154 174 0
159 180 0
152 171 0
152 172 0
155 175 0
148 166 0
153 171 0
149 169 0
148 167 0
155 174 0
153 174 0
152 170 0
146 166 0
151 170 0
151 171 0
151 170 0
153 173 0
154 173 0
154 173 0
152 170 0
147 166 0
154 173 0
159 178 0
149 167 0
150 168 0
145 162 0
151 167 0
151 169 0
147 166 0
145 163 0
152 172 0
152 170 0
149 168 0
154 172 0
156 174 0
154 174 0
155 176 0
155 176 0
152 171 0
148 167 0
154 174 0
150 169 0
148 167 0
150 169 0
150 169 0
147 167 0
148 167 0
153 171 0
150 168 0
147 165 0
153 170 0
151 172 0
153 173 0
152 171 0
147 165 0
151 171 0
156 174 0
147 165 0
149 166 0
150 171 0
149 167 0
145 165 0
149 167 0
153 171 0
149 168 0
151 171 0
149 169 0
156 173 0
153 173 0
147 166 0
152 170 0
146 165 0
146 163 0
151 171 0
154 173 0
150 169 0
149 165 0
146 163 0
149 167 0
152 171 0
149 168 0
151 169 0
149 166 0
151 169 0
152 171 0
145 164 0
150 168 0
148 167 0
154 173 0
147 164 0
148 165 0
152 173 0
149 168 0
152 170 0
146 165 0
149 167 0
144 163 0
149 168 0
151 169 0
149 169 0
150 169 0
153 173 0
148 167 0
147 166 0
149 166 0
149 168 0
150 169 0
150 169 0
152 171 0
143 160 0
151 169 0
147 166 0
147 165 0
151 169 0
151 169 0
143 160 0
152 172 0
148 167 0
154 173 0
149 168 0
144 162 0
149 167 0
151 168 0
148 167 0
151 171 0
152 171 0
147 166 0
150 167 0
144 163 0
152 171 0
150 168 0
145 164 0
148 166 0
149 168 0
152 171 0
149 169 0
147 165 0
151 169 0
153 170 0
149 166 0
146 164 0
150 168 0
147 166 0
152 170 0
146 165 0
149 168 0
150 168 0
145 161 0
147 165 0
155 173 0
144 162 0
150 169 0
153 172 0
148 166 0
148 166 0
146 165 0
147 165 0
151 170 0
151 168 0
153 170 0
147 164 0
147 164 0
149 167 0
153 172 0
150 168 0
147 165 0
145 160 0
148 166 0
148 165 0
156 175 0
150 168 0
146 165 0
149 166 0
150 169 0
152 169 0
144 159 0
150 168 0
149 167 0
155 173 0
152 168 0
151 169 0
152 169 0
146 163 0
154 171 0
141 159 0
147 165 0
148 163 0
151 169 0
154 171 0
150 167 0
152 170 0
149 167 0
149 166 0
151 168 0
148 164 0
148 166 0
152 168 0
150 168 0
146 162 0
154 169 0
151 168 0
144 159 0
144 159 0
147 162 0
146 161 0
147 167 0
147 165 0
148 164 0
151 169 0
147 162 0
153 169 0
144 162 0
151 167 0
149 165 0
157 173 0
150 166 0
149 164 0
150 166 0
148 163 0
152 170 0
150 165 0
152 167 0
151 170 0
152 168 0
146 164 0
150 167 0
154 170 0
149 164 0
149 164 0
149 166 0
150 166 0
151 166 0
147 163 0
147 164 0
149 164 0
150 165 0
144 159 0
149 163 0
149 162 0
149 167 0
150 165 0
148 163 0
150 165 0
153 167 0
149 164 0
151 164 0
153 170 0
150 166 0
148 163 0
150 167 0
148 164 0
153 169 0
147 161 0
146 160 0
156 170 0
150 163 0
152 167 0
149 162 0
152 166 0
149 161 0
149 164 0
150 165 0
151 167 0
152 166 0
152 165 0
152 165 0
147 163 0
148 161 0
149 163 0
148 161 0
155 168 0
151 163 0
154 168 0
150 165 0
147 159 0
149 160 0
151 166 0
157 170 0
153 167 0
151 166 0
152 164 0
154 169 0
148 162 0
150 163 0
157 173 0
151 167 0
152 165 0
156 171 0
153 166 0
153 165 0
151 163 0
153 166 0
151 164 0
157 171 0
149 159 0
149 159 0
155 169 0
154 170 0
149 159 0
148 160 0
152 165 0
157 171 0
151 163 0
150 163 0
152 164 0
156 171 0
154 165 0
152 166 0
152 164 0
156 169 0
153 168 0
156 170 0
154 166 0
150 162 0
153 167 0
156 169 0
152 166 0
156 169 0
159 177 0
156 175 0
160 178 0
154 173 0
162 181 0
158 178 0
161 179 0
160 178 0
154 172 0
158 176 0
158 178 0
157 176 0
154 172 0
161 179 0
154 172 0
156 174 0
159 178 0
156 174 0
155 174 0
155 174 0
158 177 0
156 175 0
155 173 0
155 174 0
155 174 0
158 177 0
151 169 0
155 174 0
153 172 0
156 174 0
155 173 0
158 176 0
157 177 0
156 175 0
158 178 0
156 174 0
154 174 0
153 172 0
157 175 0
150 169 0
157 175 0
154 171 0
153 172 0
157 176 0
154 171 0
152 169 0
156 175 0
156 175 0
156 176 0
155 174 0
149 167 0
155 174 0
159 178 0
152 172 0
153 171 0
152 170 0
153 171 0
152 170 0
153 172 0
158 177 0
153 173 0
152 170 0
159 178 0
151 170 0
152 171 0
155 172 0
155 174 0
152 171 0
152 170 0
150 168 0
154 172 0
147 166 0
157 177 0
149 168 0
146 166 0
150 170 0
153 172 0
151 171 0
154 173 0
150 169 0
148 167 0
151 171 0
153 172 0
149 166 0
155 175 0
157 178 0
148 168 0
152 169 0
150 168 0
145 163 0
153 173 0
155 175 0
149 166 0
152 172 0
150 168 0
154 173 0
152 171 0
152 171 0
153 173 0
149 169 0
153 173 0
149 167 0
151 170 0
156 175 0
152 171 0
153 172 0
155 175 0
150 169 0
150 169 0
150 168 0
150 169 0
151 171 0
152 171 0
151 171 0
148 168 0
151 169 0
151 171 0
151 170 0
152 170 0
151 170 0
148 166 0
154 175 0
148 167 0
152 172 0
148 169 0
154 172 0
152 170 0
157 177 0
152 171 0
152 172 0
156 176 0
150 169 0
152 171 0
149 167 0
147 164 0
149 168 0
147 164 0
150 169 0
146 164 0
143 161 0
158 177 0
152 170 0
156 175 0
150 169 0
151 170 0
149 167 0
151 171 0
152 173 0
150 170 0
150 169 0
150 171 0
149 169 0
149 167 0
149 168 0
149 169 0
147 166 0
152 172 0
150 171 0
149 165 0
145 164 0
145 165 0
152 173 0
148 166 0
152 171 0
143 161 0
148 168 0
144 162 0
147 167 0
146 166 0
151 168 0
153 172 0
151 169 0
153 173 0
146 164 0
150 168 0
151 169 0
151 169 0
147 166 0
149 167 0
146 165 0
147 165 0
151 169 0
149 168 0
147 164 0
148 167 0
143 159 0
150 169 0
148 166 0
150 169 0
148 165 0
150 169 0
147 165 0
151 168 0
148 166 0
151 168 0
156 173 0
145 163 0
151 169 0
144 159 0
150 168 0
145 162 0
145 164 0
148 167 0
146 164 0
150 169 0
146 165 0
150 169 0
149 167 0
147 165 0
146 164 0
148 166 0
148 166 0
147 166 0
153 171 0
144 162 0
148 164 0
151 170 0
149 168 0
144 162 0
147 164 0
148 165 0
156 175 0
150 168 0
151 168 0
148 166 0
150 168 0
149 165 0
150 169 0
152 171 0
149 166 0
152 169 0
145 163 0
150 169 0
150 166 0
154 171 0
146 161 0
148 167 0
149 167 0
147 165 0
150 167 0
152 170 0
147 164 0
153 172 0
148 167 0
150 167 0
143 159 0
147 165 0
149 166 0
152 168 0
149 166 0
147 164 0
147 163 0
148 166 0
150 168 0
150 168 0
151 170 0
149 166 0
144 159 0
154 172 0
147 165 0
153 170 0
152 169 0
149 164 0
147 164 0
151 169 0
146 164 0
152 169 0
149 168 0
151 167 0
151 170 0
148 166 0
152 171 0
153 170 0
153 170 0
149 165 0
145 162 0
151 169 0
146 163 0
153 170 0
147 163 0
152 170 0
148 164 0
144 160 0
148 165 0
155 173 0
154 172 0
148 164 0
155 172 0
153 170 0
156 173 0
151 166 0
151 168 0
150 167 0
147 163 0
148 163 0
150 167 0
147 162 0
151 168 0
153 169 0
151 164 0
154 172 0
146 161 0
149 166 0
149 165 0
151 166 0
148 165 0
153 170 0
148 164 0
147 164 0
149 166 0
152 168 0
145 156 0
147 162 0
147 162 0
151 170 0
151 166 0
145 161 0
148 161 0
150 166 0
152 168 0
151 167 0
150 164 0
153 170 0
157 173 0
150 166 0
154 172 0
151 169 0
151 167 0
152 167 0
153 171 0
151 166 0
152 166 0
149 163 0
153 167 0
150 166 0
151 166 0
151 166 0
149 164 0
148 161 0
150 164 0
153 167 0
154 170 0
149 163 0
151 166 0
152 168 0
153 167 0
155 170 0
154 168 0
149 165 0
148 163 0
153 167 0
151 166 0
151 165 0
150 165 0
154 170 0
152 167 0
148 161 0
149 163 0
152 165 0
150 164 0
153 169 0
154 169 0
150 163 0
151 164 0
153 167 0
152 167 0
153 167 0
153 166 0
154 166 0
152 165 0
148 160 0
148 162 0
150 166 0
156 169 0
155 169 0
153 167 0
158 170 0
152 165 0
150 165 0
159 174 0
152 166 0
151 164 0
150 164 0
152 165 0
153 168 0
151 164 0
153 167 0
156 169 0
153 168 0
154 163 0
153 166 0
155 170 0
153 165 0
156 168 0
155 166 0
151 162 0
154 166 0
151 165 0
147 160 0
152 164 0
158 175 0
155 174 0
160 177 0
161 180 0
162 180 0
158 176 0
157 175 0
158 176 0
160 178 0
156 175 0
156 175 0
158 177 0
158 176 0
156 174 0
160 180 0
160 180 0
158 178 0
159 177 0
153 171 0
155 173 0
159 179 0
157 176 0
158 177 0
156 175 0
157 175 0
156 174 0
155 175 0
155 173 0
155 173 0
154 172 0
157 175 0
157 175 0
155 174 0
153 172 0
154 173 0
155 173 0
159 178 0
155 173 0
155 174 0
156 176 0
162 182 0
155 173 0
159 176 0
154 173 0
156 175 0
158 177 0
158 179 0
154 174 0
146 164 0
153 171 0
153 171 0
153 171 0
151 170 0
153 170 0
154 173 0
155 173 0
157 175 0
154 173 0
156 175 0
151 171 0
154 173 0
149 169 0
150 168 0
155 173 0
151 169 0
154 172 0
156 175 0
152 170 0
154 174 0
156 174 0
154 174 0
153 172 0
150 167 0
153 169 0
151 171 0
155 175 0
157 176 0
156 175 0
152 169 0
158 177 0
149 169 0
154 173 0
153 172 0
155 174 0
153 172 0
155 175 0
152 170 0
154 172 0
156 174 0
150 169 0
153 172 0
154 174 0
150 168 0
149 170 0
154 173 0
152 170 0
151 171 0
148 168 0
153 172 0
149 169 0
152 170 0
148 167 0
150 168 0
151 170 0
151 168 0
150 170 0
151 169 0
146 164 0
152 172 0
152 172 0
149 168 0
155 174 0
153 172 0
150 168 0
154 175 0
150 170 0
151 170 0
151 171 0
151 170 0
147 167 0
155 174 0
148 166 0
145 163 0
150 169 0
151 169 0
153 173 0
151 170 0
152 171 0
149 169 0
153 173 0
147 167 0
148 167 0
154 173 0
150 169 0
150 170 0
150 171 0
149 167 0
147 166 0
148 166 0
152 171 0
145 165 0
150 169 0
149 169 0
147 165 0
151 170 0
153 172 0
151 170 0
151 169 0
148 166 0
147 169 0
153 172 0
149 167 0
149 166 0
152 172 0
148 167 0
147 166 0
151 171 0
147 165 0
152 171 0
150 168 0
148 166 0
155 175 0
149 166 0
148 166 0
143 160 0
151 171 0
147 166 0
143 162 0
152 172 0
149 169 0
153 172 0
148 167 0
152 171 0
149 167 0
155 172 0
153 173 0
152 172 0
150 171 0
151 170 0
151 170 0
151 170 0
145 161 0
151 170 0
149 166 0
154 174 0
147 167 0
152 171 0
151 171 0
146 163 0
149 167 0
144 162 0
152 172 0
150 168 0
145 162 0
148 166 0
151 170 0
141 158 0
155 174 0
150 168 0
152 170 0
150 169 0
150 168 0
145 164 0
149 170 0
148 167 0
149 167 0
152 168 0
144 163 0
152 170 0
149 166 0
146 165 0
145 164 0
151 169 0
149 169 0
151 169 0
146 164 0
150 168 0
144 163 0
152 171 0
154 173 0
145 162 0
141 158 0
147 166 0
153 171 0
150 166 0
147 164 0
148 166 0
149 168 0
146 166 0
145 165 0
145 164 0
146 165 0
148 167 0
147 166 0
146 164 0
149 165 0
143 160 0
147 165 0
155 173 0
149 165 0
148 166 0
147 164 0
146 164 0
149 168 0
148 166 0
146 165 0
153 172 0
152 169 0
152 169 0
150 168 0
148 165 0
152 168 0
147 166 0
149 165 0
149 167 0
151 166 0
145 163 0
149 164 0
153 172 0
153 173 0
145 163 0
147 163 0
149 166 0
147 165 0
147 163 0
149 167 0
149 164 0
146 162 0
153 170 0
154 174 0
149 166 0
147 165 0
148 165 0
154 172 0
148 164 0
151 168 0
147 165 0
149 165 0
150 166 0
153 171 0
151 167 0
152 170 0
156 175 0
151 168 0
149 165 0
153 170 0
149 166 0
151 169 0
146 163 0
147 165 0
153 170 0
144 156 0
144 159 0
151 167 0
146 162 0
150 166 0
152 169 0
152 169 0
147 164 0
147 163 0
152 169 0
149 164 0
151 170 0
147 163 0
144 158 0
149 165 0
152 171 0
146 163 0
151 166 0
139 155 0
152 168 0
151 167 0
157 173 0
152 169 0
152 167 0
150 166 0
148 163 0
151 165 0
152 168 0
151 167 0
153 167 0
149 162 0
147 163 0
149 166 0
147 164 0
149 164 0
152 166 0
151 165 0
148 164 0
147 162 0
146 161 0
146 162 0
156 169 0
147 163 0
149 165 0
153 171 0
150 166 0
150 166 0
148 163 0
154 169 0
154 169 0
150 163 0
148 164 0
152 165 0
150 164 0
147 163 0
156 170 0
147 160 0
152 166 0
151 165 0
150 163 0
151 165 0
155 169 0
150 164 0
148 162 0
154 168 0
150 164 0
154 169 0
150 164 0
155 171 0
151 166 0
150 163 0
153 167 0
148 159 0
151 166 0
152 168 0
153 168 0
153 166 0
152 166 0
153 165 0
152 164 0
154 168 0
150 161 0
151 166 0
155 169 0
151 165 0
155 169 0
153 167 0
152 165 0
156 169 0
153 165 0
157 173 0
153 165 0
149 161 0
151 166 0
152 166 0
147 161 0
154 166 0
151 164 0
154 166 0
148 159 0
154 165 0
156 170 0
153 168 0
150 163 0
157 171 0
156 170 0
150 161 0
151 163 0
159 172 0
159 177 0
157 176 0
157 174 0
152 171 0
159 178 0
157 175 0
160 178 0
161 179 0
156 174 0
157 175 0
156 174 0
157 176 0
159 177 0
158 177 0
157 175 0
160 180 0
158 175 0
152 171 0
158 177 0
160 177 0
156 174 0
159 178 0
154 172 0
153 171 0
158 178 0
157 176 0
154 173 0
154 172 0
152 169 0
160 179 0
161 179 0
158 177 0
156 175 0
155 176 0
154 173 0
149 168 0
154 172 0
152 170 0
157 176 0
155 176 0
153 173 0
152 170 0
156 173 0
152 170 0
157 173 0
156 175 0
155 175 0
153 171 0
156 176 0
152 170 0
153 173 0
152 172 0
157 175 0
157 176 0
153 173 0
148 167 0
160 179 0
156 174 0
156 174 0
157 175 0
155 175 0
150 168 0
160 177 0
158 177 0
155 174 0
155 174 0
151 170 0
152 171 0
152 171 0
154 173 0
155 175 0
149 167 0
148 167 0
156 175 0
151 170 0
153 172 0
154 172 0
152 171 0
152 168 0
155 174 0
149 168 0
151 170 0
156 177 0
150 169 0
152 171 0
156 175 0
148 167 0
155 175 0
150 169 0
150 167 0
153 173 0
150 167 0
155 176 0
150 168 0
152 171 0
149 168 0
155 176 0
154 173 0
149 169 0
152 170 0
158 179 0
153 173 0
150 168 0
151 171 0
155 174 0
150 169 0
150 170 0
157 177 0
152 171 0
152 171 0
150 168 0
153 172 0
145 165 0
148 165 0
151 169 0
154 173 0
157 177 0
148 167 0
154 172 0
154 173 0
153 174 0
154 176 0
152 172 0
151 169 0
155 174 0
152 170 0
151 170 0
151 169 0
148 165 0
148 168 0
153 171 0
154 174 0
149 167 0
148 167 0
149 168 0
151 170 0
151 171 0
148 167 0
151 169 0
153 173 0
148 166 0
150 168 0
152 172 0
146 164 0
157 176 0
154 172 0
145 163 0
153 172 0
149 168 0
149 167 0
151 169 0
156 175 0
149 168 0
153 173 0
148 167 0
152 170 0
148 166 0
147 166 0
149 168 0
150 167 0
147 165 0
153 171 0
151 169 0
149 168 0
148 167 0
150 170 0
149 167 0
150 170 0
153 171 0
148 165 0
150 169 0
150 168 0
150 169 0
151 170 0
146 163 0
145 164 0
143 159 0
150 169 0
147 165 0
149 167 0
150 169 0
152 171 0
150 170 0
155 173 0
152 173 0
153 172 0
149 168 0
148 163 0
155 175 0
153 172 0
153 172 0
144 162 0
149 167 0
148 167 0
152 169 0
145 163 0
155 174 0
152 173 0
149 167 0
145 164 0
151 170 0
148 165 0
149 167 0
151 169 0
150 169 0
152 171 0
150 170 0
148 166 0
149 167 0
149 169 0
149 169 0
152 169 0
142 159 0
145 162 0
152 171 0
145 163 0
150 168 0
150 167 0
148 164 0
149 168 0
151 170 0
150 168 0
155 174 0
147 163 0
146 164 0
151 169 0
153 169 0
149 166 0
149 166 0
148 165 0
152 170 0
149 167 0
146 164 0
150 167 0
146 165 0
146 163 0
146 165 0
151 168 0
151 169 0
151 169 0
151 167 0
155 174 0
146 164 0
153 170 0
148 165 0
154 173 0
151 169 0
147 165 0
148 166 0
151 168 0
147 162 0
147 166 0
146 165 0
147 164 0
151 169 0
154 172 0
151 167 0
153 171 0
150 169 0
153 168 0
148 166 0
149 166 0
149 166 0
154 172 0
150 168 0
150 165 0
146 163 0
148 166 0
151 168 0
150 166 0
152 171 0
147 162 0
149 166 0
152 170 0
150 167 0
148 168 0
153 170 0
149 167 0
152 170 0
154 171 0
152 169 0
145 161 0
143 160 0
152 171 0
150 165 0
153 169 0
149 166 0
149 165 0
156 174 0
148 163 0
154 170 0
156 172 0
151 169 0
152 169 0
150 167 0
150 167 0
148 163 0
152 169 0
147 162 0
143 159 0
146 164 0
148 166 0
156 174 0
151 167 0
147 165 0
155 171 0
150 167 0
146 162 0
149 167 0
153 170 0
151 167 0
149 166 0
153 169 0
151 168 0
152 169 0
154 172 0
152 168 0
151 167 0
144 160 0
148 165 0
156 172 0
148 164 0
150 166 0
150 167 0
151 165 0
155 171 0
147 163 0
149 164 0
149 165 0
146 162 0
146 161 0
153 167 0
149 166 0
149 165 0
152 167 0
148 163 0
152 169 0
147 162 0
150 167 0
149 162 0
145 159 0
156 173 0
151 165 0
150 164 0
153 167 0
148 161 0
152 166 0
153 168 0
153 168 0
151 166 0
153 167 0
155 170 0
148 162 0
150 165 0
145 160 0
152 164 0
148 162 0
151 166 0
152 164 0
150 165 0
148 161 0
154 169 0
155 170 0
149 161 0
150 163 0
156 171 0
150 163 0
155 168 0
153 166 0
159 174 0
153 165 0
150 161 0
154 167 0
154 167 0
150 164 0
152 166 0
154 165 0
156 173 0
150 163 0
156 171 0
152 167 0
159 174 0
152 164 0
151 163 0
150 165 0
150 165 0
154 169 0
150 162 0
152 166 0
152 164 0
156 170 0
146 157 0
156 171 0
156 171 0
154 168 0
153 165 0
149 161 0
154 167 0
160 175 0
151 165 0
157 177 0
160 179 0
156 176 0
154 172 0
162 182 0
158 177 0
161 180 0
154 172 0
157 175 0
157 176 0
159 177 0
156 173 0
156 174 0
154 173 0
157 177 0
156 176 0
156 174 0
156 175 0
155 173 0
158 177 0
154 174 0
156 175 0
159 177 0
157 175 0
159 177 0
154 173 0
157 175 0
156 176 0
153 172 0
158 177 0
155 175 0
156 175 0
159 179 0
154 173 0
151 170 0
153 169 0
149 166 0
158 176 0
155 174 0
156 175 0
155 173 0
157 176 0
151 169 0
159 178 0
154 173 0
151 169 0
158 177 0
154 171 0
156 174 0
151 168 0
161 181 0
156 176 0
151 169 0
149 166 0
158 178 0
152 171 0
153 171 0
151 170 0
152 171 0
150 168 0
155 174 0
154 172 0
154 173 0
155 174 0
152 169 0
152 169 0
158 177 0
152 170 0
151 170 0
157 177 0
156 175 0
154 174 0
154 172 0
147 165 0
154 173 0
150 169 0
152 171 0
148 166 0
155 172 0
155 175 0
149 169 0
151 169 0
151 170 0
152 172 0
158 178 0
154 172 0
157 175 0
154 173 0
151 170 0
151 170 0
151 168 0
153 173 0
150 168 0
150 168 0
151 167 0
154 173 0
149 167 0
151 169 0
155 175 0
152 172 0
154 174 0
155 174 0
149 170 0
151 168 0
155 174 0
153 171 0
153 171 0
152 170 0
152 172 0
150 170 0
157 176 0
153 172 0
144 162 0
152 170 0
148 166 0
151 169 0
155 175 0
149 169 0
151 170 0
152 170 0
148 167 0
155 173 0
155 174 0
154 173 0
155 176 0
148 166 0
155 175 0
153 171 0
152 170 0
151 170 0
149 169 0
151 170 0
151 170 0
147 166 0
156 174 0
149 167 0
149 169 0
152 172 0
154 173 0
149 168 0
149 168 0
150 169 0
152 171 0
151 170 0
151 170 0
152 171 0
153 173 0
154 173 0
145 162 0
152 171 0
151 169 0
150 168 0
151 171 0
146 163 0
148 168 0
150 169 0
153 173 0
158 177 0
150 170 0
153 172 0
153 172 0
151 170 0
151 169 0
147 164 0
153 173 0
153 174 0
147 165 0
151 170 0
153 171 0
149 168 0
153 172 0
147 166 0
149 166 0
154 173 0
148 168 0
148 166 0
149 167 0
153 173 0
155 174 0
153 172 0
151 168 0
145 164 0
153 171 0
150 168 0
148 167 0
151 167 0
152 169 0
151 169 0
149 170 0
155 174 0
149 168 0
150 170 0
155 173 0
152 170 0
144 162 0
147 165 0
141 161 0
148 167 0
147 165 0
152 171 0
147 164 0
150 168 0
152 171 0
148 165 0
148 166 0
149 167 0
148 168 0
150 168 0
147 166 0
150 169 0
145 161 0
150 170 0
150 168 0
151 171 0
151 169 0
150 169 0
154 174 0
148 166 0
151 169 0
144 162 0
147 165 0
146 165 0
153 171 0
149 167 0
149 166 0
148 166 0
150 169 0
150 169 0
148 166 0
153 171 0
146 164 0
145 162 0
147 163 0
150 168 0
154 172 0
151 169 0
149 166 0
150 169 0
150 167 0
152 170 0
149 167 0
151 171 0
146 166 0
147 166 0
146 162 0
147 164 0
153 171 0
146 164 0
148 167 0
144 161 0
145 161 0
151 169 0
150 168 0
143 160 0
141 158 0
148 166 0
150 168 0
153 170 0
152 168 0
149 167 0
151 169 0
155 173 0
152 168 0
152 170 0
150 168 0
150 168 0
152 169 0
149 166 0
150 168 0
149 165 0
152 170 0
147 165 0
150 167 0
147 161 0
148 167 0
153 169 0
152 170 0
153 171 0
151 168 0
150 169 0
144 160 0
148 166 0
153 169 0
155 175 0
150 168 0
155 174 0
146 164 0
152 170 0
151 170 0
148 167 0
149 166 0
146 163 0
153 171 0
146 162 0
154 171 0
151 169 0
149 164 0
152 168 0
152 169 0
151 168 0
150 166 0
152 170 0
147 164 0
153 169 0
145 161 0
155 174 0
154 170 0
153 169 0
155 172 0
153 169 0
152 168 0
154 170 0
150 166 0
154 171 0
144 158 0
152 170 0
154 169 0
152 167 0
147 163 0
156 172 0
152 168 0
148 164 0
153 169 0
149 164 0
153 168 0
152 167 0
151 167 0
150 166 0
149 164 0
150 165 0
148 163 0
149 165 0
147 162 0
155 172 0
148 162 0
151 165 0
146 159 0
153 169 0
151 166 0
150 165 0
145 159 0
152 166 0
149 162 0
155 170 0
148 163 0
152 166 0
149 162 0
157 172 0
152 166 0
153 168 0
156 173 0
154 168 0
148 163 0
153 167 0
149 162 0
152 166 0
152 167 0
154 171 0
152 166 0
153 167 0
153 168 0
155 170 0
152 168 0
156 169 0
149 160 0
152 167 0
152 166 0
147 159 0
148 162 0
152 168 0
156 169 0
153 166 0
152 165 0
156 171 0
149 164 0
147 162 0
151 166 0
154 168 0
154 166 0
151 164 0
153 166 0
154 165 0
154 169 0
156 169 0
154 170 0
155 168 0
152 166 0
157 173 0
155 169 0
150 164 0
153 168 0
157 170 0
152 164 0
154 167 0
153 165 0
152 166 0
154 167 0
156 170 0
153 165 0
156 171 0
